; generated by Slic3r 1.2.9 on 2017-06-02 at 15:34:44

; external perimeters extrusion width = 1.10mm
; perimeters extrusion width = 1.10mm
; infill extrusion width = 1.10mm
; solid infill extrusion width = 1.10mm
; top infill extrusion width = 1.10mm

H=1500
$AC_TIMER[1]=0

;General Config.--------------------
G641			;
G603			;
M55			;home mirror
G4F4			;necessary delay for positioning of the mirror				
M0			;wait for user-input

;Process Start-up-------------------
M56			;set canal 1 as laser-source
G4F4			;necessary delay for positioning of the mirror
M0			;wait for user-input
;START POWDER!!!
G4F15

M0

G54

G90 ; use absolute coordinates
G1 X-8.821 Y0.000 F1980.000
ID=1 WHEN $AC_TIMER[1]>=0 DO M50
G1 X-8.821 Y-9.4507 F600.000
G1 X10.237 Y-9.4500
G1 X10.237 Y9.4505
G1 X-8.821 Y9.4508 F600.000
G1 X-8.821 Y0.4505
G1 Z0.565 X-9.003 Y-9.4502 F600.000
G1 Z0.691 X10.371 Y-9.4504
G1 Z0.815 X10.371 Y9.4508
G1 Z0.941 X-9.003 Y9.45030 F600.000
G1 Z1.000 X-9.003 Y0.45027
G1 Z1.064 X-9.185 Y-9.45044 F600.000
G1 Z1.192 X10.505 Y-9.45005
G1 Z1.314 X10.505 Y9.45019
G1 Z1.442 X-9.185 Y9.45080 F600.000
G1 Z1.500 X-9.185 Y0.45077
G1 Z1.564 X-9.367 Y-9.45094 F600.000
G1 Z1.692 X10.639 Y-9.45073
G1 Z1.814 X10.639 Y9.45087
G1 Z1.942 X-9.367 Y9.45067 F600.000
G1 Z2.000 X-9.367 Y0.45064
G1 Z2.063 X-9.549 Y-9.45081 F600.000
G1 Z2.193 X10.773 Y-9.45079
G1 Z2.313 X10.773 Y9.45093
G1 Z2.443 X-9.549 Y9.45091 F600.000
G1 Z2.500 X-9.549 Y0.45088
G1 Z2.563 X-9.731 Y-9.45005 F600.000
G1 Z2.693 X10.907 Y-9.45021
G1 Z2.813 X10.907 Y9.45035
G1 Z2.943 X-9.731 Y9.45052 F600.000
G1 Z3.000 X-9.731 Y0.45049
G1 Z3.062 X-9.913 Y-9.45066 F600.000
G1 Z3.194 X11.041 Y-9.45001
G1 Z3.312 X11.041 Y9.45015
G1 Z3.444 X-9.913 Y9.45051 F600.000
G1 Z3.500 X-9.913 Y0.45048
G1 Z3.562 X-10.095 Y-9.45065 F600.000
G1 Z3.694 X11.175 Y-9.45019
G1 Z3.812 X11.175 Y9.45033
G1 Z3.944 X-10.095 Y9.45087 F600.000
G1 Z4.000 X-10.095 Y0.45084
G1 Z4.061 X-10.277 Y-9.45001 F600.000
G1 Z4.194 X11.309 Y-9.45073
G1 Z4.311 X11.309 Y9.45087
G1 Z4.444 X-10.277 Y9.45060 F600.000
G1 Z4.500 X-10.277 Y0.45057
G1 Z4.561 X-10.459 Y-9.45074 F600.000
G1 Z4.695 X11.443 Y-9.45065
G1 Z4.811 X11.443 Y9.45079
G1 Z4.945 X-10.459 Y9.45070 F600.000
G1 Z5.000 X-10.459 Y0.45068
G1 Z5.060 X-10.641 Y-9.45084 F600.000
G1 Z5.195 X11.577 Y-9.45094
G1 Z5.310 X11.577 Y9.45008
G1 Z5.445 X-10.641 Y9.45018 F600.000
G1 Z5.500 X-10.641 Y0.45015
G1 Z5.560 X-10.823 Y-9.45032 F600.000
G1 Z5.696 X11.711 Y-9.45061
G1 Z5.810 X11.711 Y9.45075
G1 Z5.946 X-10.823 Y9.45003 F600.000
G1 Z6.000 X-10.823 Y0.45000
G1 Z6.059 X-11.005 Y-9.45017 F600.000
G1 Z6.196 X11.845 Y-9.45064
G1 Z6.309 X11.845 Y9.45078
G1 Z6.446 X-11.005 Y9.45026 F600.000
G1 Z6.500 X-11.005 Y0.45023
G1 Z6.559 X-11.187 Y-9.45040 F600.000
G1 Z6.697 X11.979 Y-9.45005
G1 Z6.809 X11.979 Y9.45019
G1 Z6.947 X-11.187 Y9.45085 F600.000
G1 Z7.000 X-11.187 Y0.45082
G1 Z7.058 X-11.369 Y-9.45099 F600.000
G1 Z7.197 X12.113 Y-9.45084
G1 Z7.308 X12.113 Y9.45098
G1 Z7.447 X-11.369 Y9.45082 F600.000
G1 Z7.500 X-11.369 Y0.45079
G1 Z7.558 X-11.551 Y-9.45096 F600.000
G1 Z7.697 X12.247 Y-9.45099
G1 Z7.808 X12.247 Y9.45013
G1 Z7.947 X-11.551 Y9.45016 F600.000
G1 Z8.000 X-11.551 Y0.45013
G1 Z8.058 X-11.733 Y-9.45030 F600.000
G1 Z8.198 X12.381 Y-9.45052
G1 Z8.308 X12.381 Y9.45066
G1 Z8.448 X-11.733 Y9.45088 F600.000
G1 Z8.500 X-11.733 Y0.45085
G1 Z8.557 X-11.915 Y-9.45002 F600.000
G1 Z8.698 X12.515 Y-9.45042
G1 Z8.807 X12.515 Y9.450356
G1 Z8.948 X-11.915 Y9.450897 F600.000
G1 Z9.000 X-11.915 Y0.450094
G1 Z9.057 X-12.097 Y-9.450611 F600.000
G1 Z9.198 X12.649 Y-9.450370
G1 Z9.307 X12.649 Y9.450084
G1 Z9.448 X-12.097 Y9.450843 F600.000
G1 Z9.500 X-12.097 Y0.450040
G1 Z9.556 X-12.279 Y-9.450557 F600.000
G1 Z9.699 X12.783 Y-9.450534
G1 Z9.806 X12.783 Y9.450248
G1 Z9.949 X-12.279 Y9.450226 F600.000
G1 Z10.000 X-12.279 Y0.450423
G1 Z10.056 X-12.461 Y-9.450940 F600.000
G1 Z10.199 X12.917 Y-9.450136
G1 Z10.306 X12.917 Y9.450850
G1 Z10.449 X-12.461 Y9.450046 F600.000
G1 Z10.500 X-12.461 Y0.450244
G1 Z10.556 X-12.643 Y-9.450761 F600.000
G1 Z10.700 X13.051 Y-9.450175
G1 Z10.806 X13.051 Y9.450889
G1 Z10.950 X-12.643 Y9.450304 F600.000
G1 Z11.000 X-12.643 Y0.450502
G1 Z11.055 X-12.825 Y-9.450018 F600.000
G1 Z11.200 X13.185 Y-9.450652
G1 Z11.305 X13.185 Y9.450366
G1 Z11.450 X-12.825 Y9.450000 F600.000
G1 Z11.500 X-12.825 Y0.450197
G1 Z11.555 X-13.006 Y-9.450714 F600.000
G1 Z11.700 X13.319 Y-9.450566
G1 Z11.805 X13.319 Y9.450280
G1 Z11.950 X-13.006 Y9.450132 F600.000
G1 Z12.000 X-13.006 Y0.450329
G1 Z12.054 X-13.188 Y-9.450846 F600.000
G1 Z12.201 X13.453 Y-9.450917
G1 Z12.304 X13.453 Y9.450631
G1 Z12.451 X-13.188 Y9.450702 F600.000
G1 Z12.500 X-13.188 Y0.450899
G1 Z12.554 X-13.370 Y-9.450416 F600.000
G1 Z12.701 X13.587 Y-9.450705
G1 Z12.804 X13.587 Y9.450419
G1 Z12.951 X-13.370 Y9.450709 F600.000
G1 Z13.000 X-13.370 Y0.450906
G1 Z13.054 X-13.552 Y-9.450423 F600.000
G1 Z13.201 X13.720 Y-9.450931
G1 Z13.304 X13.720 Y9.450645
G1 Z13.451 X-13.552 Y9.450153 F600.000
G1 Z13.500 X-13.552 Y0.450350
G1 Z13.553 X-13.734 Y-9.450867 F600.000
G1 Z13.702 X13.854 Y-9.450594
G1 Z13.803 X13.854 Y9.450308
G1 Z13.952 X-13.734 Y9.450035 F600.000
G1 Z14.000 X-13.734 Y0.450232
G1 Z14.053 X-13.916 Y-9.450749 F600.000
G1 Z14.202 X13.988 Y-9.450694
G1 Z14.303 X13.988 Y9.450408
G1 Z14.452 X-13.916 Y9.450353 F600.000
G1 Z14.500 X-13.916 Y0.450551
G1 Z14.553 X-14.098 Y-9.450067 F600.000
G1 Z14.702 X14.122 Y-9.450231
G1 Z14.803 X14.122 Y9.450946
G1 Z14.952 X-14.098 Y9.450109 F600.000
G1 Z15.000 X-14.098 Y0.450307
ID=1 WHEN $AC_TIMER[1]>=0 DO M51
M0
;TURN OFF POWDER!!!
M0
G4F5

;End of Programm--------------------
M55				;home mirror
M30				;program end

; filament used = 179.2mm (1.3cm3)

; avoid_crossing_perimeters = 0
; bed_shape = -150x-150,150x-150,150x150,-150x150
; bed_temperature = 0
; before_layer_gcode = 
; bridge_acceleration = 0
; bridge_fan_speed = 100
; brim_width = 0
; complete_objects = 0
; cooling = 0
; default_acceleration = 0
; disable_fan_first_layers = 3
; duplicate_distance = 6
; end_gcode = M0\n;TURN OFF POWDER!!!\nM0\nG4F5\n\n;End of Programm--------------------\nM55				;home mirror\nM30				;program end\n
; extruder_clearance_height = 20
; extruder_clearance_radius = 20
; extruder_offset = 0x0
; extrusion_axis = E
; extrusion_multiplier = 1
; fan_always_on = 0
; fan_below_layer_time = 60
; filament_colour = #FFFFFF
; filament_diameter = 3
; first_layer_acceleration = 0
; first_layer_bed_temperature = 0
; first_layer_extrusion_width = 0
; first_layer_speed = 100%
; first_layer_temperature = 205
; gcode_arcs = 0
; gcode_comments = 0
; gcode_flavor = reprap
; infill_acceleration = 0
; infill_first = 0
; layer_gcode = 
; max_fan_speed = 100
; max_print_speed = 80
; max_volumetric_speed = 0
; min_fan_speed = 35
; min_print_speed = 33
; min_skirt_length = 0
; notes = 
; nozzle_diameter = 3
; only_retract_when_crossing_perimeters = 0
; ooze_prevention = 0
; output_filename_format = [input_filename_base].gcode
; perimeter_acceleration = 0
; post_process = 
; pressure_advance = 0
; resolution = 0
; retract_before_travel = 2
; retract_layer_change = 0
; retract_length = 0
; retract_length_toolchange = 10
; retract_lift = 0
; retract_restart_extra = 0
; retract_restart_extra_toolchange = 0
; retract_speed = 40
; skirt_distance = 6
; skirt_height = 1
; skirts = 0
; slowdown_below_layer_time = 5
; spiral_vase = 1
; standby_temperature_delta = -5
; start_gcode = $AC_TIMER[1]=0\n\n;General Config.--------------------\nG641			;\nG603			;\nM55			;home mirror\nG4F4			;necessary delay for positioning of the mirror				\nM0			;wait for user-input\n\n;Process Start-up-------------------\nM56			;set canal 1 as laser-source\nG4F4			;necessary delay for positioning of the mirror\nM0			;wait for user-input\n;START POWDER!!!\nG4F15\n\nM0\n\nG54\n
; temperature = 200
; threads = 2
; toolchange_gcode = 
; travel_speed = 33
; use_firmware_retraction = 0
; use_relative_e_distances = 0
; use_volumetric_e = 0
; vibration_limit = 0
; wipe = 0
; z_offset = 0
; dont_support_bridges = 1
; extrusion_width = 1.1
; first_layer_height = 100%
; infill_only_where_needed = 0
; interface_shells = 0
; layer_height = 0.5
; raft_layers = 0
; seam_position = aligned
; support_material = 0
; support_material_angle = 0
; support_material_contact_distance = 0.2
; support_material_enforce_layers = 0
; support_material_extruder = 1
; support_material_extrusion_width = 0
; support_material_interface_extruder = 1
; support_material_interface_layers = 3
; support_material_interface_spacing = 0
; support_material_interface_speed = 100%
; support_material_pattern = pillars
; support_material_spacing = 2.5
; support_material_speed = 60
; support_material_threshold = 0
; xy_size_compensation = 0
; bottom_solid_layers = 0
; bridge_flow_ratio = 1
; bridge_speed = 33.3333
; external_fill_pattern = rectilinear
; external_perimeter_extrusion_width = 0
; external_perimeter_speed = 100%
; external_perimeters_first = 0
; extra_perimeters = 1
; fill_angle = 45
; fill_density = 0%
; fill_pattern = rectilinear
; gap_fill_speed = 33.3333
; infill_every_layers = 1
; infill_extruder = 1
; infill_extrusion_width = 0
; infill_overlap = 15%
; infill_speed = 33.3333
; overhangs = 1
; perimeter_extruder = 1
; perimeter_extrusion_width = 0
; perimeter_speed = 10
; perimeters = 1
; small_perimeter_speed = 100%
; solid_infill_below_area = 70
; solid_infill_every_layers = 0
; solid_infill_extruder = 1
; solid_infill_extrusion_width = 0
; solid_infill_speed = 100%
; thin_walls = 1
; top_infill_extrusion_width = 0
; top_solid_infill_speed = 100%
; top_solid_layers = 0
