; generated by Slic3r 1.2.9 on 2017-06-01 at 10:56:18

; external perimeters extrusion width = 1.10mm
; perimeters extrusion width = 1.10mm
; infill extrusion width = 1.10mm
; solid infill extrusion width = 1.10mm
; top infill extrusion width = 1.10mm

H=1500
$AC_TIMER[1]=0

;General Config.--------------------
G641			;
G603			;
M55			;home mirror
G4F4			;necessary delay for positioning of the mirror				
M0			;wait for user-input

;Process Start-up-------------------
M56			;set canal 1 as laser-source
G4F4			;necessary delay for positioning of the mirror
M0			;wait for user-input
;START POWDER!!!
G4F15

M0

G54

G90 ; use absolute coordinates
G1 X0.000 Y8.618 F1980.000
ID=1 WHEN $AC_TIMER[1]>=0 DO M50
G1 X-9.450 Y8.6187 F600.000
G1 X-9.450 Y-10.6673
G1 X9.450 Y-10.6677
G1 X9.450 Y8.6184
G1 X0.450 Y8.6181 F600.000
G1 Z0.564 X-9.450 Y9.0388 F600.000
G1 Z0.692 X-9.450 Y-11.0179
G1 Z0.814 X9.450 Y-11.0173
G1 Z0.942 X9.450 Y9.03873
G1 Z1.000 X0.450 Y9.03871 F600.000
G1 Z1.062 X-9.450 Y9.45787 F600.000
G1 Z1.193 X-9.450 Y-11.36713
G1 Z1.312 X9.450 Y-11.36727
G1 Z1.443 X9.450 Y9.45752
G1 Z1.500 X0.450 Y9.45749 F600.000
G1 Z1.561 X-9.450 Y9.87766 F600.000
G1 Z1.694 X-9.450 Y-11.71796
G1 Z1.811 X9.450 Y-11.71710
G1 Z1.944 X9.450 Y9.87739
G1 Z2.000 X0.450 Y9.87736 F600.000
G1 Z2.060 X-9.450 Y10.29653 F600.000
G1 Z2.195 X-9.450 Y-12.06787
G1 Z2.310 X9.450 Y-12.06702
G1 Z2.445 X9.450 Y10.29636
G1 Z2.500 X0.450 Y10.29633 F600.000
G1 Z2.559 X-9.450 Y10.71650 F600.000
G1 Z2.696 X-9.450 Y-12.41788
G1 Z2.809 X9.450 Y-12.41702
G1 Z2.946 X9.450 Y10.71641
G1 Z3.000 X0.450 Y10.71638 F600.000
G1 Z3.058 X-9.450 Y11.13555 F600.000
G1 Z3.197 X-9.450 Y-12.76798
G1 Z3.308 X9.450 Y-12.76712
G1 Z3.447 X9.450 Y11.13555
G1 Z3.500 X0.450 Y11.13552 F600.000
G1 Z3.557 X-9.450 Y11.55569 F600.000
G1 Z3.698 X-9.450 Y-13.11716
G1 Z3.807 X9.450 Y-13.11730
G1 Z3.948 X9.450 Y11.55578
G1 Z4.000 X0.450 Y11.55575 F600.000
G1 Z4.056 X-9.450 Y11.97492 F600.000
G1 Z4.199 X-9.450 Y-13.46844
G1 Z4.306 X9.450 Y-13.46858
G1 Z4.449 X9.450 Y11.97409
G1 Z4.500 X0.450 Y11.97407 F600.000
G1 Z4.555 X-9.450 Y12.39424 F600.000
G1 Z4.700 X-9.450 Y-13.81880
G1 Z4.805 X9.450 Y-13.81894
G1 Z4.950 X9.450 Y12.39450
G1 Z5.000 X0.450 Y12.39447 F600.000
G1 Z5.054 X-9.450 Y12.81464 F600.000
G1 Z5.201 X-9.450 Y-14.16825
G1 Z5.304 X9.450 Y-14.16839
G1 Z5.451 X9.450 Y12.81400
G1 Z5.500 X0.450 Y12.81497 F600.000
G1 Z5.553 X-9.450 Y13.23314 F600.000
G1 Z5.702 X-9.450 Y-14.51879
G1 Z5.803 X9.450 Y-14.51893
G1 Z5.952 X9.450 Y13.23358
G1 Z6.000 X0.450 Y13.23355 F600.000
G1 Z6.052 X-9.450 Y13.65372 F600.000
G1 Z6.203 X-9.450 Y-14.86842
G1 Z6.302 X9.450 Y-14.86856
G1 Z6.453 X9.450 Y13.65325
G1 Z6.500 X0.450 Y13.65323 F600.000
G1 Z6.551 X-9.450 Y14.07239 F600.000
G1 Z6.703 X-9.450 Y-15.21813
G1 Z6.801 X9.450 Y-15.21828
G1 Z6.953 X9.450 Y14.07202
G1 Z7.000 X0.450 Y14.07299 F600.000
G1 Z7.051 X-9.450 Y14.49216 F600.000
G1 Z7.204 X-9.450 Y-15.56894
G1 Z7.301 X9.450 Y-15.56808
G1 Z7.454 X9.450 Y14.49287
G1 Z7.500 X0.450 Y14.49284 F600.000
G1 Z7.550 X-9.450 Y14.91101 F600.000
G1 Z7.705 X-9.450 Y-15.91884
G1 Z7.800 X9.450 Y-15.91898
G1 Z7.955 X9.450 Y14.91181
G1 Z8.000 X0.450 Y14.91178 F600.000
G1 Z8.049 X-9.450 Y15.33195 F600.000
G1 Z8.205 X-9.450 Y-16.268482
G1 Z8.299 X9.450 Y-16.268196
G1 Z8.455 X9.450 Y15.331083
G1 Z8.500 X0.450 Y15.331281 F600.000
G1 Z8.548 X-9.450 Y15.750797 F600.000
G1 Z8.706 X-9.450 Y-16.619089
G1 Z8.798 X9.450 Y-16.619803
G1 Z8.956 X9.450 Y15.750095
G1 Z9.000 X0.450 Y15.750292 F600.000
G1 Z9.048 X-9.450 Y16.170809 F600.000
G1 Z9.207 X-9.450 Y-16.969505
G1 Z9.298 X9.450 Y-16.969219
G1 Z9.457 X9.450 Y16.170916
G1 Z9.500 X0.450 Y16.170113 F600.000
G1 Z9.547 X-9.450 Y16.590630 F600.000
G1 Z9.707 X-9.450 Y-17.319730
G1 Z9.797 X9.450 Y-17.319444
G1 Z9.957 X9.450 Y16.590545
G1 Z10.000 X0.450 Y16.590742 F600.000
G1 Z10.046 X-9.450 Y17.009259 F600.000
G1 Z10.208 X-9.450 Y-17.669764
G1 Z10.296 X9.450 Y-17.669478
G1 Z10.458 X9.450 Y17.009983
G1 Z10.500 X0.450 Y17.009181 F600.000
G1 Z10.546 X-9.450 Y17.429697 F600.000
G1 Z10.709 X-9.450 Y-18.019607
G1 Z10.796 X9.450 Y-18.019321
G1 Z10.959 X9.450 Y17.429231
G1 Z11.000 X0.450 Y17.429428 F600.000
G1 Z11.045 X-9.450 Y17.848945 F600.000
G1 Z11.209 X-9.450 Y-18.369259
G1 Z11.295 X9.450 Y-18.369973
G1 Z11.459 X9.450 Y17.848287
G1 Z11.500 X0.450 Y17.848484 F600.000
G1 Z11.544 X-9.450 Y18.268001 F600.000
G1 Z11.710 X-9.450 Y-18.719719
G1 Z11.794 X9.450 Y-18.719433
G1 Z11.960 X9.450 Y18.268152
G1 Z12.000 X0.450 Y18.268349 F600.000
G1 Z12.044 X-9.450 Y18.687866 F600.000
G1 Z12.210 X-9.450 Y-19.069988
G1 Z12.294 X9.450 Y-19.069703
G1 Z12.460 X9.450 Y18.687825
G1 Z12.500 X0.450 Y18.687023 F600.000
G1 Z12.543 X-9.450 Y19.107539 F600.000
G1 Z12.711 X-9.450 Y-19.419067
G1 Z12.793 X9.450 Y-19.419781
G1 Z12.961 X9.450 Y19.107308
G1 Z13.000 X0.450 Y19.107505 F600.000
G1 Z13.043 X-9.450 Y19.526022 F600.000
G1 Z13.211 X-9.450 Y-19.769954
G1 Z13.293 X9.450 Y-19.769668
G1 Z13.461 X9.450 Y19.526600
G1 Z13.500 X0.450 Y19.526797 F600.000
G1 Z13.542 X-9.450 Y19.946314 F600.000
G1 Z13.712 X-9.450 Y-20.120650
G1 Z13.792 X9.450 Y-20.120364
G1 Z13.962 X9.450 Y19.946700
G1 Z14.000 X0.450 Y19.946897 F600.000
G1 Z14.041 X-9.450 Y20.365414 F600.000
G1 Z14.212 X-9.450 Y-20.470155
G1 Z14.291 X9.450 Y-20.470869
G1 Z14.462 X9.450 Y20.365609
G1 Z14.500 X0.450 Y20.365807 F600.000
G1 Z14.541 X-9.450 Y20.785323 F600.000
G1 Z14.713 X-9.450 Y-20.820468
G1 Z14.791 X9.450 Y-20.820183
G1 Z14.963 X9.450 Y20.785328
G1 Z15.000 X0.450 Y20.785525 F600.000
ID=1 WHEN $AC_TIMER[1]>=0 DO M51
M0
;TURN OFF POWDER!!!
M0
G4F5

;End of Programm--------------------
M55				;home mirror
M30				;program end

; filament used = 207.9mm (1.5cm3)

; avoid_crossing_perimeters = 0
; bed_shape = -150x-150,150x-150,150x150,-150x150
; bed_temperature = 0
; before_layer_gcode = 
; bridge_acceleration = 0
; bridge_fan_speed = 100
; brim_width = 0
; complete_objects = 0
; cooling = 0
; default_acceleration = 0
; disable_fan_first_layers = 3
; duplicate_distance = 6
; end_gcode = M0\n;TURN OFF POWDER!!!\nM0\nG4F5\n\n;End of Programm--------------------\nM55				;home mirror\nM30				;program end\n
; extruder_clearance_height = 20
; extruder_clearance_radius = 20
; extruder_offset = 0x0
; extrusion_axis = E
; extrusion_multiplier = 1
; fan_always_on = 0
; fan_below_layer_time = 60
; filament_colour = #FFFFFF
; filament_diameter = 3
; first_layer_acceleration = 0
; first_layer_bed_temperature = 0
; first_layer_extrusion_width = 0
; first_layer_speed = 100%
; first_layer_temperature = 205
; gcode_arcs = 0
; gcode_comments = 0
; gcode_flavor = reprap
; infill_acceleration = 0
; infill_first = 0
; layer_gcode = 
; max_fan_speed = 100
; max_print_speed = 80
; max_volumetric_speed = 0
; min_fan_speed = 35
; min_print_speed = 33
; min_skirt_length = 0
; notes = 
; nozzle_diameter = 3
; only_retract_when_crossing_perimeters = 0
; ooze_prevention = 0
; output_filename_format = [input_filename_base].gcode
; perimeter_acceleration = 0
; post_process = 
; pressure_advance = 0
; resolution = 0
; retract_before_travel = 2
; retract_layer_change = 0
; retract_length = 0
; retract_length_toolchange = 10
; retract_lift = 0
; retract_restart_extra = 0
; retract_restart_extra_toolchange = 0
; retract_speed = 40
; skirt_distance = 6
; skirt_height = 1
; skirts = 0
; slowdown_below_layer_time = 5
; spiral_vase = 1
; standby_temperature_delta = -5
; start_gcode = $AC_TIMER[1]=0\n\n;General Config.--------------------\nG641			;\nG603			;\nM55			;home mirror\nG4F4			;necessary delay for positioning of the mirror				\nM0			;wait for user-input\n\n;Process Start-up-------------------\nM56			;set canal 1 as laser-source\nG4F4			;necessary delay for positioning of the mirror\nM0			;wait for user-input\n;START POWDER!!!\nG4F15\n\nM0\n\nG54\n
; temperature = 200
; threads = 2
; toolchange_gcode = 
; travel_speed = 33
; use_firmware_retraction = 0
; use_relative_e_distances = 0
; use_volumetric_e = 0
; vibration_limit = 0
; wipe = 0
; z_offset = 0
; dont_support_bridges = 1
; extrusion_width = 1.1
; first_layer_height = 100%
; infill_only_where_needed = 0
; interface_shells = 0
; layer_height = 0.5
; raft_layers = 0
; seam_position = aligned
; support_material = 0
; support_material_angle = 0
; support_material_contact_distance = 0.2
; support_material_enforce_layers = 0
; support_material_extruder = 1
; support_material_extrusion_width = 0
; support_material_interface_extruder = 1
; support_material_interface_layers = 3
; support_material_interface_spacing = 0
; support_material_interface_speed = 100%
; support_material_pattern = pillars
; support_material_spacing = 2.5
; support_material_speed = 60
; support_material_threshold = 0
; xy_size_compensation = 0
; bottom_solid_layers = 0
; bridge_flow_ratio = 1
; bridge_speed = 33.3333
; external_fill_pattern = rectilinear
; external_perimeter_extrusion_width = 0
; external_perimeter_speed = 100%
; external_perimeters_first = 0
; extra_perimeters = 1
; fill_angle = 45
; fill_density = 0%
; fill_pattern = rectilinear
; gap_fill_speed = 33.3333
; infill_every_layers = 1
; infill_extruder = 1
; infill_extrusion_width = 0
; infill_overlap = 15%
; infill_speed = 33.3333
; overhangs = 1
; perimeter_extruder = 1
; perimeter_extrusion_width = 0
; perimeter_speed = 10
; perimeters = 1
; small_perimeter_speed = 100%
; solid_infill_below_area = 70
; solid_infill_every_layers = 0
; solid_infill_extruder = 1
; solid_infill_extrusion_width = 0
; solid_infill_speed = 100%
; thin_walls = 1
; top_infill_extrusion_width = 0
; top_solid_infill_speed = 100%
; top_solid_layers = 0
