; generated by Slic3r 1.2.9 on 2017-06-05 at 17:13:11

; external perimeters extrusion width = 1.10mm
; perimeters extrusion width = 1.10mm
; infill extrusion width = 1.10mm
; solid infill extrusion width = 1.10mm
; top infill extrusion width = 1.10mm

H=1500
$AC_TIMER[1]=0

;General Config.--------------------
G641			;
G603			;
M55			;home mirror
G4F4			;necessary delay for positioning of the mirror				
M0			;wait for user-input

;Process Start-up-------------------
M56			;set canal 1 as laser-source
G4F4			;necessary delay for positioning of the mirror
M0			;wait for user-input
;START POWDER!!!
G4F15

M0

G54

G90 ; use absolute coordinates
G1 X0.000 Y-8.618 F1980.000
ID=1 WHEN $AC_TIMER[1]>=0 DO M50
G1 X9.450 Y-8.6187 F600.000
G1 X9.450 Y10.6673
G1 X-9.450 Y10.6677 F600.000
G1 X-9.450 Y-8.6184
G1 X-0.450 Y-8.6181
G1 Z0.564 X9.450 Y-9.0388 F600.000
G1 Z0.692 X9.450 Y11.0179
G1 Z0.814 X-9.450 Y11.0173 F600.000
G1 Z0.942 X-9.450 Y-9.03873
G1 Z1.000 X-0.450 Y-9.03871
G1 Z1.062 X9.450 Y-9.45787 F600.000
G1 Z1.193 X9.450 Y11.36713
G1 Z1.312 X-9.450 Y11.36727 F600.000
G1 Z1.443 X-9.450 Y-9.45752
G1 Z1.500 X-0.450 Y-9.45749
G1 Z1.561 X9.450 Y-9.87766 F600.000
G1 Z1.694 X9.450 Y11.71796
G1 Z1.811 X-9.450 Y11.71710 F600.000
G1 Z1.944 X-9.450 Y-9.87739
G1 Z2.000 X-0.450 Y-9.87737
G1 Z2.060 X9.450 Y-10.29653 F600.000
G1 Z2.195 X9.450 Y12.06788
G1 Z2.310 X-9.450 Y12.06702 F600.000
G1 Z2.445 X-9.450 Y-10.29636
G1 Z2.500 X-0.450 Y-10.29633
G1 Z2.559 X9.450 Y-10.71650 F600.000
G1 Z2.696 X9.450 Y12.41788
G1 Z2.809 X-9.450 Y12.41702 F600.000
G1 Z2.946 X-9.450 Y-10.71641
G1 Z3.000 X-0.450 Y-10.71638
G1 Z3.058 X9.450 Y-11.13555 F600.000
G1 Z3.197 X9.450 Y12.76798
G1 Z3.308 X-9.450 Y12.76712 F600.000
G1 Z3.447 X-9.450 Y-11.13555
G1 Z3.500 X-0.450 Y-11.13552
G1 Z3.557 X9.450 Y-11.55569 F600.000
G1 Z3.698 X9.450 Y13.11716
G1 Z3.807 X-9.450 Y13.11730 F600.000
G1 Z3.948 X-9.450 Y-11.55578
G1 Z4.000 X-0.450 Y-11.55575
G1 Z4.056 X9.450 Y-11.97492 F600.000
G1 Z4.199 X9.450 Y13.46844
G1 Z4.306 X-9.450 Y13.46858 F600.000
G1 Z4.449 X-9.450 Y-11.97410
G1 Z4.500 X-0.450 Y-11.97407
G1 Z4.555 X9.450 Y-12.39424 F600.000
G1 Z4.700 X9.450 Y13.81880
G1 Z4.805 X-9.450 Y13.81894 F600.000
G1 Z4.950 X-9.450 Y-12.39450
G1 Z5.000 X-0.450 Y-12.39447
G1 Z5.054 X9.450 Y-12.81464 F600.000
G1 Z5.201 X9.450 Y14.16825
G1 Z5.304 X-9.450 Y14.16839 F600.000
G1 Z5.451 X-9.450 Y-12.81400
G1 Z5.500 X-0.450 Y-12.81497
G1 Z5.553 X9.450 Y-13.23314 F600.000
G1 Z5.702 X9.450 Y14.51879
G1 Z5.803 X-9.450 Y14.51893 F600.000
G1 Z5.952 X-9.450 Y-13.23358
G1 Z6.000 X-0.450 Y-13.23355
G1 Z6.052 X9.450 Y-13.65372 F600.000
G1 Z6.203 X9.450 Y14.86842
G1 Z6.302 X-9.450 Y14.86856 F600.000
G1 Z6.453 X-9.450 Y-13.65326
G1 Z6.500 X-0.450 Y-13.65323
G1 Z6.551 X9.450 Y-14.07240 F600.000
G1 Z6.703 X9.450 Y15.21814
G1 Z6.801 X-9.450 Y15.21828 F600.000
G1 Z6.953 X-9.450 Y-14.07202
G1 Z7.000 X-0.450 Y-14.07299
G1 Z7.051 X9.450 Y-14.49216 F600.000
G1 Z7.204 X9.450 Y15.56894
G1 Z7.301 X-9.450 Y15.56808 F600.000
G1 Z7.454 X-9.450 Y-14.49287
G1 Z7.500 X-0.450 Y-14.49284
G1 Z7.550 X9.450 Y-14.91101 F600.000
G1 Z7.705 X9.450 Y15.91884
G1 Z7.800 X-9.450 Y15.91898 F600.000
G1 Z7.955 X-9.450 Y-14.91181
G1 Z8.000 X-0.450 Y-14.91178
G1 Z8.049 X9.450 Y-15.33195 F600.000
G1 Z8.205 X9.450 Y16.268482
G1 Z8.299 X-9.450 Y16.268196 F600.000
G1 Z8.455 X-9.450 Y-15.331084
G1 Z8.500 X-0.450 Y-15.331281
G1 Z8.548 X9.450 Y-15.750798 F600.000
G1 Z8.706 X9.450 Y16.619089
G1 Z8.798 X-9.450 Y16.619803 F600.000
G1 Z8.956 X-9.450 Y-15.750095
G1 Z9.000 X-0.450 Y-15.750292
G1 Z9.048 X9.450 Y-16.170809 F600.000
G1 Z9.207 X9.450 Y16.969505
G1 Z9.298 X-9.450 Y16.969220 F600.000
G1 Z9.457 X-9.450 Y-16.170916
G1 Z9.500 X-0.450 Y-16.170113
G1 Z9.547 X9.450 Y-16.590630 F600.000
G1 Z9.707 X9.450 Y17.319730
G1 Z9.797 X-9.450 Y17.319445 F600.000
G1 Z9.957 X-9.450 Y-16.590545
G1 Z10.000 X-0.450 Y-16.590742
G1 Z10.046 X9.450 Y-17.009259 F600.000
G1 Z10.208 X9.450 Y17.669764
G1 Z10.296 X-9.450 Y17.669478 F600.000
G1 Z10.458 X-9.450 Y-17.009984
G1 Z10.500 X-0.450 Y-17.009181
G1 Z10.546 X9.450 Y-17.429698 F600.000
G1 Z10.709 X9.450 Y18.019607
G1 Z10.796 X-9.450 Y18.019321 F600.000
G1 Z10.959 X-9.450 Y-17.429231
G1 Z11.000 X-0.450 Y-17.429428
G1 Z11.045 X9.450 Y-17.848945 F600.000
G1 Z11.209 X9.450 Y18.369259
G1 Z11.295 X-9.450 Y18.369973 F600.000
G1 Z11.459 X-9.450 Y-17.848287
G1 Z11.500 X-0.450 Y-17.848484
G1 Z11.544 X9.450 Y-18.268001 F600.000
G1 Z11.710 X9.450 Y18.719719
G1 Z11.794 X-9.450 Y18.719433 F600.000
G1 Z11.960 X-9.450 Y-18.268152
G1 Z12.000 X-0.450 Y-18.268349
G1 Z12.044 X9.450 Y-18.687866 F600.000
G1 Z12.210 X9.450 Y19.069989
G1 Z12.294 X-9.450 Y19.069703 F600.000
G1 Z12.460 X-9.450 Y-18.687826
G1 Z12.500 X-0.450 Y-18.687023
G1 Z12.543 X9.450 Y-19.107540 F600.000
G1 Z12.711 X9.450 Y19.419067
G1 Z12.793 X-9.450 Y19.419781 F600.000
G1 Z12.961 X-9.450 Y-19.107308
G1 Z13.000 X-0.450 Y-19.107505
G1 Z13.043 X9.450 Y-19.526022 F600.000
G1 Z13.211 X9.450 Y19.769954
G1 Z13.293 X-9.450 Y19.769668 F600.000
G1 Z13.461 X-9.450 Y-19.526600
G1 Z13.500 X-0.450 Y-19.526797
G1 Z13.542 X9.450 Y-19.946314 F600.000
G1 Z13.712 X9.450 Y20.120650
G1 Z13.792 X-9.450 Y20.120364 F600.000
G1 Z13.962 X-9.450 Y-19.946700
G1 Z14.000 X-0.450 Y-19.946897
G1 Z14.041 X9.450 Y-20.365414 F600.000
G1 Z14.212 X9.450 Y20.470155
G1 Z14.291 X-9.450 Y20.470869 F600.000
G1 Z14.462 X-9.450 Y-20.365610
G1 Z14.500 X-0.450 Y-20.365807
G1 Z14.541 X9.450 Y-20.785324 F600.000
G1 Z14.713 X9.450 Y20.820469
G1 Z14.791 X-9.450 Y20.820183 F600.000
G1 Z14.963 X-9.450 Y-20.785328
G1 Z15.000 X-0.450 Y-20.785525
ID=1 WHEN $AC_TIMER[1]>=0 DO M51
M0
;TURN OFF POWDER!!!
M0
G4F5

;End of Programm--------------------
M55				;home mirror
M30				;program end

; filament used = 207.9mm (1.5cm3)

; avoid_crossing_perimeters = 0
; bed_shape = -150x-150,150x-150,150x150,-150x150
; bed_temperature = 0
; before_layer_gcode = 
; bridge_acceleration = 0
; bridge_fan_speed = 100
; brim_width = 0
; complete_objects = 0
; cooling = 0
; default_acceleration = 0
; disable_fan_first_layers = 3
; duplicate_distance = 6
; end_gcode = M0\n;TURN OFF POWDER!!!\nM0\nG4F5\n\n;End of Programm--------------------\nM55				;home mirror\nM30				;program end\n
; extruder_clearance_height = 20
; extruder_clearance_radius = 20
; extruder_offset = 0x0
; extrusion_axis = E
; extrusion_multiplier = 1
; fan_always_on = 0
; fan_below_layer_time = 60
; filament_colour = #FFFFFF
; filament_diameter = 3
; first_layer_acceleration = 0
; first_layer_bed_temperature = 0
; first_layer_extrusion_width = 0
; first_layer_speed = 100%
; first_layer_temperature = 205
; gcode_arcs = 0
; gcode_comments = 0
; gcode_flavor = reprap
; infill_acceleration = 0
; infill_first = 0
; layer_gcode = 
; max_fan_speed = 100
; max_print_speed = 80
; max_volumetric_speed = 0
; min_fan_speed = 35
; min_print_speed = 33
; min_skirt_length = 0
; notes = 
; nozzle_diameter = 3
; only_retract_when_crossing_perimeters = 0
; ooze_prevention = 0
; output_filename_format = [input_filename_base].gcode
; perimeter_acceleration = 0
; post_process = 
; pressure_advance = 0
; resolution = 0
; retract_before_travel = 2
; retract_layer_change = 0
; retract_length = 0
; retract_length_toolchange = 10
; retract_lift = 0
; retract_restart_extra = 0
; retract_restart_extra_toolchange = 0
; retract_speed = 40
; skirt_distance = 6
; skirt_height = 1
; skirts = 0
; slowdown_below_layer_time = 5
; spiral_vase = 1
; standby_temperature_delta = -5
; start_gcode = $AC_TIMER[1]=0\n\n;General Config.--------------------\nG641			;\nG603			;\nM55			;home mirror\nG4F4			;necessary delay for positioning of the mirror				\nM0			;wait for user-input\n\n;Process Start-up-------------------\nM56			;set canal 1 as laser-source\nG4F4			;necessary delay for positioning of the mirror\nM0			;wait for user-input\n;START POWDER!!!\nG4F15\n\nM0\n\nG54\n
; temperature = 200
; threads = 2
; toolchange_gcode = 
; travel_speed = 33
; use_firmware_retraction = 0
; use_relative_e_distances = 0
; use_volumetric_e = 0
; vibration_limit = 0
; wipe = 0
; z_offset = 0
; dont_support_bridges = 1
; extrusion_width = 1.1
; first_layer_height = 100%
; infill_only_where_needed = 0
; interface_shells = 0
; layer_height = 0.5
; raft_layers = 0
; seam_position = aligned
; support_material = 0
; support_material_angle = 0
; support_material_contact_distance = 0.2
; support_material_enforce_layers = 0
; support_material_extruder = 1
; support_material_extrusion_width = 0
; support_material_interface_extruder = 1
; support_material_interface_layers = 3
; support_material_interface_spacing = 0
; support_material_interface_speed = 100%
; support_material_pattern = pillars
; support_material_spacing = 2.5
; support_material_speed = 60
; support_material_threshold = 0
; xy_size_compensation = 0
; bottom_solid_layers = 0
; bridge_flow_ratio = 1
; bridge_speed = 33.3333
; external_fill_pattern = rectilinear
; external_perimeter_extrusion_width = 0
; external_perimeter_speed = 100%
; external_perimeters_first = 0
; extra_perimeters = 1
; fill_angle = 45
; fill_density = 0%
; fill_pattern = rectilinear
; gap_fill_speed = 33.3333
; infill_every_layers = 1
; infill_extruder = 1
; infill_extrusion_width = 0
; infill_overlap = 15%
; infill_speed = 33.3333
; overhangs = 1
; perimeter_extruder = 1
; perimeter_extrusion_width = 0
; perimeter_speed = 10
; perimeters = 1
; small_perimeter_speed = 100%
; solid_infill_below_area = 70
; solid_infill_every_layers = 0
; solid_infill_extruder = 1
; solid_infill_extrusion_width = 0
; solid_infill_speed = 100%
; thin_walls = 1
; top_infill_extrusion_width = 0
; top_solid_infill_speed = 100%
; top_solid_layers = 0
