; generated by Slic3r 1.2.9 on 2017-05-26 at 13:17:53

; external perimeters extrusion width = 1.10mm
; perimeters extrusion width = 1.10mm
; infill extrusion width = 1.10mm
; solid infill extrusion width = 1.10mm
; top infill extrusion width = 1.10mm

H=1500
$AC_TIMER[1]=0

;General Config.--------------------
G641			;
G603			;
M55			;home mirror
G4F4			;necessary delay for positioning of the mirror				
M0			;wait for user-input

;Process Start-up-------------------
M56			;set canal 1 as laser-source
G4F4			;necessary delay for positioning of the mirror
M0			;wait for user-input
;START POWDER!!!
G4F15

M0

G54

G90 ; use absolute coordinates
G1 Z0.500 F1980.000
G1 X-0.515 Y7.508 F1980.000
ID=1 WHEN $AC_TIMER[1]>=0 DO M50
G1 X-0.968 Y7.2542 F600.000
G1 X-0.722 Y6.6266
G1 X-0.454 Y5.8550
G1 X-0.223 Y5.0917
G1 X-0.028 Y4.3346
G1 X0.131 Y3.5817
G1 X0.301 Y2.4786
G1 X0.371 Y1.7426
G1 X0.411 Y0.6706
G1 X0.396 Y-0.0437
G1 X0.313 Y-1.0796
G1 X0.219 Y-1.7673
G1 X0.025 Y-2.7642
G1 X-0.140 Y-3.4234
G1 X-0.430 Y-4.3795
G1 X-0.769 Y-5.3069
G1 X-1.022 Y-5.9156
G1 X-1.564 Y-7.0738
G1 X-2.049 Y-7.9983
G1 X-2.449 Y-8.7090
G1 X-3.954 Y-11.2243
G1 X-4.406 Y-12.0258
G1 X-4.647 Y-12.5022
G1 X-4.831 Y-12.9279
G1 X-5.000 Y-13.4848
G1 X-5.035 Y-13.7711
G1 X-4.994 Y-14.0491
G1 X-4.926 Y-14.1852
G1 X-4.812 Y-14.3074
G1 X-4.518 Y-14.4784
G1 X-4.193 Y-14.5778
G1 X-3.801 Y-14.6404
G1 X-3.272 Y-14.6642
G1 X-2.563 Y-14.6272
G1 X-1.613 Y-14.4816
G1 X-0.803 Y-14.2841
G1 X-0.398 Y-14.1620
G1 X0.442 Y-13.8571
G1 X1.278 Y-13.4804
G1 X1.674 Y-13.2727
G1 X2.464 Y-12.7928
G1 X3.204 Y-12.2438
G1 X3.868 Y-11.6362
G1 X4.174 Y-11.3072
G1 X4.460 Y-10.9612
G1 X4.724 Y-10.5997
G1 X4.965 Y-10.2217
G1 X5.183 Y-9.8270
G1 X5.375 Y-9.4206
G1 X5.621 Y-8.7645
G1 X5.748 Y-8.3153
G1 X5.849 Y-7.8495
G1 X5.948 Y-7.1041
G1 X5.981 Y-6.3183
G1 X5.964 Y-5.7776
G1 X5.922 Y-5.2765
G1 X5.782 Y-4.3332
G1 X5.556 Y-3.3468
G1 X5.242 Y-2.3120
G1 X4.838 Y-1.2300
G1 X4.343 Y-0.1017
G1 X3.754 Y1.0744
G1 X3.072 Y2.2950
G1 X2.296 Y3.5603
G1 X1.426 Y4.8696
G1 X0.460 Y6.2238
G1 X-0.243 Y7.1498
ID=1 WHEN $AC_TIMER[1]>=0 DO M51
G1 X-1.016 Y7.858 F1980.000
ID=1 WHEN $AC_TIMER[1]>=0 DO M50
G1 X-1.733 Y8.9996 F600.000
G1 X-2.235 Y9.7506
G1 X-2.869 Y10.6595
G1 X-3.710 Y11.7944
ID=1 WHEN $AC_TIMER[1]>=0 DO M51
G1 Z1.000 F1980.000
G1 X-0.506 Y7.495 F1980.000
ID=1 WHEN $AC_TIMER[1]>=0 DO M50
G1 X-0.956 Y7.2486 F600.000
G1 X-0.583 Y6.2404
G1 X-0.334 Y5.4723
G1 X-0.121 Y4.7110
G1 X0.056 Y3.9582
G1 X0.197 Y3.2092
G1 X0.340 Y2.1123
G1 X0.393 Y1.3841
G1 X0.411 Y0.6673
G1 X0.396 Y-0.0432
G1 X0.313 Y-1.0790
G1 X0.219 Y-1.7678
G1 X0.025 Y-2.7646
G1 X-0.140 Y-3.4239
G1 X-0.430 Y-4.3790
G1 X-0.769 Y-5.3064
G1 X-1.022 Y-5.9151
G1 X-1.564 Y-7.0733
G1 X-2.049 Y-7.9988
G1 X-2.449 Y-8.7095
G1 X-3.954 Y-11.2248
G1 X-4.406 Y-12.0253
G1 X-4.647 Y-12.5027
G1 X-4.831 Y-12.9274
G1 X-5.000 Y-13.4843
G1 X-5.035 Y-13.7716
G1 X-4.994 Y-14.0496
G1 X-4.926 Y-14.1857
G1 X-4.812 Y-14.3079
G1 X-4.518 Y-14.4789
G1 X-4.193 Y-14.5773
G1 X-3.801 Y-14.6400
G1 X-3.282 Y-14.6641
G1 X-2.562 Y-14.6278
G1 X-1.613 Y-14.4811
G1 X-0.803 Y-14.2846
G1 X-0.398 Y-14.1625
G1 X0.442 Y-13.8576
G1 X1.278 Y-13.4808
G1 X1.674 Y-13.2722
G1 X2.464 Y-12.7922
G1 X3.204 Y-12.2433
G1 X3.868 Y-11.6367
G1 X4.174 Y-11.3077
G1 X4.460 Y-10.9616
G1 X4.724 Y-10.5992
G1 X4.965 Y-10.2212
G1 X5.183 Y-9.8275
G1 X5.375 Y-9.4201
G1 X5.621 Y-8.7640
G1 X5.748 Y-8.3158
G1 X5.849 Y-7.8490
G1 X5.948 Y-7.1046
G1 X5.981 Y-6.3188
G1 X5.964 Y-5.7771
G1 X5.922 Y-5.2769
G1 X5.782 Y-4.3336
G1 X5.556 Y-3.3463
G1 X5.242 Y-2.3124
G1 X4.838 Y-1.2305
G1 X4.343 Y-0.1011
G1 X3.754 Y1.0748
G1 X3.072 Y2.2955
G1 X2.296 Y3.5608
G1 X1.426 Y4.8690
G1 X0.460 Y6.2233
G1 X-0.233 Y7.1368
ID=1 WHEN $AC_TIMER[1]>=0 DO M51
G1 X-1.014 Y7.843 F1980.000
ID=1 WHEN $AC_TIMER[1]>=0 DO M50
G1 X-1.498 Y8.6298 F600.000
G1 X-2.235 Y9.7509
G1 X-2.869 Y10.6598
G1 X-3.710 Y11.7947
ID=1 WHEN $AC_TIMER[1]>=0 DO M51
G1 Z1.500 F1980.000
G1 X-0.506 Y7.495 F1980.000
ID=1 WHEN $AC_TIMER[1]>=0 DO M50
G1 X-0.956 Y7.2486 F600.000
G1 X-0.583 Y6.2404
G1 X-0.334 Y5.4723
G1 X-0.121 Y4.7110
G1 X0.056 Y3.9582
G1 X0.197 Y3.2092
G1 X0.340 Y2.1123
G1 X0.393 Y1.3841
G1 X0.411 Y0.6673
G1 X0.396 Y-0.0432
G1 X0.313 Y-1.0790
G1 X0.219 Y-1.7678
G1 X0.025 Y-2.7646
G1 X-0.140 Y-3.4239
G1 X-0.430 Y-4.3790
G1 X-0.769 Y-5.3064
G1 X-1.022 Y-5.9151
G1 X-1.564 Y-7.0733
G1 X-2.049 Y-7.9988
G1 X-2.449 Y-8.7095
G1 X-3.954 Y-11.2248
G1 X-4.406 Y-12.0253
G1 X-4.647 Y-12.5027
G1 X-4.831 Y-12.9274
G1 X-5.000 Y-13.4843
G1 X-5.035 Y-13.7716
G1 X-4.994 Y-14.0496
G1 X-4.926 Y-14.1857
G1 X-4.812 Y-14.3079
G1 X-4.518 Y-14.4789
G1 X-4.193 Y-14.5773
G1 X-3.801 Y-14.6402
G1 X-3.291 Y-14.6655
G1 X-2.562 Y-14.6279
G1 X-1.613 Y-14.4811
G1 X-0.803 Y-14.2846
G1 X-0.398 Y-14.1625
G1 X0.442 Y-13.8576
G1 X1.278 Y-13.4808
G1 X1.674 Y-13.2722
G1 X2.464 Y-12.7923
G1 X3.204 Y-12.2433
G1 X3.868 Y-11.6367
G1 X4.174 Y-11.3077
G1 X4.460 Y-10.9616
G1 X4.724 Y-10.5992
G1 X4.965 Y-10.2212
G1 X5.183 Y-9.8275
G1 X5.375 Y-9.4201
G1 X5.621 Y-8.7640
G1 X5.748 Y-8.3158
G1 X5.849 Y-7.8490
G1 X5.948 Y-7.1046
G1 X5.981 Y-6.3188
G1 X5.964 Y-5.7771
G1 X5.922 Y-5.2769
G1 X5.782 Y-4.3337
G1 X5.556 Y-3.3463
G1 X5.242 Y-2.3124
G1 X4.838 Y-1.2305
G1 X4.343 Y-0.1011
G1 X3.754 Y1.0748
G1 X3.072 Y2.2955
G1 X2.296 Y3.5608
G1 X1.426 Y4.8691
G1 X0.460 Y6.2233
G1 X-0.233 Y7.1368
ID=1 WHEN $AC_TIMER[1]>=0 DO M51
G1 X-1.014 Y7.843 F1980.000
ID=1 WHEN $AC_TIMER[1]>=0 DO M50
G1 X-1.498 Y8.6298 F600.000
G1 X-2.235 Y9.7509
G1 X-2.869 Y10.6598
G1 X-3.710 Y11.7947
ID=1 WHEN $AC_TIMER[1]>=0 DO M51
G1 Z2.000 F1980.000
G1 X-0.506 Y7.495 F1980.000
ID=1 WHEN $AC_TIMER[1]>=0 DO M50
G1 X-0.956 Y7.2486 F600.000
G1 X-0.583 Y6.2404
G1 X-0.334 Y5.4723
G1 X-0.121 Y4.7110
G1 X0.056 Y3.9582
G1 X0.197 Y3.2092
G1 X0.340 Y2.1123
G1 X0.393 Y1.3841
G1 X0.411 Y0.6673
G1 X0.396 Y-0.0432
G1 X0.313 Y-1.0790
G1 X0.219 Y-1.7678
G1 X0.025 Y-2.7646
G1 X-0.140 Y-3.4239
G1 X-0.430 Y-4.3790
G1 X-0.769 Y-5.3064
G1 X-1.022 Y-5.9151
G1 X-1.564 Y-7.0733
G1 X-2.049 Y-7.9988
G1 X-2.449 Y-8.7095
G1 X-3.954 Y-11.2248
G1 X-4.406 Y-12.0253
G1 X-4.647 Y-12.5027
G1 X-4.831 Y-12.9274
G1 X-5.000 Y-13.4843
G1 X-5.035 Y-13.7716
G1 X-4.994 Y-14.0496
G1 X-4.926 Y-14.1857
G1 X-4.812 Y-14.3079
G1 X-4.518 Y-14.4789
G1 X-4.193 Y-14.5773
G1 X-3.800 Y-14.6404
G1 X-3.300 Y-14.6650
G1 X-2.562 Y-14.6270
G1 X-1.613 Y-14.4811
G1 X-0.803 Y-14.2846
G1 X-0.398 Y-14.1625
G1 X0.442 Y-13.8576
G1 X1.278 Y-13.4809
G1 X1.674 Y-13.2722
G1 X2.464 Y-12.7923
G1 X3.204 Y-12.2433
G1 X3.868 Y-11.6367
G1 X4.174 Y-11.3077
G1 X4.460 Y-10.9617
G1 X4.724 Y-10.5992
G1 X4.965 Y-10.2212
G1 X5.183 Y-9.8275
G1 X5.375 Y-9.4201
G1 X5.621 Y-8.7640
G1 X5.748 Y-8.3158
G1 X5.849 Y-7.8490
G1 X5.948 Y-7.1046
G1 X5.981 Y-6.3188
G1 X5.964 Y-5.7771
G1 X5.922 Y-5.2760
G1 X5.782 Y-4.3337
G1 X5.556 Y-3.3463
G1 X5.242 Y-2.3125
G1 X4.838 Y-1.2305
G1 X4.343 Y-0.1012
G1 X3.754 Y1.0749
G1 X3.072 Y2.2955
G1 X2.296 Y3.5608
G1 X1.426 Y4.8691
G1 X0.460 Y6.2233
G1 X-0.233 Y7.1369
ID=1 WHEN $AC_TIMER[1]>=0 DO M51
G1 X-1.014 Y7.843 F1980.000
ID=1 WHEN $AC_TIMER[1]>=0 DO M50
G1 X-1.498 Y8.6298 F600.000
G1 X-2.235 Y9.7509
G1 X-2.869 Y10.6598
G1 X-3.710 Y11.7947
ID=1 WHEN $AC_TIMER[1]>=0 DO M51
G1 Z2.500 F1980.000
G1 X-0.506 Y7.495 F1980.000
ID=1 WHEN $AC_TIMER[1]>=0 DO M50
G1 X-0.956 Y7.2486 F600.000
G1 X-0.583 Y6.2404
G1 X-0.334 Y5.4723
G1 X-0.121 Y4.7110
G1 X0.056 Y3.9582
G1 X0.197 Y3.2092
G1 X0.340 Y2.1207
G1 X0.393 Y1.3841
G1 X0.411 Y0.6673
G1 X0.396 Y-0.0432
G1 X0.313 Y-1.0790
G1 X0.219 Y-1.7675
G1 X0.032 Y-2.7366
G1 X-0.140 Y-3.4238
G1 X-0.430 Y-4.3790
G1 X-0.769 Y-5.3064
G1 X-1.022 Y-5.9152
G1 X-1.564 Y-7.0733
G1 X-2.049 Y-7.9988
G1 X-2.449 Y-8.7095
G1 X-3.954 Y-11.2248
G1 X-4.406 Y-12.0253
G1 X-4.647 Y-12.5027
G1 X-4.831 Y-12.9274
G1 X-5.000 Y-13.4843
G1 X-5.035 Y-13.7716
G1 X-4.994 Y-14.0496
G1 X-4.926 Y-14.1857
G1 X-4.812 Y-14.3079
G1 X-4.518 Y-14.4789
G1 X-4.193 Y-14.5774
G1 X-3.800 Y-14.6407
G1 X-3.310 Y-14.6654
G1 X-2.562 Y-14.6272
G1 X-1.613 Y-14.4811
G1 X-0.803 Y-14.2847
G1 X-0.398 Y-14.1625
G1 X0.442 Y-13.8577
G1 X1.278 Y-13.4809
G1 X1.674 Y-13.2723
G1 X2.464 Y-12.7923
G1 X3.204 Y-12.2433
G1 X3.868 Y-11.6367
G1 X4.174 Y-11.3077
G1 X4.460 Y-10.9617
G1 X4.724 Y-10.5993
G1 X4.965 Y-10.2212
G1 X5.183 Y-9.8275
G1 X5.375 Y-9.4201
G1 X5.621 Y-8.7641
G1 X5.748 Y-8.3158
G1 X5.849 Y-7.8490
G1 X5.948 Y-7.1046
G1 X5.981 Y-6.3188
G1 X5.964 Y-5.7772
G1 X5.922 Y-5.2760
G1 X5.782 Y-4.3337
G1 X5.556 Y-3.3463
G1 X5.242 Y-2.3125
G1 X4.838 Y-1.2305
G1 X4.343 Y-0.1012
G1 X3.754 Y1.0749
G1 X3.072 Y2.2956
G1 X2.296 Y3.5609
G1 X1.426 Y4.8691
G1 X0.460 Y6.2234
G1 X-0.233 Y7.1369
ID=1 WHEN $AC_TIMER[1]>=0 DO M51
G1 X-1.014 Y7.843 F1980.000
ID=1 WHEN $AC_TIMER[1]>=0 DO M50
G1 X-1.498 Y8.6298 F600.000
G1 X-2.235 Y9.7509
G1 X-2.869 Y10.6599
G1 X-3.710 Y11.7947
ID=1 WHEN $AC_TIMER[1]>=0 DO M51
G1 Z3.000 F1980.000
G1 X-0.506 Y7.495 F1980.000
ID=1 WHEN $AC_TIMER[1]>=0 DO M50
G1 X-0.956 Y7.2486 F600.000
G1 X-0.583 Y6.2404
G1 X-0.334 Y5.4723
G1 X-0.121 Y4.7110
G1 X0.056 Y3.9582
G1 X0.197 Y3.2092
G1 X0.340 Y2.1123
G1 X0.393 Y1.3841
G1 X0.411 Y0.6673
G1 X0.396 Y-0.0432
G1 X0.313 Y-1.0790
G1 X0.219 Y-1.7678
G1 X0.025 Y-2.7646
G1 X-0.140 Y-3.4239
G1 X-0.430 Y-4.3790
G1 X-0.769 Y-5.3064
G1 X-1.022 Y-5.9151
G1 X-1.564 Y-7.0733
G1 X-2.049 Y-7.9988
G1 X-2.449 Y-8.7095
G1 X-3.954 Y-11.2248
G1 X-4.406 Y-12.0253
G1 X-4.647 Y-12.5027
G1 X-4.831 Y-12.9274
G1 X-5.000 Y-13.4843
G1 X-5.035 Y-13.7716
G1 X-4.994 Y-14.0496
G1 X-4.926 Y-14.1857
G1 X-4.812 Y-14.3079
G1 X-4.518 Y-14.4789
G1 X-4.193 Y-14.5773
G1 X-3.800 Y-14.6409
G1 X-3.319 Y-14.6659
G1 X-2.562 Y-14.6272
G1 X-1.613 Y-14.4811
G1 X-0.803 Y-14.2846
G1 X-0.398 Y-14.1625
G1 X0.442 Y-13.8577
G1 X1.278 Y-13.4809
G1 X1.674 Y-13.2722
G1 X2.464 Y-12.7923
G1 X3.204 Y-12.2433
G1 X3.868 Y-11.6367
G1 X4.174 Y-11.3077
G1 X4.460 Y-10.9617
G1 X4.724 Y-10.5993
G1 X4.965 Y-10.2212
G1 X5.183 Y-9.8275
G1 X5.375 Y-9.4201
G1 X5.621 Y-8.7640
G1 X5.748 Y-8.3158
G1 X5.849 Y-7.8490
G1 X5.948 Y-7.1046
G1 X5.981 Y-6.3188
G1 X5.964 Y-5.7772
G1 X5.922 Y-5.2760
G1 X5.782 Y-4.3337
G1 X5.556 Y-3.3463
G1 X5.242 Y-2.3125
G1 X4.838 Y-1.2305
G1 X4.343 Y-0.1012
G1 X3.754 Y1.0749
G1 X3.072 Y2.2955
G1 X2.296 Y3.5608
G1 X1.426 Y4.8691
G1 X0.460 Y6.2234
G1 X-0.233 Y7.1369
ID=1 WHEN $AC_TIMER[1]>=0 DO M51
G1 X-1.014 Y7.843 F1980.000
ID=1 WHEN $AC_TIMER[1]>=0 DO M50
G1 X-1.498 Y8.6298 F600.000
G1 X-2.235 Y9.7509
G1 X-2.869 Y10.6599
G1 X-3.710 Y11.7947
ID=1 WHEN $AC_TIMER[1]>=0 DO M51
G1 Z3.500 F1980.000
G1 X-0.506 Y7.495 F1980.000
ID=1 WHEN $AC_TIMER[1]>=0 DO M50
G1 X-0.956 Y7.2486 F600.000
G1 X-0.583 Y6.2404
G1 X-0.334 Y5.4723
G1 X-0.121 Y4.7110
G1 X0.056 Y3.9582
G1 X0.197 Y3.2092
G1 X0.340 Y2.1123
G1 X0.393 Y1.3841
G1 X0.411 Y0.6673
G1 X0.396 Y-0.0432
G1 X0.313 Y-1.0790
G1 X0.219 Y-1.7678
G1 X0.025 Y-2.7646
G1 X-0.140 Y-3.4239
G1 X-0.430 Y-4.3790
G1 X-0.769 Y-5.3064
G1 X-1.022 Y-5.9151
G1 X-1.564 Y-7.0733
G1 X-2.049 Y-7.9988
G1 X-2.449 Y-8.7095
G1 X-3.954 Y-11.2248
G1 X-4.406 Y-12.0253
G1 X-4.647 Y-12.5027
G1 X-4.831 Y-12.9274
G1 X-5.000 Y-13.4843
G1 X-5.035 Y-13.7716
G1 X-4.994 Y-14.0496
G1 X-4.926 Y-14.1857
G1 X-4.812 Y-14.3079
G1 X-4.518 Y-14.4789
G1 X-4.193 Y-14.5773
G1 X-3.799 Y-14.6401
G1 X-3.328 Y-14.6653
G1 X-2.562 Y-14.6273
G1 X-1.613 Y-14.4811
G1 X-0.803 Y-14.2847
G1 X-0.398 Y-14.1625
G1 X0.442 Y-13.8577
G1 X1.278 Y-13.4809
G1 X1.674 Y-13.2723
G1 X2.464 Y-12.7923
G1 X3.204 Y-12.2433
G1 X3.868 Y-11.6367
G1 X4.174 Y-11.3077
G1 X4.460 Y-10.9617
G1 X4.724 Y-10.5993
G1 X4.965 Y-10.2212
G1 X5.183 Y-9.8275
G1 X5.375 Y-9.4201
G1 X5.621 Y-8.7641
G1 X5.748 Y-8.3158
G1 X5.849 Y-7.8490
G1 X5.948 Y-7.1046
G1 X5.981 Y-6.3188
G1 X5.964 Y-5.7771
G1 X5.922 Y-5.2760
G1 X5.782 Y-4.3337
G1 X5.556 Y-3.3463
G1 X5.242 Y-2.3125
G1 X4.838 Y-1.2305
G1 X4.343 Y-0.1012
G1 X3.754 Y1.0749
G1 X3.072 Y2.2956
G1 X2.296 Y3.5608
G1 X1.426 Y4.8691
G1 X0.460 Y6.2234
G1 X-0.233 Y7.1369
ID=1 WHEN $AC_TIMER[1]>=0 DO M51
G1 X-1.014 Y7.843 F1980.000
ID=1 WHEN $AC_TIMER[1]>=0 DO M50
G1 X-1.498 Y8.6298 F600.000
G1 X-2.235 Y9.7509
G1 X-2.869 Y10.6599
G1 X-3.710 Y11.7947
ID=1 WHEN $AC_TIMER[1]>=0 DO M51
G1 Z4.000 F1980.000
G1 X-0.506 Y7.495 F1980.000
ID=1 WHEN $AC_TIMER[1]>=0 DO M50
G1 X-0.956 Y7.2486 F600.000
G1 X-0.583 Y6.2404
G1 X-0.334 Y5.4723
G1 X-0.121 Y4.7110
G1 X0.056 Y3.9582
G1 X0.197 Y3.2092
G1 X0.340 Y2.1123
G1 X0.393 Y1.3841
G1 X0.411 Y0.6673
G1 X0.396 Y-0.0432
G1 X0.313 Y-1.0790
G1 X0.219 Y-1.7678
G1 X0.025 Y-2.7646
G1 X-0.140 Y-3.4245
G1 X-0.430 Y-4.3790
G1 X-0.769 Y-5.3064
G1 X-1.022 Y-5.9151
G1 X-1.564 Y-7.0733
G1 X-2.049 Y-7.9988
G1 X-2.449 Y-8.7095
G1 X-3.954 Y-11.2248
G1 X-4.406 Y-12.0253
G1 X-4.647 Y-12.5027
G1 X-4.831 Y-12.9274
G1 X-5.000 Y-13.4843
G1 X-5.035 Y-13.7716
G1 X-4.994 Y-14.0496
G1 X-4.926 Y-14.1857
G1 X-4.812 Y-14.3079
G1 X-4.629 Y-14.4265
G1 X-4.360 Y-14.5326
G1 X-4.006 Y-14.6135
G1 X-3.344 Y-14.6655
G1 X-2.562 Y-14.6276
G1 X-1.613 Y-14.4812
G1 X-0.803 Y-14.2848
G1 X-0.398 Y-14.1626
G1 X0.442 Y-13.8578
G1 X1.278 Y-13.4800
G1 X1.674 Y-13.2724
G1 X2.464 Y-12.7924
G1 X3.204 Y-12.2434
G1 X3.868 Y-11.6368
G1 X4.174 Y-11.3078
G1 X4.460 Y-10.9618
G1 X4.724 Y-10.5994
G1 X4.965 Y-10.2214
G1 X5.183 Y-9.8277
G1 X5.375 Y-9.4203
G1 X5.621 Y-8.7642
G1 X5.748 Y-8.3159
G1 X5.849 Y-7.8492
G1 X5.948 Y-7.1047
G1 X5.981 Y-6.3180
G1 X5.964 Y-5.7773
G1 X5.922 Y-5.2761
G1 X5.782 Y-4.3338
G1 X5.556 Y-3.3465
G1 X5.242 Y-2.3126
G1 X4.838 Y-1.2306
G1 X4.343 Y-0.1013
G1 X3.754 Y1.0740
G1 X3.072 Y2.2957
G1 X2.296 Y3.5600
G1 X1.426 Y4.8692
G1 X0.460 Y6.2235
G1 X-0.233 Y7.1360
ID=1 WHEN $AC_TIMER[1]>=0 DO M51
G1 X-1.014 Y7.843 F1980.000
ID=1 WHEN $AC_TIMER[1]>=0 DO M50
G1 X-1.498 Y8.6290 F600.000
G1 X-2.235 Y9.7492
G1 X-2.869 Y10.6590
G1 X-3.710 Y11.7949
ID=1 WHEN $AC_TIMER[1]>=0 DO M51
G1 Z4.500 F1980.000
G1 X-0.506 Y7.495 F1980.000
ID=1 WHEN $AC_TIMER[1]>=0 DO M50
G1 X-0.956 Y7.2486 F600.000
G1 X-0.583 Y6.2404
G1 X-0.334 Y5.4723
G1 X-0.121 Y4.7110
G1 X0.056 Y3.9582
G1 X0.197 Y3.2092
G1 X0.340 Y2.1187
G1 X0.393 Y1.3841
G1 X0.411 Y0.6673
G1 X0.396 Y-0.0432
G1 X0.313 Y-1.0790
G1 X0.219 Y-1.7678
G1 X0.025 Y-2.7646
G1 X-0.140 Y-3.4239
G1 X-0.430 Y-4.3790
G1 X-0.766 Y-5.2990
G1 X-1.018 Y-5.9071
G1 X-1.564 Y-7.0732
G1 X-2.046 Y-7.9915
G1 X-2.449 Y-8.7095
G1 X-3.954 Y-11.2248
G1 X-4.406 Y-12.0253
G1 X-4.647 Y-12.5027
G1 X-4.832 Y-12.9303
G1 X-4.998 Y-13.4707
G1 X-5.035 Y-13.7691
G1 X-4.995 Y-14.0489
G1 X-4.926 Y-14.1850
G1 X-4.812 Y-14.3070
G1 X-4.629 Y-14.4265
G1 X-4.201 Y-14.5750
G1 X-3.805 Y-14.6396
G1 X-3.333 Y-14.6653
G1 X-2.562 Y-14.6275
G1 X-1.612 Y-14.4813
G1 X-0.806 Y-14.2857
G1 X-0.407 Y-14.1643
G1 X0.450 Y-13.8544
G1 X1.274 Y-13.4821
G1 X1.672 Y-13.2745
G1 X2.458 Y-12.7963
G1 X3.204 Y-12.2435
G1 X3.868 Y-11.6368
G1 X4.174 Y-11.3078
G1 X4.460 Y-10.9618
G1 X4.724 Y-10.5994
G1 X4.964 Y-10.2242
G1 X5.183 Y-9.8277
G1 X5.375 Y-9.4202
G1 X5.621 Y-8.7642
G1 X5.748 Y-8.3159
G1 X5.849 Y-7.8491
G1 X5.948 Y-7.1047
G1 X5.981 Y-6.3189
G1 X5.964 Y-5.7773
G1 X5.922 Y-5.2761
G1 X5.782 Y-4.3338
G1 X5.556 Y-3.3464
G1 X5.242 Y-2.3126
G1 X4.838 Y-1.2306
G1 X4.343 Y-0.1013
G1 X3.754 Y1.0740
G1 X3.072 Y2.2957
G1 X2.296 Y3.5600
G1 X1.426 Y4.8692
G1 X0.460 Y6.2235
G1 X-0.233 Y7.1360
ID=1 WHEN $AC_TIMER[1]>=0 DO M51
G1 X-1.014 Y7.843 F1980.000
ID=1 WHEN $AC_TIMER[1]>=0 DO M50
G1 X-1.986 Y9.3820 F600.000
G1 X-2.761 Y10.5088
G1 X-3.710 Y11.7948
ID=1 WHEN $AC_TIMER[1]>=0 DO M51
G1 Z5.000 F1980.000
G1 X-0.506 Y7.495 F1980.000
ID=1 WHEN $AC_TIMER[1]>=0 DO M50
G1 X-0.956 Y7.2486 F600.000
G1 X-0.583 Y6.2404
G1 X-0.334 Y5.4723
G1 X-0.121 Y4.7110
G1 X0.056 Y3.9582
G1 X0.197 Y3.2092
G1 X0.339 Y2.1259
G1 X0.395 Y1.3541
G1 X0.411 Y0.6677
G1 X0.396 Y-0.0432
G1 X0.313 Y-1.0791
G1 X0.219 Y-1.7678
G1 X0.025 Y-2.7646
G1 X-0.140 Y-3.4239
G1 X-0.430 Y-4.3799
G1 X-0.763 Y-5.2913
G1 X-1.015 Y-5.8985
G1 X-1.564 Y-7.0732
G1 X-2.042 Y-7.9847
G1 X-2.449 Y-8.7094
G1 X-3.954 Y-11.2248
G1 X-4.406 Y-12.0253
G1 X-4.647 Y-12.5028
G1 X-4.831 Y-12.9278
G1 X-4.999 Y-13.4738
G1 X-5.035 Y-13.7663
G1 X-4.995 Y-14.0468
G1 X-4.925 Y-14.1852
G1 X-4.812 Y-14.3079
G1 X-4.518 Y-14.4781
G1 X-4.197 Y-14.5751
G1 X-3.799 Y-14.6403
G1 X-3.328 Y-14.6650
G1 X-2.562 Y-14.6274
G1 X-1.610 Y-14.4804
G1 X-0.809 Y-14.2863
G1 X-0.416 Y-14.1675
G1 X0.458 Y-13.8503
G1 X1.270 Y-13.4848
G1 X1.669 Y-13.2755
G1 X2.451 Y-12.8008
G1 X3.204 Y-12.2435
G1 X3.868 Y-11.6367
G1 X4.174 Y-11.3077
G1 X4.460 Y-10.9617
G1 X4.724 Y-10.5994
G1 X4.962 Y-10.2279
G1 X5.183 Y-9.8276
G1 X5.375 Y-9.4202
G1 X5.621 Y-8.7641
G1 X5.748 Y-8.3158
G1 X5.849 Y-7.8491
G1 X5.948 Y-7.1046
G1 X5.981 Y-6.3189
G1 X5.964 Y-5.7772
G1 X5.922 Y-5.2760
G1 X5.782 Y-4.3337
G1 X5.556 Y-3.3464
G1 X5.242 Y-2.3125
G1 X4.838 Y-1.2305
G1 X4.343 Y-0.1012
G1 X3.754 Y1.0749
G1 X3.072 Y2.2956
G1 X2.296 Y3.5609
G1 X1.426 Y4.8691
G1 X0.460 Y6.2234
G1 X-0.233 Y7.1369
ID=1 WHEN $AC_TIMER[1]>=0 DO M51
G1 X-1.014 Y7.843 F1980.000
ID=1 WHEN $AC_TIMER[1]>=0 DO M50
G1 X-1.990 Y9.3871 F600.000
G1 X-2.761 Y10.5088
G1 X-3.710 Y11.7947
ID=1 WHEN $AC_TIMER[1]>=0 DO M51
G1 Z5.500 F1980.000
G1 X-0.506 Y7.495 F1980.000
ID=1 WHEN $AC_TIMER[1]>=0 DO M50
G1 X-0.956 Y7.2486 F600.000
G1 X-0.583 Y6.2404
G1 X-0.334 Y5.4723
G1 X-0.121 Y4.7110
G1 X0.056 Y3.9582
G1 X0.197 Y3.2091
G1 X0.338 Y2.1328
G1 X0.393 Y1.3849
G1 X0.411 Y0.6673
G1 X0.396 Y-0.0432
G1 X0.313 Y-1.0790
G1 X0.219 Y-1.7678
G1 X0.025 Y-2.7646
G1 X-0.140 Y-3.4239
G1 X-0.430 Y-4.3799
G1 X-0.760 Y-5.2845
G1 X-1.011 Y-5.8900
G1 X-1.564 Y-7.0731
G1 X-2.038 Y-7.9778
G1 X-2.449 Y-8.7094
G1 X-3.954 Y-11.2248
G1 X-4.406 Y-12.0252
G1 X-4.647 Y-12.5028
G1 X-4.830 Y-12.9243
G1 X-4.999 Y-13.4769
G1 X-5.034 Y-13.7645
G1 X-4.995 Y-14.0458
G1 X-4.925 Y-14.1864
G1 X-4.812 Y-14.3079
G1 X-4.518 Y-14.4781
G1 X-4.200 Y-14.5752
G1 X-3.799 Y-14.6402
G1 X-3.322 Y-14.6659
G1 X-2.562 Y-14.6272
G1 X-1.609 Y-14.4805
G1 X-0.812 Y-14.2869
G1 X-0.405 Y-14.1640
G1 X0.465 Y-13.8470
G1 X1.266 Y-13.4866
G1 X1.667 Y-13.2764
G1 X2.445 Y-12.8042
G1 X3.204 Y-12.2425
G1 X3.868 Y-11.6366
G1 X4.174 Y-11.3076
G1 X4.460 Y-10.9616
G1 X4.724 Y-10.5993
G1 X4.960 Y-10.2295
G1 X5.183 Y-9.8276
G1 X5.375 Y-9.4201
G1 X5.621 Y-8.7640
G1 X5.748 Y-8.3157
G1 X5.849 Y-7.8490
G1 X5.948 Y-7.1045
G1 X5.981 Y-6.3188
G1 X5.964 Y-5.7771
G1 X5.922 Y-5.2769
G1 X5.782 Y-4.3336
G1 X5.556 Y-3.3463
G1 X5.242 Y-2.3124
G1 X4.838 Y-1.2304
G1 X4.343 Y-0.1011
G1 X3.754 Y1.0748
G1 X3.072 Y2.2955
G1 X2.296 Y3.5608
G1 X1.426 Y4.8690
G1 X0.460 Y6.2233
G1 X-0.233 Y7.1368
ID=1 WHEN $AC_TIMER[1]>=0 DO M51
G1 X-1.014 Y7.843 F1980.000
ID=1 WHEN $AC_TIMER[1]>=0 DO M50
G1 X-1.993 Y9.3910 F600.000
G1 X-2.761 Y10.5087
G1 X-3.710 Y11.7946
ID=1 WHEN $AC_TIMER[1]>=0 DO M51
G1 Z6.000 F1980.000
G1 X-0.506 Y7.495 F1980.000
ID=1 WHEN $AC_TIMER[1]>=0 DO M50
G1 X-0.956 Y7.2486 F600.000
G1 X-0.583 Y6.2404
G1 X-0.334 Y5.4723
G1 X-0.121 Y4.7110
G1 X0.056 Y3.9582
G1 X0.197 Y3.2091
G1 X0.337 Y2.1399
G1 X0.393 Y1.3849
G1 X0.411 Y0.6673
G1 X0.396 Y-0.0432
G1 X0.313 Y-1.0790
G1 X0.219 Y-1.7678
G1 X0.025 Y-2.7646
G1 X-0.140 Y-3.4239
G1 X-0.430 Y-4.3799
G1 X-0.757 Y-5.2767
G1 X-1.007 Y-5.8814
G1 X-1.564 Y-7.0730
G1 X-2.034 Y-7.9700
G1 X-2.449 Y-8.7094
G1 X-3.954 Y-11.2248
G1 X-4.406 Y-12.0252
G1 X-4.647 Y-12.5029
G1 X-4.828 Y-12.9208
G1 X-5.000 Y-13.4790
G1 X-5.034 Y-13.7617
G1 X-4.996 Y-14.0437
G1 X-4.925 Y-14.1866
G1 X-4.812 Y-14.3078
G1 X-4.517 Y-14.4781
G1 X-4.202 Y-14.5744
G1 X-3.799 Y-14.6401
G1 X-3.316 Y-14.6658
G1 X-2.562 Y-14.6270
G1 X-1.607 Y-14.4806
G1 X-0.816 Y-14.2876
G1 X-0.407 Y-14.1644
G1 X0.473 Y-13.8449
G1 X1.262 Y-13.4884
G1 X1.664 Y-13.2784
G1 X2.444 Y-12.8053
G1 X3.199 Y-12.2475
G1 X3.868 Y-11.6366
G1 X4.174 Y-11.3076
G1 X4.460 Y-10.9616
G1 X4.724 Y-10.5993
G1 X4.959 Y-10.2322
G1 X5.183 Y-9.8276
G1 X5.375 Y-9.4200
G1 X5.621 Y-8.7649
G1 X5.748 Y-8.3157
G1 X5.849 Y-7.8499
G1 X5.948 Y-7.1045
G1 X5.981 Y-6.3187
G1 X5.964 Y-5.7771
G1 X5.922 Y-5.2769
G1 X5.782 Y-4.3336
G1 X5.556 Y-3.3462
G1 X5.242 Y-2.3124
G1 X4.838 Y-1.2304
G1 X4.343 Y-0.1011
G1 X3.754 Y1.0748
G1 X3.072 Y2.2954
G1 X2.296 Y3.5607
G1 X1.426 Y4.8690
G1 X0.460 Y6.2233
G1 X-0.233 Y7.1368
ID=1 WHEN $AC_TIMER[1]>=0 DO M51
G1 X-1.014 Y7.843 F1980.000
ID=1 WHEN $AC_TIMER[1]>=0 DO M50
G1 X-1.996 Y9.3961 F600.000
G1 X-2.761 Y10.5086
G1 X-3.710 Y11.7946
ID=1 WHEN $AC_TIMER[1]>=0 DO M51
G1 Z6.500 F1980.000
G1 X-0.506 Y7.495 F1980.000
ID=1 WHEN $AC_TIMER[1]>=0 DO M50
G1 X-0.956 Y7.2486 F600.000
G1 X-0.583 Y6.2404
G1 X-0.333 Y5.4717
G1 X-0.121 Y4.7110
G1 X0.056 Y3.9582
G1 X0.197 Y3.2091
G1 X0.337 Y2.1469
G1 X0.393 Y1.3848
G1 X0.411 Y0.6645
G1 X0.377 Y-0.3716
G1 X0.313 Y-1.0822
G1 X0.219 Y-1.7678
G1 X0.025 Y-2.7646
G1 X-0.140 Y-3.4239
G1 X-0.430 Y-4.3788
G1 X-0.754 Y-5.2689
G1 X-1.004 Y-5.8739
G1 X-1.563 Y-7.0739
G1 X-2.030 Y-7.9622
G1 X-2.449 Y-8.7093
G1 X-3.954 Y-11.2248
G1 X-4.406 Y-12.0252
G1 X-4.647 Y-12.5029
G1 X-4.827 Y-12.9172
G1 X-5.000 Y-13.4821
G1 X-5.034 Y-13.7598
G1 X-4.996 Y-14.0427
G1 X-4.925 Y-14.1868
G1 X-4.812 Y-14.3077
G1 X-4.517 Y-14.4781
G1 X-4.205 Y-14.5746
G1 X-3.799 Y-14.6400
G1 X-3.310 Y-14.6657
G1 X-2.562 Y-14.6279
G1 X-1.605 Y-14.4796
G1 X-0.819 Y-14.2882
G1 X-0.409 Y-14.1658
G1 X0.481 Y-13.8408
G1 X1.258 Y-13.4901
G1 X1.662 Y-13.2793
G1 X2.437 Y-12.8108
G1 X3.199 Y-12.2474
G1 X3.868 Y-11.6365
G1 X4.174 Y-11.3075
G1 X4.460 Y-10.9615
G1 X4.724 Y-10.5992
G1 X4.955 Y-10.2397
G1 X5.285 Y-9.6195
G1 X5.464 Y-9.2057
G1 X5.619 Y-8.7697
G1 X5.748 Y-8.3156
G1 X5.849 Y-7.8498
G1 X5.948 Y-7.1044
G1 X5.981 Y-6.3186
G1 X5.964 Y-5.7770
G1 X5.922 Y-5.2768
G1 X5.782 Y-4.3335
G1 X5.556 Y-3.3461
G1 X5.242 Y-2.3123
G1 X4.838 Y-1.2303
G1 X4.343 Y-0.1010
G1 X3.754 Y1.0747
G1 X3.072 Y2.2954
G1 X2.296 Y3.5606
G1 X1.426 Y4.8699
G1 X0.460 Y6.2232
G1 X-0.233 Y7.1367
ID=1 WHEN $AC_TIMER[1]>=0 DO M51
G1 X-1.014 Y7.843 F1980.000
ID=1 WHEN $AC_TIMER[1]>=0 DO M50
G1 X-1.999 Y9.4011 F600.000
G1 X-2.761 Y10.5085
G1 X-3.710 Y11.7945
ID=1 WHEN $AC_TIMER[1]>=0 DO M51
G1 Z7.000 F1980.000
G1 X-0.506 Y7.495 F1980.000
ID=1 WHEN $AC_TIMER[1]>=0 DO M50
G1 X-0.956 Y7.2486 F600.000
G1 X-0.583 Y6.2404
G1 X-0.334 Y5.4723
G1 X-0.121 Y4.7110
G1 X0.056 Y3.9582
G1 X0.197 Y3.2100
G1 X0.336 Y2.1530
G1 X0.393 Y1.3848
G1 X0.411 Y0.6645
G1 X0.378 Y-0.3683
G1 X0.313 Y-1.0851
G1 X0.167 Y-2.0671
G1 X0.025 Y-2.7675
G1 X-0.140 Y-3.4239
G1 X-0.430 Y-4.3788
G1 X-0.751 Y-5.2601
G1 X-1.000 Y-5.8643
G1 X-1.563 Y-7.0739
G1 X-2.026 Y-7.9554
G1 X-2.449 Y-8.7093
G1 X-3.954 Y-11.2248
G1 X-4.406 Y-12.0252
G1 X-4.647 Y-12.5039
G1 X-4.826 Y-12.9147
G1 X-5.001 Y-13.4852
G1 X-5.034 Y-13.7560
G1 X-4.997 Y-14.0417
G1 X-4.924 Y-14.1869
G1 X-4.812 Y-14.3076
G1 X-4.517 Y-14.4781
G1 X-4.207 Y-14.5738
G1 X-3.799 Y-14.6409
G1 X-3.305 Y-14.6656
G1 X-2.562 Y-14.6277
G1 X-1.604 Y-14.4797
G1 X-0.822 Y-14.2898
G1 X-0.411 Y-14.1662
G1 X0.489 Y-13.8377
G1 X1.254 Y-13.4929
G1 X1.659 Y-13.2803
G1 X2.431 Y-12.8142
G1 X3.199 Y-12.2474
G1 X3.868 Y-11.6364
G1 X4.174 Y-11.3074
G1 X4.460 Y-10.9614
G1 X4.724 Y-10.5992
G1 X4.953 Y-10.2413
G1 X5.285 Y-9.6195
G1 X5.464 Y-9.2056
G1 X5.619 Y-8.7696
G1 X5.748 Y-8.3155
G1 X5.849 Y-7.8497
G1 X5.948 Y-7.1043
G1 X5.981 Y-6.3185
G1 X5.964 Y-5.7779
G1 X5.922 Y-5.2767
G1 X5.782 Y-4.3334
G1 X5.556 Y-3.3460
G1 X5.242 Y-2.3122
G1 X4.838 Y-1.2302
G1 X4.343 Y-0.1019
G1 X3.754 Y1.0746
G1 X3.072 Y2.2953
G1 X2.296 Y3.5606
G1 X1.426 Y4.8698
G1 X0.460 Y6.2231
G1 X-0.233 Y7.1366
ID=1 WHEN $AC_TIMER[1]>=0 DO M51
G1 X-1.014 Y7.843 F1980.000
ID=1 WHEN $AC_TIMER[1]>=0 DO M50
G1 X-2.003 Y9.4061 F600.000
G1 X-2.761 Y10.5084
G1 X-3.710 Y11.7944
ID=1 WHEN $AC_TIMER[1]>=0 DO M51
G1 Z7.500 F1980.000
G1 X-0.506 Y7.495 F1980.000
ID=1 WHEN $AC_TIMER[1]>=0 DO M50
G1 X-0.956 Y7.2486 F600.000
G1 X-0.583 Y6.2404
G1 X-0.334 Y5.4723
G1 X-0.121 Y4.7110
G1 X0.056 Y3.9582
G1 X0.197 Y3.2100
G1 X0.335 Y2.1600
G1 X0.393 Y1.3847
G1 X0.411 Y0.6644
G1 X0.378 Y-0.3640
G1 X0.313 Y-1.0851
G1 X0.168 Y-2.0624
G1 X0.025 Y-2.7675
G1 X-0.140 Y-3.4239
G1 X-0.430 Y-4.3787
G1 X-0.748 Y-5.2533
G1 X-0.996 Y-5.8558
G1 X-1.563 Y-7.0738
G1 X-2.022 Y-7.9486
G1 X-2.449 Y-8.7093
G1 X-3.954 Y-11.2248
G1 X-4.406 Y-12.0252
G1 X-4.647 Y-12.5030
G1 X-4.824 Y-12.9102
G1 X-5.002 Y-13.4883
G1 X-5.034 Y-13.7532
G1 X-4.997 Y-14.0396
G1 X-4.924 Y-14.1871
G1 X-4.812 Y-14.3076
G1 X-4.517 Y-14.4781
G1 X-4.210 Y-14.5730
G1 X-3.799 Y-14.6408
G1 X-3.299 Y-14.6656
G1 X-2.562 Y-14.6276
G1 X-1.602 Y-14.4798
G1 X-0.825 Y-14.2905
G1 X-0.413 Y-14.1667
G1 X0.497 Y-13.8345
G1 X1.250 Y-13.4946
G1 X1.657 Y-13.2822
G1 X2.424 Y-12.8186
G1 X3.199 Y-12.2473
G1 X3.868 Y-11.6363
G1 X4.174 Y-11.3073
G1 X4.460 Y-10.9613
G1 X4.724 Y-10.5991
G1 X4.951 Y-10.2449
G1 X5.285 Y-9.6195
G1 X5.464 Y-9.2055
G1 X5.619 Y-8.7695
G1 X5.748 Y-8.3154
G1 X5.849 Y-7.8496
G1 X5.948 Y-7.1042
G1 X5.981 Y-6.3184
G1 X5.964 Y-5.7778
G1 X5.922 Y-5.2766
G1 X5.782 Y-4.3333
G1 X5.556 Y-3.3460
G1 X5.242 Y-2.3121
G1 X4.838 Y-1.2301
G1 X4.343 Y-0.1018
G1 X3.754 Y1.0745
G1 X3.072 Y2.2952
G1 X2.296 Y3.5605
G1 X1.426 Y4.8697
G1 X0.460 Y6.2230
G1 X-0.233 Y7.1365
ID=1 WHEN $AC_TIMER[1]>=0 DO M51
G1 X-1.014 Y7.843 F1980.000
ID=1 WHEN $AC_TIMER[1]>=0 DO M50
G1 X-2.006 Y9.4111 F600.000
G1 X-2.761 Y10.5083
G1 X-3.710 Y11.7943
ID=1 WHEN $AC_TIMER[1]>=0 DO M51
G1 Z8.000 F1980.000
G1 X-0.506 Y7.495 F1980.000
ID=1 WHEN $AC_TIMER[1]>=0 DO M50
G1 X-0.956 Y7.2486 F600.000
G1 X-0.583 Y6.2404
G1 X-0.334 Y5.4723
G1 X-0.121 Y4.7110
G1 X0.056 Y3.9582
G1 X0.197 Y3.2100
G1 X0.334 Y2.1681
G1 X0.393 Y1.3847
G1 X0.411 Y0.6644
G1 X0.378 Y-0.3618
G1 X0.313 Y-1.0850
G1 X0.169 Y-2.0566
G1 X0.024 Y-2.7691
G1 X-0.216 Y-3.6934
G1 X-0.430 Y-4.3803
G1 X-0.745 Y-5.2455
G1 X-0.993 Y-5.8473
G1 X-1.563 Y-7.0737
G1 X-2.018 Y-7.9418
G1 X-2.449 Y-8.7092
G1 X-3.954 Y-11.2248
G1 X-4.406 Y-12.0252
G1 X-4.647 Y-12.5030
G1 X-4.823 Y-12.9076
G1 X-5.002 Y-13.4914
G1 X-5.033 Y-13.8408
G1 X-4.997 Y-14.0388
G1 X-4.924 Y-14.1875
G1 X-4.812 Y-14.3078
G1 X-4.517 Y-14.4784
G1 X-4.212 Y-14.5724
G1 X-3.800 Y-14.6409
G1 X-3.293 Y-14.6657
G1 X-2.557 Y-14.6277
G1 X-1.608 Y-14.4805
G1 X-0.828 Y-14.2914
G1 X-0.415 Y-14.1674
G1 X0.504 Y-13.8317
G1 X1.246 Y-13.4967
G1 X1.654 Y-13.2830
G1 X2.464 Y-12.7924
G1 X3.204 Y-12.2432
G1 X3.868 Y-11.6366
G1 X4.174 Y-11.3076
G1 X4.460 Y-10.9615
G1 X4.724 Y-10.5994
G1 X4.950 Y-10.2479
G1 X5.285 Y-9.6197
G1 X5.464 Y-9.2058
G1 X5.619 Y-8.7697
G1 X5.748 Y-8.3156
G1 X5.849 Y-7.8499
G1 X5.948 Y-7.1044
G1 X5.981 Y-6.3187
G1 X5.964 Y-5.7770
G1 X5.922 Y-5.2768
G1 X5.782 Y-4.3335
G1 X5.556 Y-3.3462
G1 X5.242 Y-2.3123
G1 X4.838 Y-1.2303
G1 X4.343 Y-0.1010
G1 X3.754 Y1.0747
G1 X3.072 Y2.2954
G1 X2.296 Y3.5607
G1 X1.426 Y4.8699
G1 X0.460 Y6.2232
G1 X-0.233 Y7.1367
ID=1 WHEN $AC_TIMER[1]>=0 DO M51
G1 X-1.014 Y7.843 F1980.000
ID=1 WHEN $AC_TIMER[1]>=0 DO M50
G1 X-2.009 Y9.4164 F600.000
G1 X-2.761 Y10.5086
G1 X-3.710 Y11.7945
ID=1 WHEN $AC_TIMER[1]>=0 DO M51
G1 Z8.500 F1980.000
G1 X-0.506 Y7.495 F1980.000
ID=1 WHEN $AC_TIMER[1]>=0 DO M50
G1 X-0.956 Y7.2486 F600.000
G1 X-0.583 Y6.2404
G1 X-0.334 Y5.4723
G1 X-0.121 Y4.7110
G1 X0.056 Y3.9582
G1 X0.197 Y3.2109
G1 X0.334 Y2.1751
G1 X0.393 Y1.3846
G1 X0.411 Y0.6644
G1 X0.378 Y-0.3585
G1 X0.313 Y-1.0850
G1 X0.170 Y-2.0518
G1 X0.024 Y-2.7691
G1 X-0.214 Y-3.6870
G1 X-0.430 Y-4.3802
G1 X-0.742 Y-5.2377
G1 X-0.989 Y-5.8387
G1 X-1.563 Y-7.0726
G1 X-2.014 Y-7.9330
G1 X-2.449 Y-8.7092
G1 X-3.954 Y-11.2248
G1 X-4.406 Y-12.0252
G1 X-4.647 Y-12.5031
G1 X-4.822 Y-12.9041
G1 X-4.959 Y-13.3098
G1 X-5.003 Y-13.4940
G1 X-5.033 Y-13.8388
G1 X-4.998 Y-14.0362
G1 X-4.924 Y-14.1871
G1 X-4.812 Y-14.3072
G1 X-4.517 Y-14.4789
G1 X-4.214 Y-14.5711
G1 X-3.800 Y-14.6403
G1 X-3.288 Y-14.6651
G1 X-2.557 Y-14.6271
G1 X-1.607 Y-14.4801
G1 X-0.831 Y-14.2925
G1 X-0.417 Y-14.1682
G1 X0.512 Y-13.8270
G1 X1.241 Y-13.4989
G1 X1.651 Y-13.2853
G1 X2.464 Y-12.7928
G1 X3.204 Y-12.2435
G1 X3.868 Y-11.6369
G1 X4.174 Y-11.3079
G1 X4.460 Y-10.9619
G1 X4.724 Y-10.5998
G1 X4.948 Y-10.2500
G1 X5.285 Y-9.6191
G1 X5.464 Y-9.2051
G1 X5.619 Y-8.7691
G1 X5.748 Y-8.3150
G1 X5.849 Y-7.8492
G1 X5.948 Y-7.1048
G1 X5.981 Y-6.3180
G1 X5.964 Y-5.7774
G1 X5.922 Y-5.2762
G1 X5.782 Y-4.3339
G1 X5.556 Y-3.3465
G1 X5.242 Y-2.3127
G1 X4.838 Y-1.2307
G1 X4.343 Y-0.1014
G1 X3.754 Y1.0741
G1 X3.072 Y2.2958
G1 X2.296 Y3.5601
G1 X1.426 Y4.8693
G1 X0.460 Y6.2236
G1 X-0.233 Y7.1361
ID=1 WHEN $AC_TIMER[1]>=0 DO M51
G1 X-1.014 Y7.843 F1980.000
ID=1 WHEN $AC_TIMER[1]>=0 DO M50
G1 X-2.012 Y9.4208 F600.000
G1 X-2.761 Y10.5089
G1 X-3.710 Y11.7949
ID=1 WHEN $AC_TIMER[1]>=0 DO M51
G1 Z9.000 F1980.000
G1 X-0.506 Y7.495 F1980.000
ID=1 WHEN $AC_TIMER[1]>=0 DO M50
G1 X-0.956 Y7.2486 F600.000
G1 X-0.583 Y6.2404
G1 X-0.334 Y5.4723
G1 X-0.121 Y4.7110
G1 X0.056 Y3.9582
G1 X0.197 Y3.2109
G1 X0.333 Y2.1822
G1 X0.393 Y1.3846
G1 X0.411 Y0.6644
G1 X0.378 Y-0.3552
G1 X0.313 Y-1.0859
G1 X0.171 Y-2.0461
G1 X0.024 Y-2.7690
G1 X-0.212 Y-3.6816
G1 X-0.430 Y-4.3801
G1 X-0.740 Y-5.2309
G1 X-0.985 Y-5.8302
G1 X-1.563 Y-7.0726
G1 X-2.010 Y-7.9262
G1 X-2.449 Y-8.7092
G1 X-3.954 Y-11.2248
G1 X-4.406 Y-12.0252
G1 X-4.647 Y-12.5031
G1 X-4.820 Y-12.9006
G1 X-4.959 Y-13.3080
G1 X-5.003 Y-13.4971
G1 X-5.033 Y-13.8365
G1 X-4.995 Y-14.0552
G1 X-4.955 Y-14.1543
G1 X-4.812 Y-14.3072
G1 X-4.517 Y-14.4780
G1 X-4.217 Y-14.5714
G1 X-3.800 Y-14.6403
G1 X-3.275 Y-14.6650
G1 X-2.913 Y-14.6557
G1 X-2.384 Y-14.6086
G1 X-1.532 Y-14.4631
G1 X-0.835 Y-14.2931
G1 X-0.419 Y-14.1680
G1 X0.520 Y-13.8243
G1 X1.237 Y-13.5000
G1 X1.649 Y-13.2866
G1 X2.464 Y-12.7921
G1 X3.204 Y-12.2438
G1 X3.868 Y-11.6362
G1 X4.174 Y-11.3072
G1 X4.460 Y-10.9612
G1 X4.724 Y-10.5991
G1 X4.946 Y-10.2530
G1 X5.285 Y-9.6195
G1 X5.464 Y-9.2054
G1 X5.619 Y-8.7694
G1 X5.748 Y-8.3153
G1 X5.849 Y-7.8495
G1 X5.948 Y-7.1041
G1 X5.981 Y-6.3183
G1 X5.964 Y-5.7777
G1 X5.922 Y-5.2765
G1 X5.782 Y-4.3332
G1 X5.556 Y-3.3468
G1 X5.242 Y-2.3120
G1 X4.838 Y-1.2300
G1 X4.343 Y-0.1017
G1 X3.754 Y1.0744
G1 X3.072 Y2.2951
G1 X2.296 Y3.5604
G1 X1.426 Y4.8696
G1 X0.460 Y6.2239
G1 X-0.233 Y7.1364
ID=1 WHEN $AC_TIMER[1]>=0 DO M51
G1 X-1.014 Y7.843 F1980.000
ID=1 WHEN $AC_TIMER[1]>=0 DO M50
G1 X-2.016 Y9.4252 F600.000
G1 X-2.761 Y10.5082
G1 X-3.710 Y11.7942
ID=1 WHEN $AC_TIMER[1]>=0 DO M51
G1 Z9.500 F1980.000
G1 X-0.506 Y7.495 F1980.000
ID=1 WHEN $AC_TIMER[1]>=0 DO M50
G1 X-0.956 Y7.2486 F600.000
G1 X-0.583 Y6.2404
G1 X-0.334 Y5.4723
G1 X-0.121 Y4.7110
G1 X0.056 Y3.9582
G1 X0.197 Y3.2108
G1 X0.332 Y2.1892
G1 X0.393 Y1.3845
G1 X0.411 Y0.6644
G1 X0.379 Y-0.3519
G1 X0.313 Y-1.0859
G1 X0.172 Y-2.0413
G1 X0.024 Y-2.7699
G1 X-0.210 Y-3.6752
G1 X-0.430 Y-4.3800
G1 X-0.737 Y-5.2221
G1 X-0.982 Y-5.8216
G1 X-1.563 Y-7.0725
G1 X-2.006 Y-7.9194
G1 X-2.449 Y-8.7082
G1 X-3.954 Y-11.2248
G1 X-4.406 Y-12.0252
G1 X-4.647 Y-12.5032
G1 X-4.819 Y-12.8971
G1 X-4.959 Y-13.3072
G1 X-5.006 Y-13.5078
G1 X-5.032 Y-13.8433
G1 X-4.995 Y-14.0530
G1 X-4.954 Y-14.1542
G1 X-4.812 Y-14.3071
G1 X-4.517 Y-14.4799
G1 X-4.219 Y-14.5705
G1 X-3.800 Y-14.6401
G1 X-3.270 Y-14.6658
G1 X-2.913 Y-14.6555
G1 X-2.384 Y-14.6083
G1 X-1.524 Y-14.4620
G1 X-0.838 Y-14.2946
G1 X-0.421 Y-14.1693
G1 X0.528 Y-13.8211
G1 X1.233 Y-13.5026
G1 X1.646 Y-13.2884
G1 X2.464 Y-12.7920
G1 X3.204 Y-12.2437
G1 X3.868 Y-11.6361
G1 X4.174 Y-11.3071
G1 X4.460 Y-10.9610
G1 X4.724 Y-10.5990
G1 X4.945 Y-10.2555
G1 X5.285 Y-9.6194
G1 X5.464 Y-9.2053
G1 X5.619 Y-8.7692
G1 X5.748 Y-8.3151
G1 X5.849 Y-7.8494
G1 X5.948 Y-7.1049
G1 X5.981 Y-6.3182
G1 X5.964 Y-5.7775
G1 X5.922 Y-5.2763
G1 X5.782 Y-4.3330
G1 X5.556 Y-3.3467
G1 X5.242 Y-2.3128
G1 X4.838 Y-1.2308
G1 X4.343 Y-0.1015
G1 X3.754 Y1.0742
G1 X3.072 Y2.2959
G1 X2.296 Y3.5602
G1 X1.426 Y4.8694
G1 X0.460 Y6.2237
G1 X-0.233 Y7.1362
ID=1 WHEN $AC_TIMER[1]>=0 DO M51
G1 X-1.014 Y7.843 F1980.000
ID=1 WHEN $AC_TIMER[1]>=0 DO M50
G1 X-2.019 Y9.4301 F600.000
G1 X-2.761 Y10.5080
G1 X-3.710 Y11.7940
ID=1 WHEN $AC_TIMER[1]>=0 DO M51
G1 Z10.000 F1980.000
G1 X-0.506 Y7.495 F1980.000
ID=1 WHEN $AC_TIMER[1]>=0 DO M50
G1 X-0.956 Y7.2486 F600.000
G1 X-0.583 Y6.2404
G1 X-0.334 Y5.4723
G1 X-0.121 Y4.7110
G1 X0.056 Y3.9582
G1 X0.197 Y3.2108
G1 X0.332 Y2.1963
G1 X0.393 Y1.3845
G1 X0.411 Y0.6643
G1 X0.379 Y-0.3487
G1 X0.313 Y-1.0858
G1 X0.173 Y-2.0355
G1 X0.024 Y-2.7689
G1 X-0.209 Y-3.6698
G1 X-0.430 Y-4.3800
G1 X-0.734 Y-5.2143
G1 X-0.978 Y-5.8131
G1 X-1.563 Y-7.0724
G1 X-2.002 Y-7.9126
G1 X-2.449 Y-8.7081
G1 X-3.954 Y-11.2248
G1 X-4.406 Y-12.0252
G1 X-4.647 Y-12.5027
G1 X-4.834 Y-12.9349
G1 X-4.958 Y-13.3043
G1 X-5.026 Y-13.6418
G1 X-5.032 Y-13.8419
G1 X-4.995 Y-14.0523
G1 X-4.954 Y-14.1545
G1 X-4.812 Y-14.3073
G1 X-4.517 Y-14.4793
G1 X-4.222 Y-14.5700
G1 X-3.800 Y-14.6404
G1 X-3.264 Y-14.6651
G1 X-2.913 Y-14.6557
G1 X-2.384 Y-14.6085
G1 X-1.515 Y-14.4603
G1 X-0.841 Y-14.2955
G1 X-0.423 Y-14.1701
G1 X0.536 Y-13.8183
G1 X1.229 Y-13.5047
G1 X1.644 Y-13.2896
G1 X2.464 Y-12.7922
G1 X3.204 Y-12.2439
G1 X3.868 Y-11.6363
G1 X4.174 Y-11.3073
G1 X4.460 Y-10.9613
G1 X4.724 Y-10.5993
G1 X4.943 Y-10.2585
G1 X5.285 Y-9.6196
G1 X5.464 Y-9.2055
G1 X5.619 Y-8.7695
G1 X5.748 Y-8.3154
G1 X5.849 Y-7.8496
G1 X5.948 Y-7.1042
G1 X5.981 Y-6.3184
G1 X5.964 Y-5.7777
G1 X5.922 Y-5.2765
G1 X5.782 Y-4.3333
G1 X5.556 Y-3.3469
G1 X5.242 Y-2.3120
G1 X4.838 Y-1.2301
G1 X4.343 Y-0.1017
G1 X3.754 Y1.0744
G1 X3.072 Y2.2951
G1 X2.296 Y3.5604
G1 X1.426 Y4.8697
G1 X0.460 Y6.2239
G1 X-0.233 Y7.1364
ID=1 WHEN $AC_TIMER[1]>=0 DO M51
G1 X-1.014 Y7.843 F1980.000
ID=1 WHEN $AC_TIMER[1]>=0 DO M50
G1 X-2.022 Y9.4354 F600.000
G1 X-2.761 Y10.5083
G1 X-3.710 Y11.7942
ID=1 WHEN $AC_TIMER[1]>=0 DO M51
G1 Z10.500 F1980.000
G1 X-0.506 Y7.495 F1980.000
ID=1 WHEN $AC_TIMER[1]>=0 DO M50
G1 X-0.956 Y7.2486 F600.000
G1 X-0.583 Y6.2404
G1 X-0.334 Y5.4723
G1 X-0.121 Y4.7110
G1 X0.056 Y3.9582
G1 X0.197 Y3.2108
G1 X0.331 Y2.2033
G1 X0.393 Y1.3844
G1 X0.411 Y0.6643
G1 X0.379 Y-0.3454
G1 X0.313 Y-1.0857
G1 X0.174 Y-2.0308
G1 X0.024 Y-2.7688
G1 X-0.207 Y-3.6634
G1 X-0.430 Y-4.3809
G1 X-0.731 Y-5.2075
G1 X-0.974 Y-5.8046
G1 X-1.563 Y-7.0724
G1 X-1.998 Y-7.9048
G1 X-2.449 Y-8.7081
G1 X-3.954 Y-11.2248
G1 X-4.406 Y-12.0252
G1 X-4.647 Y-12.5027
G1 X-4.834 Y-12.9340
G1 X-4.958 Y-13.3034
G1 X-5.026 Y-13.6443
G1 X-5.032 Y-13.8382
G1 X-4.996 Y-14.0502
G1 X-4.954 Y-14.1545
G1 X-4.812 Y-14.3073
G1 X-4.516 Y-14.4794
G1 X-4.224 Y-14.5693
G1 X-3.800 Y-14.6403
G1 X-3.258 Y-14.6651
G1 X-2.913 Y-14.6556
G1 X-2.384 Y-14.6084
G1 X-1.507 Y-14.4584
G1 X-0.845 Y-14.2951
G1 X-0.425 Y-14.1705
G1 X0.544 Y-13.8142
G1 X1.225 Y-13.5065
G1 X1.641 Y-13.2905
G1 X2.464 Y-12.7922
G1 X3.204 Y-12.2439
G1 X3.868 Y-11.6363
G1 X4.174 Y-11.3073
G1 X4.460 Y-10.9613
G1 X4.724 Y-10.5993
G1 X4.941 Y-10.2612
G1 X5.285 Y-9.6196
G1 X5.464 Y-9.2055
G1 X5.619 Y-8.7694
G1 X5.748 Y-8.3153
G1 X5.849 Y-7.8496
G1 X5.948 Y-7.1041
G1 X5.981 Y-6.3184
G1 X5.964 Y-5.7777
G1 X5.922 Y-5.2765
G1 X5.782 Y-4.3332
G1 X5.556 Y-3.3469
G1 X5.242 Y-2.3120
G1 X4.838 Y-1.2300
G1 X4.343 Y-0.1017
G1 X3.754 Y1.0744
G1 X3.072 Y2.2951
G1 X2.296 Y3.5604
G1 X1.426 Y4.8696
G1 X0.460 Y6.2239
G1 X-0.233 Y7.1364
ID=1 WHEN $AC_TIMER[1]>=0 DO M51
G1 X-1.014 Y7.843 F1980.000
ID=1 WHEN $AC_TIMER[1]>=0 DO M50
G1 X-2.025 Y9.4405 F600.000
G1 X-2.761 Y10.5082
G1 X-3.710 Y11.7942
ID=1 WHEN $AC_TIMER[1]>=0 DO M51
G1 Z11.000 F1980.000
G1 X-0.506 Y7.495 F1980.000
ID=1 WHEN $AC_TIMER[1]>=0 DO M50
G1 X-0.956 Y7.2486 F600.000
G1 X-0.583 Y6.2404
G1 X-0.334 Y5.4723
G1 X-0.121 Y4.7110
G1 X0.056 Y3.9582
G1 X0.197 Y3.2107
G1 X0.330 Y2.2104
G1 X0.393 Y1.3854
G1 X0.411 Y0.6643
G1 X0.379 Y-0.3421
G1 X0.313 Y-1.0847
G1 X0.175 Y-2.0250
G1 X0.024 Y-2.7687
G1 X-0.205 Y-3.6570
G1 X-0.430 Y-4.3808
G1 X-0.728 Y-5.1997
G1 X-0.971 Y-5.7950
G1 X-1.563 Y-7.0723
G1 X-1.995 Y-7.8970
G1 X-2.449 Y-8.7081
G1 X-3.954 Y-11.2248
G1 X-4.406 Y-12.0252
G1 X-4.647 Y-12.5027
G1 X-4.834 Y-12.9340
G1 X-4.957 Y-13.3025
G1 X-5.026 Y-13.6469
G1 X-5.032 Y-13.8365
G1 X-4.996 Y-14.0492
G1 X-4.954 Y-14.1545
G1 X-4.812 Y-14.3073
G1 X-4.516 Y-14.4794
G1 X-4.226 Y-14.5685
G1 X-3.800 Y-14.6403
G1 X-3.252 Y-14.6651
G1 X-2.913 Y-14.6555
G1 X-2.384 Y-14.6083
G1 X-1.498 Y-14.4565
G1 X-0.848 Y-14.2968
G1 X-0.427 Y-14.1710
G1 X0.551 Y-13.8111
G1 X1.221 Y-13.5083
G1 X1.639 Y-13.2925
G1 X2.464 Y-12.7922
G1 X3.204 Y-12.2439
G1 X3.868 Y-11.6363
G1 X4.174 Y-11.3072
G1 X4.460 Y-10.9612
G1 X4.724 Y-10.5993
G1 X4.940 Y-10.2649
G1 X5.285 Y-9.6197
G1 X5.464 Y-9.2054
G1 X5.619 Y-8.7694
G1 X5.748 Y-8.3153
G1 X5.849 Y-7.8495
G1 X5.948 Y-7.1041
G1 X5.981 Y-6.3183
G1 X5.964 Y-5.7777
G1 X5.922 Y-5.2765
G1 X5.782 Y-4.3332
G1 X5.556 Y-3.3468
G1 X5.242 Y-2.3120
G1 X4.838 Y-1.2300
G1 X4.343 Y-0.1017
G1 X3.754 Y1.0744
G1 X3.072 Y2.2951
G1 X2.296 Y3.5604
G1 X1.426 Y4.8696
G1 X0.460 Y6.2239
G1 X-0.233 Y7.1364
ID=1 WHEN $AC_TIMER[1]>=0 DO M51
G1 X-1.014 Y7.843 F1980.000
ID=1 WHEN $AC_TIMER[1]>=0 DO M50
G1 X-2.029 Y9.4456 F600.000
G1 X-2.761 Y10.5082
G1 X-3.710 Y11.7942
ID=1 WHEN $AC_TIMER[1]>=0 DO M51
G1 Z11.500 F1980.000
G1 X-0.506 Y7.495 F1980.000
ID=1 WHEN $AC_TIMER[1]>=0 DO M50
G1 X-0.956 Y7.2486 F600.000
G1 X-0.583 Y6.2404
G1 X-0.334 Y5.4723
G1 X-0.121 Y4.7110
G1 X0.056 Y3.9582
G1 X0.197 Y3.2107
G1 X0.329 Y2.2175
G1 X0.393 Y1.3854
G1 X0.411 Y0.6643
G1 X0.379 Y-0.3398
G1 X0.313 Y-1.0846
G1 X0.176 Y-2.0192
G1 X0.024 Y-2.7687
G1 X-0.203 Y-3.6516
G1 X-0.430 Y-4.3807
G1 X-0.725 Y-5.1919
G1 X-0.967 Y-5.7875
G1 X-1.563 Y-7.0722
G1 X-1.991 Y-7.8902
G1 X-2.449 Y-8.7080
G1 X-3.954 Y-11.2248
G1 X-4.406 Y-12.0252
G1 X-4.647 Y-12.5027
G1 X-4.834 Y-12.9340
G1 X-4.957 Y-13.3016
G1 X-5.027 Y-13.6485
G1 X-5.032 Y-13.8348
G1 X-4.997 Y-14.0481
G1 X-4.954 Y-14.1545
G1 X-4.812 Y-14.3073
G1 X-4.516 Y-14.4795
G1 X-4.229 Y-14.5688
G1 X-3.800 Y-14.6403
G1 X-3.247 Y-14.6650
G1 X-2.913 Y-14.6554
G1 X-2.384 Y-14.6082
G1 X-1.490 Y-14.4545
G1 X-0.851 Y-14.2974
G1 X-0.429 Y-14.1715
G1 X0.559 Y-13.8081
G1 X1.217 Y-13.5101
G1 X1.636 Y-13.2934
G1 X2.464 Y-12.7922
G1 X3.204 Y-12.2438
G1 X3.868 Y-11.6362
G1 X4.174 Y-11.3072
G1 X4.460 Y-10.9612
G1 X4.724 Y-10.5983
G1 X4.938 Y-10.2666
G1 X5.285 Y-9.6197
G1 X5.464 Y-9.2054
G1 X5.619 Y-8.7694
G1 X5.748 Y-8.3153
G1 X5.849 Y-7.8495
G1 X5.948 Y-7.1041
G1 X5.981 Y-6.3183
G1 X5.964 Y-5.7777
G1 X5.922 Y-5.2765
G1 X5.782 Y-4.3332
G1 X5.556 Y-3.3468
G1 X5.242 Y-2.3120
G1 X4.838 Y-1.2300
G1 X4.343 Y-0.1017
G1 X3.754 Y1.0744
G1 X3.072 Y2.2951
G1 X2.296 Y3.5603
G1 X1.426 Y4.8696
G1 X0.460 Y6.2239
G1 X-0.233 Y7.1364
ID=1 WHEN $AC_TIMER[1]>=0 DO M51
G1 X-1.014 Y7.843 F1980.000
ID=1 WHEN $AC_TIMER[1]>=0 DO M50
G1 X-2.032 Y9.4496 F600.000
G1 X-2.761 Y10.5082
G1 X-3.710 Y11.7942
ID=1 WHEN $AC_TIMER[1]>=0 DO M51
G1 Z12.000 F1980.000
G1 X-0.506 Y7.495 F1980.000
ID=1 WHEN $AC_TIMER[1]>=0 DO M50
G1 X-0.956 Y7.2486 F600.000
G1 X-0.583 Y6.2404
G1 X-0.334 Y5.4723
G1 X-0.121 Y4.7110
G1 X0.056 Y3.9582
G1 X0.197 Y3.2106
G1 X0.329 Y2.2245
G1 X0.393 Y1.3853
G1 X0.411 Y0.6643
G1 X0.380 Y-0.3356
G1 X0.313 Y-1.0846
G1 X0.177 Y-2.0145
G1 X0.024 Y-2.7686
G1 X-0.202 Y-3.6452
G1 X-0.430 Y-4.3807
G1 X-0.722 Y-5.1831
G1 X-0.963 Y-5.7789
G1 X-1.563 Y-7.0722
G1 X-1.987 Y-7.8824
G1 X-2.449 Y-8.7080
G1 X-3.954 Y-11.2248
G1 X-4.406 Y-12.0252
G1 X-4.647 Y-12.5027
G1 X-4.834 Y-12.9341
G1 X-4.957 Y-13.2997
G1 X-5.004 Y-13.5035
G1 X-5.030 Y-13.8446
G1 X-4.997 Y-14.0465
G1 X-4.954 Y-14.1540
G1 X-4.812 Y-14.3078
G1 X-4.516 Y-14.4791
G1 X-4.231 Y-14.5675
G1 X-3.800 Y-14.6407
G1 X-3.241 Y-14.6655
G1 X-2.913 Y-14.6558
G1 X-2.379 Y-14.6075
G1 X-1.896 Y-14.5348
G1 X-1.285 Y-14.4097
G1 X-0.395 Y-14.1605
G1 X0.567 Y-13.8053
G1 X1.213 Y-13.5125
G1 X1.634 Y-13.2949
G1 X2.464 Y-12.7928
G1 X3.204 Y-12.2434
G1 X3.868 Y-11.6368
G1 X4.174 Y-11.3077
G1 X4.460 Y-10.9617
G1 X4.724 Y-10.5989
G1 X4.936 Y-10.2698
G1 X5.285 Y-9.6192
G1 X5.464 Y-9.2059
G1 X5.619 Y-8.7699
G1 X5.748 Y-8.3158
G1 X5.849 Y-7.8490
G1 X5.948 Y-7.1046
G1 X5.981 Y-6.3188
G1 X5.964 Y-5.7772
G1 X5.922 Y-5.2760
G1 X5.782 Y-4.3337
G1 X5.556 Y-3.3463
G1 X5.242 Y-2.3125
G1 X4.838 Y-1.2305
G1 X4.343 Y-0.1012
G1 X3.754 Y1.0749
G1 X3.072 Y2.2956
G1 X2.296 Y3.5609
G1 X1.426 Y4.8691
G1 X0.460 Y6.2234
G1 X-0.233 Y7.1369
ID=1 WHEN $AC_TIMER[1]>=0 DO M51
G1 X-1.014 Y7.843 F1980.000
ID=1 WHEN $AC_TIMER[1]>=0 DO M50
G1 X-2.035 Y9.4542 F600.000
G1 X-2.761 Y10.5087
G1 X-3.710 Y11.7947
ID=1 WHEN $AC_TIMER[1]>=0 DO M51
G1 Z12.500 F1980.000
G1 X-0.506 Y7.495 F1980.000
ID=1 WHEN $AC_TIMER[1]>=0 DO M50
G1 X-0.956 Y7.2486 F600.000
G1 X-0.583 Y6.2404
G1 X-0.334 Y5.4723
G1 X-0.121 Y4.7110
G1 X0.056 Y3.9582
G1 X0.197 Y3.2106
G1 X0.328 Y2.2316
G1 X0.393 Y1.3853
G1 X0.411 Y0.6642
G1 X0.380 Y-0.3323
G1 X0.313 Y-1.0845
G1 X0.178 Y-2.0097
G1 X0.024 Y-2.7685
G1 X-0.200 Y-3.6398
G1 X-0.430 Y-4.3796
G1 X-0.719 Y-5.1763
G1 X-0.960 Y-5.7704
G1 X-1.563 Y-7.0721
G1 X-1.983 Y-7.8756
G1 X-2.449 Y-8.7080
G1 X-3.954 Y-11.2248
G1 X-4.406 Y-12.0252
G1 X-4.647 Y-12.5027
G1 X-4.834 Y-12.9341
G1 X-4.956 Y-13.2988
G1 X-5.004 Y-13.5067
G1 X-5.031 Y-13.8419
G1 X-4.997 Y-14.0455
G1 X-4.954 Y-14.1541
G1 X-4.812 Y-14.3078
G1 X-4.618 Y-14.4332
G1 X-4.234 Y-14.5670
G1 X-3.800 Y-14.6409
G1 X-3.235 Y-14.6657
G1 X-2.913 Y-14.6550
G1 X-2.379 Y-14.6077
G1 X-1.888 Y-14.5332
G1 X-1.289 Y-14.4108
G1 X-0.395 Y-14.1607
G1 X0.575 Y-13.8015
G1 X1.209 Y-13.5145
G1 X1.631 Y-13.2961
G1 X2.464 Y-12.7920
G1 X3.204 Y-12.2436
G1 X3.868 Y-11.6360
G1 X4.174 Y-11.3070
G1 X4.460 Y-10.9610
G1 X4.724 Y-10.5982
G1 X4.934 Y-10.2728
G1 X5.285 Y-9.6195
G1 X5.464 Y-9.2052
G1 X5.619 Y-8.7691
G1 X5.748 Y-8.3150
G1 X5.849 Y-7.8493
G1 X5.948 Y-7.1048
G1 X5.981 Y-6.3181
G1 X5.964 Y-5.7774
G1 X5.922 Y-5.2762
G1 X5.782 Y-4.3339
G1 X5.556 Y-3.3466
G1 X5.242 Y-2.3127
G1 X4.838 Y-1.2307
G1 X4.343 Y-0.1014
G1 X3.754 Y1.0741
G1 X3.072 Y2.2958
G1 X2.296 Y3.5601
G1 X1.426 Y4.8693
G1 X0.460 Y6.2236
G1 X-0.233 Y7.1361
ID=1 WHEN $AC_TIMER[1]>=0 DO M51
G1 X-1.014 Y7.843 F1980.000
ID=1 WHEN $AC_TIMER[1]>=0 DO M50
G1 X-2.038 Y9.4595 F600.000
G1 X-2.869 Y10.6590
G1 X-3.710 Y11.7949
ID=1 WHEN $AC_TIMER[1]>=0 DO M51
G1 Z13.000 F1980.000
G1 X-0.506 Y7.495 F1980.000
ID=1 WHEN $AC_TIMER[1]>=0 DO M50
G1 X-0.956 Y7.2486 F600.000
G1 X-0.583 Y6.2404
G1 X-0.334 Y5.4723
G1 X-0.121 Y4.7110
G1 X0.056 Y3.9582
G1 X0.197 Y3.2106
G1 X0.327 Y2.2386
G1 X0.393 Y1.3852
G1 X0.411 Y0.6642
G1 X0.380 Y-0.3290
G1 X0.313 Y-1.0845
G1 X0.179 Y-2.0049
G1 X0.024 Y-2.7685
G1 X-0.198 Y-3.6334
G1 X-0.430 Y-4.3795
G1 X-0.716 Y-5.1685
G1 X-0.956 Y-5.7619
G1 X-1.563 Y-7.0720
G1 X-1.979 Y-7.8688
G1 X-2.449 Y-8.7080
G1 X-3.954 Y-11.2248
G1 X-4.406 Y-12.0252
G1 X-4.647 Y-12.5027
G1 X-4.834 Y-12.9341
G1 X-4.956 Y-13.2979
G1 X-5.005 Y-13.5098
G1 X-5.031 Y-13.8392
G1 X-5.001 Y-14.0264
G1 X-4.931 Y-14.1756
G1 X-4.810 Y-14.3096
G1 X-4.618 Y-14.4339
G1 X-4.236 Y-14.5660
G1 X-3.800 Y-14.6406
G1 X-3.230 Y-14.6655
G1 X-2.913 Y-14.6556
G1 X-2.379 Y-14.6074
G1 X-1.881 Y-14.5320
G1 X-1.293 Y-14.4115
G1 X-0.395 Y-14.1604
G1 X0.582 Y-13.7981
G1 X1.205 Y-13.5160
G1 X1.628 Y-13.2978
G1 X2.464 Y-12.7928
G1 X3.204 Y-12.2433
G1 X3.868 Y-11.6367
G1 X4.174 Y-11.3077
G1 X4.460 Y-10.9617
G1 X4.724 Y-10.5980
G1 X4.933 Y-10.2752
G1 X5.285 Y-9.6193
G1 X5.464 Y-9.2059
G1 X5.619 Y-8.7699
G1 X5.748 Y-8.3158
G1 X5.849 Y-7.8490
G1 X5.948 Y-7.1046
G1 X5.981 Y-6.3188
G1 X5.964 Y-5.7771
G1 X5.922 Y-5.2760
G1 X5.782 Y-4.3337
G1 X5.556 Y-3.3463
G1 X5.242 Y-2.3125
G1 X4.838 Y-1.2305
G1 X4.343 Y-0.1011
G1 X3.754 Y1.0748
G1 X3.072 Y2.2955
G1 X2.296 Y3.5608
G1 X1.426 Y4.8691
G1 X0.460 Y6.2233
G1 X-0.233 Y7.1368
ID=1 WHEN $AC_TIMER[1]>=0 DO M51
G1 X-1.014 Y7.843 F1980.000
ID=1 WHEN $AC_TIMER[1]>=0 DO M50
G1 X-2.042 Y9.4644 F600.000
G1 X-2.869 Y10.6597
G1 X-3.710 Y11.7946
ID=1 WHEN $AC_TIMER[1]>=0 DO M51
G1 Z13.500 F1980.000
G1 X-0.506 Y7.495 F1980.000
ID=1 WHEN $AC_TIMER[1]>=0 DO M50
G1 X-0.956 Y7.2486 F600.000
G1 X-0.583 Y6.2404
G1 X-0.334 Y5.4723
G1 X-0.121 Y4.7110
G1 X0.056 Y3.9582
G1 X0.197 Y3.2105
G1 X0.327 Y2.2457
G1 X0.393 Y1.3852
G1 X0.411 Y0.6642
G1 X0.380 Y-0.3267
G1 X0.313 Y-1.0844
G1 X0.180 Y-1.9982
G1 X0.024 Y-2.7684
G1 X-0.197 Y-3.6270
G1 X-0.430 Y-4.3794
G1 X-0.713 Y-5.1607
G1 X-0.953 Y-5.7533
G1 X-1.563 Y-7.0720
G1 X-1.975 Y-7.8610
G1 X-2.449 Y-8.7080
G1 X-3.954 Y-11.2248
G1 X-4.406 Y-12.0252
G1 X-4.647 Y-12.5027
G1 X-4.834 Y-12.9341
G1 X-4.956 Y-13.2960
G1 X-5.006 Y-13.5120
G1 X-5.031 Y-13.8375
G1 X-5.001 Y-14.0255
G1 X-4.932 Y-14.1741
G1 X-4.810 Y-14.3098
G1 X-4.618 Y-14.4339
G1 X-4.238 Y-14.5663
G1 X-3.800 Y-14.6406
G1 X-3.227 Y-14.6650
G1 X-2.735 Y-14.6431
G1 X-1.874 Y-14.5300
G1 X-1.298 Y-14.4122
G1 X-0.395 Y-14.1602
G1 X0.590 Y-13.7959
G1 X1.201 Y-13.5187
G1 X1.626 Y-13.2995
G1 X2.464 Y-12.7916
G1 X3.204 Y-12.2431
G1 X3.868 Y-11.6365
G1 X4.174 Y-11.3075
G1 X4.460 Y-10.9615
G1 X4.724 Y-10.5988
G1 X4.931 Y-10.2778
G1 X5.285 Y-9.6181
G1 X5.464 Y-9.2057
G1 X5.619 Y-8.7697
G1 X5.748 Y-8.3156
G1 X5.849 Y-7.8498
G1 X5.948 Y-7.1044
G1 X5.981 Y-6.3186
G1 X5.964 Y-5.7779
G1 X5.922 Y-5.2768
G1 X5.782 Y-4.3335
G1 X5.556 Y-3.3461
G1 X5.242 Y-2.3123
G1 X4.838 Y-1.2303
G1 X4.343 Y-0.1010
G1 X3.754 Y1.0747
G1 X3.072 Y2.2953
G1 X2.296 Y3.5606
G1 X1.426 Y4.8699
G1 X0.460 Y6.2231
G1 X-0.233 Y7.1367
ID=1 WHEN $AC_TIMER[1]>=0 DO M51
G1 X-1.014 Y7.843 F1980.000
ID=1 WHEN $AC_TIMER[1]>=0 DO M50
G1 X-2.045 Y9.4693 F600.000
G1 X-2.869 Y10.6596
G1 X-3.710 Y11.7944
ID=1 WHEN $AC_TIMER[1]>=0 DO M51
G1 Z14.000 F1980.000
G1 X-0.506 Y7.495 F1980.000
ID=1 WHEN $AC_TIMER[1]>=0 DO M50
G1 X-0.956 Y7.2486 F600.000
G1 X-0.583 Y6.2404
G1 X-0.334 Y5.4723
G1 X-0.121 Y4.7110
G1 X0.056 Y3.9582
G1 X0.197 Y3.2105
G1 X0.326 Y2.2527
G1 X0.393 Y1.3851
G1 X0.411 Y0.6642
G1 X0.380 Y-0.3225
G1 X0.313 Y-1.0844
G1 X0.181 Y-1.9934
G1 X0.024 Y-2.7683
G1 X-0.195 Y-3.6216
G1 X-0.430 Y-4.3794
G1 X-0.710 Y-5.1539
G1 X-0.949 Y-5.7448
G1 X-1.563 Y-7.0729
G1 X-1.971 Y-7.8532
G1 X-2.449 Y-8.7089
G1 X-3.954 Y-11.2248
G1 X-4.406 Y-12.0252
G1 X-4.647 Y-12.5027
G1 X-4.834 Y-12.9342
G1 X-4.955 Y-13.2941
G1 X-5.006 Y-13.5152
G1 X-5.031 Y-13.8348
G1 X-5.001 Y-14.0245
G1 X-4.932 Y-14.1747
G1 X-4.809 Y-14.3099
G1 X-4.618 Y-14.4330
G1 X-4.241 Y-14.5656
G1 X-3.800 Y-14.6406
G1 X-3.222 Y-14.6650
G1 X-2.735 Y-14.6430
G1 X-1.867 Y-14.5291
G1 X-1.302 Y-14.4131
G1 X-0.395 Y-14.1602
G1 X0.598 Y-13.7928
G1 X1.197 Y-13.5205
G1 X1.623 Y-13.3005
G1 X2.464 Y-12.7916
G1 X3.204 Y-12.2431
G1 X3.868 Y-11.6365
G1 X4.174 Y-11.3075
G1 X4.460 Y-10.9615
G1 X4.724 Y-10.5988
G1 X4.929 Y-10.2805
G1 X5.285 Y-9.6182
G1 X5.464 Y-9.2057
G1 X5.619 Y-8.7697
G1 X5.748 Y-8.3156
G1 X5.849 Y-7.8498
G1 X5.948 Y-7.1044
G1 X5.981 Y-6.3186
G1 X5.964 Y-5.7779
G1 X5.922 Y-5.2768
G1 X5.782 Y-4.3335
G1 X5.556 Y-3.3461
G1 X5.242 Y-2.3123
G1 X4.838 Y-1.2303
G1 X4.343 Y-0.1010
G1 X3.754 Y1.0747
G1 X3.072 Y2.2953
G1 X2.296 Y3.5606
G1 X1.426 Y4.8699
G1 X0.460 Y6.2231
G1 X-0.233 Y7.1367
ID=1 WHEN $AC_TIMER[1]>=0 DO M51
G1 X-1.014 Y7.843 F1980.000
ID=1 WHEN $AC_TIMER[1]>=0 DO M50
G1 X-2.048 Y9.4743 F600.000
G1 X-2.869 Y10.6595
G1 X-3.710 Y11.7944
ID=1 WHEN $AC_TIMER[1]>=0 DO M51
G1 Z14.500 F1980.000
G1 X-0.506 Y7.495 F1980.000
ID=1 WHEN $AC_TIMER[1]>=0 DO M50
G1 X-0.956 Y7.2486 F600.000
G1 X-0.583 Y6.2404
G1 X-0.334 Y5.4723
G1 X-0.121 Y4.7110
G1 X0.056 Y3.9582
G1 X0.197 Y3.2104
G1 X0.325 Y2.2598
G1 X0.393 Y1.3851
G1 X0.411 Y0.6652
G1 X0.381 Y-0.3192
G1 X0.313 Y-1.0843
G1 X0.182 Y-1.9886
G1 X0.024 Y-2.7683
G1 X-0.193 Y-3.6152
G1 X-0.430 Y-4.3793
G1 X-0.707 Y-5.1451
G1 X-0.945 Y-5.7353
G1 X-1.563 Y-7.0718
G1 X-1.967 Y-7.8464
G1 X-2.449 Y-8.7089
G1 X-3.954 Y-11.2248
G1 X-4.406 Y-12.0252
G1 X-4.647 Y-12.5027
G1 X-4.834 Y-12.9342
G1 X-4.955 Y-13.2932
G1 X-5.007 Y-13.5184
G1 X-5.031 Y-13.8321
G1 X-5.002 Y-14.0226
G1 X-4.923 Y-14.1933
G1 X-4.826 Y-14.2982
G1 X-4.618 Y-14.4331
G1 X-4.243 Y-14.5640
G1 X-3.800 Y-14.6408
G1 X-3.216 Y-14.6652
G1 X-2.735 Y-14.6431
G1 X-1.859 Y-14.5285
G1 X-1.306 Y-14.4141
G1 X-0.395 Y-14.1603
G1 X0.606 Y-13.7889
G1 X1.193 Y-13.5225
G1 X1.621 Y-13.3016
G1 X2.464 Y-12.7918
G1 X3.204 Y-12.2433
G1 X3.868 Y-11.6367
G1 X4.174 Y-11.3077
G1 X4.460 Y-10.9617
G1 X4.725 Y-10.5981
G1 X4.928 Y-10.2834
G1 X5.286 Y-9.6184
G1 X5.464 Y-9.2059
G1 X5.619 Y-8.7698
G1 X5.748 Y-8.3157
G1 X5.849 Y-7.8490
G1 X5.948 Y-7.1045
G1 X5.981 Y-6.3188
G1 X5.964 Y-5.7771
G1 X5.922 Y-5.2769
G1 X5.782 Y-4.3336
G1 X5.556 Y-3.3463
G1 X5.242 Y-2.3124
G1 X4.838 Y-1.2304
G1 X4.343 Y-0.1011
G1 X3.754 Y1.0748
G1 X3.072 Y2.2955
G1 X2.296 Y3.5608
G1 X1.426 Y4.8690
G1 X0.460 Y6.2233
G1 X-0.233 Y7.1368
ID=1 WHEN $AC_TIMER[1]>=0 DO M51
G1 X-1.014 Y7.843 F1980.000
ID=1 WHEN $AC_TIMER[1]>=0 DO M50
G1 X-2.051 Y9.4786 F600.000
G1 X-2.869 Y10.6597
G1 X-3.710 Y11.7946
ID=1 WHEN $AC_TIMER[1]>=0 DO M51
G1 Z15.000 F1980.000
G1 X-0.506 Y7.495 F1980.000
ID=1 WHEN $AC_TIMER[1]>=0 DO M50
G1 X-0.956 Y7.2486 F600.000
G1 X-0.583 Y6.2404
G1 X-0.334 Y5.4723
G1 X-0.121 Y4.7110
G1 X0.056 Y3.9582
G1 X0.197 Y3.2104
G1 X0.324 Y2.2668
G1 X0.393 Y1.3851
G1 X0.411 Y0.6651
G1 X0.381 Y-0.3169
G1 X0.313 Y-1.0843
G1 X0.182 Y-1.9829
G1 X0.024 Y-2.7682
G1 X-0.191 Y-3.6088
G1 X-0.430 Y-4.3792
G1 X-0.704 Y-5.1373
G1 X-0.942 Y-5.7277
G1 X-1.563 Y-7.0718
G1 X-1.963 Y-7.8396
G1 X-2.449 Y-8.7089
G1 X-3.954 Y-11.2248
G1 X-4.406 Y-12.0252
G1 X-4.647 Y-12.5027
G1 X-4.834 Y-12.9342
G1 X-4.955 Y-13.2923
G1 X-5.007 Y-13.5216
G1 X-5.031 Y-13.8294
G1 X-5.002 Y-14.0217
G1 X-4.924 Y-14.1929
G1 X-4.826 Y-14.2983
G1 X-4.618 Y-14.4332
G1 X-4.246 Y-14.5643
G1 X-3.800 Y-14.6408
G1 X-3.217 Y-14.6645
G1 X-2.374 Y-14.6062
G1 X-1.852 Y-14.5275
G1 X-1.305 Y-14.4146
G1 X-0.808 Y-14.2851
G1 X-0.283 Y-14.1249
G1 X0.739 Y-13.7325
G1 X1.623 Y-13.3006
G1 X2.464 Y-12.7918
G1 X3.204 Y-12.2432
G1 X3.868 Y-11.6366
G1 X4.174 Y-11.3076
G1 X4.460 Y-10.9616
G1 X4.725 Y-10.5980
G1 X4.926 Y-10.2860
G1 X5.286 Y-9.6184
G1 X5.464 Y-9.2058
G1 X5.619 Y-8.7698
G1 X5.748 Y-8.3157
G1 X5.849 Y-7.8499
G1 X5.948 Y-7.1045
G1 X5.981 Y-6.3187
G1 X5.964 Y-5.7770
G1 X5.922 Y-5.2769
G1 X5.782 Y-4.3336
G1 X5.556 Y-3.3462
G1 X5.242 Y-2.3124
G1 X4.838 Y-1.2304
G1 X4.343 Y-0.1011
G1 X3.754 Y1.0748
G1 X3.072 Y2.2954
G1 X2.296 Y3.5607
G1 X1.426 Y4.8690
G1 X0.460 Y6.2232
G1 X-0.233 Y7.1368
ID=1 WHEN $AC_TIMER[1]>=0 DO M51
G1 X-1.014 Y7.843 F1980.000
ID=1 WHEN $AC_TIMER[1]>=0 DO M50
G1 X-2.055 Y9.4836 F600.000
G1 X-2.869 Y10.6596
G1 X-3.710 Y11.7945
ID=1 WHEN $AC_TIMER[1]>=0 DO M51
G1 Z15.500 F1980.000
G1 X-0.506 Y7.495 F1980.000
ID=1 WHEN $AC_TIMER[1]>=0 DO M50
G1 X-0.956 Y7.2486 F600.000
G1 X-0.583 Y6.2404
G1 X-0.334 Y5.4723
G1 X-0.121 Y4.7110
G1 X0.056 Y3.9582
G1 X0.197 Y3.2113
G1 X0.324 Y2.2739
G1 X0.393 Y1.3850
G1 X0.411 Y0.6651
G1 X0.381 Y-0.3136
G1 X0.313 Y-1.0842
G1 X0.183 Y-1.9771
G1 X0.024 Y-2.7671
G1 X-0.190 Y-3.6024
G1 X-0.430 Y-4.3791
G1 X-0.701 Y-5.1295
G1 X-0.938 Y-5.7182
G1 X-1.563 Y-7.0717
G1 X-1.959 Y-7.8328
G1 X-2.449 Y-8.7089
G1 X-3.954 Y-11.2248
G1 X-4.406 Y-12.0252
G1 X-4.647 Y-12.5027
G1 X-4.834 Y-12.9343
G1 X-4.954 Y-13.2915
G1 X-5.008 Y-13.5247
G1 X-5.032 Y-13.8277
G1 X-4.999 Y-14.0415
G1 X-4.937 Y-14.1756
G1 X-4.826 Y-14.2993
G1 X-4.618 Y-14.4331
G1 X-4.248 Y-14.5635
G1 X-3.800 Y-14.6407
G1 X-3.211 Y-14.6645
G1 X-2.374 Y-14.6060
G1 X-1.845 Y-14.5256
G1 X-1.310 Y-14.4154
G1 X-0.808 Y-14.2851
G1 X-0.278 Y-14.1227
G1 X0.734 Y-13.7344
G1 X1.621 Y-13.3015
G1 X2.464 Y-12.7918
G1 X3.204 Y-12.2432
G1 X3.868 Y-11.6366
G1 X4.174 Y-11.3076
G1 X4.460 Y-10.9616
G1 X4.725 Y-10.5980
G1 X4.924 Y-10.2897
G1 X5.286 Y-9.6184
G1 X5.464 Y-9.2057
G1 X5.619 Y-8.7697
G1 X5.748 Y-8.3156
G1 X5.849 Y-7.8498
G1 X5.948 Y-7.1044
G1 X5.981 Y-6.3186
G1 X5.964 Y-5.7770
G1 X5.922 Y-5.2768
G1 X5.782 Y-4.3335
G1 X5.556 Y-3.3462
G1 X5.242 Y-2.3123
G1 X4.838 Y-1.2303
G1 X4.343 Y-0.1010
G1 X3.754 Y1.0747
G1 X3.072 Y2.2954
G1 X2.296 Y3.5607
G1 X1.426 Y4.8699
G1 X0.460 Y6.2232
G1 X-0.233 Y7.1367
ID=1 WHEN $AC_TIMER[1]>=0 DO M51
G1 X-1.014 Y7.843 F1980.000
ID=1 WHEN $AC_TIMER[1]>=0 DO M50
G1 X-2.058 Y9.4887 F600.000
G1 X-2.869 Y10.6596
G1 X-3.710 Y11.7945
ID=1 WHEN $AC_TIMER[1]>=0 DO M51
G1 Z16.000 F1980.000
G1 X-0.506 Y7.495 F1980.000
ID=1 WHEN $AC_TIMER[1]>=0 DO M50
G1 X-0.956 Y7.2486 F600.000
G1 X-0.583 Y6.2404
G1 X-0.334 Y5.4723
G1 X-0.121 Y4.7110
G1 X0.056 Y3.9582
G1 X0.197 Y3.2113
G1 X0.323 Y2.2800
G1 X0.393 Y1.3850
G1 X0.411 Y0.6651
G1 X0.381 Y-0.3094
G1 X0.313 Y-1.0841
G1 X0.184 Y-1.9723
G1 X0.025 Y-2.7670
G1 X-0.188 Y-3.5961
G1 X-0.431 Y-4.3832
G1 X-0.932 Y-5.7056
G1 X-1.563 Y-7.0715
G1 X-1.955 Y-7.8248
G1 X-2.449 Y-8.7087
G1 X-3.954 Y-11.2246
G1 X-4.406 Y-12.0251
G1 X-4.647 Y-12.5025
G1 X-4.834 Y-12.9341
G1 X-4.954 Y-13.2904
G1 X-5.008 Y-13.5278
G1 X-5.032 Y-13.8249
G1 X-5.000 Y-14.0395
G1 X-4.937 Y-14.1740
G1 X-4.826 Y-14.2993
G1 X-4.618 Y-14.4330
G1 X-4.250 Y-14.5637
G1 X-3.800 Y-14.6406
G1 X-3.206 Y-14.6644
G1 X-2.374 Y-14.6067
G1 X-1.838 Y-14.5247
G1 X-1.314 Y-14.4162
G1 X-0.808 Y-14.2850
G1 X-0.278 Y-14.1227
G1 X0.734 Y-13.7339
G1 X1.618 Y-13.3034
G1 X2.464 Y-12.7917
G1 X3.204 Y-12.2430
G1 X3.868 Y-11.6364
G1 X4.174 Y-11.3074
G1 X4.460 Y-10.9614
G1 X4.725 Y-10.5980
G1 X4.923 Y-10.2913
G1 X5.286 Y-9.6183
G1 X5.464 Y-9.2056
G1 X5.619 Y-8.7696
G1 X5.748 Y-8.3155
G1 X5.849 Y-7.8497
G1 X5.948 Y-7.1043
G1 X5.981 Y-6.3185
G1 X5.964 Y-5.7779
G1 X5.922 Y-5.2767
G1 X5.782 Y-4.3334
G1 X5.556 Y-3.3460
G1 X5.242 Y-2.3122
G1 X4.838 Y-1.2302
G1 X4.343 Y-0.1019
G1 X3.754 Y1.0746
G1 X3.072 Y2.2953
G1 X2.296 Y3.5605
G1 X1.426 Y4.8698
G1 X0.460 Y6.2231
G1 X-0.233 Y7.1366
ID=1 WHEN $AC_TIMER[1]>=0 DO M51
G1 X-1.014 Y7.843 F1980.000
ID=1 WHEN $AC_TIMER[1]>=0 DO M50
G1 X-2.061 Y9.4936 F600.000
G1 X-2.869 Y10.6595
G1 X-3.710 Y11.7943
ID=1 WHEN $AC_TIMER[1]>=0 DO M51
G1 Z16.500 F1980.000
G1 X-0.506 Y7.495 F1980.000
ID=1 WHEN $AC_TIMER[1]>=0 DO M50
G1 X-0.956 Y7.2486 F600.000
G1 X-0.583 Y6.2404
G1 X-0.334 Y5.4723
G1 X-0.121 Y4.7110
G1 X0.056 Y3.9582
G1 X0.197 Y3.2112
G1 X0.322 Y2.2870
G1 X0.393 Y1.3850
G1 X0.411 Y0.6651
G1 X0.382 Y-0.3061
G1 X0.313 Y-1.0841
G1 X0.185 Y-1.9676
G1 X0.025 Y-2.7670
G1 X-0.186 Y-3.5907
G1 X-0.431 Y-4.3831
G1 X-0.928 Y-5.6961
G1 X-1.563 Y-7.0714
G1 X-1.951 Y-7.8170
G1 X-2.449 Y-8.7087
G1 X-3.954 Y-11.2246
G1 X-4.406 Y-12.0251
G1 X-4.647 Y-12.5025
G1 X-4.834 Y-12.9342
G1 X-4.954 Y-13.2885
G1 X-5.009 Y-13.5300
G1 X-5.032 Y-13.8222
G1 X-5.000 Y-14.0386
G1 X-4.938 Y-14.1746
G1 X-4.826 Y-14.2994
G1 X-4.618 Y-14.4330
G1 X-4.253 Y-14.5620
G1 X-3.800 Y-14.6406
G1 X-3.200 Y-14.6644
G1 X-2.374 Y-14.6067
G1 X-1.831 Y-14.5239
G1 X-0.808 Y-14.2858
G1 X-0.273 Y-14.1204
G1 X0.729 Y-13.7366
G1 X1.616 Y-13.3042
G1 X2.464 Y-12.7915
G1 X3.204 Y-12.2439
G1 X3.868 Y-11.6363
G1 X4.174 Y-11.3073
G1 X4.455 Y-10.9663
G1 X4.925 Y-10.2876
G1 X5.286 Y-9.6189
G1 X5.464 Y-9.2052
G1 X5.619 Y-8.7692
G1 X5.748 Y-8.3151
G1 X5.849 Y-7.8493
G1 X5.948 Y-7.1049
G1 X5.981 Y-6.3181
G1 X5.964 Y-5.7774
G1 X5.922 Y-5.2762
G1 X5.782 Y-4.3339
G1 X5.556 Y-3.3466
G1 X5.242 Y-2.3127
G1 X4.838 Y-1.2307
G1 X4.343 Y-0.1014
G1 X3.754 Y1.0741
G1 X3.072 Y2.2958
G1 X2.296 Y3.5601
G1 X1.426 Y4.8693
G1 X0.460 Y6.2236
G1 X-0.233 Y7.1361
ID=1 WHEN $AC_TIMER[1]>=0 DO M51
G1 X-1.014 Y7.843 F1980.000
ID=1 WHEN $AC_TIMER[1]>=0 DO M50
G1 X-2.064 Y9.4983 F600.000
G1 X-2.869 Y10.6590
G1 X-3.710 Y11.7949
ID=1 WHEN $AC_TIMER[1]>=0 DO M51
G1 Z17.000 F1980.000
G1 X-0.506 Y7.495 F1980.000
ID=1 WHEN $AC_TIMER[1]>=0 DO M50
G1 X-0.956 Y7.2486 F600.000
G1 X-0.583 Y6.2404
G1 X-0.334 Y5.4723
G1 X-0.121 Y4.7110
G1 X0.056 Y3.9582
G1 X0.197 Y3.2112
G1 X0.322 Y2.2941
G1 X0.393 Y1.3859
G1 X0.411 Y0.6651
G1 X0.382 Y-0.3038
G1 X0.313 Y-1.0830
G1 X0.186 Y-1.9618
G1 X0.025 Y-2.7679
G1 X-0.184 Y-3.5843
G1 X-0.431 Y-4.3830
G1 X-0.925 Y-5.6876
G1 X-1.563 Y-7.0713
G1 X-1.947 Y-7.8102
G1 X-2.449 Y-8.7087
G1 X-3.954 Y-11.2246
G1 X-4.406 Y-12.0251
G1 X-4.647 Y-12.5025
G1 X-4.834 Y-12.9342
G1 X-4.953 Y-13.2877
G1 X-5.010 Y-13.5342
G1 X-5.032 Y-13.8195
G1 X-5.001 Y-14.0377
G1 X-4.938 Y-14.1732
G1 X-4.826 Y-14.2995
G1 X-4.618 Y-14.4331
G1 X-4.255 Y-14.5613
G1 X-3.800 Y-14.6407
G1 X-3.194 Y-14.6645
G1 X-2.374 Y-14.6066
G1 X-1.823 Y-14.5221
G1 X-0.808 Y-14.2859
G1 X-0.267 Y-14.1184
G1 X0.723 Y-13.7385
G1 X1.613 Y-13.3052
G1 X2.465 Y-12.7916
G1 X3.204 Y-12.2430
G1 X3.868 Y-11.6364
G1 X4.174 Y-11.3074
G1 X4.455 Y-10.9664
G1 X4.923 Y-10.2894
G1 X5.286 Y-9.6180
G1 X5.464 Y-9.2052
G1 X5.619 Y-8.7692
G1 X5.748 Y-8.3151
G1 X5.849 Y-7.8493
G1 X5.948 Y-7.1049
G1 X5.981 Y-6.3181
G1 X5.964 Y-5.7775
G1 X5.922 Y-5.2763
G1 X5.782 Y-4.3330
G1 X5.556 Y-3.3466
G1 X5.242 Y-2.3128
G1 X4.838 Y-1.2308
G1 X4.343 Y-0.1015
G1 X3.754 Y1.0742
G1 X3.072 Y2.2959
G1 X2.296 Y3.5602
G1 X1.426 Y4.8694
G1 X0.460 Y6.2237
G1 X-0.233 Y7.1362
ID=1 WHEN $AC_TIMER[1]>=0 DO M51
G1 X-1.014 Y7.843 F1980.000
ID=1 WHEN $AC_TIMER[1]>=0 DO M50
G1 X-2.068 Y9.5034 F600.000
G1 X-2.869 Y10.6591
G1 X-3.710 Y11.7940
ID=1 WHEN $AC_TIMER[1]>=0 DO M51
G1 Z17.500 F1980.000
G1 X-0.506 Y7.495 F1980.000
ID=1 WHEN $AC_TIMER[1]>=0 DO M50
G1 X-0.956 Y7.2486 F600.000
G1 X-0.583 Y6.2404
G1 X-0.334 Y5.4723
G1 X-0.121 Y4.7110
G1 X0.056 Y3.9582
G1 X0.197 Y3.2111
G1 X0.321 Y2.3011
G1 X0.393 Y1.3859
G1 X0.411 Y0.6650
G1 X0.382 Y-0.3006
G1 X0.313 Y-1.0830
G1 X0.187 Y-1.9560
G1 X0.025 Y-2.7678
G1 X-0.183 Y-3.5789
G1 X-0.431 Y-4.3830
G1 X-0.921 Y-5.6791
G1 X-1.563 Y-7.0713
G1 X-1.943 Y-7.8034
G1 X-2.449 Y-8.7087
G1 X-3.954 Y-11.2246
G1 X-4.406 Y-12.0251
G1 X-4.647 Y-12.5025
G1 X-4.834 Y-12.9343
G1 X-4.953 Y-13.2868
G1 X-5.010 Y-13.5374
G1 X-5.032 Y-13.8178
G1 X-5.001 Y-14.0358
G1 X-4.938 Y-14.1738
G1 X-4.826 Y-14.2996
G1 X-4.618 Y-14.4331
G1 X-4.258 Y-14.5616
G1 X-3.800 Y-14.6407
G1 X-3.188 Y-14.6645
G1 X-2.375 Y-14.6065
G1 X-1.816 Y-14.5203
G1 X-0.808 Y-14.2859
G1 X-0.262 Y-14.1173
G1 X0.718 Y-13.7414
G1 X1.610 Y-13.3072
G1 X2.465 Y-12.7917
G1 X3.204 Y-12.2430
G1 X3.868 Y-11.6364
G1 X4.174 Y-11.3074
G1 X4.455 Y-10.9665
G1 X4.922 Y-10.2922
G1 X5.286 Y-9.6181
G1 X5.464 Y-9.2053
G1 X5.619 Y-8.7693
G1 X5.748 Y-8.3152
G1 X5.849 Y-7.8494
G1 X5.948 Y-7.1040
G1 X5.981 Y-6.3182
G1 X5.964 Y-5.7775
G1 X5.922 Y-5.2764
G1 X5.782 Y-4.3331
G1 X5.556 Y-3.3467
G1 X5.242 Y-2.3129
G1 X4.838 Y-1.2309
G1 X4.343 Y-0.1016
G1 X3.754 Y1.0743
G1 X3.072 Y2.2959
G1 X2.296 Y3.5602
G1 X1.426 Y4.8695
G1 X0.460 Y6.2237
G1 X-0.233 Y7.1363
ID=1 WHEN $AC_TIMER[1]>=0 DO M51
G1 X-1.014 Y7.843 F1980.000
ID=1 WHEN $AC_TIMER[1]>=0 DO M50
G1 X-2.071 Y9.5076 F600.000
G1 X-2.869 Y10.6591
G1 X-3.710 Y11.7940
ID=1 WHEN $AC_TIMER[1]>=0 DO M51
G1 Z18.000 F1980.000
G1 X-0.506 Y7.495 F1980.000
ID=1 WHEN $AC_TIMER[1]>=0 DO M50
G1 X-0.956 Y7.2486 F600.000
G1 X-0.583 Y6.2404
G1 X-0.334 Y5.4723
G1 X-0.121 Y4.7110
G1 X0.056 Y3.9582
G1 X0.197 Y3.2111
G1 X0.320 Y2.3082
G1 X0.393 Y1.3858
G1 X0.411 Y0.6650
G1 X0.382 Y-0.2963
G1 X0.313 Y-1.0839
G1 X0.188 Y-1.9513
G1 X0.025 Y-2.7678
G1 X-0.181 Y-3.5725
G1 X-0.431 Y-4.3839
G1 X-0.916 Y-5.6678
G1 X-1.285 Y-6.4999
G1 X-1.939 Y-7.7957
G1 X-2.449 Y-8.7087
G1 X-3.954 Y-11.2247
G1 X-4.406 Y-12.0251
G1 X-4.647 Y-12.5026
G1 X-4.834 Y-12.9343
G1 X-4.953 Y-13.2850
G1 X-5.011 Y-13.5406
G1 X-5.032 Y-13.8141
G1 X-5.002 Y-14.0349
G1 X-4.939 Y-14.1724
G1 X-4.826 Y-14.2997
G1 X-4.618 Y-14.4332
G1 X-4.260 Y-14.5600
G1 X-3.800 Y-14.6408
G1 X-3.183 Y-14.6646
G1 X-2.375 Y-14.6064
G1 X-1.809 Y-14.5195
G1 X-0.808 Y-14.2850
G1 X-0.257 Y-14.1153
G1 X0.712 Y-13.7433
G1 X1.608 Y-13.3083
G1 X2.465 Y-12.7919
G1 X3.204 Y-12.2431
G1 X3.868 Y-11.6365
G1 X4.174 Y-11.3075
G1 X4.455 Y-10.9667
G1 X4.920 Y-10.2950
G1 X5.286 Y-9.6182
G1 X5.464 Y-9.2054
G1 X5.619 Y-8.7694
G1 X5.748 Y-8.3153
G1 X5.849 Y-7.8495
G1 X5.948 Y-7.1041
G1 X5.981 Y-6.3183
G1 X5.964 Y-5.7777
G1 X5.922 Y-5.2765
G1 X5.782 Y-4.3332
G1 X5.556 Y-3.3468
G1 X5.242 Y-2.3120
G1 X4.838 Y-1.2300
G1 X4.343 Y-0.1017
G1 X3.754 Y1.0744
G1 X3.072 Y2.2950
G1 X2.296 Y3.5603
G1 X1.426 Y4.8696
G1 X0.460 Y6.2239
G1 X-0.233 Y7.1364
ID=1 WHEN $AC_TIMER[1]>=0 DO M51
G1 X-1.014 Y7.843 F1980.000
ID=1 WHEN $AC_TIMER[1]>=0 DO M50
G1 X-2.074 Y9.5128 F600.000
G1 X-2.869 Y10.6593
G1 X-3.710 Y11.7941
ID=1 WHEN $AC_TIMER[1]>=0 DO M51
G1 Z18.500 F1980.000
G1 X-0.506 Y7.496 F1980.000
ID=1 WHEN $AC_TIMER[1]>=0 DO M50
G1 X-0.957 Y7.2498 F600.000
G1 X-0.594 Y6.2696
G1 X-0.328 Y5.4524
G1 X-0.118 Y4.7034
G1 X0.056 Y3.9603
G1 X0.200 Y3.1898
G1 X0.319 Y2.3156
G1 X0.393 Y1.3839
G1 X0.411 Y0.6688
G1 X0.382 Y-0.2931
G1 X0.314 Y-1.0690
G1 X0.189 Y-1.9455
G1 X0.029 Y-2.7487
G1 X-0.179 Y-3.5662
G1 X-0.434 Y-4.3915
G1 X-0.912 Y-5.6585
G1 X-1.271 Y-6.4678
G1 X-1.936 Y-7.7882
G1 X-2.450 Y-8.7108
G1 X-3.956 Y-11.2289
G1 X-4.404 Y-12.0212
G1 X-4.647 Y-12.5028
G1 X-4.836 Y-12.9408
G1 X-4.952 Y-13.2832
G1 X-5.014 Y-13.5545
G1 X-5.032 Y-13.8552
G1 X-4.996 Y-14.0455
G1 X-4.927 Y-14.1832
G1 X-4.813 Y-14.3073
G1 X-4.620 Y-14.4322
G1 X-4.263 Y-14.5609
G1 X-3.799 Y-14.6404
G1 X-3.313 Y-14.6651
G1 X-2.899 Y-14.6540
G1 X-2.382 Y-14.6076
G1 X-1.802 Y-14.5189
G1 X-1.341 Y-14.4223
G1 X-0.372 Y-14.1530
G1 X0.209 Y-13.9496
G1 X0.662 Y-13.7658
G1 X1.606 Y-13.3107
G1 X2.459 Y-12.7957
G1 X3.206 Y-12.2402
G1 X3.869 Y-11.6355
G1 X4.174 Y-11.3063
G1 X4.459 Y-10.9622
G1 X4.918 Y-10.2981
G1 X5.284 Y-9.6225
G1 X5.464 Y-9.2055
G1 X5.620 Y-8.7669
G1 X5.750 Y-8.3108
G1 X5.845 Y-7.8683
G1 X5.949 Y-7.0975
G1 X5.981 Y-6.3152
G1 X5.964 Y-5.7778
G1 X5.922 Y-5.2761
G1 X5.785 Y-4.3500
G1 X5.559 Y-3.3605
G1 X5.247 Y-2.3277
G1 X4.827 Y-1.2034
G1 X4.338 Y-0.0918
G1 X3.758 Y1.0684
G1 X3.069 Y2.3005
G1 X2.303 Y3.5504
G1 X1.421 Y4.8769
G1 X0.464 Y6.2180
G1 X-0.234 Y7.1389
ID=1 WHEN $AC_TIMER[1]>=0 DO M51
G1 X-1.014 Y7.845 F1980.000
ID=1 WHEN $AC_TIMER[1]>=0 DO M50
G1 X-1.517 Y8.6633 F600.000
G1 X-2.078 Y9.5173
G1 X-2.730 Y10.4640
G1 X-3.706 Y11.7887
ID=1 WHEN $AC_TIMER[1]>=0 DO M51
G1 Z19.000 F1980.000
G1 X-0.508 Y7.500 F1980.000
ID=1 WHEN $AC_TIMER[1]>=0 DO M50
G1 X-0.959 Y7.2524 F600.000
G1 X-0.620 Y6.3435
G1 X-0.313 Y5.4014
G1 X-0.113 Y4.6810
G1 X0.055 Y3.9642
G1 X0.209 Y3.1346
G1 X0.319 Y2.3219
G1 X0.393 Y1.3764
G1 X0.411 Y0.6777
G1 X0.383 Y-0.2905
G1 X0.318 Y-1.0336
G1 X0.190 Y-1.9392
G1 X0.039 Y-2.7026
G1 X-0.177 Y-3.5606
G1 X-0.441 Y-4.4134
G1 X-0.909 Y-5.6498
G1 X-1.234 Y-6.3890
G1 X-1.599 Y-7.1430
G1 X-2.452 Y-8.7130
G1 X-3.962 Y-11.2374
G1 X-4.398 Y-12.0111
G1 X-4.647 Y-12.5034
G1 X-4.818 Y-12.8959
G1 X-4.952 Y-13.2843
G1 X-5.012 Y-13.5461
G1 X-5.034 Y-13.8279
G1 X-5.004 Y-14.0233
G1 X-4.929 Y-14.1790
G1 X-4.813 Y-14.3066
G1 X-4.625 Y-14.4293
G1 X-4.266 Y-14.5593
G1 X-3.806 Y-14.6394
G1 X-3.266 Y-14.6659
G1 X-2.867 Y-14.6526
G1 X-2.387 Y-14.6082
G1 X-1.794 Y-14.5160
G1 X-1.346 Y-14.4237
G1 X-0.329 Y-14.1399
G1 X0.664 Y-13.7641
G1 X1.609 Y-13.3080
G1 X2.466 Y-12.7912
G1 X3.223 Y-12.2277
G1 X3.860 Y-11.6444
G1 X4.175 Y-11.3050
G1 X4.468 Y-10.9504
G1 X4.917 Y-10.3016
G1 X5.279 Y-9.6326
G1 X5.464 Y-9.2064
G1 X5.623 Y-8.7581
G1 X5.753 Y-8.2950
G1 X5.836 Y-7.9150
G1 X5.950 Y-7.0790
G1 X5.981 Y-6.3063
G1 X5.964 Y-5.7780
G1 X5.922 Y-5.2754
G1 X5.793 Y-4.3945
G1 X5.568 Y-3.3930
G1 X5.260 Y-2.3673
G1 X4.800 Y-1.1374
G1 X4.326 Y-0.0669
G1 X3.767 Y1.0517
G1 X3.062 Y2.3124
G1 X2.318 Y3.5253
G1 X1.408 Y4.8947
G1 X0.472 Y6.2063
G1 X-0.237 Y7.1415
ID=1 WHEN $AC_TIMER[1]>=0 DO M51
G1 X-1.016 Y7.848 F1980.000
ID=1 WHEN $AC_TIMER[1]>=0 DO M50
G1 X-1.563 Y8.7346 F600.000
G1 X-2.080 Y9.5216
G1 X-2.652 Y10.3540
G1 X-3.708 Y11.7915
ID=1 WHEN $AC_TIMER[1]>=0 DO M51
G1 Z19.500 F1980.000
G1 X-0.510 Y7.503 F1980.000
ID=1 WHEN $AC_TIMER[1]>=0 DO M50
G1 X-0.961 Y7.2549 F600.000
G1 X-0.646 Y6.4171
G1 X-0.298 Y5.3503
G1 X-0.108 Y4.6593
G1 X0.054 Y3.9687
G1 X0.217 Y3.0800
G1 X0.318 Y2.3289
G1 X0.393 Y1.3707
G1 X0.411 Y0.6868
G1 X0.388 Y-0.1896
G1 X0.322 Y-0.9967
G1 X0.203 Y-1.8642
G1 X0.049 Y-2.6566
G1 X-0.176 Y-3.5546
G1 X-0.447 Y-4.4309
G1 X-0.677 Y-5.0696
G1 X-1.199 Y-6.3102
G1 X-1.621 Y-7.1889
G1 X-2.455 Y-8.7194
G1 X-3.967 Y-11.2475
G1 X-4.393 Y-12.0017
G1 X-4.648 Y-12.5045
G1 X-4.807 Y-12.8673
G1 X-4.952 Y-13.2836
G1 X-5.012 Y-13.5499
G1 X-5.033 Y-13.8077
G1 X-5.003 Y-14.0309
G1 X-4.889 Y-14.2382
G1 X-4.623 Y-14.4311
G1 X-4.528 Y-14.4745
G1 X-4.266 Y-14.5597
G1 X-3.813 Y-14.6384
G1 X-3.219 Y-14.6657
G1 X-2.391 Y-14.6094
G1 X-1.787 Y-14.5158
G1 X-1.344 Y-14.4239
G1 X-0.871 Y-14.3036
G1 X-0.297 Y-14.1286
G1 X0.677 Y-13.7582
G1 X1.606 Y-13.3098
G1 X2.055 Y-13.0535
G1 X2.866 Y-12.5071
G1 X3.244 Y-12.2092
G1 X3.851 Y-11.6535
G1 X4.176 Y-11.3041
G1 X4.477 Y-10.9388
G1 X4.918 Y-10.3006
G1 X5.167 Y-9.8594
G1 X5.462 Y-9.2100
G1 X5.623 Y-8.7570
G1 X5.830 Y-7.9455
G1 X5.896 Y-7.5612
G1 X5.951 Y-7.0687
G1 X5.981 Y-6.2967
G1 X5.964 Y-5.7796
G1 X5.922 Y-5.2742
G1 X5.801 Y-4.4384
G1 X5.577 Y-3.4269
G1 X5.272 Y-2.4007
G1 X4.774 Y-1.0740
G1 X4.314 Y-0.0415
G1 X3.776 Y1.0345
G1 X3.055 Y2.3257
G1 X2.334 Y3.5007
G1 X1.396 Y4.9128
G1 X0.481 Y6.1941
G1 X-0.238 Y7.1441
ID=1 WHEN $AC_TIMER[1]>=0 DO M51
G1 X-1.019 Y7.851 F1980.000
ID=1 WHEN $AC_TIMER[1]>=0 DO M50
G1 X-1.621 Y8.8254 F600.000
G1 X-2.146 Y9.6187
G1 X-2.809 Y10.5742
G1 X-3.713 Y11.7969
ID=1 WHEN $AC_TIMER[1]>=0 DO M51
G1 Z20.000 F1980.000
G1 X-0.514 Y7.510 F1980.000
ID=1 WHEN $AC_TIMER[1]>=0 DO M50
G1 X-0.965 Y7.2652 F600.000
G1 X-0.486 Y5.9518
G1 X-0.281 Y5.2955
G1 X-0.090 Y4.5880
G1 X0.110 Y3.6918
G1 X0.231 Y2.9934
G1 X0.317 Y2.3345
G1 X0.394 Y1.3631
G1 X0.411 Y0.6940
G1 X0.385 Y-0.2502
G1 X0.326 Y-0.9610
G1 X0.196 Y-1.9046
G1 X0.059 Y-2.6107
G1 X-0.174 Y-3.5489
G1 X-0.456 Y-4.4561
G1 X-0.914 Y-5.6634
G1 X-1.162 Y-6.2319
G1 X-1.644 Y-7.2332
G1 X-2.459 Y-8.7250
G1 X-3.973 Y-11.2569
G1 X-4.388 Y-11.9916
G1 X-4.796 Y-12.8397
G1 X-4.952 Y-13.2839
G1 X-5.013 Y-13.5510
G1 X-5.033 Y-13.8235
G1 X-5.018 Y-13.9749
G1 X-4.963 Y-14.1327
G1 X-4.862 Y-14.2659
G1 X-4.741 Y-14.3629
G1 X-4.528 Y-14.4721
G1 X-4.117 Y-14.5928
G1 X-3.663 Y-14.6523
G1 X-3.184 Y-14.6645
G1 X-2.389 Y-14.6081
G1 X-1.780 Y-14.5143
G1 X-0.897 Y-14.3103
G1 X-0.254 Y-14.1147
G1 X0.691 Y-13.7529
G1 X1.604 Y-13.3118
G1 X2.469 Y-12.7893
G1 X2.877 Y-12.4991
G1 X3.281 Y-12.1797
G1 X3.662 Y-11.8380
G1 X3.987 Y-11.5115
G1 X4.489 Y-10.9227
G1 X4.922 Y-10.2929
G1 X5.159 Y-9.8745
G1 X5.354 Y-9.4675
G1 X5.627 Y-8.7441
G1 X5.821 Y-7.9936
G1 X5.898 Y-7.5425
G1 X5.953 Y-7.0522
G1 X5.980 Y-6.2522
G1 X5.922 Y-5.2738
G1 X5.809 Y-4.4821
G1 X5.585 Y-3.4607
G1 X5.297 Y-2.4770
G1 X4.921 Y-1.4376
G1 X4.301 Y-0.0137
G1 X3.784 Y1.0170
G1 X3.047 Y2.3377
G1 X2.350 Y3.4758
G1 X1.384 Y4.9297
G1 X0.490 Y6.1826
G1 X-0.243 Y7.1516
ID=1 WHEN $AC_TIMER[1]>=0 DO M51
G1 X-1.023 Y7.859 F1980.000
ID=1 WHEN $AC_TIMER[1]>=0 DO M50
G1 X-1.680 Y8.9159 F600.000
G1 X-2.108 Y9.5628
G1 X-2.829 Y10.6028
G1 X-3.717 Y11.8001
ID=1 WHEN $AC_TIMER[1]>=0 DO M51
M0
;TURN OFF POWDER!!!
M0
G4F5

;End of Programm--------------------
M55				;home mirror
M30				;program end

; filament used = 165.1mm (1.2cm3)

; avoid_crossing_perimeters = 0
; bed_shape = -150x-150,150x-150,150x150,-150x150
; bed_temperature = 0
; before_layer_gcode = 
; bridge_acceleration = 0
; bridge_fan_speed = 100
; brim_width = 0
; complete_objects = 0
; cooling = 0
; default_acceleration = 0
; disable_fan_first_layers = 3
; duplicate_distance = 6
; end_gcode = M0\n;TURN OFF POWDER!!!\nM0\nG4F5\n\n;End of Programm--------------------\nM55				;home mirror\nM30				;program end\n
; extruder_clearance_height = 20
; extruder_clearance_radius = 20
; extruder_offset = 0x0
; extrusion_axis = E
; extrusion_multiplier = 1
; fan_always_on = 0
; fan_below_layer_time = 60
; filament_colour = #FFFFFF
; filament_diameter = 3
; first_layer_acceleration = 0
; first_layer_bed_temperature = 0
; first_layer_extrusion_width = 0
; first_layer_speed = 100%
; first_layer_temperature = 205
; gcode_arcs = 0
; gcode_comments = 0
; gcode_flavor = reprap
; infill_acceleration = 0
; infill_first = 0
; layer_gcode = 
; max_fan_speed = 100
; max_print_speed = 80
; max_volumetric_speed = 0
; min_fan_speed = 35
; min_print_speed = 33
; min_skirt_length = 0
; notes = 
; nozzle_diameter = 3
; only_retract_when_crossing_perimeters = 0
; ooze_prevention = 0
; output_filename_format = [input_filename_base].gcode
; perimeter_acceleration = 0
; post_process = 
; pressure_advance = 0
; resolution = 0
; retract_before_travel = 2
; retract_layer_change = 0
; retract_length = 0
; retract_length_toolchange = 10
; retract_lift = 0
; retract_restart_extra = 0
; retract_restart_extra_toolchange = 0
; retract_speed = 40
; skirt_distance = 6
; skirt_height = 1
; skirts = 0
; slowdown_below_layer_time = 5
; spiral_vase = 0
; standby_temperature_delta = -5
; start_gcode = $AC_TIMER[1]=0\n\n;General Config.--------------------\nG641			;\nG603			;\nM55			;home mirror\nG4F4			;necessary delay for positioning of the mirror				\nM0			;wait for user-input\n\n;Process Start-up-------------------\nM56			;set canal 1 as laser-source\nG4F4			;necessary delay for positioning of the mirror\nM0			;wait for user-input\n;START POWDER!!!\nG4F15\n\nM0\n\nG54\n
; temperature = 200
; threads = 2
; toolchange_gcode = 
; travel_speed = 33
; use_firmware_retraction = 0
; use_relative_e_distances = 0
; use_volumetric_e = 0
; vibration_limit = 0
; wipe = 0
; z_offset = 0
; dont_support_bridges = 1
; extrusion_width = 1.1
; first_layer_height = 100%
; infill_only_where_needed = 0
; interface_shells = 0
; layer_height = 0.5
; raft_layers = 0
; seam_position = aligned
; support_material = 0
; support_material_angle = 0
; support_material_contact_distance = 0.2
; support_material_enforce_layers = 0
; support_material_extruder = 1
; support_material_extrusion_width = 0
; support_material_interface_extruder = 1
; support_material_interface_layers = 3
; support_material_interface_spacing = 0
; support_material_interface_speed = 100%
; support_material_pattern = pillars
; support_material_spacing = 2.5
; support_material_speed = 60
; support_material_threshold = 0
; xy_size_compensation = 0
; bottom_solid_layers = 0
; bridge_flow_ratio = 1
; bridge_speed = 33.3333
; external_fill_pattern = rectilinear
; external_perimeter_extrusion_width = 0
; external_perimeter_speed = 100%
; external_perimeters_first = 0
; extra_perimeters = 1
; fill_angle = 45
; fill_density = 0%
; fill_pattern = rectilinear
; gap_fill_speed = 33.3333
; infill_every_layers = 1
; infill_extruder = 1
; infill_extrusion_width = 0
; infill_overlap = 15%
; infill_speed = 33.3333
; overhangs = 1
; perimeter_extruder = 1
; perimeter_extrusion_width = 0
; perimeter_speed = 10
; perimeters = 1
; small_perimeter_speed = 100%
; solid_infill_below_area = 70
; solid_infill_every_layers = 0
; solid_infill_extruder = 1
; solid_infill_extrusion_width = 0
; solid_infill_speed = 100%
; thin_walls = 1
; top_infill_extrusion_width = 0
; top_solid_infill_speed = 100%
; top_solid_layers = 0
