; Generated by RP3 on 2019-02-11
; Job 0 - LMD

; General Config.--------------------
$ac_timer[1]=0
G91   ; relative positioning
G64   ;
M55   ; home mirror
G4F4  ; necessary delay for positioning of the mirror
M0    ; wait for user-input

; Process Start-up--------------------
M56   ; set canal 1 as laser-source
G4F4  ; necessary delay for positioning of the mirror
M0    ; wait for user-input
; START POWDER!!!
G4F5
M0
G54   ; set process starting point (machine zero)

; Laser On and Path------------------
H1=63
G90   ; use absolute coordinates

; Layer 1
G1 Z1.300 F1500
X10.4869 Y26.7246 F1500
ID=1 WHEN $AC_TIMER[1]>=0 DO M50
X9.550 Y26.006 F300
X8.696 Y25.189
X7.930 Y24.295
X7.257 Y23.331
X6.682 Y22.291
X6.210 Y21.210
X5.866 Y20.086
X5.627 Y18.921
X5.500 Y17.772
X5.500 Y16.572
X5.627 Y15.398
X5.865 Y14.236
X6.210 Y13.120
X6.682 Y12.030
X7.256 Y11.001
X7.932 Y10.033
X8.696 Y9.132
X9.550 Y8.324
X10.487 Y7.596
X11.487 Y6.978
X12.544 Y6.458
X13.657 Y6.048
X14.791 Y5.748
X15.965 Y5.575
X17.140 Y5.512
X18.324 Y5.575
X19.488 Y5.748
X20.623 Y6.048
X21.736 Y6.458
X22.795 Y6.979
X23.803 Y7.596
X24.728 Y8.322
X25.586 Y9.134
X26.360 Y10.035
X27.033 Y10.999
X27.624 Y12.069
X28.070 Y13.120
X28.426 Y14.240
X28.662 Y15.393
X28.780 Y16.568
X28.780 Y17.752
X28.662 Y18.927
X28.425 Y20.081
X28.070 Y21.210
X27.606 Y22.294
X27.033 Y23.331
X26.362 Y24.292
X25.586 Y25.186
X24.728 Y26.008
X23.803 Y26.725
X22.791 Y27.353
X21.736 Y27.872
X20.628 Y28.281
X19.488 Y28.572
X18.320 Y28.755
X17.140 Y28.818
X15.970 Y28.755
X14.791 Y28.572
X13.652 Y28.281
X12.544 Y27.872
X11.491 Y27.354
X10.572 Y26.778
ID=1 WHEN $AC_TIMER[1]>=0 DO M51
X10.9943 Y17.061 F1500
ID=1 WHEN $AC_TIMER[1]>=0 DO M50
X10.995 Y17.271 F300
X11.085 Y18.201
X11.120 Y18.389
X11.330 Y19.169
X11.402 Y19.364
X11.802 Y20.204
X11.899 Y20.370
X12.369 Y21.040
X12.503 Y21.199
X13.163 Y21.849
X13.323 Y21.981
X14.043 Y22.471
X14.218 Y22.569
X15.018 Y22.929
X15.191 Y22.990
X15.971 Y23.200
X16.184 Y23.237
X17.114 Y23.307
X17.299 Y23.306
X18.109 Y23.236
X18.321 Y23.197
X19.211 Y22.947
X19.398 Y22.876
X20.188 Y22.496
X20.361 Y22.394
X21.071 Y21.884
X21.213 Y21.763
X21.783 Y21.193
X21.917 Y21.032
X22.447 Y20.262
X22.545 Y20.090
X22.885 Y19.350
X22.949 Y19.174
X23.179 Y18.334
X23.217 Y18.117
X23.287 Y17.197
X23.286 Y17.012
X23.216 Y16.192
X23.177 Y15.979
X22.927 Y15.089
X22.860 Y14.908
X22.510 Y14.168
X22.410 Y13.998
X21.910 Y13.288
X21.777 Y13.131
X21.117 Y12.481
X20.970 Y12.359
X20.300 Y11.889
X20.128 Y11.789
X19.338 Y11.419
X19.135 Y11.346
X18.235 Y11.116
X18.049 Y11.084
X17.239 Y11.014
X17.028 Y11.015
X16.108 Y11.105
X15.925 Y11.139
X15.135 Y11.349
X14.942 Y11.419
X14.152 Y11.789
X13.978 Y11.890
X13.268 Y12.390
X13.117 Y12.517
X12.497 Y13.137
X12.370 Y13.288
X11.870 Y13.998
X11.769 Y14.172
X11.399 Y14.962
X11.326 Y15.165
X11.096 Y16.065
X11.064 Y16.251
X11.003 Y16.961
ID=1 WHEN $AC_TIMER[1]>=0 DO M51

; Inicio do trecho do raster
X26.606 Y15.6731 F1500
ID=1 WHEN $AC_TIMER[1]>=0 DO M50
X24.521 Y13.588 F300
ID=1 WHEN $AC_TIMER[1]>=0 DO M51
X20.7126 Y9.77976 F1500
ID=1 WHEN $AC_TIMER[1]>=0 DO M50
X18.649 Y7.716 F300
ID=1 WHEN $AC_TIMER[1]>=0 DO M51
X15.7107 Y7.70525 F1500
ID=1 WHEN $AC_TIMER[1]>=0 DO M50
X16.957 Y8.952 F300
ID=1 WHEN $AC_TIMER[1]>=0 DO M51
X25.346 Y17.3405 F1500
ID=1 WHEN $AC_TIMER[1]>=0 DO M50
X26.613 Y18.608 F300
ID=1 WHEN $AC_TIMER[1]>=0 DO M51
X25.9591 Y20.8811 F1500
ID=1 WHEN $AC_TIMER[1]>=0 DO M50
X24.908 Y19.830 F300
ID=1 WHEN $AC_TIMER[1]>=0 DO M51
X14.4696 Y9.39158 F1500
ID=1 WHEN $AC_TIMER[1]>=0 DO M50
X13.420 Y8.342 F300
ID=1 WHEN $AC_TIMER[1]>=0 DO M51
X11.5454 Y9.3948 F1500
ID=1 WHEN $AC_TIMER[1]>=0 DO M50
X12.531 Y10.380 F300
ID=1 WHEN $AC_TIMER[1]>=0 DO M51
X23.919 Y21.7684 F1500
ID=1 WHEN $AC_TIMER[1]>=0 DO M50
X24.908 Y22.758 F300
ID=1 WHEN $AC_TIMER[1]>=0 DO M51
X23.521 Y24.2977 F1500
ID=1 WHEN $AC_TIMER[1]>=0 DO M50
X22.556 Y23.333 F300
ID=1 WHEN $AC_TIMER[1]>=0 DO M51
X10.9697 Y11.7465 F1500
ID=1 WHEN $AC_TIMER[1]>=0 DO M50
X10.008 Y10.785 F300
ID=1 WHEN $AC_TIMER[1]>=0 DO M51
X8.79223 Y12.4965 F1500
ID=1 WHEN $AC_TIMER[1]>=0 DO M50
X9.799 Y13.503 F300
ID=1 WHEN $AC_TIMER[1]>=0 DO M51
X20.7935 Y24.4977 F1500
ID=1 WHEN $AC_TIMER[1]>=0 DO M50
X21.817 Y25.521 F300
ID=1 WHEN $AC_TIMER[1]>=0 DO M51
X19.7395 Y26.3712 F1500
ID=1 WHEN $AC_TIMER[1]>=0 DO M50
X18.613 Y25.245 F300
ID=1 WHEN $AC_TIMER[1]>=0 DO M51
X9.06141 Y15.693 F1500
ID=1 WHEN $AC_TIMER[1]>=0 DO M50
X7.931 Y14.563 F300
ID=1 WHEN $AC_TIMER[1]>=0 DO M51
X7.57 Y17.1291 F1500
ID=1 WHEN $AC_TIMER[1]>=0 DO M50
X9.058 Y18.617 F300
ID=1 WHEN $AC_TIMER[1]>=0 DO M51
X15.6922 Y25.2512 F1500
ID=1 WHEN $AC_TIMER[1]>=0 DO M50
X17.184 Y26.743 F300
ID=1 WHEN $AC_TIMER[1]>=0 DO M51
X13.55 Y26.0365 F1500
ID=1 WHEN $AC_TIMER[1]>=0 DO M50
X8.272 Y20.758 F300
ID=1 WHEN $AC_TIMER[1]>=0 DO M51
; Final do trecho do raster

; Layer 2
G1 Z2.600 F1500
X10.1392 Y27.2259 F1500
ID=1 WHEN $AC_TIMER[1]>=0 DO M50
X9.160 Y26.467 F300
X8.255 Y25.607
X7.450 Y24.664
X6.736 Y23.648
X6.136 Y22.568
X5.650 Y21.422
X5.273 Y20.227
X5.030 Y19.031
X4.900 Y17.781
X4.900 Y16.539
X5.028 Y15.304
X5.275 Y14.089
X5.650 Y12.909
X6.135 Y11.765
X6.738 Y10.677
X7.442 Y9.674
X8.255 Y8.713
X9.158 Y7.865
X10.139 Y7.104
X11.190 Y6.446
X12.303 Y5.899
X13.473 Y5.469
X14.674 Y5.157
X15.899 Y4.965
X17.140 Y4.902
X18.381 Y4.965
X19.607 Y5.158
X20.816 Y5.469
X21.975 Y5.898
X23.090 Y6.446
X24.143 Y7.105
X25.132 Y7.865
X26.023 Y8.711
X26.829 Y9.663
X27.544 Y10.681
X28.147 Y11.768
X28.640 Y12.909
X29.006 Y14.089
X29.261 Y15.304
X29.380 Y16.535
X29.380 Y17.785
X29.261 Y19.016
X29.005 Y20.232
X28.639 Y21.422
X28.147 Y22.562
X27.544 Y23.649
X26.830 Y24.664
X26.023 Y25.610
X25.129 Y26.467
X24.143 Y27.225
X23.090 Y27.884
X21.975 Y28.432
X20.816 Y28.861
X19.611 Y29.171
X18.385 Y29.354
X17.140 Y29.418
X15.895 Y29.354
X14.670 Y29.172
X13.473 Y28.861
X12.303 Y28.431
X11.190 Y27.884
X10.224 Y27.279
ID=1 WHEN $AC_TIMER[1]>=0 DO M51
X10.9948 Y17.0547 F1500
ID=1 WHEN $AC_TIMER[1]>=0 DO M50
X10.995 Y17.265 F300
X11.075 Y18.135
X11.108 Y18.321
X11.328 Y19.161
X11.399 Y19.358
X11.769 Y20.148
X11.865 Y20.316
X12.365 Y21.036
X12.503 Y21.200
X13.123 Y21.810
X13.268 Y21.930
X13.978 Y22.430
X14.152 Y22.531
X14.942 Y22.901
X15.126 Y22.969
X15.966 Y23.199
X16.178 Y23.236
X17.048 Y23.306
X17.232 Y23.306
X18.102 Y23.236
X18.314 Y23.199
X19.154 Y22.969
X19.338 Y22.901
X20.128 Y22.531
X20.302 Y22.430
X21.012 Y21.930
X21.157 Y21.810
X21.777 Y21.200
X21.915 Y21.036
X22.415 Y20.316
X22.511 Y20.148
X22.881 Y19.358
X22.949 Y19.174
X23.179 Y18.334
X23.216 Y18.122
X23.286 Y17.252
X23.286 Y17.068
X23.216 Y16.198
X23.179 Y15.986
X22.949 Y15.146
X22.881 Y14.962
X22.511 Y14.172
X22.410 Y13.998
X21.910 Y13.288
X21.783 Y13.137
X21.163 Y12.517
X21.012 Y12.390
X20.302 Y11.890
X20.128 Y11.789
X19.338 Y11.419
X19.141 Y11.348
X18.301 Y11.128
X18.115 Y11.095
X17.245 Y11.015
X17.035 Y11.015
X16.165 Y11.095
X15.979 Y11.128
X15.139 Y11.348
X14.889 Y11.445
X14.165 Y11.783
X13.978 Y11.890
X13.268 Y12.390
X13.117 Y12.517
X12.497 Y13.137
X12.370 Y13.288
X11.870 Y13.998
X11.769 Y14.172
X11.399 Y14.962
X11.328 Y15.159
X11.108 Y15.999
X11.075 Y16.185
X11.004 Y16.955
ID=1 WHEN $AC_TIMER[1]>=0 DO M51

; Inicio do trecho do raster
X25.6695 Y22.716 F1500
ID=1 WHEN $AC_TIMER[1]>=0 DO M50
X22.699 Y25.686 F300
ID=1 WHEN $AC_TIMER[1]>=0 DO M51
X18.1651 Y27.293 F1500
ID=1 WHEN $AC_TIMER[1]>=0 DO M50
X21.108 Y24.350 F300
ID=1 WHEN $AC_TIMER[1]>=0 DO M51
X24.3295 Y21.1285 F1500
ID=1 WHEN $AC_TIMER[1]>=0 DO M50
X27.261 Y18.197 F300
ID=1 WHEN $AC_TIMER[1]>=0 DO M51
X27.1601 Y15.3706 F1500
ID=1 WHEN $AC_TIMER[1]>=0 DO M50
X25.355 Y17.176 F300
ID=1 WHEN $AC_TIMER[1]>=0 DO M51
X17.1564 Y25.3742 F1500
ID=1 WHEN $AC_TIMER[1]>=0 DO M50
X15.350 Y27.180 F300
ID=1 WHEN $AC_TIMER[1]>=0 DO M51
X13.0911 Y26.5121 F1500
ID=1 WHEN $AC_TIMER[1]>=0 DO M50
X14.625 Y24.978 F300
ID=1 WHEN $AC_TIMER[1]>=0 DO M51
X24.9533 Y14.6499 F1500
ID=1 WHEN $AC_TIMER[1]>=0 DO M50
X26.478 Y13.125 F300
ID=1 WHEN $AC_TIMER[1]>=0 DO M51
X25.4187 Y11.2571 F1500
ID=1 WHEN $AC_TIMER[1]>=0 DO M50
X24.006 Y12.670 F300
ID=1 WHEN $AC_TIMER[1]>=0 DO M51
X12.6532 Y24.0226 F1500
ID=1 WHEN $AC_TIMER[1]>=0 DO M50
X11.226 Y25.449 F300
ID=1 WHEN $AC_TIMER[1]>=0 DO M51
X9.67089 Y24.0775 F1500
ID=1 WHEN $AC_TIMER[1]>=0 DO M50
X11.063 Y22.686 F300
ID=1 WHEN $AC_TIMER[1]>=0 DO M51
X22.6568 Y11.0915 F1500
ID=1 WHEN $AC_TIMER[1]>=0 DO M50
X24.053 Y9.695 F300
ID=1 WHEN $AC_TIMER[1]>=0 DO M51
X22.3782 Y8.44276 F1500
ID=1 WHEN $AC_TIMER[1]>=0 DO M50
X20.938 Y9.883 F300
ID=1 WHEN $AC_TIMER[1]>=0 DO M51
X9.8667 Y20.9542 F1500
ID=1 WHEN $AC_TIMER[1]>=0 DO M50
X8.414 Y22.407 F300
ID=1 WHEN $AC_TIMER[1]>=0 DO M51
X7.49731 Y20.3962 F1500
ID=1 WHEN $AC_TIMER[1]>=0 DO M50
X9.096 Y18.798 F300
ID=1 WHEN $AC_TIMER[1]>=0 DO M51
X18.7753 Y9.11823 F1500
ID=1 WHEN $AC_TIMER[1]>=0 DO M50
X20.379 Y7.514 F300
ID=1 WHEN $AC_TIMER[1]>=0 DO M51
X17.9501 Y7.01596 F1500
ID=1 WHEN $AC_TIMER[1]>=0 DO M50
X15.921 Y9.045 F300
ID=1 WHEN $AC_TIMER[1]>=0 DO M51
X9.02138 Y15.9447 F1500
ID=1 WHEN $AC_TIMER[1]>=0 DO M50
X7.000 Y17.966 F300
ID=1 WHEN $AC_TIMER[1]>=0 DO M51
X7.24369 Y14.795 F1500
ID=1 WHEN $AC_TIMER[1]>=0 DO M50
X14.767 Y7.272 F300
ID=1 WHEN $AC_TIMER[1]>=0 DO M51
; Final do trecho do raster

; Layer 3
G1 Z3.900 F1500
X10.9948 Y17.0547 F1500
ID=1 WHEN $AC_TIMER[1]>=0 DO M50
X10.995 Y17.265 F300
X11.075 Y18.135
X11.108 Y18.321
X11.328 Y19.161
X11.399 Y19.358
X11.769 Y20.148
X11.865 Y20.316
X12.365 Y21.036
X12.503 Y21.200
X13.123 Y21.810
X13.268 Y21.930
X13.978 Y22.430
X14.152 Y22.531
X14.942 Y22.901
X15.126 Y22.969
X15.966 Y23.199
X16.178 Y23.236
X17.048 Y23.306
X17.232 Y23.306
X18.102 Y23.236
X18.314 Y23.199
X19.154 Y22.969
X19.338 Y22.901
X20.128 Y22.531
X20.302 Y22.430
X21.012 Y21.930
X21.157 Y21.810
X21.777 Y21.200
X21.915 Y21.036
X22.415 Y20.316
X22.511 Y20.148
X22.881 Y19.358
X22.949 Y19.174
X23.179 Y18.334
X23.216 Y18.122
X23.286 Y17.252
X23.286 Y17.068
X23.216 Y16.198
X23.179 Y15.986
X22.949 Y15.146
X22.881 Y14.962
X22.511 Y14.172
X22.410 Y13.998
X21.910 Y13.288
X21.783 Y13.137
X21.163 Y12.517
X21.012 Y12.390
X20.302 Y11.890
X20.128 Y11.789
X19.338 Y11.419
X19.141 Y11.348
X18.301 Y11.128
X18.115 Y11.095
X17.245 Y11.015
X17.035 Y11.015
X16.165 Y11.095
X15.979 Y11.128
X15.139 Y11.348
X14.942 Y11.419
X14.152 Y11.789
X13.978 Y11.890
X13.268 Y12.390
X13.117 Y12.517
X12.497 Y13.137
X12.370 Y13.288
X11.870 Y13.998
X11.769 Y14.172
X11.399 Y14.962
X11.328 Y15.159
X11.108 Y15.999
X11.075 Y16.185
X11.004 Y16.955
ID=1 WHEN $AC_TIMER[1]>=0 DO M51
X10.8997 Y5.91607 F1500
ID=1 WHEN $AC_TIMER[1]>=0 DO M50
X12.064 Y5.338 F300
X13.294 Y4.889
X14.552 Y4.558
X15.834 Y4.366
X17.140 Y4.301
X18.446 Y4.366
X19.729 Y4.558
X20.995 Y4.889
X22.214 Y5.338
X23.380 Y5.916
X24.493 Y6.605
X25.519 Y7.403
X26.466 Y8.303
X27.311 Y9.287
X28.062 Y10.358
X28.685 Y11.494
X29.201 Y12.701
X29.595 Y13.939
X29.852 Y15.215
X29.990 Y16.511
X29.990 Y17.809
X29.852 Y19.116
X29.595 Y20.391
X29.201 Y21.629
X28.685 Y22.836
X28.063 Y23.970
X27.311 Y25.034
X26.464 Y26.028
X25.519 Y26.927
X24.492 Y27.725
X23.383 Y28.412
X22.214 Y28.983
X20.995 Y29.441
X19.729 Y29.762
X18.442 Y29.964
X17.140 Y30.029
X15.838 Y29.964
X14.552 Y29.762
X13.294 Y29.441
X12.064 Y28.982
X10.897 Y28.412
X9.787 Y27.725
X8.761 Y26.927
X7.816 Y26.028
X6.971 Y25.036
X6.226 Y23.970
X5.594 Y22.833
X5.079 Y21.629
X4.685 Y20.391
X4.428 Y19.116
X4.290 Y17.809
X4.290 Y16.511
X4.428 Y15.215
X4.685 Y13.939
X5.079 Y12.701
X5.594 Y11.497
X6.228 Y10.358
X6.971 Y9.284
X7.814 Y8.303
X8.761 Y7.403
X9.787 Y6.605
X10.815 Y5.969
ID=1 WHEN $AC_TIMER[1]>=0 DO M51

; Inicio do trecho do raster
X6.49213 Y18.8802 F1500
ID=1 WHEN $AC_TIMER[1]>=0 DO M50
X15.414 Y27.802 F300
ID=1 WHEN $AC_TIMER[1]>=0 DO M51
X18.413 Y27.8736 F1500
ID=1 WHEN $AC_TIMER[1]>=0 DO M50
X15.808 Y25.268 F300
ID=1 WHEN $AC_TIMER[1]>=0 DO M51
X9.03683 Y18.4975 F1500
ID=1 WHEN $AC_TIMER[1]>=0 DO M50
X6.437 Y15.898 F300
ID=1 WHEN $AC_TIMER[1]>=0 DO M51
X6.98984 Y13.523 F1500
ID=1 WHEN $AC_TIMER[1]>=0 DO M50
X9.077 Y15.610 F300
ID=1 WHEN $AC_TIMER[1]>=0 DO M51
X18.6953 Y25.2285 F1500
ID=1 WHEN $AC_TIMER[1]>=0 DO M50
X20.778 Y27.311 F300
ID=1 WHEN $AC_TIMER[1]>=0 DO M51
X22.7583 Y26.3641 F1500
ID=1 WHEN $AC_TIMER[1]>=0 DO M50
X20.862 Y24.467 F300
ID=1 WHEN $AC_TIMER[1]>=0 DO M51
X9.82937 Y13.4352 F1500
ID=1 WHEN $AC_TIMER[1]>=0 DO M50
X7.937 Y11.543 F300
ID=1 WHEN $AC_TIMER[1]>=0 DO M51
X9.19476 Y9.87311 F1500
ID=1 WHEN $AC_TIMER[1]>=0 DO M50
X11.019 Y11.697 F300
ID=1 WHEN $AC_TIMER[1]>=0 DO M51
X22.6076 Y23.2859 F1500
ID=1 WHEN $AC_TIMER[1]>=0 DO M50
X24.429 Y25.107 F300
ID=1 WHEN $AC_TIMER[1]>=0 DO M51
X25.8141 Y23.5651 F1500
ID=1 WHEN $AC_TIMER[1]>=0 DO M50
X23.960 Y21.711 F300
ID=1 WHEN $AC_TIMER[1]>=0 DO M51
X12.588 Y10.3389 F1500
ID=1 WHEN $AC_TIMER[1]>=0 DO M50
X10.738 Y8.489 F300
ID=1 WHEN $AC_TIMER[1]>=0 DO M51
X12.5731 Y7.39664 F1500
ID=1 WHEN $AC_TIMER[1]>=0 DO M50
X14.547 Y9.371 F300
ID=1 WHEN $AC_TIMER[1]>=0 DO M51
X24.9332 Y19.7567 F1500
ID=1 WHEN $AC_TIMER[1]>=0 DO M50
X26.906 Y21.730 F300
ID=1 WHEN $AC_TIMER[1]>=0 DO M51
X27.6531 Y19.5492 F1500
ID=1 WHEN $AC_TIMER[1]>=0 DO M50
X25.356 Y17.252 F300
ID=1 WHEN $AC_TIMER[1]>=0 DO M51
X17.0529 Y8.94901 F1500
ID=1 WHEN $AC_TIMER[1]>=0 DO M50
X14.750 Y6.646 F300
ID=1 WHEN $AC_TIMER[1]>=0 DO M51
X17.419 Y6.38766 F1500
ID=1 WHEN $AC_TIMER[1]>=0 DO M50
X20.894 Y9.863 F300
ID=1 WHEN $AC_TIMER[1]>=0 DO M51
X24.4273 Y13.3959 F1500
ID=1 WHEN $AC_TIMER[1]>=0 DO M50
X27.920 Y16.889 F300
ID=1 WHEN $AC_TIMER[1]>=0 DO M51
X27.1659 Y13.2072 F1500
ID=1 WHEN $AC_TIMER[1]>=0 DO M50
X21.087 Y7.128 F300
ID=1 WHEN $AC_TIMER[1]>=0 DO M51
; Final do trecho do raster

; Layer 4
G1 Z5.200 F1500
X10.9948 Y17.0547 F1500
ID=1 WHEN $AC_TIMER[1]>=0 DO M50
X10.995 Y17.265 F300
X11.075 Y18.135
X11.108 Y18.321
X11.328 Y19.161
X11.399 Y19.358
X11.769 Y20.148
X11.865 Y20.316
X12.365 Y21.036
X12.503 Y21.200
X13.123 Y21.810
X13.268 Y21.930
X13.978 Y22.430
X14.152 Y22.531
X14.942 Y22.901
X15.126 Y22.969
X15.966 Y23.199
X16.178 Y23.236
X17.048 Y23.306
X17.232 Y23.306
X18.102 Y23.236
X18.314 Y23.199
X19.154 Y22.969
X19.338 Y22.901
X20.128 Y22.531
X20.278 Y22.447
X20.652 Y22.196
X21.032 Y21.916
X21.157 Y21.810
X21.777 Y21.200
X21.915 Y21.036
X22.415 Y20.316
X22.511 Y20.148
X22.881 Y19.358
X22.949 Y19.174
X23.179 Y18.334
X23.216 Y18.122
X23.286 Y17.252
X23.286 Y17.068
X23.216 Y16.198
X23.179 Y15.986
X22.949 Y15.146
X22.881 Y14.962
X22.511 Y14.172
X22.410 Y13.998
X21.910 Y13.288
X21.783 Y13.137
X21.163 Y12.517
X21.012 Y12.390
X20.302 Y11.890
X20.128 Y11.789
X19.338 Y11.419
X19.141 Y11.348
X18.301 Y11.128
X18.115 Y11.095
X17.245 Y11.015
X17.035 Y11.015
X16.165 Y11.095
X15.979 Y11.128
X15.139 Y11.348
X14.942 Y11.419
X14.152 Y11.789
X13.978 Y11.890
X13.268 Y12.390
X13.117 Y12.517
X12.497 Y13.137
X12.370 Y13.288
X11.870 Y13.998
X11.769 Y14.172
X11.399 Y14.962
X11.328 Y15.159
X11.108 Y15.999
X11.075 Y16.185
X11.004 Y16.955
ID=1 WHEN $AC_TIMER[1]>=0 DO M51
X10.6142 Y5.38328 F1500
ID=1 WHEN $AC_TIMER[1]>=0 DO M50
X11.821 Y4.789 F300
X13.106 Y4.309
X14.429 Y3.968
X15.777 Y3.765
X17.140 Y3.692
X18.503 Y3.765
X19.851 Y3.968
X21.174 Y4.309
X22.455 Y4.788
X23.682 Y5.387
X24.833 Y6.105
X25.920 Y6.944
X26.905 Y7.882
X27.789 Y8.915
X28.574 Y10.040
X29.236 Y11.227
X29.770 Y12.480
X30.185 Y13.787
X30.452 Y15.122
X30.590 Y16.479
X30.590 Y17.842
X30.451 Y19.209
X30.185 Y20.542
X29.771 Y21.839
X29.235 Y23.095
X28.574 Y24.289
X27.789 Y25.406
X26.903 Y26.449
X25.922 Y27.384
X24.833 Y28.215
X23.679 Y28.944
X22.458 Y29.541
X21.174 Y30.012
X19.847 Y30.362
X18.507 Y30.564
X17.140 Y30.629
X15.773 Y30.564
X14.433 Y30.362
X13.106 Y30.012
X11.823 Y29.541
X10.611 Y28.944
X9.448 Y28.215
X8.367 Y27.384
X7.376 Y26.447
X6.491 Y25.406
X5.706 Y24.289
X5.045 Y23.095
X4.511 Y21.842
X4.105 Y20.542
X3.828 Y19.205
X3.690 Y17.842
X3.690 Y16.479
X3.828 Y15.125
X4.105 Y13.787
X4.511 Y12.477
X5.044 Y11.227
X5.706 Y10.040
X6.491 Y8.915
X7.374 Y7.884
X8.370 Y6.944
X9.448 Y6.105
X10.529 Y5.436
ID=1 WHEN $AC_TIMER[1]>=0 DO M51

; Inicio do trecho do raster
X14.6944 Y6.03756 F1500
ID=1 WHEN $AC_TIMER[1]>=0 DO M50
X6.029 Y14.703 F300
ID=1 WHEN $AC_TIMER[1]>=0 DO M51
X5.77492 Y17.8845 F1500
ID=1 WHEN $AC_TIMER[1]>=0 DO M50
X9.495 Y14.164 F300
ID=1 WHEN $AC_TIMER[1]>=0 DO M51
X14.1476 Y9.5118 F1500
ID=1 WHEN $AC_TIMER[1]>=0 DO M50
X17.856 Y5.803 F300
ID=1 WHEN $AC_TIMER[1]>=0 DO M51
X20.3522 Y6.23455 F1500
ID=1 WHEN $AC_TIMER[1]>=0 DO M50
X17.611 Y8.975 F300
ID=1 WHEN $AC_TIMER[1]>=0 DO M51
X8.95136 Y17.6354 F1500
ID=1 WHEN $AC_TIMER[1]>=0 DO M50
X6.219 Y20.368 F300
ID=1 WHEN $AC_TIMER[1]>=0 DO M51
X7.05761 Y22.4566 F1500
ID=1 WHEN $AC_TIMER[1]>=0 DO M50
X9.456 Y20.059 F300
ID=1 WHEN $AC_TIMER[1]>=0 DO M51
X20.0421 Y9.4721 F1500
ID=1 WHEN $AC_TIMER[1]>=0 DO M50
X22.433 Y7.081 F300
ID=1 WHEN $AC_TIMER[1]>=0 DO M51
X24.2057 Y8.2359 F1500
ID=1 WHEN $AC_TIMER[1]>=0 DO M50
X21.932 Y10.509 F300
ID=1 WHEN $AC_TIMER[1]>=0 DO M51
X10.4882 Y21.9535 F1500
ID=1 WHEN $AC_TIMER[1]>=0 DO M50
X8.210 Y24.232 F300
ID=1 WHEN $AC_TIMER[1]>=0 DO M51
X9.63504 Y25.734 F1500
ID=1 WHEN $AC_TIMER[1]>=0 DO M50
X11.893 Y23.476 F300
ID=1 WHEN $AC_TIMER[1]>=0 DO M51
X23.4567 Y11.9124 F1500
ID=1 WHEN $AC_TIMER[1]>=0 DO M50
X25.705 Y9.664 F300
ID=1 WHEN $AC_TIMER[1]>=0 DO M51
X26.9385 Y11.358 F1500
ID=1 WHEN $AC_TIMER[1]>=0 DO M50
X24.580 Y13.716 F300
ID=1 WHEN $AC_TIMER[1]>=0 DO M51
X13.6964 Y24.6001 F1500
ID=1 WHEN $AC_TIMER[1]>=0 DO M50
X11.339 Y26.958 F300
ID=1 WHEN $AC_TIMER[1]>=0 DO M51
X13.3334 Y27.8905 F1500
ID=1 WHEN $AC_TIMER[1]>=0 DO M50
X15.936 Y25.288 F300
ID=1 WHEN $AC_TIMER[1]>=0 DO M51
X25.2657 Y15.9582 F1500
ID=1 WHEN $AC_TIMER[1]>=0 DO M50
X27.874 Y13.349 F300
ID=1 WHEN $AC_TIMER[1]>=0 DO M51
X28.4318 Y15.7195 F1500
ID=1 WHEN $AC_TIMER[1]>=0 DO M50
X25.131 Y19.020 F300
ID=1 WHEN $AC_TIMER[1]>=0 DO M51
X18.993 Y25.1583 F1500
ID=1 WHEN $AC_TIMER[1]>=0 DO M50
X15.693 Y28.459 F300
ID=1 WHEN $AC_TIMER[1]>=0 DO M51
X18.626 Y28.4527 F1500
ID=1 WHEN $AC_TIMER[1]>=0 DO M50
X28.427 Y18.651 F300
ID=1 WHEN $AC_TIMER[1]>=0 DO M51
X26.8161 Y23.1901 F1500
ID=1 WHEN $AC_TIMER[1]>=0 DO M50
X23.222 Y26.784 F300
ID=1 WHEN $AC_TIMER[1]>=0 DO M51
; Final do trecho do raster

; Layer 5
G1 Z6.500 F1500
X10.3093 Y29.4734 F1500
ID=1 WHEN $AC_TIMER[1]>=0 DO M50
X9.098 Y28.715 F300
X7.970 Y27.846
X6.936 Y26.859
X6.011 Y25.775
X5.197 Y24.610
X4.504 Y23.362
X3.940 Y22.050
X3.515 Y20.692
X3.228 Y19.295
X3.080 Y17.870
X3.080 Y16.450
X3.228 Y15.036
X3.515 Y13.637
X3.940 Y12.270
X4.503 Y10.969
X5.198 Y9.718
X6.012 Y8.543
X6.935 Y7.463
X7.970 Y6.483
X9.098 Y5.605
X10.306 Y4.858
X11.596 Y4.227
X12.924 Y3.729
X14.311 Y3.378
X15.716 Y3.156
X17.140 Y3.091
X18.564 Y3.156
X19.978 Y3.378
X21.356 Y3.729
X22.694 Y4.227
X23.972 Y4.857
X25.182 Y5.605
X26.310 Y6.483
X27.345 Y7.463
X28.268 Y8.543
X29.082 Y9.718
X29.777 Y10.969
X30.340 Y12.270
X30.765 Y13.637
X31.052 Y15.036
X31.200 Y16.450
X31.200 Y17.870
X31.052 Y19.295
X30.765 Y20.692
X30.340 Y22.050
X29.776 Y23.362
X29.083 Y24.610
X28.269 Y25.775
X27.344 Y26.859
X26.310 Y27.846
X25.182 Y28.715
X23.969 Y29.474
X22.697 Y30.101
X21.356 Y30.591
X19.978 Y30.952
X18.564 Y31.164
X17.140 Y31.238
X15.716 Y31.164
X14.311 Y30.952
X12.924 Y30.591
X11.592 Y30.101
X10.399 Y29.517
ID=1 WHEN $AC_TIMER[1]>=0 DO M51
X10.9948 Y17.0547 F1500
ID=1 WHEN $AC_TIMER[1]>=0 DO M50
X10.995 Y17.265 F300
X11.075 Y18.135
X11.108 Y18.321
X11.328 Y19.161
X11.399 Y19.358
X11.769 Y20.148
X11.865 Y20.316
X12.365 Y21.036
X12.503 Y21.200
X13.123 Y21.810
X13.251 Y21.918
X13.702 Y22.247
X14.002 Y22.447
X14.152 Y22.531
X14.942 Y22.901
X15.126 Y22.969
X15.966 Y23.199
X16.178 Y23.236
X17.048 Y23.306
X17.232 Y23.306
X18.102 Y23.236
X18.314 Y23.199
X19.154 Y22.969
X19.338 Y22.901
X20.128 Y22.531
X20.302 Y22.430
X21.012 Y21.930
X21.157 Y21.810
X21.777 Y21.200
X21.915 Y21.036
X22.415 Y20.316
X22.511 Y20.148
X22.881 Y19.358
X22.949 Y19.174
X23.179 Y18.334
X23.216 Y18.122
X23.286 Y17.252
X23.286 Y17.068
X23.216 Y16.198
X23.179 Y15.986
X22.949 Y15.146
X22.881 Y14.962
X22.511 Y14.172
X22.410 Y13.998
X21.910 Y13.288
X21.783 Y13.137
X21.163 Y12.517
X21.012 Y12.390
X20.302 Y11.890
X20.128 Y11.789
X19.338 Y11.419
X19.141 Y11.348
X18.301 Y11.128
X18.115 Y11.095
X17.245 Y11.015
X17.035 Y11.015
X16.165 Y11.095
X15.979 Y11.128
X15.139 Y11.348
X14.942 Y11.419
X14.152 Y11.789
X13.978 Y11.890
X13.268 Y12.390
X13.117 Y12.517
X12.497 Y13.137
X12.370 Y13.288
X11.870 Y13.998
X11.760 Y14.191
X11.560 Y14.638
X11.411 Y14.936
X11.328 Y15.159
X11.108 Y15.999
X11.075 Y16.185
X11.004 Y16.955
ID=1 WHEN $AC_TIMER[1]>=0 DO M51

; Inicio do trecho do raster
X28.1165 Y12.3436 F1500
ID=1 WHEN $AC_TIMER[1]>=0 DO M50
X21.933 Y6.160 F300
ID=1 WHEN $AC_TIMER[1]>=0 DO M51
X18.0502 Y5.2047 F1500
ID=1 WHEN $AC_TIMER[1]>=0 DO M50
X29.098 Y16.253 F300
ID=1 WHEN $AC_TIMER[1]>=0 DO M51
X28.9855 Y19.0674 F1500
ID=1 WHEN $AC_TIMER[1]>=0 DO M50
X25.104 Y15.186 F300
ID=1 WHEN $AC_TIMER[1]>=0 DO M51
X19.1255 Y9.20743 F1500
ID=1 WHEN $AC_TIMER[1]>=0 DO M50
X15.244 Y5.326 F300
ID=1 WHEN $AC_TIMER[1]>=0 DO M51
X12.9288 Y5.93816 F1500
ID=1 WHEN $AC_TIMER[1]>=0 DO M50
X16.025 Y9.034 F300
ID=1 WHEN $AC_TIMER[1]>=0 DO M51
X25.2795 Y18.2889 F1500
ID=1 WHEN $AC_TIMER[1]>=0 DO M50
X28.374 Y21.383 F300
ID=1 WHEN $AC_TIMER[1]>=0 DO M51
X27.4146 Y23.3514 F1500
ID=1 WHEN $AC_TIMER[1]>=0 DO M50
X24.607 Y20.544 F300
ID=1 WHEN $AC_TIMER[1]>=0 DO M51
X13.7549 Y9.69172 F1500
ID=1 WHEN $AC_TIMER[1]>=0 DO M50
X10.954 Y6.891 F300
ID=1 WHEN $AC_TIMER[1]>=0 DO M51
X9.25411 Y8.11833 F1500
ID=1 WHEN $AC_TIMER[1]>=0 DO M50
X11.939 Y10.803 F300
ID=1 WHEN $AC_TIMER[1]>=0 DO M51
X23.4978 Y22.362 F1500
ID=1 WHEN $AC_TIMER[1]>=0 DO M50
X26.175 Y25.040 F300
ID=1 WHEN $AC_TIMER[1]>=0 DO M51
X24.6897 Y26.4814 F1500
ID=1 WHEN $AC_TIMER[1]>=0 DO M50
X21.982 Y23.774 F300
ID=1 WHEN $AC_TIMER[1]>=0 DO M51
X10.5249 Y12.3166 F1500
ID=1 WHEN $AC_TIMER[1]>=0 DO M50
X7.821 Y9.613 F300
ID=1 WHEN $AC_TIMER[1]>=0 DO M51
X6.64904 Y11.3681 F1500
ID=1 WHEN $AC_TIMER[1]>=0 DO M50
X9.478 Y14.197 F300
ID=1 WHEN $AC_TIMER[1]>=0 DO M51
X20.1016 Y24.8207 F1500
ID=1 WHEN $AC_TIMER[1]>=0 DO M50
X22.950 Y27.669 F300
ID=1 WHEN $AC_TIMER[1]>=0 DO M51
X20.9055 Y28.552 F1500
ID=1 WHEN $AC_TIMER[1]>=0 DO M50
X17.697 Y25.343 F300
ID=1 WHEN $AC_TIMER[1]>=0 DO M51
X8.96216 Y16.6086 F1500
ID=1 WHEN $AC_TIMER[1]>=0 DO M50
X5.756 Y13.402 F300
ID=1 WHEN $AC_TIMER[1]>=0 DO M51
X5.22896 Y15.8029 F1500
ID=1 WHEN $AC_TIMER[1]>=0 DO M50
X9.437 Y20.011 F300
ID=1 WHEN $AC_TIMER[1]>=0 DO M51
X14.2927 Y24.8666 F1500
ID=1 WHEN $AC_TIMER[1]>=0 DO M50
X18.506 Y29.080 F300
ID=1 WHEN $AC_TIMER[1]>=0 DO M51
X15.5435 Y29.0448 F1500
ID=1 WHEN $AC_TIMER[1]>=0 DO M50
X5.253 Y18.754 F300
ID=1 WHEN $AC_TIMER[1]>=0 DO M51
X6.79392 Y23.2227 F1500
ID=1 WHEN $AC_TIMER[1]>=0 DO M50
X11.093 Y27.522 F300
ID=1 WHEN $AC_TIMER[1]>=0 DO M51
; Final do trecho do raster

; Layer 6
G1 Z7.800 F1500
X10.0214 Y30.0047 F1500
ID=1 WHEN $AC_TIMER[1]>=0 DO M50
X8.758 Y29.215 F300
X7.579 Y28.305
X6.494 Y27.276
X5.530 Y26.155
X4.678 Y24.932
X3.964 Y23.634
X3.369 Y22.259
X2.925 Y20.842
X2.628 Y19.387
X2.480 Y17.912
X2.480 Y16.418
X2.628 Y14.942
X2.925 Y13.477
X3.369 Y12.063
X3.963 Y10.698
X4.678 Y9.398
X5.531 Y8.173
X6.484 Y7.056
X6.724 Y6.841
X7.581 Y6.023
X8.758 Y5.115
X10.020 Y4.326
X11.354 Y3.669
X12.746 Y3.158
X14.184 Y2.778
X15.655 Y2.556
X17.140 Y2.481
X18.625 Y2.556
X20.096 Y2.778
X21.535 Y3.158
X22.938 Y3.669
X24.270 Y4.326
X25.531 Y5.114
X26.701 Y6.025
X27.786 Y7.044
X28.749 Y8.173
X29.604 Y9.400
X30.326 Y10.698
X30.910 Y12.060
X31.355 Y13.477
X31.652 Y14.942
X31.800 Y16.418
X31.800 Y17.912
X31.652 Y19.387
X31.355 Y20.842
X30.910 Y22.262
X30.326 Y23.634
X29.604 Y24.930
X28.750 Y26.155
X27.786 Y27.276
X26.699 Y28.307
X25.531 Y29.216
X24.272 Y30.002
X22.938 Y30.651
X21.535 Y31.171
X20.096 Y31.543
X18.634 Y31.773
X17.136 Y31.848
X15.658 Y31.774
X14.184 Y31.543
X12.746 Y31.172
X11.340 Y30.647
X11.063 Y30.521
X10.111 Y30.049
ID=1 WHEN $AC_TIMER[1]>=0 DO M51
X10.9948 Y17.0547 F1500
ID=1 WHEN $AC_TIMER[1]>=0 DO M50
X10.995 Y17.265 F300
X11.075 Y18.135
X11.108 Y18.321
X11.328 Y19.161
X11.399 Y19.358
X11.769 Y20.148
X11.865 Y20.316
X12.365 Y21.036
X12.503 Y21.200
X13.123 Y21.810
X13.268 Y21.930
X13.978 Y22.430
X14.152 Y22.531
X14.942 Y22.901
X15.126 Y22.969
X15.966 Y23.199
X16.178 Y23.236
X17.048 Y23.306
X17.232 Y23.306
X18.102 Y23.236
X18.314 Y23.199
X19.154 Y22.969
X19.338 Y22.901
X20.128 Y22.531
X20.302 Y22.430
X21.012 Y21.930
X21.157 Y21.810
X21.777 Y21.200
X21.915 Y21.036
X22.415 Y20.316
X22.511 Y20.148
X22.881 Y19.358
X22.949 Y19.174
X23.179 Y18.334
X23.216 Y18.122
X23.286 Y17.252
X23.286 Y17.068
X23.216 Y16.198
X23.179 Y15.986
X22.949 Y15.146
X22.881 Y14.962
X22.511 Y14.172
X22.410 Y13.998
X21.910 Y13.288
X21.783 Y13.137
X21.163 Y12.517
X21.012 Y12.390
X20.302 Y11.890
X20.128 Y11.789
X19.338 Y11.419
X19.141 Y11.348
X18.301 Y11.128
X18.115 Y11.095
X17.245 Y11.015
X17.035 Y11.015
X16.165 Y11.095
X15.979 Y11.128
X15.139 Y11.348
X14.942 Y11.419
X14.152 Y11.789
X13.978 Y11.890
X13.268 Y12.390
X13.117 Y12.517
X12.497 Y13.137
X12.370 Y13.288
X11.870 Y13.998
X11.769 Y14.172
X11.399 Y14.962
X11.328 Y15.159
X11.108 Y15.999
X11.075 Y16.185
X11.004 Y16.955
ID=1 WHEN $AC_TIMER[1]>=0 DO M51

; Inicio do trecho do raster
X22.9875 Y28.3253 F1500
ID=1 WHEN $AC_TIMER[1]>=0 DO M50
X28.304 Y23.009 F300
ID=1 WHEN $AC_TIMER[1]>=0 DO M51
X29.6352 Y18.7502 F1500
ID=1 WHEN $AC_TIMER[1]>=0 DO M50
X18.722 Y29.663 F300
ID=1 WHEN $AC_TIMER[1]>=0 DO M51
X15.7626 Y29.6954 F1500
ID=1 WHEN $AC_TIMER[1]>=0 DO M50
X21.108 Y24.350 F300
ID=1 WHEN $AC_TIMER[1]>=0 DO M51
X24.3295 Y21.1285 F1500
ID=1 WHEN $AC_TIMER[1]>=0 DO M50
X29.657 Y15.801 F300
ID=1 WHEN $AC_TIMER[1]>=0 DO M51
X29.1539 Y13.3768 F1500
ID=1 WHEN $AC_TIMER[1]>=0 DO M50
X25.355 Y17.176 F300
ID=1 WHEN $AC_TIMER[1]>=0 DO M51
X17.1564 Y25.3742 F1500
ID=1 WHEN $AC_TIMER[1]>=0 DO M50
X13.345 Y29.186 F300
ID=1 WHEN $AC_TIMER[1]>=0 DO M51
X11.2833 Y28.3199 F1500
ID=1 WHEN $AC_TIMER[1]>=0 DO M50
X14.625 Y24.978 F300
ID=1 WHEN $AC_TIMER[1]>=0 DO M51
X24.9533 Y14.6499 F1500
ID=1 WHEN $AC_TIMER[1]>=0 DO M50
X28.296 Y11.307 F300
ID=1 WHEN $AC_TIMER[1]>=0 DO M51
X27.1605 Y9.51524 F1500
ID=1 WHEN $AC_TIMER[1]>=0 DO M50
X24.006 Y12.670 F300
ID=1 WHEN $AC_TIMER[1]>=0 DO M51
X12.6532 Y24.0226 F1500
ID=1 WHEN $AC_TIMER[1]>=0 DO M50
X9.502 Y27.174 F300
ID=1 WHEN $AC_TIMER[1]>=0 DO M51
X7.95186 Y25.7965 F1500
ID=1 WHEN $AC_TIMER[1]>=0 DO M50
X11.063 Y22.686 F300
ID=1 WHEN $AC_TIMER[1]>=0 DO M51
X22.6568 Y11.0915 F1500
ID=1 WHEN $AC_TIMER[1]>=0 DO M50
X25.764 Y7.984 F300
ID=1 WHEN $AC_TIMER[1]>=0 DO M51
X24.1369 Y6.68401 F1500
ID=1 WHEN $AC_TIMER[1]>=0 DO M50
X20.938 Y9.883 F300
ID=1 WHEN $AC_TIMER[1]>=0 DO M51
X9.8667 Y20.9542 F1500
ID=1 WHEN $AC_TIMER[1]>=0 DO M50
X6.662 Y24.159 F300
ID=1 WHEN $AC_TIMER[1]>=0 DO M51
X5.62771 Y22.2658 F1500
ID=1 WHEN $AC_TIMER[1]>=0 DO M50
X9.096 Y18.798 F300
ID=1 WHEN $AC_TIMER[1]>=0 DO M51
X18.7753 Y9.11823 F1500
ID=1 WHEN $AC_TIMER[1]>=0 DO M50
X22.254 Y5.640 F300
ID=1 WHEN $AC_TIMER[1]>=0 DO M51
X20.0574 Y4.90865 F1500
ID=1 WHEN $AC_TIMER[1]>=0 DO M50
X15.921 Y9.045 F300
ID=1 WHEN $AC_TIMER[1]>=0 DO M51
X9.02138 Y15.9447 F1500
ID=1 WHEN $AC_TIMER[1]>=0 DO M50
X4.883 Y20.083 F300
ID=1 WHEN $AC_TIMER[1]>=0 DO M51
X4.55 Y17.4887 F1500
ID=1 WHEN $AC_TIMER[1]>=0 DO M50
X17.468 Y4.570 F300
ID=1 WHEN $AC_TIMER[1]>=0 DO M51
X14.1954 Y4.91583 F1500
ID=1 WHEN $AC_TIMER[1]>=0 DO M50
X4.886 Y14.226 F300
ID=1 WHEN $AC_TIMER[1]>=0 DO M51
; Final do trecho do raster

; Layer 7
G1 Z9.100 F1500
X23.2863 Y17.2522 F1500
ID=1 WHEN $AC_TIMER[1]>=0 DO M50
X23.286 Y17.068 F300
X23.216 Y16.198
X23.179 Y15.986
X22.949 Y15.146
X22.881 Y14.962
X22.511 Y14.172
X22.410 Y13.998
X21.910 Y13.288
X21.783 Y13.137
X21.163 Y12.517
X21.012 Y12.390
X20.302 Y11.890
X20.128 Y11.789
X19.338 Y11.419
X19.141 Y11.348
X18.301 Y11.128
X18.115 Y11.095
X17.245 Y11.015
X17.035 Y11.015
X16.165 Y11.095
X15.979 Y11.128
X15.139 Y11.348
X14.942 Y11.419
X14.152 Y11.789
X13.978 Y11.890
X13.268 Y12.390
X13.117 Y12.517
X12.497 Y13.137
X12.370 Y13.288
X11.870 Y13.998
X11.769 Y14.172
X11.399 Y14.962
X11.328 Y15.159
X11.108 Y15.999
X11.075 Y16.185
X10.995 Y17.055
X10.995 Y17.265
X11.075 Y18.135
X11.108 Y18.321
X11.328 Y19.161
X11.399 Y19.358
X11.769 Y20.148
X11.865 Y20.316
X12.365 Y21.036
X12.503 Y21.200
X13.123 Y21.810
X13.268 Y21.930
X13.978 Y22.430
X14.152 Y22.531
X14.942 Y22.901
X15.126 Y22.969
X15.966 Y23.199
X16.178 Y23.236
X17.048 Y23.306
X17.232 Y23.306
X18.102 Y23.236
X18.314 Y23.199
X19.154 Y22.969
X19.338 Y22.901
X20.128 Y22.531
X20.302 Y22.430
X21.012 Y21.930
X21.157 Y21.810
X21.777 Y21.200
X21.915 Y21.036
X22.415 Y20.316
X22.511 Y20.148
X22.881 Y19.358
X22.949 Y19.174
X23.179 Y18.334
X23.216 Y18.122
X23.278 Y17.352
ID=1 WHEN $AC_TIMER[1]>=0 DO M51
X24.5624 Y3.79759 F1500
ID=1 WHEN $AC_TIMER[1]>=0 DO M50
X25.872 Y4.615 F300
X27.100 Y5.564
X28.225 Y6.633
X29.229 Y7.804
X30.113 Y9.080
X30.867 Y10.429
X31.481 Y11.851
X31.945 Y13.327
X32.252 Y14.843
X32.410 Y16.389
X32.410 Y17.941
X32.252 Y19.477
X31.945 Y20.993
X31.481 Y22.469
X30.867 Y23.892
X30.112 Y25.252
X29.229 Y26.526
X28.225 Y27.697
X27.100 Y28.766
X25.872 Y29.715
X24.562 Y30.532
X23.167 Y31.212
X21.714 Y31.752
X20.218 Y32.142
X18.686 Y32.374
X17.140 Y32.449
X15.594 Y32.374
X14.062 Y32.142
X12.566 Y31.752
X11.113 Y31.212
X9.737 Y30.542
X8.405 Y29.713
X7.182 Y28.767
X6.065 Y27.697
X5.050 Y26.524
X4.168 Y25.252
X3.413 Y23.892
X2.801 Y22.472
X2.345 Y20.993
X2.028 Y19.473
X1.870 Y17.941
X1.870 Y16.389
X2.028 Y14.846
X2.345 Y13.327
X2.801 Y11.848
X3.413 Y10.430
X4.167 Y9.080
X5.050 Y7.806
X6.065 Y6.633
X7.182 Y5.563
X8.408 Y4.615
X9.718 Y3.798
X11.113 Y3.118
X12.566 Y2.578
X14.062 Y2.188
X15.598 Y1.955
X17.140 Y1.872
X18.682 Y1.955
X20.218 Y2.188
X21.873 Y2.627
X23.163 Y3.117
X24.472 Y3.754
ID=1 WHEN $AC_TIMER[1]>=0 DO M51

; Inicio do trecho do raster
X5.95781 Y24.2007 F1500
ID=1 WHEN $AC_TIMER[1]>=0 DO M50
X10.065 Y28.308 F300
ID=1 WHEN $AC_TIMER[1]>=0 DO M51
X14.8527 Y30.1682 F1500
ID=1 WHEN $AC_TIMER[1]>=0 DO M50
X4.138 Y19.454 F300
ID=1 WHEN $AC_TIMER[1]>=0 DO M51
X3.95546 Y16.3435 F1500
ID=1 WHEN $AC_TIMER[1]>=0 DO M50
X17.949 Y30.337 F300
ID=1 WHEN $AC_TIMER[1]>=0 DO M51
X20.4751 Y29.9357 F1500
ID=1 WHEN $AC_TIMER[1]>=0 DO M50
X15.808 Y25.268 F300
ID=1 WHEN $AC_TIMER[1]>=0 DO M51
X9.03683 Y18.4975 F1500
ID=1 WHEN $AC_TIMER[1]>=0 DO M50
X4.359 Y13.820 F300
ID=1 WHEN $AC_TIMER[1]>=0 DO M51
X5.13339 Y11.6666 F1500
ID=1 WHEN $AC_TIMER[1]>=0 DO M50
X9.077 Y15.610 F300
ID=1 WHEN $AC_TIMER[1]>=0 DO M51
X18.6953 Y25.2285 F1500
ID=1 WHEN $AC_TIMER[1]>=0 DO M50
X22.635 Y29.168 F300
ID=1 WHEN $AC_TIMER[1]>=0 DO M51
X24.5157 Y28.1215 F1500
ID=1 WHEN $AC_TIMER[1]>=0 DO M50
X20.862 Y24.467 F300
ID=1 WHEN $AC_TIMER[1]>=0 DO M51
X9.82937 Y13.4352 F1500
ID=1 WHEN $AC_TIMER[1]>=0 DO M50
X6.189 Y9.795 F300
ID=1 WHEN $AC_TIMER[1]>=0 DO M51
X7.48113 Y8.15949 F1500
ID=1 WHEN $AC_TIMER[1]>=0 DO M50
X11.019 Y11.697 F300
ID=1 WHEN $AC_TIMER[1]>=0 DO M51
X22.6076 Y23.2859 F1500
ID=1 WHEN $AC_TIMER[1]>=0 DO M50
X26.142 Y26.821 F300
ID=1 WHEN $AC_TIMER[1]>=0 DO M51
X27.5513 Y25.3023 F1500
ID=1 WHEN $AC_TIMER[1]>=0 DO M50
X23.960 Y21.711 F300
ID=1 WHEN $AC_TIMER[1]>=0 DO M51
X12.588 Y10.3389 F1500
ID=1 WHEN $AC_TIMER[1]>=0 DO M50
X9.013 Y6.764 F300
ID=1 WHEN $AC_TIMER[1]>=0 DO M51
X10.766 Y5.5895 F1500
ID=1 WHEN $AC_TIMER[1]>=0 DO M50
X14.547 Y9.371 F300
ID=1 WHEN $AC_TIMER[1]>=0 DO M51
X24.9332 Y19.7567 F1500
ID=1 WHEN $AC_TIMER[1]>=0 DO M50
X28.703 Y23.526 F300
ID=1 WHEN $AC_TIMER[1]>=0 DO M51
X29.6126 Y21.5087 F1500
ID=1 WHEN $AC_TIMER[1]>=0 DO M50
X25.356 Y17.252 F300
ID=1 WHEN $AC_TIMER[1]>=0 DO M51
X17.0529 Y8.94901 F1500
ID=1 WHEN $AC_TIMER[1]>=0 DO M50
X12.803 Y4.699 F300
ID=1 WHEN $AC_TIMER[1]>=0 DO M51
X15.1483 Y4.117 F1500
ID=1 WHEN $AC_TIMER[1]>=0 DO M50
X20.894 Y9.863 F300
ID=1 WHEN $AC_TIMER[1]>=0 DO M51
X24.4273 Y13.3959 F1500
ID=1 WHEN $AC_TIMER[1]>=0 DO M50
X30.202 Y19.170 F300
ID=1 WHEN $AC_TIMER[1]>=0 DO M51
X30.3271 Y16.3683 F1500
ID=1 WHEN $AC_TIMER[1]>=0 DO M50
X17.947 Y3.988 F300
ID=1 WHEN $AC_TIMER[1]>=0 DO M51
X21.638 Y4.75187 F1500
ID=1 WHEN $AC_TIMER[1]>=0 DO M50
X29.574 Y12.688 F300
ID=1 WHEN $AC_TIMER[1]>=0 DO M51
; Final do trecho do raster

; Layer 8
G1 Z10.400 F1500
X10.9948 Y17.0547 F1500
ID=1 WHEN $AC_TIMER[1]>=0 DO M50
X10.995 Y17.265 F300
X11.075 Y18.135
X11.108 Y18.321
X11.328 Y19.161
X11.399 Y19.358
X11.769 Y20.148
X11.865 Y20.316
X12.365 Y21.036
X12.503 Y21.200
X13.123 Y21.810
X13.268 Y21.930
X13.978 Y22.430
X14.152 Y22.531
X14.942 Y22.901
X15.126 Y22.969
X15.966 Y23.199
X16.178 Y23.236
X17.048 Y23.306
X17.232 Y23.306
X18.102 Y23.236
X18.314 Y23.199
X19.154 Y22.969
X19.338 Y22.901
X20.128 Y22.531
X20.290 Y22.438
X20.990 Y21.958
X21.153 Y21.823
X21.783 Y21.193
X21.915 Y21.036
X22.415 Y20.316
X22.511 Y20.148
X22.881 Y19.358
X22.949 Y19.174
X23.179 Y18.334
X23.216 Y18.122
X23.286 Y17.252
X23.286 Y17.068
X23.216 Y16.198
X23.179 Y15.986
X22.949 Y15.146
X22.881 Y14.962
X22.511 Y14.172
X22.410 Y13.998
X21.910 Y13.288
X21.783 Y13.137
X21.163 Y12.517
X21.012 Y12.390
X20.302 Y11.890
X20.128 Y11.789
X19.338 Y11.419
X19.141 Y11.348
X18.301 Y11.128
X18.115 Y11.095
X17.245 Y11.015
X17.035 Y11.015
X16.165 Y11.095
X15.979 Y11.128
X15.139 Y11.348
X14.942 Y11.419
X14.152 Y11.789
X13.978 Y11.890
X13.268 Y12.390
X13.117 Y12.517
X12.497 Y13.137
X12.370 Y13.288
X11.870 Y13.998
X11.769 Y14.172
X11.399 Y14.962
X11.328 Y15.159
X11.108 Y15.999
X11.075 Y16.185
X11.004 Y16.955
ID=1 WHEN $AC_TIMER[1]>=0 DO M51
X10.9012 Y2.54923 F1500
ID=1 WHEN $AC_TIMER[1]>=0 DO M50
X12.414 Y1.989 F300
X13.970 Y1.588
X15.563 Y1.346
X17.170 Y1.271
X18.754 Y1.346
X20.364 Y1.597
X21.923 Y2.008
X23.433 Y2.567
X24.879 Y3.285
X26.242 Y4.135
X27.520 Y5.124
X28.684 Y6.232
X29.727 Y7.452
X30.642 Y8.778
X31.426 Y10.187
X32.059 Y11.667
X32.534 Y13.204
X32.852 Y14.784
X33.020 Y16.390
X33.020 Y17.968
X32.843 Y19.601
X32.515 Y21.182
X32.050 Y22.680
X31.397 Y24.191
X30.614 Y25.598
X29.690 Y26.915
X28.665 Y28.117
X27.473 Y29.243
X26.195 Y30.223
X24.833 Y31.072
X23.377 Y31.781
X21.866 Y32.341
X20.313 Y32.741
X18.717 Y32.974
X17.110 Y33.058
X15.510 Y32.975
X13.914 Y32.723
X12.354 Y32.321
X10.876 Y31.773
X9.403 Y31.045
X8.038 Y30.185
X6.762 Y29.208
X5.607 Y28.090
X4.549 Y26.864
X3.648 Y25.571
X2.856 Y24.137
X2.231 Y22.653
X1.745 Y21.113
X1.429 Y19.540
X1.270 Y17.933
X1.270 Y16.330
X1.438 Y14.727
X1.764 Y13.150
X2.249 Y11.611
X2.883 Y10.138
X3.667 Y8.730
X4.588 Y7.408
X5.642 Y6.195
X6.811 Y5.083
X8.057 Y4.116
X9.455 Y3.249
X10.811 Y2.593
ID=1 WHEN $AC_TIMER[1]>=0 DO M51

; Inicio do trecho do raster
X8.43221 Y6.4449 F1500
ID=1 WHEN $AC_TIMER[1]>=0 DO M50
X6.413 Y8.464 F300
ID=1 WHEN $AC_TIMER[1]>=0 DO M51
X3.67551 Y14.129 F1500
ID=1 WHEN $AC_TIMER[1]>=0 DO M50
X14.116 Y3.688 F300
ID=1 WHEN $AC_TIMER[1]>=0 DO M51
X17.3786 Y3.35338 F1500
ID=1 WHEN $AC_TIMER[1]>=0 DO M50
X3.340 Y17.392 F300
ID=1 WHEN $AC_TIMER[1]>=0 DO M51
X3.6373 Y20.0221 F1500
ID=1 WHEN $AC_TIMER[1]>=0 DO M50
X9.495 Y14.164 F300
ID=1 WHEN $AC_TIMER[1]>=0 DO M51
X14.1476 Y9.5118 F1500
ID=1 WHEN $AC_TIMER[1]>=0 DO M50
X20.014 Y3.645 F300
ID=1 WHEN $AC_TIMER[1]>=0 DO M51
X22.2503 Y4.33647 F1500
ID=1 WHEN $AC_TIMER[1]>=0 DO M50
X17.611 Y8.975 F300
ID=1 WHEN $AC_TIMER[1]>=0 DO M51
X8.95136 Y17.6354 F1500
ID=1 WHEN $AC_TIMER[1]>=0 DO M50
X4.316 Y22.271 F300
ID=1 WHEN $AC_TIMER[1]>=0 DO M51
X5.2761 Y24.2381 F1500
ID=1 WHEN $AC_TIMER[1]>=0 DO M50
X9.456 Y20.059 F300
ID=1 WHEN $AC_TIMER[1]>=0 DO M51
X20.0421 Y9.4721 F1500
ID=1 WHEN $AC_TIMER[1]>=0 DO M50
X24.208 Y5.306 F300
ID=1 WHEN $AC_TIMER[1]>=0 DO M51
X25.9305 Y6.51115 F1500
ID=1 WHEN $AC_TIMER[1]>=0 DO M50
X21.932 Y10.509 F300
ID=1 WHEN $AC_TIMER[1]>=0 DO M51
X10.4882 Y21.9535 F1500
ID=1 WHEN $AC_TIMER[1]>=0 DO M50
X6.493 Y25.948 F300
ID=1 WHEN $AC_TIMER[1]>=0 DO M51
X7.92081 Y27.4482 F1500
ID=1 WHEN $AC_TIMER[1]>=0 DO M50
X11.893 Y23.476 F300
ID=1 WHEN $AC_TIMER[1]>=0 DO M51
X23.4567 Y11.9124 F1500
ID=1 WHEN $AC_TIMER[1]>=0 DO M50
X27.425 Y7.944 F300
ID=1 WHEN $AC_TIMER[1]>=0 DO M51
X28.6953 Y9.60116 F1500
ID=1 WHEN $AC_TIMER[1]>=0 DO M50
X24.580 Y13.716 F300
ID=1 WHEN $AC_TIMER[1]>=0 DO M51
X13.6964 Y24.6001 F1500
ID=1 WHEN $AC_TIMER[1]>=0 DO M50
X9.584 Y28.713 F300
ID=1 WHEN $AC_TIMER[1]>=0 DO M51
X11.4677 Y29.7562 F1500
ID=1 WHEN $AC_TIMER[1]>=0 DO M50
X15.936 Y25.288 F300
ID=1 WHEN $AC_TIMER[1]>=0 DO M51
X25.2657 Y15.9582 F1500
ID=1 WHEN $AC_TIMER[1]>=0 DO M50
X29.733 Y11.491 F300
ID=1 WHEN $AC_TIMER[1]>=0 DO M51
X30.5044 Y13.6469 F1500
ID=1 WHEN $AC_TIMER[1]>=0 DO M50
X25.131 Y19.020 F300
ID=1 WHEN $AC_TIMER[1]>=0 DO M51
X18.993 Y25.1583 F1500
ID=1 WHEN $AC_TIMER[1]>=0 DO M50
X13.637 Y30.514 F300
ID=1 WHEN $AC_TIMER[1]>=0 DO M51
X16.1437 Y30.935 F1500
ID=1 WHEN $AC_TIMER[1]>=0 DO M50
X30.915 Y16.164 F300
ID=1 WHEN $AC_TIMER[1]>=0 DO M51
X30.8038 Y19.2024 F1500
ID=1 WHEN $AC_TIMER[1]>=0 DO M50
X19.194 Y30.813 F300
ID=1 WHEN $AC_TIMER[1]>=0 DO M51
X23.5285 Y29.4051 F1500
ID=1 WHEN $AC_TIMER[1]>=0 DO M50
X29.387 Y23.547 F300
ID=1 WHEN $AC_TIMER[1]>=0 DO M51
; Final do trecho do raster

M0
; TURN OFF POWDER!!!
M0
; End of Programm--------------------
G4F5
M55   ; home mirror
M30   ; program end