; Generated by RP3 on 2019-02-11
; Job 0 - LMD

; General Config.--------------------
$ac_timer[1]=0
G91   ; relative positioning
G64   ;
M55   ; home mirror
G4F4  ; necessary delay for positioning of the mirror
M0    ; wait for user-input

; Process Start-up--------------------
M56   ; set canal 1 as laser-source
G4F4  ; necessary delay for positioning of the mirror
M0    ; wait for user-input
; START POWDER!!!
G4F5
M0
G54   ; set process starting point (machine zero)

; Laser On and Path------------------
H1=63
G90   ; use absolute coordinates

; Layer 1
G1 Z0.600 F500
X10.4873 Y26.7269 F500
ID=1 WHEN $AC_TIMER[1]>=0 DO M50
X9.557 Y25.999 F800
X8.698 Y25.187
X7.932 Y24.292
X7.250 Y23.324
X6.681 Y22.296
X6.219 Y21.205
X5.860 Y20.081
X5.630 Y18.933
X5.510 Y17.750
X5.510 Y16.571
X5.630 Y15.397
X5.860 Y14.238
X6.219 Y13.116
X6.681 Y12.035
X7.250 Y11.006
X7.934 Y10.036
X8.700 Y9.132
X9.554 Y8.323
X10.486 Y7.604
X11.490 Y6.977
X12.551 Y6.461
X13.658 Y6.045
X14.798 Y5.751
X15.961 Y5.576
X17.140 Y5.511
X18.320 Y5.576
X19.492 Y5.751
X20.622 Y6.045
X21.740 Y6.461
X22.798 Y6.976
X23.792 Y7.603
X24.726 Y8.323
X25.582 Y9.134
X26.356 Y10.036
X27.028 Y11.004
X27.599 Y12.035
X28.061 Y13.116
X28.420 Y14.238
X28.663 Y15.438
X28.770 Y16.567
X28.770 Y17.754
X28.659 Y18.933
X28.421 Y20.078
X28.061 Y21.205
X27.599 Y22.296
X27.028 Y23.326
X26.357 Y24.292
X25.584 Y25.185
X24.723 Y25.999
X23.792 Y26.727
X22.798 Y27.344
X21.740 Y27.868
X20.626 Y28.274
X19.488 Y28.570
X18.320 Y28.754
X17.140 Y28.809
X15.961 Y28.754
X14.802 Y28.570
X13.655 Y28.274
X12.548 Y27.868
X11.528 Y27.372
X10.572 Y26.780
ID=1 WHEN $AC_TIMER[1]>=0 DO M51
X11.1532 Y17.1106 F1500
ID=1 WHEN $AC_TIMER[1]>=0 DO M50
X11.154 Y17.281 F800
X11.234 Y18.151
X11.265 Y18.321
X11.495 Y19.161
X11.555 Y19.324
X11.915 Y20.084
X12.000 Y20.229
X12.520 Y20.969
X12.636 Y21.106
X13.256 Y21.716
X13.388 Y21.825
X14.098 Y22.315
X14.244 Y22.399
X15.044 Y22.769
X15.209 Y22.828
X16.049 Y23.048
X16.221 Y23.077
X17.091 Y23.147
X17.252 Y23.147
X18.092 Y23.077
X18.276 Y23.044
X19.136 Y22.804
X19.290 Y22.747
X20.080 Y22.377
X20.238 Y22.284
X20.948 Y21.774
X21.064 Y21.676
X21.684 Y21.066
X21.808 Y20.917
X22.298 Y20.197
X22.377 Y20.060
X22.747 Y19.270
X22.808 Y19.101
X23.028 Y18.261
X23.057 Y18.089
X23.127 Y17.219
X23.127 Y17.059
X23.057 Y16.209
X23.024 Y16.024
X22.784 Y15.164
X22.727 Y15.010
X22.357 Y14.220
X22.264 Y14.062
X21.754 Y13.352
X21.644 Y13.224
X21.024 Y12.614
X20.900 Y12.511
X20.190 Y12.011
X20.039 Y11.923
X19.269 Y11.563
X19.093 Y11.500
X18.223 Y11.280
X18.074 Y11.254
X17.234 Y11.174
X17.050 Y11.174
X16.189 Y11.253
X16.019 Y11.282
X15.179 Y11.502
X15.015 Y11.561
X14.924 Y11.614
X14.230 Y11.929
X14.066 Y12.024
X13.336 Y12.544
X13.204 Y12.656
X12.594 Y13.276
X12.493 Y13.397
X12.003 Y14.087
X11.913 Y14.240
X11.543 Y15.030
X11.483 Y15.197
X11.253 Y16.067
X11.223 Y16.241
X11.161 Y17.011
ID=1 WHEN $AC_TIMER[1]>=0 DO M51

; Inicio do trecho do raster
X26.3948 Y13.7555 F1500
ID=1 WHEN $AC_TIMER[1]>=0 DO M50
X20.565 Y7.925 F800
ID=1 WHEN $AC_TIMER[1]>=0 DO M51
X17.4313 Y7.31207 F1500
ID=1 WHEN $AC_TIMER[1]>=0 DO M50
X20.119 Y10.000 F800
ID=1 WHEN $AC_TIMER[1]>=0 DO M51
X24.31 Y14.1908 F1500
ID=1 WHEN $AC_TIMER[1]>=0 DO M50
X26.988 Y16.869 F800
ID=1 WHEN $AC_TIMER[1]>=0 DO M51
X26.7864 Y19.1873 F1500
ID=1 WHEN $AC_TIMER[1]>=0 DO M50
X24.902 Y17.303 F800
ID=1 WHEN $AC_TIMER[1]>=0 DO M51
X16.9965 Y9.39737 F1500
ID=1 WHEN $AC_TIMER[1]>=0 DO M50
X15.110 Y7.511 F800
ID=1 WHEN $AC_TIMER[1]>=0 DO M51
X13.2039 Y8.12488 F1500
ID=1 WHEN $AC_TIMER[1]>=0 DO M50
X14.835 Y9.756 F800
ID=1 WHEN $AC_TIMER[1]>=0 DO M51
X24.5518 Y19.4728 F1500
ID=1 WHEN $AC_TIMER[1]>=0 DO M50
X26.173 Y21.094 F800
ID=1 WHEN $AC_TIMER[1]>=0 DO M51
X25.2792 Y22.7204 F1500
ID=1 WHEN $AC_TIMER[1]>=0 DO M50
X23.763 Y21.204 F800
ID=1 WHEN $AC_TIMER[1]>=0 DO M51
X13.0936 Y10.5347 F1500
ID=1 WHEN $AC_TIMER[1]>=0 DO M50
X11.580 Y9.021 F800
ID=1 WHEN $AC_TIMER[1]>=0 DO M51
X10.2022 Y10.1635 F1500
ID=1 WHEN $AC_TIMER[1]>=0 DO M50
X11.693 Y11.654 F800
ID=1 WHEN $AC_TIMER[1]>=0 DO M51
X22.6494 Y22.6107 F1500
ID=1 WHEN $AC_TIMER[1]>=0 DO M50
X24.138 Y24.099 F800
ID=1 WHEN $AC_TIMER[1]>=0 DO M51
X22.7773 Y25.2587 F1500
ID=1 WHEN $AC_TIMER[1]>=0 DO M50
X21.260 Y23.742 F800
ID=1 WHEN $AC_TIMER[1]>=0 DO M51
X10.564 Y13.0454 F1500
ID=1 WHEN $AC_TIMER[1]>=0 DO M50
X9.056 Y11.537 F800
ID=1 WHEN $AC_TIMER[1]>=0 DO M51
X8.14402 Y13.1456 F1500
ID=1 WHEN $AC_TIMER[1]>=0 DO M50
X9.756 Y14.757 F800
ID=1 WHEN $AC_TIMER[1]>=0 DO M51
X19.5357 Y24.5372 F1500
ID=1 WHEN $AC_TIMER[1]>=0 DO M50
X21.164 Y26.165 F800
ID=1 WHEN $AC_TIMER[1]>=0 DO M51
X19.2647 Y26.7864 F1500
ID=1 WHEN $AC_TIMER[1]>=0 DO M50
X17.401 Y24.922 F800
ID=1 WHEN $AC_TIMER[1]>=0 DO M51
X9.3869 Y16.9086 F1500
ID=1 WHEN $AC_TIMER[1]>=0 DO M50
X7.518 Y15.039 F800
ID=1 WHEN $AC_TIMER[1]>=0 DO M51
X7.292 Y17.3338 F1500
ID=1 WHEN $AC_TIMER[1]>=0 DO M50
X9.880 Y19.922 F800
ID=1 WHEN $AC_TIMER[1]>=0 DO M51
X14.372 Y24.4138 F1500
ID=1 WHEN $AC_TIMER[1]>=0 DO M50
X16.975 Y27.017 F800
ID=1 WHEN $AC_TIMER[1]>=0 DO M51
X13.9057 Y26.4676 F1500
ID=1 WHEN $AC_TIMER[1]>=0 DO M50
X7.830 Y20.392 F800
ID=1 WHEN $AC_TIMER[1]>=0 DO M51
; Final do trecho do raster

; Layer 2
G1 Z1.200 F1500
X23.1268 Y17.2394 F1500
ID=1 WHEN $AC_TIMER[1]>=0 DO M50
X23.127 Y17.081 F800
X23.057 Y16.211
X23.031 Y16.052
X22.990 Y15.940
X22.798 Y15.201
X22.737 Y15.030
X22.367 Y14.240
X22.276 Y14.085
X21.726 Y13.315
X21.614 Y13.184
X21.044 Y12.624
X20.920 Y12.521
X20.210 Y12.021
X20.060 Y11.933
X19.270 Y11.563
X19.101 Y11.502
X18.261 Y11.282
X18.101 Y11.254
X17.231 Y11.174
X17.049 Y11.174
X16.179 Y11.254
X16.019 Y11.282
X15.179 Y11.502
X15.010 Y11.563
X14.220 Y11.933
X14.070 Y12.021
X13.360 Y12.521
X13.230 Y12.630
X12.610 Y13.250
X12.501 Y13.380
X12.001 Y14.090
X11.913 Y14.240
X11.543 Y15.030
X11.482 Y15.199
X11.262 Y16.039
X11.234 Y16.199
X11.154 Y17.069
X11.154 Y17.251
X11.234 Y18.121
X11.262 Y18.281
X11.482 Y19.121
X11.543 Y19.290
X11.913 Y20.080
X11.997 Y20.225
X12.497 Y20.945
X12.620 Y21.090
X13.300 Y21.750
X13.433 Y21.858
X14.153 Y22.348
X14.298 Y22.430
X15.018 Y22.760
X15.169 Y22.815
X16.009 Y23.045
X16.197 Y23.077
X17.147 Y23.147
X17.307 Y23.146
X18.097 Y23.076
X18.271 Y23.045
X19.111 Y22.815
X19.276 Y22.754
X20.136 Y22.344
X20.293 Y22.250
X20.993 Y21.740
X21.110 Y21.640
X21.670 Y21.080
X21.783 Y20.945
X22.283 Y20.225
X22.367 Y20.080
X22.737 Y19.290
X22.795 Y19.131
X23.025 Y18.291
X23.057 Y18.109
X23.119 Y17.339
ID=1 WHEN $AC_TIMER[1]>=0 DO M51
X23.9555 Y7.37476 F1500
ID=1 WHEN $AC_TIMER[1]>=0 DO M50
X24.916 Y8.114 F800
X25.792 Y8.944
X26.576 Y9.856
X27.268 Y10.853
X27.850 Y11.906
X28.331 Y13.025
X28.690 Y14.167
X28.930 Y15.357
X29.050 Y16.559
X29.050 Y17.771
X28.930 Y18.972
X28.690 Y20.153
X28.331 Y21.305
X27.850 Y22.414
X27.268 Y23.476
X26.577 Y24.462
X25.790 Y25.378
X24.914 Y26.218
X23.955 Y26.955
X22.928 Y27.594
X21.849 Y28.129
X20.715 Y28.544
X19.539 Y28.849
X18.351 Y29.033
X17.140 Y29.089
X15.929 Y29.033
X14.741 Y28.849
X13.567 Y28.544
X12.441 Y28.129
X11.351 Y27.593
X10.327 Y26.956
X9.378 Y26.220
X8.498 Y25.376
X7.703 Y24.462
X7.022 Y23.476
X6.431 Y22.414
X5.959 Y21.305
X5.589 Y20.150
X5.350 Y18.972
X5.230 Y17.771
X5.230 Y16.559
X5.350 Y15.357
X5.589 Y14.171
X5.959 Y13.025
X6.431 Y11.906
X7.022 Y10.853
X7.705 Y9.856
X8.496 Y8.946
X9.376 Y8.112
X10.326 Y7.374
X11.351 Y6.737
X12.441 Y6.201
X13.567 Y5.786
X14.741 Y5.481
X15.933 Y5.296
X17.140 Y5.231
X18.347 Y5.296
X19.539 Y5.481
X20.715 Y5.786
X21.849 Y6.201
X22.928 Y6.736
X23.871 Y7.322
ID=1 WHEN $AC_TIMER[1]>=0 DO M51

; Inicio do trecho do raster
X26.9581 Y19.7209 F1500
ID=1 WHEN $AC_TIMER[1]>=0 DO M50
X19.717 Y26.962 F800
ID=1 WHEN $AC_TIMER[1]>=0 DO M51
X16.8663 Y27.2926 F1500
ID=1 WHEN $AC_TIMER[1]>=0 DO M50
X19.651 Y24.508 F800
ID=1 WHEN $AC_TIMER[1]>=0 DO M51
X24.4908 Y19.668 F1500
ID=1 WHEN $AC_TIMER[1]>=0 DO M50
X27.268 Y16.891 F800
ID=1 WHEN $AC_TIMER[1]>=0 DO M51
X26.9726 Y14.6661 F1500
ID=1 WHEN $AC_TIMER[1]>=0 DO M50
X24.887 Y16.752 F800
ID=1 WHEN $AC_TIMER[1]>=0 DO M51
X16.7383 Y24.9004 F1500
ID=1 WHEN $AC_TIMER[1]>=0 DO M50
X14.653 Y26.985 F800
ID=1 WHEN $AC_TIMER[1]>=0 DO M51
X12.7991 Y26.3195 F1500
ID=1 WHEN $AC_TIMER[1]>=0 DO M50
X14.614 Y24.505 F800
ID=1 WHEN $AC_TIMER[1]>=0 DO M51
X24.4846 Y14.634 F1500
ID=1 WHEN $AC_TIMER[1]>=0 DO M50
X26.302 Y12.817 F800
ID=1 WHEN $AC_TIMER[1]>=0 DO M51
X25.3635 Y11.2349 F1500
ID=1 WHEN $AC_TIMER[1]>=0 DO M50
X23.652 Y12.947 F800
ID=1 WHEN $AC_TIMER[1]>=0 DO M51
X12.9308 Y23.6677 F1500
ID=1 WHEN $AC_TIMER[1]>=0 DO M50
X11.211 Y25.387 F800
ID=1 WHEN $AC_TIMER[1]>=0 DO M51
X9.86227 Y24.216 F1500
ID=1 WHEN $AC_TIMER[1]>=0 DO M50
X11.548 Y22.531 F800
ID=1 WHEN $AC_TIMER[1]>=0 DO M51
X22.5089 Y11.5694 F1500
ID=1 WHEN $AC_TIMER[1]>=0 DO M50
X24.194 Y9.884 F800
ID=1 WHEN $AC_TIMER[1]>=0 DO M51
X22.8021 Y8.75605 F1500
ID=1 WHEN $AC_TIMER[1]>=0 DO M50
X21.088 Y10.470 F800
ID=1 WHEN $AC_TIMER[1]>=0 DO M51
X10.4519 Y21.1063 F1500
ID=1 WHEN $AC_TIMER[1]>=0 DO M50
X8.736 Y22.822 F800
ID=1 WHEN $AC_TIMER[1]>=0 DO M51
X7.84693 Y21.1911 F1500
ID=1 WHEN $AC_TIMER[1]>=0 DO M50
X9.701 Y19.337 F800
ID=1 WHEN $AC_TIMER[1]>=0 DO M51
X19.3192 Y9.71886 F1500
ID=1 WHEN $AC_TIMER[1]>=0 DO M50
X21.180 Y7.858 F800
ID=1 WHEN $AC_TIMER[1]>=0 DO M51
X19.2668 Y7.2511 F1500
ID=1 WHEN $AC_TIMER[1]>=0 DO M50
X17.123 Y9.394 F800
ID=1 WHEN $AC_TIMER[1]>=0 DO M51
X9.37379 Y17.1441 F1500
ID=1 WHEN $AC_TIMER[1]>=0 DO M50
X7.232 Y19.286 F800
ID=1 WHEN $AC_TIMER[1]>=0 DO M51
X7.012 Y16.9858 F1500
ID=1 WHEN $AC_TIMER[1]>=0 DO M50
X10.118 Y13.880 F800
ID=1 WHEN $AC_TIMER[1]>=0 DO M51
X13.8604 Y10.1374 F1500
ID=1 WHEN $AC_TIMER[1]>=0 DO M50
X16.973 Y7.025 F800
ID=1 WHEN $AC_TIMER[1]>=0 DO M51
X13.9245 Y7.55313 F1500
ID=1 WHEN $AC_TIMER[1]>=0 DO M50
X7.536 Y13.942 F800
ID=1 WHEN $AC_TIMER[1]>=0 DO M51
; Final do trecho do raster

; Layer 3
G1 Z1.800 F1500
X11.1542 Y17.0693 F1500
ID=1 WHEN $AC_TIMER[1]>=0 DO M50
X11.154 Y17.251 F800
X11.234 Y18.121
X11.262 Y18.281
X11.482 Y19.121
X11.543 Y19.290
X11.913 Y20.080
X11.997 Y20.225
X12.497 Y20.945
X12.616 Y21.086
X13.236 Y21.696
X13.360 Y21.799
X14.070 Y22.299
X14.220 Y22.387
X15.010 Y22.757
X15.169 Y22.815
X16.009 Y23.045
X16.191 Y23.077
X17.061 Y23.147
X17.219 Y23.147
X18.089 Y23.077
X18.271 Y23.045
X19.111 Y22.815
X19.270 Y22.757
X20.060 Y22.387
X20.210 Y22.299
X20.920 Y21.799
X21.044 Y21.696
X21.664 Y21.086
X21.783 Y20.945
X22.283 Y20.225
X22.367 Y20.080
X22.737 Y19.290
X22.795 Y19.131
X23.025 Y18.291
X23.057 Y18.109
X23.127 Y17.239
X23.127 Y17.081
X23.057 Y16.211
X23.025 Y16.029
X22.795 Y15.189
X22.737 Y15.030
X22.367 Y14.240
X22.279 Y14.090
X21.779 Y13.380
X21.670 Y13.250
X21.050 Y12.630
X20.920 Y12.521
X20.210 Y12.021
X20.060 Y11.933
X19.270 Y11.563
X19.101 Y11.502
X18.261 Y11.282
X18.101 Y11.254
X17.231 Y11.174
X17.049 Y11.174
X16.179 Y11.254
X16.019 Y11.282
X15.179 Y11.502
X15.010 Y11.563
X14.220 Y11.933
X14.070 Y12.021
X13.360 Y12.521
X13.230 Y12.630
X12.610 Y13.250
X12.501 Y13.380
X12.001 Y14.090
X11.913 Y14.240
X11.543 Y15.030
X11.482 Y15.199
X11.262 Y16.039
X11.234 Y16.199
X11.163 Y16.970
ID=1 WHEN $AC_TIMER[1]>=0 DO M51
X10.166 Y7.14379 F1500
ID=1 WHEN $AC_TIMER[1]>=0 DO M50
X11.221 Y6.487 F800
X12.330 Y5.941
X13.488 Y5.515
X14.680 Y5.201
X15.910 Y5.016
X17.140 Y4.951
X18.380 Y5.016
X19.599 Y5.201
X20.793 Y5.516
X21.961 Y5.942
X23.067 Y6.486
X24.112 Y7.143
X25.095 Y7.903
X25.992 Y8.754
X26.795 Y9.686
X27.498 Y10.703
X28.100 Y11.787
X28.591 Y12.925
X28.961 Y14.099
X29.210 Y15.308
X29.330 Y16.538
X29.330 Y17.782
X29.210 Y19.011
X28.960 Y20.222
X28.590 Y21.406
X28.100 Y22.543
X27.499 Y23.625
X26.795 Y24.634
X25.991 Y25.578
X25.095 Y26.427
X24.115 Y27.185
X23.070 Y27.833
X21.958 Y28.380
X20.793 Y28.814
X19.603 Y29.119
X18.380 Y29.304
X17.140 Y29.369
X15.910 Y29.304
X14.677 Y29.118
X13.488 Y28.814
X12.334 Y28.380
X11.218 Y27.832
X10.164 Y27.184
X9.185 Y26.427
X8.289 Y25.578
X7.485 Y24.634
X6.781 Y23.625
X6.180 Y22.543
X5.690 Y21.406
X5.320 Y20.222
X5.070 Y19.012
X4.950 Y17.782
X4.950 Y16.538
X5.070 Y15.308
X5.319 Y14.103
X5.695 Y12.911
X6.180 Y11.787
X6.782 Y10.703
X7.485 Y9.686
X8.288 Y8.754
X9.185 Y7.903
X10.087 Y7.205
ID=1 WHEN $AC_TIMER[1]>=0 DO M51

; Inicio do trecho do raster
X14.2109 Y27.1599 F1500
ID=1 WHEN $AC_TIMER[1]>=0 DO M50
X7.147 Y20.096 F800
ID=1 WHEN $AC_TIMER[1]>=0 DO M51
X6.732 Y17.1608 F1500
ID=1 WHEN $AC_TIMER[1]>=0 DO M50
X10.214 Y20.643 F800
ID=1 WHEN $AC_TIMER[1]>=0 DO M51
X13.663 Y24.0919 F1500
ID=1 WHEN $AC_TIMER[1]>=0 DO M50
X17.155 Y27.583 F800
ID=1 WHEN $AC_TIMER[1]>=0 DO M51
X19.4178 Y27.3265 F1500
ID=1 WHEN $AC_TIMER[1]>=0 DO M50
X17.017 Y24.926 F800
ID=1 WHEN $AC_TIMER[1]>=0 DO M51
X9.37686 Y17.2856 F1500
ID=1 WHEN $AC_TIMER[1]>=0 DO M50
X6.977 Y14.886 F800
ID=1 WHEN $AC_TIMER[1]>=0 DO M51
X7.60163 Y12.9902 F1500
ID=1 WHEN $AC_TIMER[1]>=0 DO M50
X9.677 Y15.066 F800
ID=1 WHEN $AC_TIMER[1]>=0 DO M51
X19.2363 Y24.6249 F1500
ID=1 WHEN $AC_TIMER[1]>=0 DO M50
X21.319 Y26.708 F800
ID=1 WHEN $AC_TIMER[1]>=0 DO M51
X22.9453 Y25.8138 F1500
ID=1 WHEN $AC_TIMER[1]>=0 DO M50
X21.020 Y23.888 F800
ID=1 WHEN $AC_TIMER[1]>=0 DO M51
X10.4122 Y13.2807 F1500
ID=1 WHEN $AC_TIMER[1]>=0 DO M50
X8.493 Y11.361 F800
ID=1 WHEN $AC_TIMER[1]>=0 DO M51
X9.60863 Y9.95696 F1500
ID=1 WHEN $AC_TIMER[1]>=0 DO M50
X11.499 Y11.847 F800
ID=1 WHEN $AC_TIMER[1]>=0 DO M51
X22.456 Y22.8043 F1500
ID=1 WHEN $AC_TIMER[1]>=0 DO M50
X24.339 Y24.688 F800
ID=1 WHEN $AC_TIMER[1]>=0 DO M51
X25.5199 Y23.3481 F1500
ID=1 WHEN $AC_TIMER[1]>=0 DO M50
X23.607 Y21.435 F800
ID=1 WHEN $AC_TIMER[1]>=0 DO M51
X12.8639 Y10.6921 F1500
ID=1 WHEN $AC_TIMER[1]>=0 DO M50
X10.957 Y8.785 F800
ID=1 WHEN $AC_TIMER[1]>=0 DO M51
X12.5238 Y7.83189 F1500
ID=1 WHEN $AC_TIMER[1]>=0 DO M50
X14.534 Y9.842 F800
ID=1 WHEN $AC_TIMER[1]>=0 DO M51
X24.4572 Y19.7653 F1500
ID=1 WHEN $AC_TIMER[1]>=0 DO M50
X26.481 Y21.789 F800
ID=1 WHEN $AC_TIMER[1]>=0 DO M51
X27.1744 Y19.9624 F1500
ID=1 WHEN $AC_TIMER[1]>=0 DO M50
X24.877 Y17.665 F800
ID=1 WHEN $AC_TIMER[1]>=0 DO M51
X16.6362 Y9.42412 F1500
ID=1 WHEN $AC_TIMER[1]>=0 DO M50
X14.344 Y7.132 F800
ID=1 WHEN $AC_TIMER[1]>=0 DO M51
X16.5016 Y6.76944 F1500
ID=1 WHEN $AC_TIMER[1]>=0 DO M50
X19.496 Y9.764 F800
ID=1 WHEN $AC_TIMER[1]>=0 DO M51
X24.5304 Y14.7982 F1500
ID=1 WHEN $AC_TIMER[1]>=0 DO M50
X27.537 Y17.805 F800
ID=1 WHEN $AC_TIMER[1]>=0 DO M51
X27.3461 Y15.0938 F1500
ID=1 WHEN $AC_TIMER[1]>=0 DO M50
X19.194 Y6.942 F800
ID=1 WHEN $AC_TIMER[1]>=0 DO M51
; Final do trecho do raster

; Layer 4
G1 Z2.400 F1500
X11.1542 Y17.0693 F1500
ID=1 WHEN $AC_TIMER[1]>=0 DO M50
X11.154 Y17.251 F800
X11.234 Y18.121
X11.262 Y18.281
X11.482 Y19.121
X11.543 Y19.290
X11.913 Y20.080
X11.997 Y20.225
X12.497 Y20.945
X12.616 Y21.086
X13.236 Y21.696
X13.360 Y21.799
X14.070 Y22.299
X14.220 Y22.387
X15.010 Y22.757
X15.169 Y22.815
X16.009 Y23.045
X16.191 Y23.077
X17.061 Y23.147
X17.219 Y23.147
X18.089 Y23.077
X18.271 Y23.045
X19.111 Y22.815
X19.270 Y22.757
X20.060 Y22.387
X20.210 Y22.299
X20.920 Y21.799
X21.044 Y21.696
X21.664 Y21.086
X21.783 Y20.945
X22.283 Y20.225
X22.367 Y20.080
X22.737 Y19.290
X22.795 Y19.131
X23.025 Y18.291
X23.057 Y18.109
X23.127 Y17.239
X23.127 Y17.081
X23.057 Y16.211
X23.025 Y16.029
X22.795 Y15.189
X22.737 Y15.030
X22.367 Y14.240
X22.279 Y14.090
X21.779 Y13.380
X21.670 Y13.250
X21.050 Y12.630
X20.920 Y12.521
X20.210 Y12.021
X20.060 Y11.933
X19.270 Y11.563
X19.101 Y11.502
X18.261 Y11.282
X18.101 Y11.254
X17.231 Y11.174
X17.049 Y11.174
X16.179 Y11.254
X16.019 Y11.282
X15.179 Y11.502
X15.010 Y11.563
X14.220 Y11.933
X14.070 Y12.021
X13.360 Y12.521
X13.230 Y12.630
X12.610 Y13.250
X12.501 Y13.380
X12.001 Y14.090
X11.913 Y14.240
X11.543 Y15.030
X11.482 Y15.199
X11.262 Y16.039
X11.234 Y16.199
X11.163 Y16.970
ID=1 WHEN $AC_TIMER[1]>=0 DO M51
X11.0793 Y6.2477 F1500
ID=1 WHEN $AC_TIMER[1]>=0 DO M50
X12.222 Y5.690 F800
X13.408 Y5.246
X14.630 Y4.931
X15.882 Y4.736
X17.140 Y4.671
X18.398 Y4.736
X19.651 Y4.931
X20.883 Y5.246
X22.067 Y5.690
X23.199 Y6.247
X24.273 Y6.914
X25.277 Y7.694
X25.962 Y8.332
X26.184 Y8.555
X27.017 Y9.518
X27.738 Y10.553
X28.350 Y11.666
X28.851 Y12.826
X29.230 Y14.027
X29.480 Y15.269
X29.610 Y16.531
X29.610 Y17.799
X29.480 Y19.051
X29.230 Y20.293
X28.851 Y21.495
X28.350 Y22.664
X27.739 Y23.766
X27.016 Y24.804
X26.191 Y25.767
X25.274 Y26.638
X24.273 Y27.416
X23.199 Y28.083
X22.070 Y28.639
X20.883 Y29.075
X19.651 Y29.399
X18.402 Y29.584
X17.140 Y29.649
X15.878 Y29.584
X14.630 Y29.399
X13.408 Y29.075
X12.219 Y28.638
X11.079 Y28.082
X10.007 Y27.416
X9.006 Y26.638
X8.089 Y25.767
X7.264 Y24.804
X6.541 Y23.766
X5.930 Y22.664
X5.429 Y21.495
X5.050 Y20.293
X4.800 Y19.051
X4.670 Y17.799
X4.670 Y16.531
X4.800 Y15.269
X5.050 Y14.027
X5.429 Y12.826
X5.930 Y11.666
X6.542 Y10.553
X7.263 Y9.518
X8.087 Y8.564
X9.006 Y7.692
X10.007 Y6.914
X10.994 Y6.300
ID=1 WHEN $AC_TIMER[1]>=0 DO M51

; Inicio do trecho do raster
X6.97612 Y13.8449 F1500
ID=1 WHEN $AC_TIMER[1]>=0 DO M50
X13.831 Y6.990 F800
ID=1 WHEN $AC_TIMER[1]>=0 DO M51
X16.8717 Y6.46948 F1500
ID=1 WHEN $AC_TIMER[1]>=0 DO M50
X11.981 Y11.360 F800
ID=1 WHEN $AC_TIMER[1]>=0 DO M51
X11.864 Y11.4772 F1500
ID=1 WHEN $AC_TIMER[1]>=0 DO M50
X6.452 Y16.889 F800
ID=1 WHEN $AC_TIMER[1]>=0 DO M51
X6.64999 Y19.2113 F1500
ID=1 WHEN $AC_TIMER[1]>=0 DO M50
X9.426 Y16.435 F800
ID=1 WHEN $AC_TIMER[1]>=0 DO M51
X16.4156 Y9.44572 F1500
ID=1 WHEN $AC_TIMER[1]>=0 DO M50
X19.197 Y6.664 F800
ID=1 WHEN $AC_TIMER[1]>=0 DO M51
X21.137 Y7.24439 F1500
ID=1 WHEN $AC_TIMER[1]>=0 DO M50
X18.796 Y9.585 F800
ID=1 WHEN $AC_TIMER[1]>=0 DO M51
X9.56194 Y18.8195 F1500
ID=1 WHEN $AC_TIMER[1]>=0 DO M50
X7.224 Y21.158 F800
ID=1 WHEN $AC_TIMER[1]>=0 DO M51
X8.06545 Y22.8361 F1500
ID=1 WHEN $AC_TIMER[1]>=0 DO M50
X10.228 Y20.673 F800
ID=1 WHEN $AC_TIMER[1]>=0 DO M51
X20.6555 Y10.246 F1500
ID=1 WHEN $AC_TIMER[1]>=0 DO M50
X22.803 Y8.098 F800
ID=1 WHEN $AC_TIMER[1]>=0 DO M51
X24.2495 Y9.17221 F1500
ID=1 WHEN $AC_TIMER[1]>=0 DO M50
X22.174 Y11.248 F800
ID=1 WHEN $AC_TIMER[1]>=0 DO M51
X11.2253 Y22.1964 F1500
ID=1 WHEN $AC_TIMER[1]>=0 DO M50
X9.152 Y24.269 F800
ID=1 WHEN $AC_TIMER[1]>=0 DO M51
X10.4432 Y25.4986 F1500
ID=1 WHEN $AC_TIMER[1]>=0 DO M50
X12.541 Y23.400 F800
ID=1 WHEN $AC_TIMER[1]>=0 DO M51
X23.3788 Y12.563 F1500
ID=1 WHEN $AC_TIMER[1]>=0 DO M50
X25.479 Y10.463 F800
ID=1 WHEN $AC_TIMER[1]>=0 DO M51
X26.4864 Y11.9755 F1500
ID=1 WHEN $AC_TIMER[1]>=0 DO M50
X24.298 Y14.164 F800
ID=1 WHEN $AC_TIMER[1]>=0 DO M51
X14.1471 Y24.3148 F1500
ID=1 WHEN $AC_TIMER[1]>=0 DO M50
X11.942 Y26.520 F800
ID=1 WHEN $AC_TIMER[1]>=0 DO M51
X13.6988 Y27.2832 F1500
ID=1 WHEN $AC_TIMER[1]>=0 DO M50
X16.123 Y24.859 F800
ID=1 WHEN $AC_TIMER[1]>=0 DO M51
X24.8336 Y16.1485 F1500
ID=1 WHEN $AC_TIMER[1]>=0 DO M50
X27.264 Y13.718 F800
ID=1 WHEN $AC_TIMER[1]>=0 DO M51
X27.7395 Y15.7627 F1500
ID=1 WHEN $AC_TIMER[1]>=0 DO M50
X24.736 Y18.767 F800
ID=1 WHEN $AC_TIMER[1]>=0 DO M51
X18.7378 Y24.7644 F1500
ID=1 WHEN $AC_TIMER[1]>=0 DO M50
X15.740 Y27.762 F800
ID=1 WHEN $AC_TIMER[1]>=0 DO M51
X18.2132 Y27.8091 F1500
ID=1 WHEN $AC_TIMER[1]>=0 DO M50
X27.772 Y18.251 F800
ID=1 WHEN $AC_TIMER[1]>=0 DO M51
X26.8104 Y21.732 F1500
ID=1 WHEN $AC_TIMER[1]>=0 DO M50
X21.715 Y26.827 F800
ID=1 WHEN $AC_TIMER[1]>=0 DO M51
; Final do trecho do raster

; Layer 5
G1 Z3.000 F1500
X11.1542 Y17.0693 F1500
ID=1 WHEN $AC_TIMER[1]>=0 DO M50
X11.154 Y17.251 F800
X11.234 Y18.121
X11.262 Y18.281
X11.482 Y19.121
X11.543 Y19.290
X11.913 Y20.080
X11.997 Y20.225
X12.497 Y20.945
X12.616 Y21.086
X13.236 Y21.696
X13.360 Y21.799
X14.070 Y22.299
X14.220 Y22.387
X15.010 Y22.757
X15.169 Y22.815
X16.009 Y23.045
X16.191 Y23.077
X17.061 Y23.147
X17.219 Y23.147
X18.089 Y23.077
X18.271 Y23.045
X19.111 Y22.815
X19.270 Y22.757
X20.060 Y22.387
X20.210 Y22.299
X20.920 Y21.799
X21.044 Y21.696
X21.664 Y21.086
X21.783 Y20.945
X22.283 Y20.225
X22.367 Y20.080
X22.737 Y19.290
X22.795 Y19.131
X23.025 Y18.291
X23.057 Y18.109
X23.127 Y17.239
X23.127 Y17.081
X23.057 Y16.211
X23.013 Y15.990
X22.952 Y15.796
X22.799 Y15.203
X22.737 Y15.030
X22.367 Y14.240
X22.279 Y14.090
X21.779 Y13.380
X21.670 Y13.250
X21.050 Y12.630
X20.920 Y12.521
X20.210 Y12.021
X20.060 Y11.933
X19.270 Y11.563
X19.101 Y11.502
X18.261 Y11.282
X18.101 Y11.254
X17.231 Y11.174
X17.049 Y11.174
X16.179 Y11.254
X16.019 Y11.282
X15.179 Y11.502
X15.010 Y11.563
X14.220 Y11.933
X14.070 Y12.021
X13.360 Y12.521
X13.230 Y12.630
X12.610 Y13.250
X12.501 Y13.380
X12.001 Y14.090
X11.913 Y14.240
X11.543 Y15.030
X11.482 Y15.199
X11.262 Y16.039
X11.234 Y16.199
X11.163 Y16.970
ID=1 WHEN $AC_TIMER[1]>=0 DO M51
X10.9401 Y5.99748 F1500
ID=1 WHEN $AC_TIMER[1]>=0 DO M50
X12.108 Y5.432 F800
X13.316 Y4.986
X14.573 Y4.660
X15.853 Y4.456
X17.140 Y4.391
X18.427 Y4.456
X19.707 Y4.660
X20.965 Y4.986
X22.182 Y5.432
X23.339 Y5.997
X24.433 Y6.683
X25.455 Y7.472
X26.392 Y8.363
X27.236 Y9.347
X27.978 Y10.414
X28.600 Y11.536
X29.111 Y12.725
X29.500 Y13.959
X29.760 Y15.229
X29.890 Y16.520
X29.890 Y17.810
X29.760 Y19.100
X29.501 Y20.360
X29.111 Y21.595
X28.599 Y22.785
X27.977 Y23.918
X27.237 Y24.981
X26.393 Y25.955
X25.453 Y26.849
X24.433 Y27.647
X23.339 Y28.324
X22.179 Y28.899
X20.965 Y29.344
X19.711 Y29.669
X18.430 Y29.864
X17.140 Y29.929
X15.850 Y29.864
X14.569 Y29.669
X13.316 Y29.344
X12.111 Y28.899
X10.940 Y28.323
X9.847 Y27.647
X8.827 Y26.849
X7.887 Y25.955
X7.043 Y24.981
X6.303 Y23.918
X5.681 Y22.785
X5.169 Y21.595
X4.779 Y20.360
X4.520 Y19.100
X4.390 Y17.810
X4.390 Y16.520
X4.520 Y15.229
X4.780 Y13.959
X5.169 Y12.725
X5.680 Y11.536
X6.302 Y10.414
X7.044 Y9.347
X7.888 Y8.363
X8.825 Y7.472
X9.847 Y6.683
X10.855 Y6.051
ID=1 WHEN $AC_TIMER[1]>=0 DO M51

; Inicio do trecho do raster
X20.8831 Y6.85412 F1500
ID=1 WHEN $AC_TIMER[1]>=0 DO M50
X27.467 Y13.438 F800
ID=1 WHEN $AC_TIMER[1]>=0 DO M51
X28.1069 Y16.598 F1500
ID=1 WHEN $AC_TIMER[1]>=0 DO M50
X17.713 Y6.204 F800
ID=1 WHEN $AC_TIMER[1]>=0 DO M51
X15.3323 Y6.34359 F1500
ID=1 WHEN $AC_TIMER[1]>=0 DO M50
X18.506 Y9.517 F800
ID=1 WHEN $AC_TIMER[1]>=0 DO M51
X24.7877 Y15.799 F1500
ID=1 WHEN $AC_TIMER[1]>=0 DO M50
X27.966 Y18.977 F800
ID=1 WHEN $AC_TIMER[1]>=0 DO M51
X27.4392 Y20.9706 F1500
ID=1 WHEN $AC_TIMER[1]>=0 DO M50
X24.818 Y18.350 F800
ID=1 WHEN $AC_TIMER[1]>=0 DO M51
X15.959 Y9.49042 F1500
ID=1 WHEN $AC_TIMER[1]>=0 DO M50
X13.344 Y6.875 F800
ID=1 WHEN $AC_TIMER[1]>=0 DO M51
X11.6218 Y7.67338 F1500
ID=1 WHEN $AC_TIMER[1]>=0 DO M50
X14.013 Y10.065 F800
ID=1 WHEN $AC_TIMER[1]>=0 DO M51
X24.2338 Y20.2854 F1500
ID=1 WHEN $AC_TIMER[1]>=0 DO M50
X26.626 Y22.677 F800
ID=1 WHEN $AC_TIMER[1]>=0 DO M51
X25.5898 Y24.1615 F1500
ID=1 WHEN $AC_TIMER[1]>=0 DO M50
X23.305 Y21.877 F800
ID=1 WHEN $AC_TIMER[1]>=0 DO M51
X12.4301 Y11.0018 F1500
ID=1 WHEN $AC_TIMER[1]>=0 DO M50
X10.138 Y8.710 F800
ID=1 WHEN $AC_TIMER[1]>=0 DO M51
X8.86703 Y9.95882 F1500
ID=1 WHEN $AC_TIMER[1]>=0 DO M50
X11.141 Y12.233 F800
ID=1 WHEN $AC_TIMER[1]>=0 DO M51
X22.0693 Y23.1611 F1500
ID=1 WHEN $AC_TIMER[1]>=0 DO M50
X24.349 Y25.440 F800
ID=1 WHEN $AC_TIMER[1]>=0 DO M51
X22.8924 Y26.5043 F1500
ID=1 WHEN $AC_TIMER[1]>=0 DO M50
X20.522 Y24.134 F800
ID=1 WHEN $AC_TIMER[1]>=0 DO M51
X10.1651 Y13.777 F1500
ID=1 WHEN $AC_TIMER[1]>=0 DO M50
X7.791 Y11.403 F800
ID=1 WHEN $AC_TIMER[1]>=0 DO M51
X6.95378 Y13.0858 F1500
ID=1 WHEN $AC_TIMER[1]>=0 DO M50
X9.526 Y15.658 F800
ID=1 WHEN $AC_TIMER[1]>=0 DO M51
X18.6498 Y24.7819 F1500
ID=1 WHEN $AC_TIMER[1]>=0 DO M50
X21.220 Y27.352 F800
ID=1 WHEN $AC_TIMER[1]>=0 DO M51
X19.2798 Y27.932 F1500
ID=1 WHEN $AC_TIMER[1]>=0 DO M50
X16.213 Y24.865 F800
ID=1 WHEN $AC_TIMER[1]>=0 DO M51
X9.44672 Y18.0989 F1500
ID=1 WHEN $AC_TIMER[1]>=0 DO M50
X6.379 Y15.031 F800
ID=1 WHEN $AC_TIMER[1]>=0 DO M51
X6.172 Y17.3443 F1500
ID=1 WHEN $AC_TIMER[1]>=0 DO M50
X16.963 Y28.136 F800
ID=1 WHEN $AC_TIMER[1]>=0 DO M51
X13.9838 Y27.6762 F1500
ID=1 WHEN $AC_TIMER[1]>=0 DO M50
X6.639 Y20.331 F800
ID=1 WHEN $AC_TIMER[1]>=0 DO M51
; Final do trecho do raster

; Layer 6
G1 Z3.600 F1500
X11.1542 Y17.0693 F1500
ID=1 WHEN $AC_TIMER[1]>=0 DO M50
X11.154 Y17.251 F800
X11.234 Y18.121
X11.262 Y18.281
X11.482 Y19.121
X11.543 Y19.290
X11.913 Y20.080
X11.997 Y20.225
X12.497 Y20.945
X12.616 Y21.086
X13.236 Y21.696
X13.360 Y21.799
X14.070 Y22.299
X14.220 Y22.387
X15.010 Y22.757
X15.169 Y22.815
X16.009 Y23.045
X16.191 Y23.077
X17.061 Y23.147
X17.219 Y23.147
X18.089 Y23.077
X18.271 Y23.045
X19.111 Y22.815
X19.270 Y22.757
X20.060 Y22.387
X20.210 Y22.299
X20.920 Y21.799
X21.044 Y21.696
X21.664 Y21.086
X21.783 Y20.945
X22.283 Y20.225
X22.367 Y20.080
X22.737 Y19.290
X22.795 Y19.131
X23.025 Y18.291
X23.057 Y18.109
X23.127 Y17.239
X23.127 Y17.081
X23.057 Y16.211
X23.025 Y16.029
X22.795 Y15.189
X22.737 Y15.030
X22.367 Y14.240
X22.279 Y14.090
X21.779 Y13.380
X21.670 Y13.250
X21.050 Y12.630
X20.920 Y12.521
X20.210 Y12.021
X20.060 Y11.933
X19.270 Y11.563
X19.101 Y11.502
X18.261 Y11.282
X18.101 Y11.254
X17.231 Y11.174
X17.049 Y11.174
X16.179 Y11.254
X16.019 Y11.282
X15.179 Y11.502
X15.010 Y11.563
X14.220 Y11.933
X14.070 Y12.021
X13.360 Y12.521
X13.230 Y12.630
X12.610 Y13.250
X12.501 Y13.380
X12.001 Y14.090
X11.913 Y14.240
X11.543 Y15.030
X11.482 Y15.199
X11.262 Y16.039
X11.234 Y16.199
X11.163 Y16.970
ID=1 WHEN $AC_TIMER[1]>=0 DO M51
X10.8118 Y5.7561 F1500
ID=1 WHEN $AC_TIMER[1]>=0 DO M50
X11.991 Y5.171 F800
X13.236 Y4.716
X14.519 Y4.381
X15.821 Y4.186
X17.140 Y4.112
X18.459 Y4.186
X19.771 Y4.381
X21.044 Y4.716
X22.289 Y5.171
X23.468 Y5.756
X24.596 Y6.455
X25.645 Y7.263
X26.600 Y8.171
X27.456 Y9.176
X28.220 Y10.266
X28.860 Y11.416
X29.380 Y12.633
X29.770 Y13.888
X30.040 Y15.190
X30.170 Y16.499
X30.170 Y17.821
X30.040 Y19.140
X29.770 Y20.432
X29.379 Y21.698
X28.860 Y22.914
X28.220 Y24.064
X27.456 Y25.154
X26.600 Y26.159
X25.649 Y27.063
X24.992 Y27.557
X24.588 Y27.880
X23.471 Y28.572
X22.289 Y29.149
X21.044 Y29.614
X19.771 Y29.939
X18.459 Y30.144
X17.140 Y30.209
X15.821 Y30.144
X14.519 Y29.939
X13.236 Y29.614
X11.991 Y29.149
X10.809 Y28.572
X9.686 Y27.876
X8.646 Y27.069
X7.688 Y26.157
X6.824 Y25.154
X6.072 Y24.066
X5.430 Y22.914
X4.909 Y21.695
X4.509 Y20.429
X4.240 Y19.140
X4.110 Y17.821
X4.110 Y16.499
X4.240 Y15.190
X4.509 Y13.891
X4.909 Y12.636
X5.430 Y11.416
X6.072 Y10.264
X6.824 Y9.176
X7.688 Y8.173
X8.646 Y7.261
X9.686 Y6.454
X10.727 Y5.809
ID=1 WHEN $AC_TIMER[1]>=0 DO M51

; Inicio do trecho do raster
X21.7886 Y27.4105 F1500
ID=1 WHEN $AC_TIMER[1]>=0 DO M50
X27.397 Y21.802 F800
ID=1 WHEN $AC_TIMER[1]>=0 DO M51
X28.327 Y18.3519 F1500
ID=1 WHEN $AC_TIMER[1]>=0 DO M50
X18.317 Y28.362 F800
ID=1 WHEN $AC_TIMER[1]>=0 DO M51
X15.8193 Y28.3396 F1500
ID=1 WHEN $AC_TIMER[1]>=0 DO M50
X19.650 Y24.509 F800
ID=1 WHEN $AC_TIMER[1]>=0 DO M51
X24.4908 Y19.668 F1500
ID=1 WHEN $AC_TIMER[1]>=0 DO M50
X28.314 Y15.845 F800
ID=1 WHEN $AC_TIMER[1]>=0 DO M51
X27.8677 Y13.771 F1500
ID=1 WHEN $AC_TIMER[1]>=0 DO M50
X24.887 Y16.752 F800
ID=1 WHEN $AC_TIMER[1]>=0 DO M51
X16.7343 Y24.9044 F1500
ID=1 WHEN $AC_TIMER[1]>=0 DO M50
X13.739 Y27.900 F800
ID=1 WHEN $AC_TIMER[1]>=0 DO M51
X11.965 Y27.1535 F1500
ID=1 WHEN $AC_TIMER[1]>=0 DO M50
X14.614 Y24.505 F800
ID=1 WHEN $AC_TIMER[1]>=0 DO M51
X24.4844 Y14.6342 F1500
ID=1 WHEN $AC_TIMER[1]>=0 DO M50
X27.136 Y11.983 F800
ID=1 WHEN $AC_TIMER[1]>=0 DO M51
X26.1626 Y10.4358 F1500
ID=1 WHEN $AC_TIMER[1]>=0 DO M50
X23.652 Y12.946 F800
ID=1 WHEN $AC_TIMER[1]>=0 DO M51
X12.9289 Y23.6695 F1500
ID=1 WHEN $AC_TIMER[1]>=0 DO M50
X10.414 Y26.185 F800
ID=1 WHEN $AC_TIMER[1]>=0 DO M51
X9.0682 Y25.0101 F1500
ID=1 WHEN $AC_TIMER[1]>=0 DO M50
X11.547 Y22.532 F800
ID=1 WHEN $AC_TIMER[1]>=0 DO M51
X22.5066 Y11.5717 F1500
ID=1 WHEN $AC_TIMER[1]>=0 DO M50
X24.984 Y9.094 F800
ID=1 WHEN $AC_TIMER[1]>=0 DO M51
X23.6118 Y7.9464 F1500
ID=1 WHEN $AC_TIMER[1]>=0 DO M50
X21.088 Y10.470 F800
ID=1 WHEN $AC_TIMER[1]>=0 DO M51
X10.4519 Y21.1063 F1500
ID=1 WHEN $AC_TIMER[1]>=0 DO M50
X7.933 Y23.625 F800
ID=1 WHEN $AC_TIMER[1]>=0 DO M51
X6.99567 Y22.0424 F1500
ID=1 WHEN $AC_TIMER[1]>=0 DO M50
X9.701 Y19.337 F800
ID=1 WHEN $AC_TIMER[1]>=0 DO M51
X19.3192 Y9.71886 F1500
ID=1 WHEN $AC_TIMER[1]>=0 DO M50
X22.014 Y7.024 F800
ID=1 WHEN $AC_TIMER[1]>=0 DO M51
X20.1853 Y6.33267 F1500
ID=1 WHEN $AC_TIMER[1]>=0 DO M50
X17.123 Y9.394 F800
ID=1 WHEN $AC_TIMER[1]>=0 DO M51
X9.37379 Y17.1441 F1500
ID=1 WHEN $AC_TIMER[1]>=0 DO M50
X6.308 Y20.209 F800
ID=1 WHEN $AC_TIMER[1]>=0 DO M51
X5.92539 Y18.0724 F1500
ID=1 WHEN $AC_TIMER[1]>=0 DO M50
X10.118 Y13.880 F800
ID=1 WHEN $AC_TIMER[1]>=0 DO M51
X13.8604 Y10.1374 F1500
ID=1 WHEN $AC_TIMER[1]>=0 DO M50
X18.050 Y5.948 F800
ID=1 WHEN $AC_TIMER[1]>=0 DO M51
X15.4314 Y6.04631 F1500
ID=1 WHEN $AC_TIMER[1]>=0 DO M50
X6.002 Y15.475 F800
ID=1 WHEN $AC_TIMER[1]>=0 DO M51
X7.37946 Y11.5781 F1500
ID=1 WHEN $AC_TIMER[1]>=0 DO M50
X11.583 Y7.375 F800
ID=1 WHEN $AC_TIMER[1]>=0 DO M51
; Final do trecho do raster

; Layer 7
G1 Z4.200 F1500
X11.1542 Y17.0693 F1500
ID=1 WHEN $AC_TIMER[1]>=0 DO M50
X11.154 Y17.251 F800
X11.234 Y18.121
X11.262 Y18.281
X11.482 Y19.121
X11.543 Y19.290
X11.913 Y20.080
X11.997 Y20.225
X12.497 Y20.945
X12.616 Y21.086
X13.236 Y21.696
X13.360 Y21.799
X14.070 Y22.299
X14.220 Y22.387
X15.010 Y22.757
X15.169 Y22.815
X16.009 Y23.045
X16.191 Y23.077
X17.061 Y23.147
X17.219 Y23.147
X18.089 Y23.077
X18.271 Y23.045
X19.111 Y22.815
X19.270 Y22.757
X20.060 Y22.387
X20.210 Y22.299
X20.920 Y21.799
X21.044 Y21.696
X21.664 Y21.086
X21.783 Y20.945
X22.283 Y20.225
X22.367 Y20.080
X22.737 Y19.290
X22.795 Y19.131
X23.025 Y18.291
X23.057 Y18.109
X23.127 Y17.239
X23.127 Y17.081
X23.057 Y16.211
X23.025 Y16.029
X22.795 Y15.189
X22.737 Y15.030
X22.367 Y14.240
X22.279 Y14.090
X21.779 Y13.380
X21.670 Y13.250
X21.050 Y12.630
X20.920 Y12.521
X20.210 Y12.021
X20.060 Y11.933
X19.270 Y11.563
X19.101 Y11.502
X18.261 Y11.282
X18.101 Y11.254
X17.231 Y11.174
X17.049 Y11.174
X16.179 Y11.254
X16.019 Y11.282
X15.179 Y11.502
X15.010 Y11.563
X14.220 Y11.933
X14.070 Y12.021
X13.360 Y12.521
X13.230 Y12.630
X12.610 Y13.250
X12.501 Y13.380
X12.001 Y14.090
X11.913 Y14.240
X11.543 Y15.030
X11.482 Y15.199
X11.262 Y16.039
X11.234 Y16.199
X11.163 Y16.970
ID=1 WHEN $AC_TIMER[1]>=0 DO M51
X10.6725 Y5.50591 F1500
ID=1 WHEN $AC_TIMER[1]>=0 DO M50
X11.881 Y4.911 F800
X13.144 Y4.447
X14.458 Y4.111
X15.793 Y3.906
X17.140 Y3.832
X18.487 Y3.906
X19.822 Y4.111
X21.136 Y4.447
X22.394 Y4.909
X23.055 Y5.244
X23.613 Y5.510
X24.753 Y6.223
X25.824 Y7.052
X26.800 Y7.982
X27.679 Y9.010
X28.097 Y9.596
X28.447 Y10.110
X29.111 Y11.298
X29.640 Y12.533
X30.040 Y13.817
X30.310 Y15.140
X30.450 Y16.491
X30.450 Y17.839
X30.310 Y19.179
X30.040 Y20.504
X29.640 Y21.798
X29.111 Y23.032
X28.450 Y24.214
X27.676 Y25.324
X26.800 Y26.348
X25.824 Y27.278
X24.755 Y28.105
X23.610 Y28.813
X22.397 Y29.410
X21.133 Y29.884
X19.822 Y30.219
X18.491 Y30.424
X17.140 Y30.489
X15.789 Y30.424
X14.458 Y30.219
X13.147 Y29.884
X11.883 Y29.410
X10.670 Y28.813
X9.525 Y28.105
X8.456 Y27.278
X7.480 Y26.348
X6.604 Y25.324
X5.832 Y24.216
X5.179 Y23.032
X4.639 Y21.795
X4.240 Y20.504
X3.970 Y19.179
X3.830 Y17.839
X3.830 Y16.491
X3.970 Y15.140
X4.240 Y13.817
X4.639 Y12.536
X5.179 Y11.298
X5.832 Y10.114
X6.604 Y9.006
X7.480 Y7.982
X8.456 Y7.052
X9.527 Y6.223
X10.588 Y5.559
ID=1 WHEN $AC_TIMER[1]>=0 DO M51

; Inicio do trecho do raster
X6.78501 Y22.2541 F1500
ID=1 WHEN $AC_TIMER[1]>=0 DO M50
X12.024 Y27.493 F800
ID=1 WHEN $AC_TIMER[1]>=0 DO M51
X15.6503 Y28.5993 F1500
ID=1 WHEN $AC_TIMER[1]>=0 DO M50
X5.707 Y18.656 F800
ID=1 WHEN $AC_TIMER[1]>=0 DO M51
X5.66283 Y16.0917 F1500
ID=1 WHEN $AC_TIMER[1]>=0 DO M50
X10.214 Y20.643 F800
ID=1 WHEN $AC_TIMER[1]>=0 DO M51
X13.663 Y24.0919 F1500
ID=1 WHEN $AC_TIMER[1]>=0 DO M50
X18.224 Y28.652 F800
ID=1 WHEN $AC_TIMER[1]>=0 DO M51
X20.3389 Y28.2476 F1500
ID=1 WHEN $AC_TIMER[1]>=0 DO M50
X17.017 Y24.926 F800
ID=1 WHEN $AC_TIMER[1]>=0 DO M51
X9.37686 Y17.2856 F1500
ID=1 WHEN $AC_TIMER[1]>=0 DO M50
X6.059 Y13.968 F800
ID=1 WHEN $AC_TIMER[1]>=0 DO M51
X6.75455 Y12.1431 F1500
ID=1 WHEN $AC_TIMER[1]>=0 DO M50
X9.677 Y15.066 F800
ID=1 WHEN $AC_TIMER[1]>=0 DO M51
X19.2363 Y24.6249 F1500
ID=1 WHEN $AC_TIMER[1]>=0 DO M50
X22.155 Y27.543 F800
ID=1 WHEN $AC_TIMER[1]>=0 DO M51
X23.7564 Y26.6249 F1500
ID=1 WHEN $AC_TIMER[1]>=0 DO M50
X21.020 Y23.888 F800
ID=1 WHEN $AC_TIMER[1]>=0 DO M51
X10.4122 Y13.2807 F1500
ID=1 WHEN $AC_TIMER[1]>=0 DO M50
X7.692 Y10.561 F800
ID=1 WHEN $AC_TIMER[1]>=0 DO M51
X8.81885 Y9.16719 F1500
ID=1 WHEN $AC_TIMER[1]>=0 DO M50
X11.499 Y11.847 F800
ID=1 WHEN $AC_TIMER[1]>=0 DO M51
X22.456 Y22.8043 F1500
ID=1 WHEN $AC_TIMER[1]>=0 DO M50
X25.130 Y25.478 F800
ID=1 WHEN $AC_TIMER[1]>=0 DO M51
X26.3218 Y24.15 F1500
ID=1 WHEN $AC_TIMER[1]>=0 DO M50
X23.607 Y21.435 F800
ID=1 WHEN $AC_TIMER[1]>=0 DO M51
X12.8639 Y10.6921 F1500
ID=1 WHEN $AC_TIMER[1]>=0 DO M50
X10.159 Y7.987 F800
ID=1 WHEN $AC_TIMER[1]>=0 DO M51
X11.6854 Y6.9935 F1500
ID=1 WHEN $AC_TIMER[1]>=0 DO M50
X14.534 Y9.842 F800
ID=1 WHEN $AC_TIMER[1]>=0 DO M51
X24.4572 Y19.7653 F1500
ID=1 WHEN $AC_TIMER[1]>=0 DO M50
X27.304 Y22.612 F800
ID=1 WHEN $AC_TIMER[1]>=0 DO M51
X28.0662 Y20.8541 F1500
ID=1 WHEN $AC_TIMER[1]>=0 DO M50
X24.877 Y17.665 F800
ID=1 WHEN $AC_TIMER[1]>=0 DO M51
X16.6362 Y9.42412 F1500
ID=1 WHEN $AC_TIMER[1]>=0 DO M50
X13.446 Y6.234 F800
ID=1 WHEN $AC_TIMER[1]>=0 DO M51
X15.4879 Y5.75571 F1500
ID=1 WHEN $AC_TIMER[1]>=0 DO M50
X19.496 Y9.764 F800
ID=1 WHEN $AC_TIMER[1]>=0 DO M51
X24.5304 Y14.7982 F1500
ID=1 WHEN $AC_TIMER[1]>=0 DO M50
X28.556 Y18.824 F800
ID=1 WHEN $AC_TIMER[1]>=0 DO M51
X28.6487 Y16.3964 F1500
ID=1 WHEN $AC_TIMER[1]>=0 DO M50
X17.911 Y5.659 F800
ID=1 WHEN $AC_TIMER[1]>=0 DO M51
X21.1071 Y6.3347 F1500
ID=1 WHEN $AC_TIMER[1]>=0 DO M50
X27.985 Y13.213 F800
ID=1 WHEN $AC_TIMER[1]>=0 DO M51
; Final do trecho do raster

; Layer 8
G1 Z4.800 F1500
X10.5429 Y29.0643 F1500
ID=1 WHEN $AC_TIMER[1]>=0 DO M50
X9.366 Y28.326 F800
X8.275 Y27.487
X7.279 Y26.538
X6.383 Y25.492
X5.590 Y24.364
X4.921 Y23.155
X4.380 Y21.887
X3.970 Y20.572
X3.690 Y19.219
X3.550 Y17.850
X3.550 Y16.470
X3.690 Y15.101
X3.970 Y13.748
X4.380 Y12.433
X4.920 Y11.167
X5.590 Y9.967
X6.383 Y8.838
X7.279 Y7.792
X8.277 Y6.841
X9.366 Y5.994
X10.540 Y5.267
X11.773 Y4.660
X13.068 Y4.175
X14.398 Y3.831
X15.761 Y3.626
X17.140 Y3.551
X18.519 Y3.626
X19.882 Y3.831
X21.212 Y4.175
X22.508 Y4.660
X23.749 Y5.267
X24.913 Y5.993
X26.003 Y6.841
X27.003 Y7.794
X27.907 Y8.838
X28.689 Y9.965
X29.360 Y11.167
X29.900 Y12.432
X30.310 Y13.748
X30.590 Y15.101
X30.730 Y16.470
X30.730 Y17.850
X30.590 Y19.219
X30.310 Y20.572
X29.900 Y21.888
X29.359 Y23.155
X28.688 Y24.367
X27.907 Y25.492
X27.003 Y26.536
X26.005 Y27.487
X24.913 Y28.327
X23.747 Y29.064
X22.511 Y29.668
X21.215 Y30.144
X19.879 Y30.490
X18.519 Y30.704
X17.140 Y30.769
X15.761 Y30.704
X14.401 Y30.490
X13.065 Y30.144
X11.770 Y29.669
X10.633 Y29.108
ID=1 WHEN $AC_TIMER[1]>=0 DO M51
X11.1542 Y17.0693 F1500
ID=1 WHEN $AC_TIMER[1]>=0 DO M50
X11.154 Y17.251 F800
X11.234 Y18.121
X11.262 Y18.281
X11.482 Y19.121
X11.543 Y19.290
X11.913 Y20.080
X11.997 Y20.225
X12.497 Y20.945
X12.616 Y21.086
X13.236 Y21.696
X13.360 Y21.799
X14.070 Y22.299
X14.220 Y22.387
X15.010 Y22.757
X15.169 Y22.815
X16.009 Y23.045
X16.191 Y23.077
X17.061 Y23.147
X17.219 Y23.147
X18.089 Y23.077
X18.271 Y23.045
X19.111 Y22.815
X19.270 Y22.757
X20.060 Y22.387
X20.210 Y22.299
X20.920 Y21.799
X21.044 Y21.696
X21.664 Y21.086
X21.783 Y20.945
X22.283 Y20.225
X22.367 Y20.080
X22.737 Y19.290
X22.795 Y19.131
X23.025 Y18.291
X23.057 Y18.109
X23.127 Y17.239
X23.127 Y17.081
X23.057 Y16.211
X23.019 Y16.008
X22.799 Y15.205
X22.737 Y15.030
X22.367 Y14.240
X22.279 Y14.090
X21.779 Y13.380
X21.670 Y13.250
X21.050 Y12.630
X20.920 Y12.521
X20.210 Y12.021
X20.060 Y11.933
X19.270 Y11.563
X19.101 Y11.502
X18.261 Y11.282
X18.101 Y11.254
X17.231 Y11.174
X17.049 Y11.174
X16.179 Y11.254
X16.019 Y11.282
X15.179 Y11.502
X15.010 Y11.563
X14.220 Y11.933
X14.070 Y12.021
X13.360 Y12.521
X13.230 Y12.630
X12.610 Y13.250
X12.501 Y13.380
X12.001 Y14.090
X11.913 Y14.240
X11.543 Y15.030
X11.482 Y15.199
X11.262 Y16.039
X11.234 Y16.199
X11.163 Y16.970
ID=1 WHEN $AC_TIMER[1]>=0 DO M51

; Inicio do trecho do raster
X11.5397 Y6.76123 F1500
ID=1 WHEN $AC_TIMER[1]>=0 DO M50
X6.742 Y11.559 F800
ID=1 WHEN $AC_TIMER[1]>=0 DO M51
X5.45454 Y15.3665 F1500
ID=1 WHEN $AC_TIMER[1]>=0 DO M50
X15.328 Y5.493 F800
ID=1 WHEN $AC_TIMER[1]>=0 DO M51
X17.9607 Y5.38041 F1500
ID=1 WHEN $AC_TIMER[1]>=0 DO M50
X11.981 Y11.360 F800
ID=1 WHEN $AC_TIMER[1]>=0 DO M51
X11.864 Y11.4772 F1500
ID=1 WHEN $AC_TIMER[1]>=0 DO M50
X5.355 Y17.986 F800
ID=1 WHEN $AC_TIMER[1]>=0 DO M51
X5.70631 Y20.155 F1500
ID=1 WHEN $AC_TIMER[1]>=0 DO M50
X9.426 Y16.435 F800
ID=1 WHEN $AC_TIMER[1]>=0 DO M51
X16.4156 Y9.44572 F1500
ID=1 WHEN $AC_TIMER[1]>=0 DO M50
X20.126 Y5.735 F800
ID=1 WHEN $AC_TIMER[1]>=0 DO M51
X21.9906 Y6.39087 F1500
ID=1 WHEN $AC_TIMER[1]>=0 DO M50
X18.796 Y9.585 F800
ID=1 WHEN $AC_TIMER[1]>=0 DO M51
X9.56194 Y18.8195 F1500
ID=1 WHEN $AC_TIMER[1]>=0 DO M50
X6.370 Y22.011 F800
ID=1 WHEN $AC_TIMER[1]>=0 DO M51
X7.26035 Y23.6412 F1500
ID=1 WHEN $AC_TIMER[1]>=0 DO M50
X10.228 Y20.673 F800
ID=1 WHEN $AC_TIMER[1]>=0 DO M51
X20.6555 Y10.246 F1500
ID=1 WHEN $AC_TIMER[1]>=0 DO M50
X23.617 Y7.285 F800
ID=1 WHEN $AC_TIMER[1]>=0 DO M51
X25.0383 Y8.38335 F1500
ID=1 WHEN $AC_TIMER[1]>=0 DO M50
X22.174 Y11.248 F800
ID=1 WHEN $AC_TIMER[1]>=0 DO M51
X11.2253 Y22.1964 F1500
ID=1 WHEN $AC_TIMER[1]>=0 DO M50
X8.361 Y25.061 F800
ID=1 WHEN $AC_TIMER[1]>=0 DO M51
X9.64729 Y26.2945 F1500
ID=1 WHEN $AC_TIMER[1]>=0 DO M50
X12.541 Y23.400 F800
ID=1 WHEN $AC_TIMER[1]>=0 DO M51
X23.3788 Y12.563 F1500
ID=1 WHEN $AC_TIMER[1]>=0 DO M50
X26.271 Y9.671 F800
ID=1 WHEN $AC_TIMER[1]>=0 DO M51
X27.3106 Y11.1513 F1500
ID=1 WHEN $AC_TIMER[1]>=0 DO M50
X24.298 Y14.164 F800
ID=1 WHEN $AC_TIMER[1]>=0 DO M51
X14.1471 Y24.3148 F1500
ID=1 WHEN $AC_TIMER[1]>=0 DO M50
X11.132 Y27.330 F800
ID=1 WHEN $AC_TIMER[1]>=0 DO M51
X12.8247 Y28.1574 F1500
ID=1 WHEN $AC_TIMER[1]>=0 DO M50
X16.123 Y24.859 F800
ID=1 WHEN $AC_TIMER[1]>=0 DO M51
X24.8324 Y16.1497 F1500
ID=1 WHEN $AC_TIMER[1]>=0 DO M50
X28.138 Y12.844 F800
ID=1 WHEN $AC_TIMER[1]>=0 DO M51
X28.7072 Y14.795 F1500
ID=1 WHEN $AC_TIMER[1]>=0 DO M50
X24.736 Y18.767 F800
ID=1 WHEN $AC_TIMER[1]>=0 DO M51
X18.7378 Y24.7644 F1500
ID=1 WHEN $AC_TIMER[1]>=0 DO M50
X14.760 Y28.742 F800
ID=1 WHEN $AC_TIMER[1]>=0 DO M51
X17.0421 Y28.9803 F1500
ID=1 WHEN $AC_TIMER[1]>=0 DO M50
X28.948 Y17.074 F800
ID=1 WHEN $AC_TIMER[1]>=0 DO M51
X28.6263 Y19.9162 F1500
ID=1 WHEN $AC_TIMER[1]>=0 DO M50
X19.899 Y28.644 F800
ID=1 WHEN $AC_TIMER[1]>=0 DO M51
; Final do trecho do raster

; Layer 9
G1 Z5.400 F1500
X10.4036 Y29.3048 F1500
ID=1 WHEN $AC_TIMER[1]>=0 DO M50
X9.207 Y28.557 F800
X8.096 Y27.698
X7.079 Y26.728
X6.162 Y25.662
X5.350 Y24.503
X4.671 Y23.284
X4.120 Y21.988
X3.699 Y20.640
X3.410 Y19.268
X3.270 Y17.871
X3.270 Y16.459
X3.410 Y15.061
X3.699 Y13.681
X4.120 Y12.343
X4.671 Y11.044
X5.350 Y9.817
X6.162 Y8.668
X7.080 Y7.591
X8.096 Y6.622
X9.207 Y5.763
X10.401 Y5.017
X11.659 Y4.402
X12.986 Y3.916
X14.351 Y3.561
X15.742 Y3.346
X17.140 Y3.271
X18.548 Y3.346
X19.939 Y3.561
X21.303 Y3.916
X22.620 Y4.401
X23.879 Y5.017
X25.073 Y5.763
X26.184 Y6.622
X27.201 Y7.593
X28.127 Y8.668
X28.929 Y9.815
X29.609 Y11.044
X30.160 Y12.343
X30.581 Y13.681
X30.870 Y15.061
X31.010 Y16.459
X31.010 Y17.871
X30.870 Y19.268
X30.581 Y20.640
X30.160 Y21.988
X29.609 Y23.284
X28.929 Y24.506
X28.127 Y25.662
X27.203 Y26.726
X26.184 Y27.698
X25.073 Y28.557
X23.876 Y29.305
X22.618 Y29.930
X21.309 Y30.412
X19.938 Y30.769
X18.551 Y30.974
X17.140 Y31.049
X15.739 Y30.974
X14.348 Y30.768
X12.986 Y30.414
X11.661 Y29.929
X10.493 Y29.349
ID=1 WHEN $AC_TIMER[1]>=0 DO M51
X11.1542 Y17.0693 F1500
ID=1 WHEN $AC_TIMER[1]>=0 DO M50
X11.154 Y17.251 F800
X11.234 Y18.121
X11.262 Y18.281
X11.482 Y19.121
X11.543 Y19.290
X11.913 Y20.080
X11.997 Y20.225
X12.497 Y20.945
X12.616 Y21.086
X13.236 Y21.696
X13.360 Y21.799
X14.070 Y22.299
X14.220 Y22.387
X15.010 Y22.757
X15.169 Y22.815
X16.009 Y23.045
X16.191 Y23.077
X17.061 Y23.147
X17.219 Y23.147
X18.089 Y23.077
X18.271 Y23.045
X19.111 Y22.815
X19.270 Y22.757
X20.060 Y22.387
X20.194 Y22.310
X20.596 Y22.038
X21.044 Y21.696
X21.664 Y21.086
X21.783 Y20.945
X22.283 Y20.225
X22.367 Y20.080
X22.737 Y19.290
X22.795 Y19.131
X23.025 Y18.291
X23.057 Y18.109
X23.127 Y17.239
X23.127 Y17.081
X23.057 Y16.211
X23.025 Y16.029
X22.795 Y15.189
X22.737 Y15.030
X22.367 Y14.240
X22.279 Y14.090
X21.779 Y13.380
X21.670 Y13.250
X21.050 Y12.630
X20.920 Y12.521
X20.210 Y12.021
X20.060 Y11.933
X19.270 Y11.563
X19.101 Y11.502
X18.261 Y11.282
X18.101 Y11.254
X17.231 Y11.174
X17.049 Y11.174
X16.179 Y11.254
X16.019 Y11.282
X15.179 Y11.502
X15.010 Y11.563
X14.220 Y11.933
X14.070 Y12.021
X13.360 Y12.521
X13.230 Y12.630
X12.610 Y13.250
X12.501 Y13.380
X12.001 Y14.090
X11.913 Y14.240
X11.543 Y15.030
X11.482 Y15.199
X11.262 Y16.039
X11.234 Y16.199
X11.163 Y16.970
ID=1 WHEN $AC_TIMER[1]>=0 DO M51

; Inicio do trecho do raster
X27.5467 Y10.9976 F1500
ID=1 WHEN $AC_TIMER[1]>=0 DO M50
X23.315 Y6.766 F800
ID=1 WHEN $AC_TIMER[1]>=0 DO M51
X19.2931 Y5.2641 F1500
ID=1 WHEN $AC_TIMER[1]>=0 DO M50
X29.039 Y15.010 F800
ID=1 WHEN $AC_TIMER[1]>=0 DO M51
X29.228 Y17.7192 F1500
ID=1 WHEN $AC_TIMER[1]>=0 DO M50
X16.594 Y5.085 F800
ID=1 WHEN $AC_TIMER[1]>=0 DO M51
X14.3825 Y5.39383 F1500
ID=1 WHEN $AC_TIMER[1]>=0 DO M50
X18.506 Y9.517 F800
ID=1 WHEN $AC_TIMER[1]>=0 DO M51
X24.7924 Y15.8036 F1500
ID=1 WHEN $AC_TIMER[1]>=0 DO M50
X28.911 Y19.922 F800
ID=1 WHEN $AC_TIMER[1]>=0 DO M51
X28.2932 Y21.8246 F1500
ID=1 WHEN $AC_TIMER[1]>=0 DO M50
X24.818 Y18.350 F800
ID=1 WHEN $AC_TIMER[1]>=0 DO M51
X15.959 Y9.49042 F1500
ID=1 WHEN $AC_TIMER[1]>=0 DO M50
X12.471 Y6.002 F800
ID=1 WHEN $AC_TIMER[1]>=0 DO M51
X10.8107 Y6.86221 F1500
ID=1 WHEN $AC_TIMER[1]>=0 DO M50
X14.013 Y10.065 F800
ID=1 WHEN $AC_TIMER[1]>=0 DO M51
X24.2338 Y20.2854 F1500
ID=1 WHEN $AC_TIMER[1]>=0 DO M50
X27.449 Y23.501 F800
ID=1 WHEN $AC_TIMER[1]>=0 DO M51
X26.3819 Y24.9535 F1500
ID=1 WHEN $AC_TIMER[1]>=0 DO M50
X23.305 Y21.877 F800
ID=1 WHEN $AC_TIMER[1]>=0 DO M51
X12.4301 Y11.0018 F1500
ID=1 WHEN $AC_TIMER[1]>=0 DO M50
X9.341 Y7.912 F800
ID=1 WHEN $AC_TIMER[1]>=0 DO M51
X8.07706 Y9.16885 F1500
ID=1 WHEN $AC_TIMER[1]>=0 DO M50
X11.141 Y12.233 F800
ID=1 WHEN $AC_TIMER[1]>=0 DO M51
X22.0659 Y23.1577 F1500
ID=1 WHEN $AC_TIMER[1]>=0 DO M50
X25.140 Y26.231 F800
ID=1 WHEN $AC_TIMER[1]>=0 DO M51
X23.701 Y27.313 F1500
ID=1 WHEN $AC_TIMER[1]>=0 DO M50
X20.522 Y24.134 F800
ID=1 WHEN $AC_TIMER[1]>=0 DO M51
X10.1651 Y13.777 F1500
ID=1 WHEN $AC_TIMER[1]>=0 DO M50
X6.983 Y10.595 F800
ID=1 WHEN $AC_TIMER[1]>=0 DO M51
X6.10202 Y12.2341 F1500
ID=1 WHEN $AC_TIMER[1]>=0 DO M50
X9.526 Y15.658 F800
ID=1 WHEN $AC_TIMER[1]>=0 DO M51
X18.6498 Y24.7819 F1500
ID=1 WHEN $AC_TIMER[1]>=0 DO M50
X22.077 Y28.209 F800
ID=1 WHEN $AC_TIMER[1]>=0 DO M51
X20.2058 Y28.8579 F1500
ID=1 WHEN $AC_TIMER[1]>=0 DO M50
X16.213 Y24.865 F800
ID=1 WHEN $AC_TIMER[1]>=0 DO M51
X9.44672 Y18.0989 F1500
ID=1 WHEN $AC_TIMER[1]>=0 DO M50
X5.438 Y14.090 F800
ID=1 WHEN $AC_TIMER[1]>=0 DO M51
X5.08145 Y16.2538 F1500
ID=1 WHEN $AC_TIMER[1]>=0 DO M50
X18.044 Y29.216 F800
ID=1 WHEN $AC_TIMER[1]>=0 DO M51
X15.4353 Y29.1277 F1500
ID=1 WHEN $AC_TIMER[1]>=0 DO M50
X5.159 Y18.851 F800
ID=1 WHEN $AC_TIMER[1]>=0 DO M51
X6.26328 Y22.4759 F1500
ID=1 WHEN $AC_TIMER[1]>=0 DO M50
X11.792 Y28.004 F800
ID=1 WHEN $AC_TIMER[1]>=0 DO M51
; Final do trecho do raster

; Layer 10
G1 Z6.000 F1500
X11.1542 Y17.0693 F1500
ID=1 WHEN $AC_TIMER[1]>=0 DO M50
X11.154 Y17.251 F800
X11.234 Y18.121
X11.262 Y18.281
X11.482 Y19.121
X11.543 Y19.290
X11.913 Y20.080
X11.997 Y20.225
X12.497 Y20.945
X12.616 Y21.086
X13.236 Y21.696
X13.360 Y21.799
X14.070 Y22.299
X14.220 Y22.387
X15.010 Y22.757
X15.169 Y22.815
X16.009 Y23.045
X16.191 Y23.077
X17.061 Y23.147
X17.219 Y23.147
X18.089 Y23.077
X18.271 Y23.045
X19.111 Y22.815
X19.270 Y22.757
X20.060 Y22.387
X20.210 Y22.299
X20.920 Y21.799
X21.044 Y21.696
X21.664 Y21.086
X21.783 Y20.945
X22.283 Y20.225
X22.367 Y20.080
X22.737 Y19.290
X22.795 Y19.131
X23.025 Y18.291
X23.057 Y18.109
X23.127 Y17.239
X23.127 Y17.081
X23.057 Y16.211
X23.025 Y16.029
X22.795 Y15.189
X22.737 Y15.030
X22.367 Y14.240
X22.279 Y14.090
X21.779 Y13.380
X21.670 Y13.250
X21.050 Y12.630
X20.920 Y12.521
X20.210 Y12.021
X20.060 Y11.933
X19.270 Y11.563
X19.101 Y11.502
X18.261 Y11.282
X18.101 Y11.254
X17.231 Y11.174
X17.049 Y11.174
X16.179 Y11.254
X16.019 Y11.282
X15.179 Y11.502
X15.010 Y11.563
X14.220 Y11.933
X14.070 Y12.021
X13.360 Y12.521
X13.230 Y12.630
X12.610 Y13.250
X12.501 Y13.380
X12.001 Y14.090
X11.913 Y14.240
X11.543 Y15.030
X11.482 Y15.199
X11.262 Y16.039
X11.234 Y16.199
X11.163 Y16.970
ID=1 WHEN $AC_TIMER[1]>=0 DO M51
X10.2618 Y4.77628 F1500
ID=1 WHEN $AC_TIMER[1]>=0 DO M50
X11.551 Y4.141 F800
X12.894 Y3.647
X14.290 Y3.291
X15.710 Y3.066
X17.140 Y3.001
X18.570 Y3.066
X19.990 Y3.291
X21.386 Y3.647
X22.729 Y4.141
X24.018 Y4.776
X25.233 Y5.533
X26.365 Y6.412
X27.413 Y7.404
X28.344 Y8.485
X29.158 Y9.673
X29.861 Y10.929
X30.431 Y12.246
X30.860 Y13.606
X31.140 Y15.018
X31.290 Y16.452
X31.290 Y17.878
X31.140 Y19.311
X30.860 Y20.714
X30.431 Y22.085
X29.861 Y23.401
X29.159 Y24.656
X28.344 Y25.836
X27.413 Y26.925
X26.366 Y27.906
X25.231 Y28.788
X24.018 Y29.553
X22.729 Y30.179
X21.383 Y30.684
X19.993 Y31.039
X18.570 Y31.254
X17.140 Y31.329
X15.710 Y31.254
X14.287 Y31.039
X12.897 Y30.684
X11.551 Y30.179
X10.262 Y29.553
X9.049 Y28.788
X7.914 Y27.906
X6.867 Y26.925
X5.936 Y25.836
X5.121 Y24.656
X4.420 Y23.403
X3.860 Y22.088
X3.430 Y20.711
X3.139 Y19.308
X2.990 Y17.878
X2.990 Y16.452
X3.140 Y15.021
X3.430 Y13.609
X3.860 Y12.243
X4.420 Y10.927
X5.122 Y9.673
X5.936 Y8.485
X6.867 Y7.404
X7.915 Y6.412
X9.047 Y5.533
X10.177 Y4.829
ID=1 WHEN $AC_TIMER[1]>=0 DO M51

; Inicio do trecho do raster
X26.6849 Y25.0343 F1500
ID=1 WHEN $AC_TIMER[1]>=0 DO M50
X25.035 Y26.684 F800
ID=1 WHEN $AC_TIMER[1]>=0 DO M51
X20.0018 Y29.1973 F1500
ID=1 WHEN $AC_TIMER[1]>=0 DO M50
X29.182 Y20.017 F800
ID=1 WHEN $AC_TIMER[1]>=0 DO M51
X29.508 Y17.171 F1500
ID=1 WHEN $AC_TIMER[1]>=0 DO M50
X17.135 Y29.544 F800
ID=1 WHEN $AC_TIMER[1]>=0 DO M51
X14.839 Y29.3198 F1500
ID=1 WHEN $AC_TIMER[1]>=0 DO M50
X19.650 Y24.509 F800
ID=1 WHEN $AC_TIMER[1]>=0 DO M51
X24.4908 Y19.668 F1500
ID=1 WHEN $AC_TIMER[1]>=0 DO M50
X29.293 Y14.866 F800
ID=1 WHEN $AC_TIMER[1]>=0 DO M51
X28.7615 Y12.8772 F1500
ID=1 WHEN $AC_TIMER[1]>=0 DO M50
X24.887 Y16.752 F800
ID=1 WHEN $AC_TIMER[1]>=0 DO M51
X16.7343 Y24.9044 F1500
ID=1 WHEN $AC_TIMER[1]>=0 DO M50
X12.869 Y28.770 F800
ID=1 WHEN $AC_TIMER[1]>=0 DO M51
X11.1266 Y27.992 F1500
ID=1 WHEN $AC_TIMER[1]>=0 DO M50
X14.614 Y24.505 F800
ID=1 WHEN $AC_TIMER[1]>=0 DO M51
X24.4844 Y14.6342 F1500
ID=1 WHEN $AC_TIMER[1]>=0 DO M50
X27.952 Y11.167 F800
ID=1 WHEN $AC_TIMER[1]>=0 DO M51
X26.9686 Y9.6298 F1500
ID=1 WHEN $AC_TIMER[1]>=0 DO M50
X23.652 Y12.946 F800
ID=1 WHEN $AC_TIMER[1]>=0 DO M51
X12.9289 Y23.6695 F1500
ID=1 WHEN $AC_TIMER[1]>=0 DO M50
X9.622 Y26.977 F800
ID=1 WHEN $AC_TIMER[1]>=0 DO M51
X8.27541 Y25.8029 F1500
ID=1 WHEN $AC_TIMER[1]>=0 DO M50
X11.547 Y22.532 F800
ID=1 WHEN $AC_TIMER[1]>=0 DO M51
X22.5066 Y11.5717 F1500
ID=1 WHEN $AC_TIMER[1]>=0 DO M50
X25.773 Y8.306 F800
ID=1 WHEN $AC_TIMER[1]>=0 DO M51
X24.4088 Y7.1494 F1500
ID=1 WHEN $AC_TIMER[1]>=0 DO M50
X21.088 Y10.470 F800
ID=1 WHEN $AC_TIMER[1]>=0 DO M51
X10.4519 Y21.1063 F1500
ID=1 WHEN $AC_TIMER[1]>=0 DO M50
X7.130 Y24.428 F800
ID=1 WHEN $AC_TIMER[1]>=0 DO M51
X6.16529 Y22.8728 F1500
ID=1 WHEN $AC_TIMER[1]>=0 DO M50
X9.701 Y19.337 F800
ID=1 WHEN $AC_TIMER[1]>=0 DO M51
X19.3192 Y9.71886 F1500
ID=1 WHEN $AC_TIMER[1]>=0 DO M50
X22.851 Y6.187 F800
ID=1 WHEN $AC_TIMER[1]>=0 DO M51
X21.0836 Y5.4343 F1500
ID=1 WHEN $AC_TIMER[1]>=0 DO M50
X17.123 Y9.394 F800
ID=1 WHEN $AC_TIMER[1]>=0 DO M51
X9.37379 Y17.1441 F1500
ID=1 WHEN $AC_TIMER[1]>=0 DO M50
X5.418 Y21.100 F800
ID=1 WHEN $AC_TIMER[1]>=0 DO M51
X4.91303 Y19.0848 F1500
ID=1 WHEN $AC_TIMER[1]>=0 DO M50
X10.118 Y13.880 F800
ID=1 WHEN $AC_TIMER[1]>=0 DO M51
X13.8604 Y10.1374 F1500
ID=1 WHEN $AC_TIMER[1]>=0 DO M50
X19.051 Y4.947 F800
ID=1 WHEN $AC_TIMER[1]>=0 DO M51
X16.6713 Y4.80634 F1500
ID=1 WHEN $AC_TIMER[1]>=0 DO M50
X4.772 Y16.706 F800
ID=1 WHEN $AC_TIMER[1]>=0 DO M51
X5.27457 Y13.683 F1500
ID=1 WHEN $AC_TIMER[1]>=0 DO M50
X13.670 Y5.288 F800
ID=1 WHEN $AC_TIMER[1]>=0 DO M51
; Final do trecho do raster

; Layer 11
G1 Z6.600 F1500
X10.1321 Y29.7939 F1500
ID=1 WHEN $AC_TIMER[1]>=0 DO M50
X8.886 Y29.016 F800
X7.735 Y28.127
X6.668 Y27.117
X5.714 Y26.004
X4.881 Y24.806
X4.170 Y23.523
X3.590 Y22.177
X3.160 Y20.782
X2.860 Y19.348
X2.710 Y17.889
X2.710 Y16.431
X2.860 Y14.982
X3.160 Y13.537
X3.590 Y12.143
X4.169 Y10.798
X4.881 Y9.524
X5.714 Y8.317
X6.667 Y7.215
X7.736 Y6.201
X8.886 Y5.304
X10.130 Y4.537
X11.443 Y3.890
X12.818 Y3.376
X14.230 Y3.011
X15.678 Y2.787
X17.140 Y2.721
X18.602 Y2.787
X20.050 Y3.011
X21.462 Y3.376
X22.837 Y3.890
X24.150 Y4.537
X25.396 Y5.305
X26.553 Y6.201
X27.612 Y7.213
X28.566 Y8.317
X29.399 Y9.524
X30.111 Y10.798
X30.691 Y12.146
X31.130 Y13.537
X31.420 Y14.979
X31.570 Y16.431
X31.570 Y17.889
X31.420 Y19.351
X31.130 Y20.782
X30.691 Y22.174
X30.110 Y23.523
X29.399 Y24.806
X28.566 Y26.004
X27.610 Y27.118
X26.555 Y28.127
X25.396 Y29.015
X24.148 Y29.794
X22.839 Y30.439
X21.465 Y30.944
X20.041 Y31.311
X18.603 Y31.534
X17.140 Y31.609
X15.681 Y31.534
X14.230 Y31.309
X12.815 Y30.944
X11.441 Y30.439
X10.222 Y29.838
ID=1 WHEN $AC_TIMER[1]>=0 DO M51
X11.1542 Y17.0693 F1500
ID=1 WHEN $AC_TIMER[1]>=0 DO M50
X11.154 Y17.251 F800
X11.234 Y18.121
X11.262 Y18.281
X11.482 Y19.121
X11.543 Y19.290
X11.913 Y20.080
X11.997 Y20.225
X12.497 Y20.945
X12.616 Y21.086
X13.236 Y21.696
X13.360 Y21.799
X14.070 Y22.299
X14.220 Y22.387
X15.010 Y22.757
X15.169 Y22.815
X16.009 Y23.045
X16.191 Y23.077
X17.061 Y23.147
X17.219 Y23.147
X18.089 Y23.077
X18.271 Y23.045
X19.111 Y22.815
X19.270 Y22.757
X20.060 Y22.387
X20.210 Y22.299
X20.920 Y21.799
X21.044 Y21.696
X21.664 Y21.086
X21.783 Y20.945
X22.283 Y20.225
X22.367 Y20.080
X22.737 Y19.290
X22.795 Y19.131
X23.025 Y18.291
X23.057 Y18.109
X23.127 Y17.239
X23.127 Y17.081
X23.057 Y16.211
X23.025 Y16.029
X22.795 Y15.189
X22.737 Y15.030
X22.367 Y14.240
X22.279 Y14.090
X21.779 Y13.380
X21.670 Y13.250
X21.050 Y12.630
X20.920 Y12.521
X20.210 Y12.021
X20.060 Y11.933
X19.270 Y11.563
X19.101 Y11.502
X18.261 Y11.282
X18.101 Y11.254
X17.231 Y11.174
X17.049 Y11.174
X16.179 Y11.254
X16.019 Y11.282
X15.179 Y11.502
X15.010 Y11.563
X14.220 Y11.933
X14.070 Y12.021
X13.360 Y12.521
X13.230 Y12.630
X12.610 Y13.250
X12.501 Y13.380
X12.001 Y14.090
X11.913 Y14.240
X11.543 Y15.030
X11.482 Y15.199
X11.262 Y16.039
X11.234 Y16.199
X11.163 Y16.970
ID=1 WHEN $AC_TIMER[1]>=0 DO M51

; Inicio do trecho do raster
X4.89575 Y20.3648 F1500
ID=1 WHEN $AC_TIMER[1]>=0 DO M50
X13.919 Y29.388 F800
ID=1 WHEN $AC_TIMER[1]>=0 DO M51
X16.8611 Y29.8101 F1500
ID=1 WHEN $AC_TIMER[1]>=0 DO M50
X4.492 Y17.441 F800
ID=1 WHEN $AC_TIMER[1]>=0 DO M51
X4.65787 Y15.0867 F1500
ID=1 WHEN $AC_TIMER[1]>=0 DO M50
X10.214 Y20.643 F800
ID=1 WHEN $AC_TIMER[1]>=0 DO M51
X13.663 Y24.0919 F1500
ID=1 WHEN $AC_TIMER[1]>=0 DO M50
X19.208 Y29.637 F800
ID=1 WHEN $AC_TIMER[1]>=0 DO M51
X21.2248 Y29.1335 F1500
ID=1 WHEN $AC_TIMER[1]>=0 DO M50
X17.017 Y24.926 F800
ID=1 WHEN $AC_TIMER[1]>=0 DO M51
X9.37686 Y17.2856 F1500
ID=1 WHEN $AC_TIMER[1]>=0 DO M50
X5.167 Y13.076 F800
ID=1 WHEN $AC_TIMER[1]>=0 DO M51
X5.92344 Y11.312 F1500
ID=1 WHEN $AC_TIMER[1]>=0 DO M50
X9.677 Y15.066 F800
ID=1 WHEN $AC_TIMER[1]>=0 DO M51
X19.2363 Y24.6249 F1500
ID=1 WHEN $AC_TIMER[1]>=0 DO M50
X22.990 Y28.378 F800
ID=1 WHEN $AC_TIMER[1]>=0 DO M51
X24.5499 Y27.4183 F1500
ID=1 WHEN $AC_TIMER[1]>=0 DO M50
X21.020 Y23.888 F800
ID=1 WHEN $AC_TIMER[1]>=0 DO M51
X10.4122 Y13.2807 F1500
ID=1 WHEN $AC_TIMER[1]>=0 DO M50
X6.887 Y9.755 F800
ID=1 WHEN $AC_TIMER[1]>=0 DO M51
X8.02978 Y8.37811 F1500
ID=1 WHEN $AC_TIMER[1]>=0 DO M50
X11.499 Y11.847 F800
ID=1 WHEN $AC_TIMER[1]>=0 DO M51
X22.456 Y22.8043 F1500
ID=1 WHEN $AC_TIMER[1]>=0 DO M50
X25.920 Y26.269 F800
ID=1 WHEN $AC_TIMER[1]>=0 DO M51
X27.1219 Y24.9501 F1500
ID=1 WHEN $AC_TIMER[1]>=0 DO M50
X23.607 Y21.435 F800
ID=1 WHEN $AC_TIMER[1]>=0 DO M51
X12.8639 Y10.6921 F1500
ID=1 WHEN $AC_TIMER[1]>=0 DO M50
X9.364 Y7.192 F800
ID=1 WHEN $AC_TIMER[1]>=0 DO M51
X10.8677 Y6.17576 F1500
ID=1 WHEN $AC_TIMER[1]>=0 DO M50
X14.534 Y9.842 F800
ID=1 WHEN $AC_TIMER[1]>=0 DO M51
X24.4572 Y19.7653 F1500
ID=1 WHEN $AC_TIMER[1]>=0 DO M50
X28.123 Y23.431 F800
ID=1 WHEN $AC_TIMER[1]>=0 DO M51
X28.9421 Y21.73 F1500
ID=1 WHEN $AC_TIMER[1]>=0 DO M50
X24.877 Y17.665 F800
ID=1 WHEN $AC_TIMER[1]>=0 DO M51
X16.6362 Y9.42412 F1500
ID=1 WHEN $AC_TIMER[1]>=0 DO M50
X12.579 Y5.367 F800
ID=1 WHEN $AC_TIMER[1]>=0 DO M51
X14.5109 Y4.77875 F1500
ID=1 WHEN $AC_TIMER[1]>=0 DO M50
X19.496 Y9.764 F800
ID=1 WHEN $AC_TIMER[1]>=0 DO M51
X24.5304 Y14.7982 F1500
ID=1 WHEN $AC_TIMER[1]>=0 DO M50
X29.514 Y19.782 F800
ID=1 WHEN $AC_TIMER[1]>=0 DO M51
X29.788 Y17.5357 F1500
ID=1 WHEN $AC_TIMER[1]>=0 DO M50
X16.774 Y4.521 F800
ID=1 WHEN $AC_TIMER[1]>=0 DO M51
X19.5016 Y4.72915 F1500
ID=1 WHEN $AC_TIMER[1]>=0 DO M50
X29.565 Y14.792 F800
ID=1 WHEN $AC_TIMER[1]>=0 DO M51
X28.0424 Y10.7498 F1500
ID=1 WHEN $AC_TIMER[1]>=0 DO M50
X23.558 Y6.266 F800
ID=1 WHEN $AC_TIMER[1]>=0 DO M51
; Final do trecho do raster

; Layer 12
G1 Z7.200 F1500
X11.1542 Y17.0693 F1500
ID=1 WHEN $AC_TIMER[1]>=0 DO M50
X11.154 Y17.251 F800
X11.234 Y18.121
X11.262 Y18.281
X11.482 Y19.121
X11.543 Y19.290
X11.913 Y20.080
X11.997 Y20.225
X12.497 Y20.945
X12.616 Y21.086
X13.236 Y21.696
X13.360 Y21.799
X14.070 Y22.299
X14.220 Y22.387
X15.010 Y22.757
X15.169 Y22.815
X16.009 Y23.045
X16.191 Y23.077
X17.061 Y23.147
X17.219 Y23.147
X18.089 Y23.077
X18.271 Y23.045
X19.111 Y22.815
X19.270 Y22.757
X20.060 Y22.387
X20.210 Y22.299
X20.920 Y21.799
X21.044 Y21.696
X21.664 Y21.086
X21.783 Y20.945
X22.283 Y20.225
X22.367 Y20.080
X22.737 Y19.290
X22.795 Y19.131
X23.025 Y18.291
X23.057 Y18.109
X23.127 Y17.239
X23.127 Y17.081
X23.057 Y16.211
X23.025 Y16.029
X22.795 Y15.189
X22.737 Y15.030
X22.367 Y14.240
X22.279 Y14.090
X21.779 Y13.380
X21.670 Y13.250
X21.050 Y12.630
X20.920 Y12.521
X20.210 Y12.021
X20.060 Y11.933
X19.270 Y11.563
X19.101 Y11.502
X18.261 Y11.282
X18.101 Y11.254
X17.231 Y11.174
X17.049 Y11.174
X16.179 Y11.254
X16.019 Y11.282
X15.179 Y11.502
X15.010 Y11.563
X14.220 Y11.933
X14.070 Y12.021
X13.360 Y12.521
X13.230 Y12.630
X12.610 Y13.250
X12.501 Y13.380
X12.001 Y14.090
X11.913 Y14.240
X11.543 Y15.030
X11.482 Y15.199
X11.262 Y16.039
X11.234 Y16.199
X11.163 Y16.970
ID=1 WHEN $AC_TIMER[1]>=0 DO M51
X9.99404 Y4.28531 F1500
ID=1 WHEN $AC_TIMER[1]>=0 DO M50
X11.329 Y3.632 F800
X12.736 Y3.116
X14.180 Y2.741
X15.650 Y2.516
X17.140 Y2.441
X18.630 Y2.516
X20.101 Y2.741
X21.554 Y3.116
X22.950 Y3.631
X24.290 Y4.287
X25.553 Y5.073
X26.734 Y5.992
X27.812 Y7.014
X28.786 Y8.147
X29.638 Y9.374
X30.360 Y10.677
X30.951 Y12.046
X31.401 Y13.469
X31.700 Y14.929
X31.850 Y16.420
X31.850 Y17.910
X31.700 Y19.390
X31.401 Y20.851
X30.951 Y22.275
X30.360 Y23.654
X29.639 Y24.955
X28.787 Y26.172
X27.811 Y27.308
X26.734 Y28.338
X25.553 Y29.247
X24.287 Y30.044
X22.950 Y30.699
X21.554 Y31.214
X20.101 Y31.589
X18.630 Y31.814
X17.140 Y31.889
X15.650 Y31.814
X14.180 Y31.589
X12.736 Y31.214
X11.329 Y30.698
X9.993 Y30.044
X8.727 Y29.247
X7.546 Y28.338
X6.469 Y27.308
X5.493 Y26.172
X4.641 Y24.955
X3.920 Y23.654
X3.330 Y22.278
X2.889 Y20.851
X2.582 Y19.398
X2.554 Y19.042
X2.430 Y17.906
X2.430 Y16.420
X2.580 Y14.932
X2.889 Y13.469
X3.330 Y12.043
X3.920 Y10.677
X4.642 Y9.374
X5.494 Y8.147
X6.468 Y7.014
X7.546 Y5.992
X8.718 Y5.080
X9.030 Y4.896
X9.910 Y4.339
ID=1 WHEN $AC_TIMER[1]>=0 DO M51

; Inicio do trecho do raster
X13.5571 Y4.74383 F1500
ID=1 WHEN $AC_TIMER[1]>=0 DO M50
X4.720 Y13.581 F800
ID=1 WHEN $AC_TIMER[1]>=0 DO M51
X4.212 Y16.609 F1500
ID=1 WHEN $AC_TIMER[1]>=0 DO M50
X16.567 Y4.254 F800
ID=1 WHEN $AC_TIMER[1]>=0 DO M51
X18.9702 Y4.37092 F1500
ID=1 WHEN $AC_TIMER[1]>=0 DO M50
X11.981 Y11.360 F800
ID=1 WHEN $AC_TIMER[1]>=0 DO M51
X11.864 Y11.4772 F1500
ID=1 WHEN $AC_TIMER[1]>=0 DO M50
X4.338 Y19.003 F800
ID=1 WHEN $AC_TIMER[1]>=0 DO M51
X4.81491 Y21.0464 F1500
ID=1 WHEN $AC_TIMER[1]>=0 DO M50
X9.426 Y16.435 F800
ID=1 WHEN $AC_TIMER[1]>=0 DO M51
X16.4156 Y9.44572 F1500
ID=1 WHEN $AC_TIMER[1]>=0 DO M50
X21.037 Y4.825 F800
ID=1 WHEN $AC_TIMER[1]>=0 DO M51
X22.8265 Y5.55493 F1500
ID=1 WHEN $AC_TIMER[1]>=0 DO M50
X18.796 Y9.585 F800
ID=1 WHEN $AC_TIMER[1]>=0 DO M51
X9.56194 Y18.8195 F1500
ID=1 WHEN $AC_TIMER[1]>=0 DO M50
X5.520 Y22.862 F800
ID=1 WHEN $AC_TIMER[1]>=0 DO M51
X6.45809 Y24.4435 F1500
ID=1 WHEN $AC_TIMER[1]>=0 DO M50
X10.228 Y20.673 F800
ID=1 WHEN $AC_TIMER[1]>=0 DO M51
X20.6555 Y10.246 F1500
ID=1 WHEN $AC_TIMER[1]>=0 DO M50
X24.429 Y6.473 F800
ID=1 WHEN $AC_TIMER[1]>=0 DO M51
X25.8308 Y7.59091 F1500
ID=1 WHEN $AC_TIMER[1]>=0 DO M50
X22.174 Y11.248 F800
ID=1 WHEN $AC_TIMER[1]>=0 DO M51
X11.2253 Y22.1964 F1500
ID=1 WHEN $AC_TIMER[1]>=0 DO M50
X7.569 Y25.853 F800
ID=1 WHEN $AC_TIMER[1]>=0 DO M51
X8.84938 Y27.0924 F1500
ID=1 WHEN $AC_TIMER[1]>=0 DO M50
X12.541 Y23.400 F800
ID=1 WHEN $AC_TIMER[1]>=0 DO M51
X23.3788 Y12.563 F1500
ID=1 WHEN $AC_TIMER[1]>=0 DO M50
X27.064 Y8.877 F800
ID=1 WHEN $AC_TIMER[1]>=0 DO M51
X28.1313 Y10.3306 F1500
ID=1 WHEN $AC_TIMER[1]>=0 DO M50
X24.298 Y14.164 F800
ID=1 WHEN $AC_TIMER[1]>=0 DO M51
X14.1471 Y24.3148 F1500
ID=1 WHEN $AC_TIMER[1]>=0 DO M50
X10.319 Y28.143 F800
ID=1 WHEN $AC_TIMER[1]>=0 DO M51
X11.9594 Y29.0227 F1500
ID=1 WHEN $AC_TIMER[1]>=0 DO M50
X16.123 Y24.859 F800
ID=1 WHEN $AC_TIMER[1]>=0 DO M51
X24.8336 Y16.1485 F1500
ID=1 WHEN $AC_TIMER[1]>=0 DO M50
X28.988 Y11.994 F800
ID=1 WHEN $AC_TIMER[1]>=0 DO M51
X29.6521 Y13.8501 F1500
ID=1 WHEN $AC_TIMER[1]>=0 DO M50
X24.736 Y18.767 F800
ID=1 WHEN $AC_TIMER[1]>=0 DO M51
X18.7378 Y24.7644 F1500
ID=1 WHEN $AC_TIMER[1]>=0 DO M50
X13.842 Y29.660 F800
ID=1 WHEN $AC_TIMER[1]>=0 DO M51
X15.9764 Y30.0459 F1500
ID=1 WHEN $AC_TIMER[1]>=0 DO M50
X30.017 Y16.005 F800
ID=1 WHEN $AC_TIMER[1]>=0 DO M51
X29.9943 Y18.5482 F1500
ID=1 WHEN $AC_TIMER[1]>=0 DO M50
X18.514 Y30.029 F800
ID=1 WHEN $AC_TIMER[1]>=0 DO M51
X21.8617 Y29.2008 F1500
ID=1 WHEN $AC_TIMER[1]>=0 DO M50
X29.180 Y21.882 F800
ID=1 WHEN $AC_TIMER[1]>=0 DO M51
; Final do trecho do raster

; Layer 13
G1 Z7.800 F1500
X11.1542 Y17.0693 F1500
ID=1 WHEN $AC_TIMER[1]>=0 DO M50
X11.154 Y17.251 F800
X11.234 Y18.121
X11.262 Y18.281
X11.482 Y19.121
X11.543 Y19.290
X11.913 Y20.080
X11.997 Y20.225
X12.497 Y20.945
X12.616 Y21.086
X13.236 Y21.696
X13.360 Y21.799
X14.070 Y22.299
X14.220 Y22.387
X15.010 Y22.757
X15.169 Y22.815
X16.009 Y23.045
X16.191 Y23.077
X17.061 Y23.147
X17.219 Y23.147
X18.089 Y23.077
X18.271 Y23.045
X19.111 Y22.815
X19.270 Y22.757
X20.060 Y22.387
X20.200 Y22.307
X20.781 Y21.906
X21.044 Y21.696
X21.664 Y21.086
X21.783 Y20.945
X22.283 Y20.225
X22.367 Y20.080
X22.737 Y19.290
X22.795 Y19.131
X23.025 Y18.291
X23.057 Y18.109
X23.127 Y17.239
X23.127 Y17.081
X23.057 Y16.211
X23.025 Y16.029
X22.795 Y15.189
X22.737 Y15.030
X22.367 Y14.240
X22.279 Y14.090
X21.779 Y13.380
X21.670 Y13.250
X21.050 Y12.630
X20.920 Y12.521
X20.210 Y12.021
X20.060 Y11.933
X19.270 Y11.563
X19.101 Y11.502
X18.261 Y11.282
X18.101 Y11.254
X17.231 Y11.174
X17.049 Y11.174
X16.179 Y11.254
X16.019 Y11.282
X15.179 Y11.502
X15.010 Y11.563
X14.220 Y11.933
X14.070 Y12.021
X13.360 Y12.521
X13.230 Y12.630
X12.610 Y13.250
X12.501 Y13.380
X12.001 Y14.090
X11.913 Y14.240
X11.543 Y15.030
X11.482 Y15.199
X11.262 Y16.039
X11.234 Y16.199
X11.163 Y16.970
ID=1 WHEN $AC_TIMER[1]>=0 DO M51
X9.86074 Y4.04662 F1500
ID=1 WHEN $AC_TIMER[1]>=0 DO M50
X11.222 Y3.370 F800
X12.647 Y2.846
X14.119 Y2.461
X15.618 Y2.236
X17.140 Y2.161
X18.662 Y2.236
X20.161 Y2.461
X21.633 Y2.846
X23.058 Y3.370
X24.419 Y4.047
X25.716 Y4.845
X26.915 Y5.773
X28.021 Y6.822
X29.006 Y7.976
X29.878 Y9.223
X30.609 Y10.555
X31.211 Y11.956
X31.670 Y13.398
X31.970 Y14.890
X32.130 Y16.402
X32.130 Y17.918
X31.970 Y19.440
X31.670 Y20.922
X31.211 Y22.375
X30.609 Y23.775
X29.878 Y25.107
X29.007 Y26.352
X28.022 Y27.496
X26.915 Y28.548
X25.714 Y29.476
X24.419 Y30.283
X23.058 Y30.950
X21.633 Y31.484
X20.161 Y31.859
X18.659 Y32.094
X17.140 Y32.169
X15.621 Y32.094
X14.119 Y31.859
X12.647 Y31.484
X11.222 Y30.950
X9.861 Y30.283
X8.566 Y29.476
X7.367 Y28.549
X6.267 Y27.496
X5.271 Y26.350
X4.402 Y25.107
X3.671 Y23.775
X3.069 Y22.375
X2.610 Y20.922
X2.310 Y19.440
X2.150 Y17.918
X2.150 Y16.402
X2.310 Y14.890
X2.610 Y13.398
X3.069 Y11.956
X3.671 Y10.555
X4.402 Y9.223
X5.273 Y7.978
X6.269 Y6.822
X7.367 Y5.771
X8.564 Y4.845
X9.776 Y4.099
ID=1 WHEN $AC_TIMER[1]>=0 DO M51

; Inicio do trecho do raster
X29.7313 Y13.1822 F1500
ID=1 WHEN $AC_TIMER[1]>=0 DO M50
X21.096 Y4.547 F800
ID=1 WHEN $AC_TIMER[1]>=0 DO M51
X18.0177 Y3.98872 F1500
ID=1 WHEN $AC_TIMER[1]>=0 DO M50
X30.327 Y16.298 F800
ID=1 WHEN $AC_TIMER[1]>=0 DO M51
X30.2517 Y18.7428 F1500
ID=1 WHEN $AC_TIMER[1]>=0 DO M50
X15.556 Y4.048 F800
ID=1 WHEN $AC_TIMER[1]>=0 DO M51
X13.463 Y4.4743 F1500
ID=1 WHEN $AC_TIMER[1]>=0 DO M50
X18.506 Y9.517 F800
ID=1 WHEN $AC_TIMER[1]>=0 DO M51
X24.7924 Y15.8036 F1500
ID=1 WHEN $AC_TIMER[1]>=0 DO M50
X29.827 Y20.839 F800
ID=1 WHEN $AC_TIMER[1]>=0 DO M51
X29.1428 Y22.6742 F1500
ID=1 WHEN $AC_TIMER[1]>=0 DO M50
X24.818 Y18.350 F800
ID=1 WHEN $AC_TIMER[1]>=0 DO M51
X15.959 Y9.49042 F1500
ID=1 WHEN $AC_TIMER[1]>=0 DO M50
X11.628 Y5.159 F800
ID=1 WHEN $AC_TIMER[1]>=0 DO M51
X10.0014 Y6.05291 F1500
ID=1 WHEN $AC_TIMER[1]>=0 DO M50
X14.013 Y10.065 F800
ID=1 WHEN $AC_TIMER[1]>=0 DO M51
X24.2338 Y20.2854 F1500
ID=1 WHEN $AC_TIMER[1]>=0 DO M50
X28.260 Y24.311 F800
ID=1 WHEN $AC_TIMER[1]>=0 DO M51
X27.1761 Y25.7477 F1500
ID=1 WHEN $AC_TIMER[1]>=0 DO M50
X23.305 Y21.877 F800
ID=1 WHEN $AC_TIMER[1]>=0 DO M51
X12.4301 Y11.0018 F1500
ID=1 WHEN $AC_TIMER[1]>=0 DO M50
X8.543 Y7.115 F800
ID=1 WHEN $AC_TIMER[1]>=0 DO M51
X7.28322 Y8.37502 F1500
ID=1 WHEN $AC_TIMER[1]>=0 DO M50
X11.141 Y12.233 F800
ID=1 WHEN $AC_TIMER[1]>=0 DO M51
X22.0648 Y23.1565 F1500
ID=1 WHEN $AC_TIMER[1]>=0 DO M50
X25.932 Y27.024 F800
ID=1 WHEN $AC_TIMER[1]>=0 DO M51
X24.513 Y28.1249 F1500
ID=1 WHEN $AC_TIMER[1]>=0 DO M50
X20.522 Y24.134 F800
ID=1 WHEN $AC_TIMER[1]>=0 DO M51
X10.1651 Y13.777 F1500
ID=1 WHEN $AC_TIMER[1]>=0 DO M50
X6.179 Y9.791 F800
ID=1 WHEN $AC_TIMER[1]>=0 DO M51
X5.25336 Y11.3854 F1500
ID=1 WHEN $AC_TIMER[1]>=0 DO M50
X9.526 Y15.658 F800
ID=1 WHEN $AC_TIMER[1]>=0 DO M51
X18.6498 Y24.7819 F1500
ID=1 WHEN $AC_TIMER[1]>=0 DO M50
X22.907 Y29.039 F800
ID=1 WHEN $AC_TIMER[1]>=0 DO M51
X21.1208 Y29.773 F1500
ID=1 WHEN $AC_TIMER[1]>=0 DO M50
X16.213 Y24.865 F800
ID=1 WHEN $AC_TIMER[1]>=0 DO M51
X9.44672 Y18.0989 F1500
ID=1 WHEN $AC_TIMER[1]>=0 DO M50
X4.544 Y13.196 F800
ID=1 WHEN $AC_TIMER[1]>=0 DO M51
X4.06491 Y15.2372 F1500
ID=1 WHEN $AC_TIMER[1]>=0 DO M50
X19.056 Y30.228 F800
ID=1 WHEN $AC_TIMER[1]>=0 DO M51
X16.6689 Y30.3614 F1500
ID=1 WHEN $AC_TIMER[1]>=0 DO M50
X3.932 Y17.624 F800
ID=1 WHEN $AC_TIMER[1]>=0 DO M51
X4.37221 Y20.5848 F1500
ID=1 WHEN $AC_TIMER[1]>=0 DO M50
X13.701 Y29.914 F800
ID=1 WHEN $AC_TIMER[1]>=0 DO M51
; Final do trecho do raster

; Layer 14
G1 Z8.400 F1500
X11.1542 Y17.0693 F1500
ID=1 WHEN $AC_TIMER[1]>=0 DO M50
X11.154 Y17.251 F800
X11.234 Y18.121
X11.262 Y18.281
X11.482 Y19.121
X11.543 Y19.290
X11.913 Y20.080
X11.997 Y20.225
X12.497 Y20.945
X12.616 Y21.086
X13.236 Y21.696
X13.360 Y21.799
X14.070 Y22.299
X14.220 Y22.387
X15.010 Y22.757
X15.169 Y22.815
X16.009 Y23.045
X16.191 Y23.077
X17.061 Y23.147
X17.219 Y23.147
X18.089 Y23.077
X18.271 Y23.045
X19.111 Y22.815
X19.270 Y22.757
X20.060 Y22.387
X20.210 Y22.299
X20.920 Y21.799
X21.044 Y21.696
X21.664 Y21.086
X21.783 Y20.945
X22.283 Y20.225
X22.367 Y20.080
X22.737 Y19.290
X22.795 Y19.131
X23.025 Y18.291
X23.057 Y18.109
X23.127 Y17.239
X23.127 Y17.081
X23.057 Y16.211
X23.025 Y16.029
X22.795 Y15.189
X22.737 Y15.030
X22.367 Y14.240
X22.279 Y14.090
X21.779 Y13.380
X21.670 Y13.250
X21.050 Y12.630
X20.920 Y12.521
X20.210 Y12.021
X20.060 Y11.933
X19.270 Y11.563
X19.101 Y11.502
X18.261 Y11.282
X18.101 Y11.254
X17.231 Y11.174
X17.049 Y11.174
X16.179 Y11.254
X16.019 Y11.282
X15.179 Y11.502
X15.010 Y11.563
X14.220 Y11.933
X14.070 Y12.021
X13.360 Y12.521
X13.230 Y12.630
X12.610 Y13.250
X12.501 Y13.380
X12.001 Y14.090
X11.913 Y14.240
X11.543 Y15.030
X11.482 Y15.199
X11.262 Y16.039
X11.234 Y16.199
X11.163 Y16.970
ID=1 WHEN $AC_TIMER[1]>=0 DO M51
X11.1109 Y3.12077 F1500
ID=1 WHEN $AC_TIMER[1]>=0 DO M50
X12.568 Y2.576 F800
X14.059 Y2.191
X15.589 Y1.956
X17.140 Y1.881
X18.691 Y1.956
X20.221 Y2.191
X21.712 Y2.576
X23.169 Y3.121
X24.561 Y3.798
X25.873 Y4.614
X27.094 Y5.562
X28.221 Y6.633
X29.226 Y7.806
X30.109 Y9.075
X30.860 Y10.426
X31.471 Y11.856
X31.941 Y13.330
X32.250 Y14.850
X32.410 Y16.391
X32.410 Y17.939
X32.250 Y19.479
X31.941 Y20.991
X31.471 Y22.474
X30.860 Y23.893
X30.108 Y25.247
X29.225 Y26.525
X28.223 Y27.696
X27.096 Y28.757
X25.873 Y29.706
X24.559 Y30.524
X23.169 Y31.209
X21.712 Y31.745
X20.218 Y32.139
X18.691 Y32.374
X17.140 Y32.449
X15.589 Y32.374
X14.062 Y32.139
X12.568 Y31.745
X11.111 Y31.209
X9.721 Y30.524
X8.406 Y29.706
X7.184 Y28.757
X6.070 Y27.708
X5.053 Y26.522
X4.172 Y25.247
X3.420 Y23.893
X2.809 Y22.474
X2.339 Y20.991
X2.030 Y19.479
X1.870 Y17.939
X1.870 Y16.391
X2.030 Y14.850
X2.339 Y13.330
X2.809 Y11.856
X3.420 Y10.426
X4.171 Y9.075
X5.054 Y7.806
X6.059 Y6.633
X7.186 Y5.562
X8.393 Y4.624
X9.722 Y3.796
X11.021 Y3.165
ID=1 WHEN $AC_TIMER[1]>=0 DO M51

; Inicio do trecho do raster
X29.747 Y21.9722 F1500
ID=1 WHEN $AC_TIMER[1]>=0 DO M50
X21.967 Y29.752 F800
ID=1 WHEN $AC_TIMER[1]>=0 DO M51
X18.617 Y30.5821 F1500
ID=1 WHEN $AC_TIMER[1]>=0 DO M50
X30.544 Y18.655 F800
ID=1 WHEN $AC_TIMER[1]>=0 DO M51
X30.5874 Y16.0916 F1500
ID=1 WHEN $AC_TIMER[1]>=0 DO M50
X16.066 Y30.613 F800
ID=1 WHEN $AC_TIMER[1]>=0 DO M51
X13.9042 Y30.2546 F1500
ID=1 WHEN $AC_TIMER[1]>=0 DO M50
X19.650 Y24.509 F800
ID=1 WHEN $AC_TIMER[1]>=0 DO M51
X24.4908 Y19.668 F1500
ID=1 WHEN $AC_TIMER[1]>=0 DO M50
X30.242 Y13.917 F800
ID=1 WHEN $AC_TIMER[1]>=0 DO M51
X29.6079 Y12.0308 F1500
ID=1 WHEN $AC_TIMER[1]>=0 DO M50
X24.887 Y16.752 F800
ID=1 WHEN $AC_TIMER[1]>=0 DO M51
X16.7343 Y24.9044 F1500
ID=1 WHEN $AC_TIMER[1]>=0 DO M50
X12.001 Y29.638 F800
ID=1 WHEN $AC_TIMER[1]>=0 DO M51
X10.3207 Y28.7979 F1500
ID=1 WHEN $AC_TIMER[1]>=0 DO M50
X14.614 Y24.505 F800
ID=1 WHEN $AC_TIMER[1]>=0 DO M51
X24.4844 Y14.6342 F1500
ID=1 WHEN $AC_TIMER[1]>=0 DO M50
X28.775 Y10.343 F800
ID=1 WHEN $AC_TIMER[1]>=0 DO M51
X27.762 Y8.83648 F1500
ID=1 WHEN $AC_TIMER[1]>=0 DO M50
X23.652 Y12.946 F800
ID=1 WHEN $AC_TIMER[1]>=0 DO M51
X12.9289 Y23.6695 F1500
ID=1 WHEN $AC_TIMER[1]>=0 DO M50
X8.824 Y27.774 F800
ID=1 WHEN $AC_TIMER[1]>=0 DO M51
X7.48552 Y26.5928 F1500
ID=1 WHEN $AC_TIMER[1]>=0 DO M50
X11.547 Y22.532 F800
ID=1 WHEN $AC_TIMER[1]>=0 DO M51
X22.5066 Y11.5717 F1500
ID=1 WHEN $AC_TIMER[1]>=0 DO M50
X26.563 Y7.515 F800
ID=1 WHEN $AC_TIMER[1]>=0 DO M51
X25.2063 Y6.35183 F1500
ID=1 WHEN $AC_TIMER[1]>=0 DO M50
X21.088 Y10.470 F800
ID=1 WHEN $AC_TIMER[1]>=0 DO M51
X10.4519 Y21.1063 F1500
ID=1 WHEN $AC_TIMER[1]>=0 DO M50
X6.327 Y25.231 F800
ID=1 WHEN $AC_TIMER[1]>=0 DO M51
X5.34641 Y23.6916 F1500
ID=1 WHEN $AC_TIMER[1]>=0 DO M50
X9.701 Y19.337 F800
ID=1 WHEN $AC_TIMER[1]>=0 DO M51
X19.3192 Y9.71886 F1500
ID=1 WHEN $AC_TIMER[1]>=0 DO M50
X23.685 Y5.353 F800
ID=1 WHEN $AC_TIMER[1]>=0 DO M51
X21.9505 Y4.56744 F1500
ID=1 WHEN $AC_TIMER[1]>=0 DO M50
X17.123 Y9.394 F800
ID=1 WHEN $AC_TIMER[1]>=0 DO M51
X9.37379 Y17.1441 F1500
ID=1 WHEN $AC_TIMER[1]>=0 DO M50
X4.537 Y21.981 F800
ID=1 WHEN $AC_TIMER[1]>=0 DO M51
X3.96267 Y20.0351 F1500
ID=1 WHEN $AC_TIMER[1]>=0 DO M50
X10.118 Y13.880 F800
ID=1 WHEN $AC_TIMER[1]>=0 DO M51
X13.8604 Y10.1374 F1500
ID=1 WHEN $AC_TIMER[1]>=0 DO M50
X20.019 Y3.979 F800
ID=1 WHEN $AC_TIMER[1]>=0 DO M51
X17.7813 Y3.69635 F1500
ID=1 WHEN $AC_TIMER[1]>=0 DO M50
X3.652 Y17.826 F800
ID=1 WHEN $AC_TIMER[1]>=0 DO M51
X3.7882 Y15.1693 F1500
ID=1 WHEN $AC_TIMER[1]>=0 DO M50
X15.128 Y3.830 F800
ID=1 WHEN $AC_TIMER[1]>=0 DO M51
X11.5472 Y4.89019 F1500
ID=1 WHEN $AC_TIMER[1]>=0 DO M50
X4.870 Y11.567 F800
ID=1 WHEN $AC_TIMER[1]>=0 DO M51
; Final do trecho do raster

; Layer 15
G1 Z9.000 F1500
X11.0016 Y31.4693 F1500
ID=1 WHEN $AC_TIMER[1]>=0 DO M50
X9.592 Y30.774 F800
X8.246 Y29.936
X7.005 Y28.978
X5.859 Y27.887
X4.834 Y26.693
X3.932 Y25.397
X3.169 Y24.013
X2.539 Y22.564
X2.070 Y21.064
X1.760 Y19.522
X1.600 Y17.950
X1.600 Y16.371
X1.760 Y14.808
X2.071 Y13.255
X2.539 Y11.756
X3.169 Y10.309
X3.931 Y8.934
X4.834 Y7.637
X5.859 Y6.443
X7.007 Y5.351
X8.245 Y4.385
X9.725 Y3.480
X10.997 Y2.863
X12.631 Y2.268
X14.008 Y1.921
X15.568 Y1.677
X17.305 Y1.601
X18.716 Y1.676
X20.269 Y1.921
X21.804 Y2.316
X23.280 Y2.861
X24.700 Y3.557
X26.035 Y4.384
X27.283 Y5.351
X28.418 Y6.440
X29.543 Y7.763
X30.349 Y8.934
X31.121 Y10.309
X31.740 Y11.754
X32.210 Y13.258
X32.530 Y14.811
X32.690 Y16.371
X32.690 Y17.950
X32.530 Y19.519
X32.211 Y21.061
X31.740 Y22.566
X31.120 Y24.013
X30.349 Y25.395
X29.446 Y26.693
X28.420 Y27.889
X27.284 Y28.978
X26.035 Y29.936
X24.698 Y30.774
X23.280 Y31.469
X21.804 Y32.014
X20.269 Y32.409
X18.739 Y32.651
X17.137 Y32.729
X15.571 Y32.654
X14.011 Y32.409
X12.476 Y32.014
X11.095 Y31.504
ID=1 WHEN $AC_TIMER[1]>=0 DO M51
X11.1542 Y17.0693 F1500
ID=1 WHEN $AC_TIMER[1]>=0 DO M50
X11.154 Y17.251 F800
X11.234 Y18.121
X11.262 Y18.281
X11.482 Y19.121
X11.543 Y19.290
X11.913 Y20.080
X11.997 Y20.225
X12.497 Y20.945
X12.616 Y21.086
X13.236 Y21.696
X13.360 Y21.799
X14.070 Y22.299
X14.220 Y22.387
X15.010 Y22.757
X15.169 Y22.815
X16.009 Y23.045
X16.191 Y23.077
X17.061 Y23.147
X17.219 Y23.147
X18.089 Y23.077
X18.271 Y23.045
X19.111 Y22.815
X19.270 Y22.757
X20.060 Y22.387
X20.210 Y22.299
X20.920 Y21.799
X21.044 Y21.696
X21.664 Y21.086
X21.783 Y20.945
X22.283 Y20.225
X22.367 Y20.080
X22.737 Y19.290
X22.795 Y19.131
X23.025 Y18.291
X23.057 Y18.109
X23.127 Y17.239
X23.126 Y17.068
X23.057 Y16.336
X23.051 Y16.158
X22.795 Y15.189
X22.737 Y15.030
X22.367 Y14.240
X22.279 Y14.090
X21.779 Y13.380
X21.670 Y13.250
X21.050 Y12.630
X20.920 Y12.521
X20.210 Y12.021
X20.060 Y11.933
X19.270 Y11.563
X19.101 Y11.502
X18.261 Y11.282
X18.101 Y11.254
X17.231 Y11.174
X17.049 Y11.174
X16.179 Y11.254
X16.008 Y11.285
X15.129 Y11.517
X14.220 Y11.933
X14.070 Y12.021
X13.360 Y12.521
X13.230 Y12.630
X12.610 Y13.250
X12.501 Y13.380
X12.001 Y14.090
X11.913 Y14.240
X11.543 Y15.030
X11.482 Y15.199
X11.262 Y16.039
X11.234 Y16.199
X11.163 Y16.970
ID=1 WHEN $AC_TIMER[1]>=0 DO M51

; Inicio do trecho do raster
X11.9194 Y29.9086 F1500
ID=1 WHEN $AC_TIMER[1]>=0 DO M50
X4.411 Y22.401 F800
ID=1 WHEN $AC_TIMER[1]>=0 DO M51
X3.49441 Y18.9635 F1500
ID=1 WHEN $AC_TIMER[1]>=0 DO M50
X15.346 Y30.815 F800
ID=1 WHEN $AC_TIMER[1]>=0 DO M51
X17.9557 Y30.9047 F1500
ID=1 WHEN $AC_TIMER[1]>=0 DO M50
X3.394 Y16.343 F800
ID=1 WHEN $AC_TIMER[1]>=0 DO M51
X3.71094 Y14.1398 F1500
ID=1 WHEN $AC_TIMER[1]>=0 DO M50
X10.214 Y20.643 F800
ID=1 WHEN $AC_TIMER[1]>=0 DO M51
X13.663 Y24.0919 F1500
ID=1 WHEN $AC_TIMER[1]>=0 DO M50
X20.167 Y30.596 F800
ID=1 WHEN $AC_TIMER[1]>=0 DO M51
X22.0972 Y30.0059 F1500
ID=1 WHEN $AC_TIMER[1]>=0 DO M50
X17.017 Y24.926 F800
ID=1 WHEN $AC_TIMER[1]>=0 DO M51
X9.37686 Y17.2856 F1500
ID=1 WHEN $AC_TIMER[1]>=0 DO M50
X4.290 Y12.199 F800
ID=1 WHEN $AC_TIMER[1]>=0 DO M51
X5.1044 Y10.493 F1500
ID=1 WHEN $AC_TIMER[1]>=0 DO M50
X9.677 Y15.066 F800
ID=1 WHEN $AC_TIMER[1]>=0 DO M51
X19.2363 Y24.6249 F1500
ID=1 WHEN $AC_TIMER[1]>=0 DO M50
X23.827 Y29.216 F800
ID=1 WHEN $AC_TIMER[1]>=0 DO M51
X25.3482 Y28.2167 F1500
ID=1 WHEN $AC_TIMER[1]>=0 DO M50
X21.020 Y23.888 F800
ID=1 WHEN $AC_TIMER[1]>=0 DO M51
X10.4122 Y13.2807 F1500
ID=1 WHEN $AC_TIMER[1]>=0 DO M50
X6.087 Y8.956 F800
ID=1 WHEN $AC_TIMER[1]>=0 DO M51
X7.23998 Y7.58831 F1500
ID=1 WHEN $AC_TIMER[1]>=0 DO M50
X11.499 Y11.847 F800
ID=1 WHEN $AC_TIMER[1]>=0 DO M51
X22.456 Y22.8043 F1500
ID=1 WHEN $AC_TIMER[1]>=0 DO M50
X26.711 Y27.059 F800
ID=1 WHEN $AC_TIMER[1]>=0 DO M51
X27.914 Y25.7422 F1500
ID=1 WHEN $AC_TIMER[1]>=0 DO M50
X23.607 Y21.435 F800
ID=1 WHEN $AC_TIMER[1]>=0 DO M51
X12.8639 Y10.6921 F1500
ID=1 WHEN $AC_TIMER[1]>=0 DO M50
X8.566 Y6.394 F800
ID=1 WHEN $AC_TIMER[1]>=0 DO M51
X10.0574 Y5.36546 F1500
ID=1 WHEN $AC_TIMER[1]>=0 DO M50
X14.536 Y9.844 F800
ID=1 WHEN $AC_TIMER[1]>=0 DO M51
X24.4572 Y19.7653 F1500
ID=1 WHEN $AC_TIMER[1]>=0 DO M50
X28.945 Y24.254 F800
ID=1 WHEN $AC_TIMER[1]>=0 DO M51
X29.7945 Y22.5825 F1500
ID=1 WHEN $AC_TIMER[1]>=0 DO M50
X24.877 Y17.664 F800
ID=1 WHEN $AC_TIMER[1]>=0 DO M51
X16.6364 Y9.4243 F1500
ID=1 WHEN $AC_TIMER[1]>=0 DO M50
X11.711 Y4.499 F800
ID=1 WHEN $AC_TIMER[1]>=0 DO M51
X13.5948 Y3.86262 F1500
ID=1 WHEN $AC_TIMER[1]>=0 DO M50
X19.496 Y9.764 F800
ID=1 WHEN $AC_TIMER[1]>=0 DO M51
X24.5276 Y14.7954 F1500
ID=1 WHEN $AC_TIMER[1]>=0 DO M50
X30.451 Y20.718 F800
ID=1 WHEN $AC_TIMER[1]>=0 DO M51
X30.8344 Y18.5821 F1500
ID=1 WHEN $AC_TIMER[1]>=0 DO M50
X15.710 Y3.458 F800
ID=1 WHEN $AC_TIMER[1]>=0 DO M51
X18.2058 Y3.43335 F1500
ID=1 WHEN $AC_TIMER[1]>=0 DO M50
X30.871 Y16.098 F800
ID=1 WHEN $AC_TIMER[1]>=0 DO M51
X30.2491 Y12.9565 F1500
ID=1 WHEN $AC_TIMER[1]>=0 DO M50
X21.335 Y4.043 F800
ID=1 WHEN $AC_TIMER[1]>=0 DO M51
; Final do trecho do raster

; Layer 16
G1 Z9.600 F1500
X11.1542 Y17.0693 F1500
ID=1 WHEN $AC_TIMER[1]>=0 DO M50
X11.154 Y17.251 F800
X11.234 Y18.121
X11.262 Y18.281
X11.482 Y19.121
X11.543 Y19.290
X11.913 Y20.080
X11.997 Y20.225
X12.497 Y20.945
X12.616 Y21.086
X13.236 Y21.696
X13.360 Y21.799
X14.070 Y22.299
X14.220 Y22.387
X15.010 Y22.757
X15.169 Y22.815
X16.009 Y23.045
X16.191 Y23.077
X17.061 Y23.147
X17.219 Y23.147
X18.089 Y23.077
X18.271 Y23.045
X19.111 Y22.815
X19.263 Y22.760
X20.003 Y22.420
X20.147 Y22.338
X20.867 Y21.848
X21.005 Y21.735
X21.665 Y21.085
X21.783 Y20.945
X22.283 Y20.225
X22.367 Y20.080
X22.737 Y19.290
X22.795 Y19.131
X23.025 Y18.291
X23.057 Y18.109
X23.127 Y17.239
X23.127 Y17.081
X23.057 Y16.211
X23.025 Y16.029
X22.795 Y15.189
X22.737 Y15.030
X22.367 Y14.240
X22.279 Y14.090
X21.779 Y13.380
X21.670 Y13.250
X21.050 Y12.630
X20.920 Y12.521
X20.210 Y12.021
X20.060 Y11.933
X19.270 Y11.563
X19.101 Y11.502
X18.261 Y11.282
X18.101 Y11.254
X17.231 Y11.174
X17.049 Y11.174
X16.179 Y11.254
X16.019 Y11.282
X15.179 Y11.502
X15.010 Y11.563
X14.220 Y11.933
X14.070 Y12.021
X13.360 Y12.521
X13.230 Y12.630
X12.610 Y13.250
X12.501 Y13.380
X12.001 Y14.090
X11.913 Y14.240
X11.543 Y15.030
X11.482 Y15.199
X11.262 Y16.039
X11.234 Y16.199
X11.163 Y16.970
ID=1 WHEN $AC_TIMER[1]>=0 DO M51
X10.9679 Y2.57215 F1500
ID=1 WHEN $AC_TIMER[1]>=0 DO M50
X12.397 Y2.046 F800
X13.951 Y1.641
X15.538 Y1.397
X17.228 Y1.321
X18.738 Y1.396
X20.417 Y1.660
X21.882 Y2.045
X23.390 Y2.601
X24.830 Y3.307
X26.193 Y4.154
X27.463 Y5.141
X28.620 Y6.242
X29.723 Y7.533
X30.627 Y8.852
X31.369 Y10.185
X32.029 Y11.739
X32.499 Y13.272
X32.810 Y14.848
X32.970 Y16.362
X32.970 Y17.967
X32.791 Y19.646
X32.481 Y21.130
X32.000 Y22.667
X31.370 Y24.144
X30.589 Y25.546
X29.678 Y26.860
X28.564 Y28.135
X27.464 Y29.188
X26.197 Y30.164
X24.750 Y31.053
X23.387 Y31.730
X21.883 Y32.284
X20.333 Y32.688
X18.665 Y32.933
X17.056 Y33.009
X15.453 Y32.914
X13.982 Y32.694
X12.394 Y32.283
X10.893 Y31.730
X9.376 Y30.976
X8.019 Y30.118
X6.818 Y29.189
X5.603 Y28.022
X4.565 Y26.795
X3.690 Y25.544
X2.910 Y24.144
X2.281 Y22.668
X1.781 Y21.057
X1.470 Y19.475
X1.320 Y17.971
X1.320 Y16.272
X1.480 Y14.761
X1.800 Y13.188
X2.280 Y11.664
X2.910 Y10.188
X3.739 Y8.709
X4.660 Y7.401
X5.715 Y6.186
X6.884 Y5.083
X8.061 Y4.173
X9.450 Y3.307
X10.878 Y2.616
ID=1 WHEN $AC_TIMER[1]>=0 DO M51

; Inicio do trecho do raster
X4.29172 Y11.4891 F1500
ID=1 WHEN $AC_TIMER[1]>=0 DO M50
X11.473 Y4.307 F800
ID=1 WHEN $AC_TIMER[1]>=0 DO M51
X15.022 Y3.27892 F1500
ID=1 WHEN $AC_TIMER[1]>=0 DO M50
X3.240 Y15.061 F800
ID=1 WHEN $AC_TIMER[1]>=0 DO M51
X3.102 Y17.719 F1500
ID=1 WHEN $AC_TIMER[1]>=0 DO M50
X17.693 Y3.128 F800
ID=1 WHEN $AC_TIMER[1]>=0 DO M51
X19.9504 Y3.39076 F1500
ID=1 WHEN $AC_TIMER[1]>=0 DO M50
X11.981 Y11.360 F800
ID=1 WHEN $AC_TIMER[1]>=0 DO M51
X11.864 Y11.4772 F1500
ID=1 WHEN $AC_TIMER[1]>=0 DO M50
X3.382 Y19.960 F800
ID=1 WHEN $AC_TIMER[1]>=0 DO M51
X3.92065 Y21.9406 F1500
ID=1 WHEN $AC_TIMER[1]>=0 DO M50
X9.426 Y16.435 F800
ID=1 WHEN $AC_TIMER[1]>=0 DO M51
X16.4156 Y9.44572 F1500
ID=1 WHEN $AC_TIMER[1]>=0 DO M50
X21.907 Y3.954 F800
ID=1 WHEN $AC_TIMER[1]>=0 DO M51
X23.6621 Y4.71933 F1500
ID=1 WHEN $AC_TIMER[1]>=0 DO M50
X18.796 Y9.585 F800
ID=1 WHEN $AC_TIMER[1]>=0 DO M51
X9.56194 Y18.8195 F1500
ID=1 WHEN $AC_TIMER[1]>=0 DO M50
X4.695 Y23.686 F800
ID=1 WHEN $AC_TIMER[1]>=0 DO M51
X5.65598 Y25.2456 F1500
ID=1 WHEN $AC_TIMER[1]>=0 DO M50
X10.228 Y20.673 F800
ID=1 WHEN $AC_TIMER[1]>=0 DO M51
X20.6555 Y10.246 F1500
ID=1 WHEN $AC_TIMER[1]>=0 DO M50
X25.236 Y5.666 F800
ID=1 WHEN $AC_TIMER[1]>=0 DO M51
X26.6216 Y6.80003 F1500
ID=1 WHEN $AC_TIMER[1]>=0 DO M50
X22.174 Y11.248 F800
ID=1 WHEN $AC_TIMER[1]>=0 DO M51
X11.2253 Y22.1964 F1500
ID=1 WHEN $AC_TIMER[1]>=0 DO M50
X6.774 Y26.647 F800
ID=1 WHEN $AC_TIMER[1]>=0 DO M51
X8.05119 Y27.8906 F1500
ID=1 WHEN $AC_TIMER[1]>=0 DO M50
X12.541 Y23.400 F800
ID=1 WHEN $AC_TIMER[1]>=0 DO M51
X23.3788 Y12.563 F1500
ID=1 WHEN $AC_TIMER[1]>=0 DO M50
X27.854 Y8.088 F800
ID=1 WHEN $AC_TIMER[1]>=0 DO M51
X28.9318 Y9.53011 F1500
ID=1 WHEN $AC_TIMER[1]>=0 DO M50
X24.298 Y14.164 F800
ID=1 WHEN $AC_TIMER[1]>=0 DO M51
X14.1471 Y24.3148 F1500
ID=1 WHEN $AC_TIMER[1]>=0 DO M50
X9.510 Y28.952 F800
ID=1 WHEN $AC_TIMER[1]>=0 DO M51
X11.1262 Y29.8558 F1500
ID=1 WHEN $AC_TIMER[1]>=0 DO M50
X16.123 Y24.859 F800
ID=1 WHEN $AC_TIMER[1]>=0 DO M51
X24.8336 Y16.1485 F1500
ID=1 WHEN $AC_TIMER[1]>=0 DO M50
X29.840 Y11.142 F800
ID=1 WHEN $AC_TIMER[1]>=0 DO M51
X30.5398 Y12.9624 F1500
ID=1 WHEN $AC_TIMER[1]>=0 DO M50
X24.736 Y18.767 F800
ID=1 WHEN $AC_TIMER[1]>=0 DO M51
X18.7378 Y24.7644 F1500
ID=1 WHEN $AC_TIMER[1]>=0 DO M50
X12.923 Y30.579 F800
ID=1 WHEN $AC_TIMER[1]>=0 DO M51
X14.9807 Y31.0416 F1500
ID=1 WHEN $AC_TIMER[1]>=0 DO M50
X31.023 Y14.999 F800
ID=1 WHEN $AC_TIMER[1]>=0 DO M51
X31.188 Y17.3545 F1500
ID=1 WHEN $AC_TIMER[1]>=0 DO M50
X17.331 Y31.212 F800
ID=1 WHEN $AC_TIMER[1]>=0 DO M51
X20.1745 Y30.888 F1500
ID=1 WHEN $AC_TIMER[1]>=0 DO M50
X30.853 Y20.210 F800
ID=1 WHEN $AC_TIMER[1]>=0 DO M51
X29.1928 Y24.3899 F1500
ID=1 WHEN $AC_TIMER[1]>=0 DO M50
X24.416 Y29.167 F800
ID=1 WHEN $AC_TIMER[1]>=0 DO M51
; Final do trecho do raster

; Layer 17
G1 Z10.200 F1500
X23.1268 Y17.2394 F1500
ID=1 WHEN $AC_TIMER[1]>=0 DO M50
X23.127 Y17.081 F800
X23.057 Y16.211
X23.025 Y16.029
X22.795 Y15.189
X22.737 Y15.030
X22.367 Y14.240
X22.279 Y14.090
X21.779 Y13.380
X21.670 Y13.250
X21.050 Y12.630
X20.920 Y12.521
X20.210 Y12.021
X20.060 Y11.933
X19.270 Y11.563
X19.101 Y11.502
X18.261 Y11.282
X18.101 Y11.254
X17.231 Y11.174
X17.049 Y11.174
X16.179 Y11.254
X16.019 Y11.282
X15.179 Y11.502
X15.010 Y11.563
X14.220 Y11.933
X14.070 Y12.021
X13.360 Y12.521
X13.230 Y12.630
X12.610 Y13.250
X12.495 Y13.388
X12.026 Y14.056
X11.909 Y14.249
X11.560 Y14.997
X11.482 Y15.199
X11.262 Y16.039
X11.234 Y16.199
X11.154 Y17.069
X11.154 Y17.251
X11.234 Y18.121
X11.262 Y18.281
X11.482 Y19.121
X11.543 Y19.290
X11.913 Y20.080
X11.997 Y20.225
X12.497 Y20.945
X12.616 Y21.086
X13.236 Y21.696
X13.360 Y21.799
X14.070 Y22.299
X14.220 Y22.387
X15.010 Y22.757
X15.169 Y22.815
X16.009 Y23.045
X16.191 Y23.077
X17.061 Y23.147
X17.219 Y23.147
X18.089 Y23.077
X18.271 Y23.045
X19.111 Y22.815
X19.270 Y22.757
X20.060 Y22.387
X20.202 Y22.305
X20.912 Y21.815
X21.050 Y21.700
X21.670 Y21.080
X21.783 Y20.945
X22.283 Y20.225
X22.367 Y20.080
X22.737 Y19.290
X22.795 Y19.131
X23.025 Y18.291
X23.057 Y18.109
X23.119 Y17.339
ID=1 WHEN $AC_TIMER[1]>=0 DO M51
X23.4888 Y31.9891 F1500
ID=1 WHEN $AC_TIMER[1]>=0 DO M50
X21.955 Y32.553 F800
X20.372 Y32.959
X18.760 Y33.204
X17.130 Y33.289
X15.500 Y33.204
X13.881 Y32.959
X12.308 Y32.545
X10.771 Y31.979
X9.303 Y31.254
X7.917 Y30.387
X6.626 Y29.388
X5.449 Y28.268
X4.384 Y27.024
X3.452 Y25.686
X2.661 Y24.255
X2.020 Y22.757
X1.530 Y21.192
X1.200 Y19.591
X1.040 Y17.971
X1.040 Y16.329
X1.200 Y14.709
X1.529 Y13.109
X2.019 Y11.556
X2.669 Y10.048
X3.461 Y8.625
X4.394 Y7.286
X5.458 Y6.044
X6.644 Y4.923
X7.936 Y3.924
X9.330 Y3.057
X10.790 Y2.341
X12.324 Y1.777
X13.910 Y1.371
X15.520 Y1.116
X17.150 Y1.041
X18.770 Y1.116
X20.398 Y1.370
X21.982 Y1.785
X23.510 Y2.351
X24.979 Y3.067
X26.363 Y3.933
X27.654 Y4.932
X28.839 Y6.061
X29.895 Y7.305
X30.828 Y8.644
X31.621 Y10.077
X32.270 Y11.573
X32.750 Y13.136
X33.080 Y14.732
X33.250 Y16.361
X33.245 Y17.943
X33.080 Y19.621
X32.751 Y21.221
X32.261 Y22.773
X31.611 Y24.273
X30.818 Y25.706
X29.887 Y27.042
X28.822 Y28.277
X27.634 Y29.408
X26.345 Y30.405
X24.959 Y31.263
X23.578 Y31.945
ID=1 WHEN $AC_TIMER[1]>=0 DO M51

; Inicio do trecho do raster
X23.3008 Y4.23152 F1500
ID=1 WHEN $AC_TIMER[1]>=0 DO M50
X30.085 Y11.016 F800
ID=1 WHEN $AC_TIMER[1]>=0 DO M51
X31.2553 Y14.7062 F1500
ID=1 WHEN $AC_TIMER[1]>=0 DO M50
X19.598 Y3.049 F800
ID=1 WHEN $AC_TIMER[1]>=0 DO M51
X16.867 Y2.83805 F1500
ID=1 WHEN $AC_TIMER[1]>=0 DO M50
X31.464 Y17.435 F800
ID=1 WHEN $AC_TIMER[1]>=0 DO M51
X31.2382 Y19.7294 F1500
ID=1 WHEN $AC_TIMER[1]>=0 DO M50
X14.578 Y3.069 F800
ID=1 WHEN $AC_TIMER[1]>=0 DO M51
X12.5728 Y3.58404 F1500
ID=1 WHEN $AC_TIMER[1]>=0 DO M50
X18.506 Y9.517 F800
ID=1 WHEN $AC_TIMER[1]>=0 DO M51
X24.7924 Y15.8036 F1500
ID=1 WHEN $AC_TIMER[1]>=0 DO M50
X30.721 Y21.732 F800
ID=1 WHEN $AC_TIMER[1]>=0 DO M51
X29.9898 Y23.5212 F1500
ID=1 WHEN $AC_TIMER[1]>=0 DO M50
X24.818 Y18.350 F800
ID=1 WHEN $AC_TIMER[1]>=0 DO M51
X15.959 Y9.49042 F1500
ID=1 WHEN $AC_TIMER[1]>=0 DO M50
X10.793 Y4.325 F800
ID=1 WHEN $AC_TIMER[1]>=0 DO M51
X9.19064 Y5.24217 F1500
ID=1 WHEN $AC_TIMER[1]>=0 DO M50
X14.013 Y10.065 F800
ID=1 WHEN $AC_TIMER[1]>=0 DO M51
X24.2338 Y20.2854 F1500
ID=1 WHEN $AC_TIMER[1]>=0 DO M50
X29.060 Y25.112 F800
ID=1 WHEN $AC_TIMER[1]>=0 DO M51
X27.9674 Y26.5391 F1500
ID=1 WHEN $AC_TIMER[1]>=0 DO M50
X23.305 Y21.877 F800
ID=1 WHEN $AC_TIMER[1]>=0 DO M51
X12.4301 Y11.0018 F1500
ID=1 WHEN $AC_TIMER[1]>=0 DO M50
X7.754 Y6.326 F800
ID=1 WHEN $AC_TIMER[1]>=0 DO M51
X6.48838 Y7.58018 F1500
ID=1 WHEN $AC_TIMER[1]>=0 DO M50
X11.141 Y12.233 F800
ID=1 WHEN $AC_TIMER[1]>=0 DO M51
X22.0739 Y23.1657 F1500
ID=1 WHEN $AC_TIMER[1]>=0 DO M50
X26.723 Y27.815 F800
ID=1 WHEN $AC_TIMER[1]>=0 DO M51
X25.3275 Y28.9395 F1500
ID=1 WHEN $AC_TIMER[1]>=0 DO M50
X20.522 Y24.134 F800
ID=1 WHEN $AC_TIMER[1]>=0 DO M51
X10.1647 Y13.7766 F1500
ID=1 WHEN $AC_TIMER[1]>=0 DO M50
X5.378 Y8.990 F800
ID=1 WHEN $AC_TIMER[1]>=0 DO M51
X4.42513 Y10.5572 F1500
ID=1 WHEN $AC_TIMER[1]>=0 DO M50
X9.526 Y15.658 F800
ID=1 WHEN $AC_TIMER[1]>=0 DO M51
X18.6498 Y24.7819 F1500
ID=1 WHEN $AC_TIMER[1]>=0 DO M50
X23.744 Y29.876 F800
ID=1 WHEN $AC_TIMER[1]>=0 DO M51
X21.9898 Y30.642 F1500
ID=1 WHEN $AC_TIMER[1]>=0 DO M50
X16.213 Y24.865 F800
ID=1 WHEN $AC_TIMER[1]>=0 DO M51
X9.44672 Y18.0989 F1500
ID=1 WHEN $AC_TIMER[1]>=0 DO M50
X3.652 Y12.304 F800
ID=1 WHEN $AC_TIMER[1]>=0 DO M51
X3.10777 Y14.2801 F1500
ID=1 WHEN $AC_TIMER[1]>=0 DO M50
X20.034 Y31.206 F800
ID=1 WHEN $AC_TIMER[1]>=0 DO M51
X17.7781 Y31.4705 F1500
ID=1 WHEN $AC_TIMER[1]>=0 DO M50
X2.822 Y16.514 F800
ID=1 WHEN $AC_TIMER[1]>=0 DO M51
X2.94826 Y19.1608 F1500
ID=1 WHEN $AC_TIMER[1]>=0 DO M50
X15.134 Y31.346 F800
ID=1 WHEN $AC_TIMER[1]>=0 DO M51
X11.6832 Y30.4159 F1500
ID=1 WHEN $AC_TIMER[1]>=0 DO M50
X3.909 Y22.641 F800
ID=1 WHEN $AC_TIMER[1]>=0 DO M51
; Final do trecho do raster

M0
; TURN OFF POWDER!!!
M0
; End of Programm--------------------
G4F5
M55   ; home mirror
M30   ; program end