; generated by Slic3r 1.2.9 on 2017-12-11 at 13:47:25

; external perimeters extrusion width = 1.10mm
; perimeters extrusion width = 1.10mm
; infill extrusion width = 1.10mm
; solid infill extrusion width = 1.10mm
; top infill extrusion width = 1.10mm

H=2000
$ac_timer[1]=0
;General Config.--------------------
G91			;relative positioning
M55			;home mirror
G4F4			;necessary delay for positioning of the mirror				
M0			;wait for user-input

;R-Parameters-----------------------
R0=1500			;Laser Power


;Process Start-up--------------------
M56			;set canal 1 as laser-source
G4F4			;necessary delay for positioning of the mirror
M0			;wait for user-input
;START POWDER!!!
G4F10
H=2000
G54

;Laser On and Path------------------
G90 ; use absolute coordinates
ID=1 WHEN $AC_TIMER[1]>=0 DO M51
G1 Z0.000 F3000

ID=1 WHEN $AC_TIMER[1]>=0 DO M50
G1 X18.164 Y-31.373 F3000
ID=1 WHEN $AC_TIMER[1]>=0 DO M50
G1 X18.347 Y-30.8322 F600
G1 X18.439 Y-30.2684
G1 X18.436 Y-29.6975
G1 X18.338 Y-29.1347
G1 X18.150 Y-28.5959
G1 X16.665 Y-26.0144
G1 X15.706 Y-23.8088
G1 X15.011 Y-21.5042
G1 X14.591 Y-19.1356
G1 X14.451 Y-16.7507
G1 X14.451 Y16.7506
G1 X14.591 Y19.1356
G1 X15.011 Y21.5040
G1 X15.706 Y23.8084
G1 X16.665 Y26.0148
G1 X18.150 Y28.5954
G1 X18.338 Y29.1345
G1 X18.436 Y29.6977
G1 X18.439 Y30.2689
G1 X18.347 Y30.8321
G1 X18.164 Y31.3733
G1 X17.894 Y31.8775
G1 X17.544 Y32.3296
G1 X17.125 Y32.7168
G1 X16.647 Y33.0300
G1 X16.124 Y33.2602
G1 X15.570 Y33.4014
G1 X14.905 Y33.4568
G1 X12.843 Y34.0154
G1 X10.811 Y34.3404
G1 X8.741 Y34.4506
G1 X-1.749 Y34.4506
G1 X-4.134 Y34.5907
G1 X-6.503 Y35.0101
G1 X-8.807 Y35.7055
G1 X-11.013 Y36.6649
G1 X-13.058 Y37.8544
G1 X-13.611 Y38.1568
G1 X-14.170 Y38.3473
G1 X-14.753 Y38.4397
G1 X-15.343 Y38.4311
G1 X-15.923 Y38.3226
G1 X-16.476 Y38.1160
G1 X-16.986 Y37.8185
G1 X-17.437 Y37.4389
G1 X-17.817 Y36.9873
G1 X-18.115 Y36.4778
G1 X-18.321 Y35.9242
G1 X-18.430 Y35.3447
G1 X-18.438 Y34.7541
G1 X-18.346 Y34.1715
G1 X-18.155 Y33.6120
G1 X-17.853 Y33.0594
G1 X-16.663 Y31.0149
G1 X-15.704 Y28.8083
G1 X-15.010 Y26.5047
G1 X-14.589 Y24.1351
G1 X-14.449 Y21.7502
G1 X-14.449 Y-21.75079
G1 X-14.589 Y-24.13560
G1 X-15.010 Y-26.50454
G1 X-15.704 Y-28.80848
G1 X-16.663 Y-31.01442
G1 X-17.853 Y-33.05957
G1 X-18.155 Y-33.61281
G1 X-18.346 Y-34.17125
G1 X-18.430 Y-34.70195
G1 X-18.429 Y-35.34734
G1 X-18.321 Y-35.92453
G1 X-18.115 Y-36.47798
G1 X-17.817 Y-36.98742
G1 X-17.472 Y-37.39711
G1 X-16.982 Y-37.82051
G1 X-16.476 Y-38.11670
G1 X-15.923 Y-38.32214
G1 X-15.343 Y-38.43158
G1 X-14.753 Y-38.43903
G1 X-14.222 Y-38.35572
G1 X-13.608 Y-38.15512
G1 X-13.058 Y-37.85410
G1 X-11.013 Y-36.66425
G1 X-8.807 Y-35.70519
G1 X-6.503 Y-35.01013
G1 X-4.134 Y-34.59007
G1 X-1.749 Y-34.45088
G1 X8.741 Y-34.45048
G1 X10.811 Y-34.34000
G1 X12.843 Y-34.01550
G1 X14.905 Y-33.45656
G1 X15.570 Y-33.40141
G1 X16.124 Y-33.26053
G1 X16.647 Y-33.03064
G1 X17.125 Y-32.71676
G1 X17.544 Y-32.32988
G1 X17.601 Y-32.25539
ID=1 WHEN $AC_TIMER[1]>=0 DO M51
G1 X-11.747 Y-34.427 F3000
ID=1 WHEN $AC_TIMER[1]>=0 DO M50
G1 X-11.896 Y-33.8712 F600
G1 X-12.139 Y-33.3494
G1 X-12.469 Y-32.8775
G1 X-12.877 Y-32.4707
G1 X-13.348 Y-32.1409
G1 X-13.870 Y-31.8971
G1 X-14.426 Y-31.7482
G1 X-14.999 Y-31.6984
G1 X-15.572 Y-31.7486
G1 X-16.128 Y-31.8978
G1 X-16.650 Y-32.1409
G1 X-17.122 Y-32.4701
G1 X-17.529 Y-32.8773
G1 X-17.859 Y-33.3495
G1 X-18.102 Y-33.8717
G1 X-18.251 Y-34.4278
G1 X-18.301 Y-35.0000
G1 X-18.251 Y-35.5732
G1 X-18.102 Y-36.1294
G1 X-17.859 Y-36.6515
G1 X-17.529 Y-37.1237
G1 X-17.122 Y-37.5309
G1 X-16.650 Y-37.8601
G1 X-16.128 Y-38.1032
G1 X-15.572 Y-38.2524
G1 X-15.043 Y-38.2980 F600
G1 X-14.429 Y-38.2538
G1 X-13.870 Y-38.1036
G1 X-13.348 Y-37.8608
G1 X-12.877 Y-37.5309
G1 X-12.470 Y-37.1231
G1 X-12.139 Y-36.6513
G1 X-11.915 Y-36.1698
G1 X-11.747 Y-35.5776
G1 X-11.738 Y-35.4733
ID=1 WHEN $AC_TIMER[1]>=0 DO M51
G1 X11.749 Y-30.573 F3000
ID=1 WHEN $AC_TIMER[1]>=0 DO M50
G1 X11.898 Y-31.1292 F600
G1 X12.141 Y-31.6513
G1 X12.471 Y-32.1235
G1 X12.878 Y-32.5307
G1 X13.350 Y-32.8609
G1 X13.872 Y-33.1031
G1 X14.428 Y-33.2522
G1 X14.957 Y-33.2988 F600
G1 X15.571 Y-33.2536
G1 X16.130 Y-33.1034
G1 X16.652 Y-32.8606
G1 X17.123 Y-32.5307
G1 X17.531 Y-32.1239
G1 X17.861 Y-31.6511
G1 X18.104 Y-31.1293
G1 X18.253 Y-30.5734
G1 X18.303 Y-30.0006
G1 X18.253 Y-29.4278
G1 X18.104 Y-28.8710
G1 X17.861 Y-28.3491
G1 X17.530 Y-27.8773
G1 X17.123 Y-27.4705
G1 X16.688 Y-27.1650
G1 X16.134 Y-26.8989
G1 X15.574 Y-26.7486
G1 X15.001 Y-26.6988
G1 X14.428 Y-26.7480
G1 X13.872 Y-26.8972
G1 X13.350 Y-27.1404
G1 X12.878 Y-27.4705
G1 X12.471 Y-27.8777
G1 X12.141 Y-28.3499
G1 X11.898 Y-28.8711
G1 X11.749 Y-29.4272
G1 X11.740 Y-29.5273
ID=1 WHEN $AC_TIMER[1]>=0 DO M51
G1 X10.517 Y-20.853 F3000
ID=1 WHEN $AC_TIMER[1]>=0 DO M50
G1 X10.549 Y-19.8870 F600
G1 X10.490 Y-18.8604
G1 X10.323 Y-17.8242
G1 X10.094 Y-16.9271
G1 X9.738 Y-15.9383
G1 X9.308 Y-15.0352
G1 X8.811 Y-14.1959
G1 X8.203 Y-13.3635
G1 X7.521 Y-12.6033
G1 X6.815 Y-11.9450
G1 X6.085 Y-11.3902
G1 X5.142 Y-10.7901
G1 X4.249 Y-10.3437
G1 X3.243 Y-9.9614
G1 X2.331 Y-9.7116
G1 X1.301 Y-9.5308
G1 X0.362 Y-9.4581
G1 X-0.666 Y-9.4711
G1 X-1.730 Y-9.5931
G1 X-2.672 Y-9.7962
G1 X-3.656 Y-10.1041
G1 X-4.541 Y-10.4802
G1 X-5.454 Y-10.9696
G1 X-6.333 Y-11.5633
G1 X-7.050 Y-12.1521
G1 X-7.799 Y-12.8959
G1 X-8.443 Y-13.6745
G1 X-8.965 Y-14.4430
G1 X-9.478 Y-15.3687
G1 X-9.868 Y-16.2775
G1 X-10.186 Y-17.2600
G1 X-10.404 Y-18.2492
G1 X-10.516 Y-19.2004
G1 X-10.550 Y-20.0021
G1 X-10.498 Y-21.0381
G1 X-10.360 Y-21.9837
G1 X-10.123 Y-22.9706
G1 X-9.777 Y-23.9627
G1 X-9.390 Y-24.8079
G1 X-8.864 Y-25.7201
G1 X-8.254 Y-26.5694
G1 X-7.646 Y-27.2685
G1 X-6.877 Y-28.0016
G1 X-6.063 Y-28.6316
G1 X-5.259 Y-29.1460
G1 X-4.338 Y-29.6156
G1 X-3.450 Y-29.9699
G1 X-2.427 Y-30.2684
G1 X-1.440 Y-30.4498
G1 X-0.478 Y-30.5382
G1 X0.587 Y-30.5339
G1 X1.533 Y-30.4383
G1 X2.600 Y-30.2240
G1 X3.473 Y-29.9626
G1 X4.463 Y-29.5618
G1 X5.281 Y-29.1318
G1 X6.184 Y-28.5494
G1 X6.991 Y-27.9005
G1 X7.675 Y-27.2395
G1 X8.361 Y-26.4371
G1 X8.946 Y-25.5919
G1 X9.415 Y-24.7638
G1 X9.843 Y-23.8008
G1 X10.141 Y-22.9083
G1 X10.380 Y-21.8946
ID=1 WHEN $AC_TIMER[1]>=0 DO M51
G1 X14.680 Y26.726 F3000
ID=1 WHEN $AC_TIMER[1]>=0 DO M50
G1 X14.957 Y26.7029 F600
G1 X15.571 Y26.7477
G1 X16.130 Y26.8975
G1 X16.652 Y27.1407
G1 X17.123 Y27.4709
G1 X17.530 Y27.8770
G1 X17.861 Y28.3492
G1 X18.104 Y28.8714
G1 X18.253 Y29.4276
G1 X18.303 Y30.0008
G1 X18.253 Y30.5739
G1 X18.104 Y31.1291
G1 X17.861 Y31.6513
G1 X17.530 Y32.1235
G1 X17.123 Y32.5306
G1 X16.652 Y32.8608
G1 X16.130 Y33.1030
G1 X15.574 Y33.2522
G1 X15.001 Y33.3023
G1 X14.428 Y33.2525
G1 X13.872 Y33.1037
G1 X13.350 Y32.8609
G1 X12.878 Y32.5301
G1 X12.471 Y32.1232
G1 X12.141 Y31.6514
G1 X11.898 Y31.1296
G1 X11.749 Y30.5738
G1 X11.699 Y30.0009
G1 X11.749 Y29.4271
G1 X11.898 Y28.8713
G1 X12.141 Y28.3495
G1 X12.471 Y27.8776
G1 X12.878 Y27.4708
G1 X13.350 Y27.1400
G1 X13.671 Y26.9917
ID=1 WHEN $AC_TIMER[1]>=0 DO M51
G1 X10.553 Y20.000 F3000
ID=1 WHEN $AC_TIMER[1]>=0 DO M50
G1 X10.393 Y21.8326 F600
G1 X9.917 Y23.6092
G1 X9.139 Y25.2781
G1 X8.032 Y26.8359
G1 X6.784 Y28.0831
G1 X5.277 Y29.1387
G1 X3.610 Y29.9163
G1 X1.833 Y30.3929
G1 X0.001 Y30.5524
G1 X-1.831 Y30.3920
G1 X-3.608 Y29.9166
G1 X-5.275 Y29.1382
G1 X-6.782 Y28.0838
G1 X-8.082 Y26.7833
G1 X-9.137 Y25.2769
G1 X-9.915 Y23.6095
G1 X-10.391 Y21.8321
G1 X-10.551 Y20.0006
G1 X-10.391 Y18.1682
G1 X-9.915 Y16.3918
G1 X-9.137 Y14.7244
G1 X-8.082 Y13.2179
G1 X-6.782 Y11.9175
G1 X-5.275 Y10.8621
G1 X-3.608 Y10.0847
G1 X-1.831 Y9.6082
G1 X0.001 Y9.4488
G1 X1.833 Y9.6084
G1 X3.610 Y10.0840
G1 X5.277 Y10.8626
G1 X6.784 Y11.9171
G1 X8.084 Y13.2177
G1 X9.139 Y14.7243
G1 X9.935 Y16.4302
G1 X10.393 Y18.1697
G1 X10.462 Y18.9542
ID=1 WHEN $AC_TIMER[1]>=0 DO M51
G1 X-12.139 Y33.349 F3000
ID=1 WHEN $AC_TIMER[1]>=0 DO M50
G1 X-11.896 Y33.8712 F600
G1 X-11.747 Y34.4274
G1 X-11.697 Y35.0005
G1 X-11.747 Y35.5737
G1 X-11.896 Y36.1299
G1 X-12.139 Y36.6511
G1 X-12.469 Y37.1232
G1 X-12.877 Y37.5304
G1 X-13.348 Y37.8606
G1 X-13.870 Y38.1038
G1 X-14.426 Y38.2520
G1 X-14.999 Y38.3021
G1 X-15.572 Y38.2523
G1 X-16.128 Y38.1035
G1 X-16.650 Y37.8607
G1 X-17.122 Y37.5308
G1 X-17.529 Y37.1230
G1 X-17.859 Y36.6512
G1 X-18.084 Y36.1697
G1 X-18.251 Y35.5776
G1 X-18.301 Y35.0003
G1 X-18.251 Y34.4275
G1 X-18.102 Y33.8717
G1 X-17.859 Y33.3499
G1 X-17.529 Y32.8770
G1 X-17.122 Y32.4702
G1 X-16.650 Y32.1404
G1 X-16.128 Y31.8976
G1 X-15.572 Y31.7488
G1 X-15.043 Y31.7023 F600
G1 X-14.429 Y31.7471
G1 X-13.870 Y31.8979
G1 X-13.348 Y32.1401
G1 X-12.877 Y32.4703
G1 X-12.805 Y32.5423
ID=1 WHEN $AC_TIMER[1]>=0 DO M51
G1 X-11.229 Y35.700 F3000
ID=1 WHEN $AC_TIMER[1]>=0 DO M50
G1 X-10.563 Y35.7006 F600
ID=1 WHEN $AC_TIMER[1]>=0 DO M51
G1 X-8.009 Y34.694 F3000
ID=1 WHEN $AC_TIMER[1]>=0 DO M50
G1 X-11.195 Y34.6946 F600
G1 X-11.390 Y33.6880
G1 X-2.534 Y33.6883
ID=1 WHEN $AC_TIMER[1]>=0 DO M51
G1 X-3.639 Y30.671 F3000
ID=1 WHEN $AC_TIMER[1]>=0 DO M50
G1 X-15.914 Y30.6713 F600
ID=1 WHEN $AC_TIMER[1]>=0 DO M51
G1 X-5.660 Y29.666 F3000
ID=1 WHEN $AC_TIMER[1]>=0 DO M50
G1 X-15.477 Y29.6660 F600
G1 X-15.097 Y28.6607
G1 X-7.072 Y28.6607
G1 X-8.078 Y27.6553
G1 X-14.794 Y27.6552
G1 X-14.496 Y26.6496
G1 X-8.884 Y26.6496
G1 X-9.577 Y25.6433
G1 X-14.318 Y25.6431
G1 X-14.139 Y24.6382
G1 X-10.046 Y24.6383
G1 X-10.464 Y23.6329
G1 X-14.032 Y23.6326
G1 X-13.973 Y22.6260
G1 X-10.733 Y22.6261
G1 X-10.938 Y21.6218
G1 X-13.923 Y21.6215
G1 X-13.923 Y20.6157
G1 X-11.026 Y20.6157
G1 X-11.046 Y19.6109
G1 X-13.923 Y19.6101
G1 X-13.923 Y18.6043
G1 X-10.958 Y18.6042
G1 X-10.793 Y17.5988
G1 X-13.923 Y17.5984
G1 X-13.923 Y16.5936
G1 X-10.524 Y16.5935
G1 X-10.151 Y15.5876
G1 X-13.923 Y15.5872
G1 X-13.923 Y14.5823
G1 X-9.682 Y14.5823
G1 X-9.041 Y13.5766
G1 X-13.923 Y13.5764
G1 X-13.923 Y12.5706
G1 X-8.303 Y12.5702
G1 X-7.297 Y11.5658
G1 X-13.923 Y11.5656
G1 X-13.923 Y10.5597
G1 X-5.981 Y10.5593
G1 X-4.121 Y9.5532
G1 X-13.923 Y9.5531
ID=1 WHEN $AC_TIMER[1]>=0 DO M51
G1 X-4.169 Y-9.553 F3000
ID=1 WHEN $AC_TIMER[1]>=0 DO M50
G1 X-13.923 Y-9.5539 F600
G1 X-13.923 Y-10.5591
G1 X-6.021 Y-10.5592
G1 X-7.330 Y-11.5654
G1 X-13.923 Y-11.5652
G1 X-13.923 Y-12.5704
G1 X-8.301 Y-12.5700
G1 X-9.074 Y-13.5767
G1 X-13.923 Y-13.5765
G1 X-13.923 Y-14.5826
G1 X-9.687 Y-14.5824
G1 X-10.171 Y-15.5872
G1 X-13.923 Y-15.5870
G1 X-13.923 Y-16.5931
G1 X-10.538 Y-16.5932
G1 X-10.806 Y-17.5980
G1 X-13.923 Y-17.5989
G1 X-13.923 Y-18.6040
G1 X-10.977 Y-18.6047
G1 X-11.060 Y-19.6102
G1 X-13.923 Y-19.6107
G1 X-13.923 Y-20.6159
G1 X-11.046 Y-20.6150
G1 X-10.948 Y-21.6216
G1 X-13.923 Y-21.6210
G1 X-13.973 Y-22.6260
G1 X-10.755 Y-22.6268
G1 X-10.467 Y-23.6324
G1 X-14.032 Y-23.6329
G1 X-14.139 Y-24.6381
G1 X-10.076 Y-24.6386
G1 X-9.561 Y-25.6437
G1 X-14.318 Y-25.6437
G1 X-14.496 Y-26.6499
G1 X-8.913 Y-26.6491
G1 X-8.104 Y-27.6558
G1 X-14.794 Y-27.6555
G1 X-15.097 Y-28.6600
G1 X-7.073 Y-28.6603
G1 X-5.677 Y-29.6666
G1 X-15.477 Y-29.6669
G1 X-15.914 Y-30.6719
G1 X-3.615 Y-30.6717
ID=1 WHEN $AC_TIMER[1]>=0 DO M51
G1 X-2.534 Y-33.688 F3000
ID=1 WHEN $AC_TIMER[1]>=0 DO M50
G1 X-11.390 Y-33.6885 F600
ID=1 WHEN $AC_TIMER[1]>=0 DO M51
G1 X-10.563 Y-35.700 F3000
ID=1 WHEN $AC_TIMER[1]>=0 DO M50
G1 X-11.229 Y-35.7006 F600
G1 X-11.195 Y-34.6941
G1 X-8.009 Y-34.6948
ID=1 WHEN $AC_TIMER[1]>=0 DO M51
G1 X3.616 Y-30.671 F3000
ID=1 WHEN $AC_TIMER[1]>=0 DO M50
G1 X11.228 Y-30.6711 F600
G1 X11.542 Y-31.6778
G1 X-12.871 Y-31.6776
G1 X-11.898 Y-32.6833
G1 X12.164 Y-32.6836
ID=1 WHEN $AC_TIMER[1]>=0 DO M51
G1 X5.674 Y-29.666 F3000
ID=1 WHEN $AC_TIMER[1]>=0 DO M50
G1 X11.199 Y-29.6663 F600
G1 X11.399 Y-28.6603
G1 X7.063 Y-28.6602
G1 X8.106 Y-27.6556
G1 X11.920 Y-27.6554
G1 X12.913 Y-26.6491
G1 X8.918 Y-26.6496
G1 X9.565 Y-25.6434
G1 X15.903 Y-25.6439
G1 X15.466 Y-24.6388
G1 X10.074 Y-24.6389
G1 X10.470 Y-23.6327
G1 X15.090 Y-23.6322
G1 X14.787 Y-22.6267
G1 X10.756 Y-22.6265
G1 X10.949 Y-21.6215
G1 X14.493 Y-21.6213
G1 X14.315 Y-20.6155
G1 X11.051 Y-20.6153
G1 X11.060 Y-19.6104
G1 X14.136 Y-19.6104
G1 X14.032 Y-18.6043
G1 X10.985 Y-18.6048
G1 X10.818 Y-17.5986
G1 X13.973 Y-17.5980
G1 X13.925 Y-16.5939
G1 X10.551 Y-16.5931
G1 X10.186 Y-15.5874
G1 X13.925 Y-15.5879
G1 X13.925 Y-14.5821
G1 X9.699 Y-14.5827
G1 X9.081 Y-13.5765
G1 X13.925 Y-13.5761
G1 X13.925 Y-12.5702
G1 X8.301 Y-12.5707
G1 X7.317 Y-11.5654
G1 X13.925 Y-11.5656
G1 X13.925 Y-10.5597
G1 X6.016 Y-10.5594
ID=1 WHEN $AC_TIMER[1]>=0 DO M51
G1 X4.193 Y-9.553 F3000
ID=1 WHEN $AC_TIMER[1]>=0 DO M50
G1 X13.925 Y-9.5539 F600
G1 X13.925 Y-8.5480
G1 X-13.923 Y-8.5487
G1 X-13.923 Y-7.5428
G1 X13.925 Y-7.5425
G1 X13.925 Y-6.5376
G1 X-13.923 Y-6.5373
G1 X-13.923 Y-5.5314
G1 X13.925 Y-5.5311
G1 X13.925 Y-4.5252
G1 X-13.923 Y-4.52579
G1 X-13.923 Y-3.52040
G1 X13.925 Y-3.52087
G1 X13.925 Y-2.51448
G1 X-13.923 Y-2.51494
G1 X-13.923 Y-1.50856
G1 X13.925 Y-1.50802
G1 X13.925 Y-0.50364
G1 X-13.923 Y-0.50310
G1 X-13.923 Y0.50372
G1 X13.925 Y0.50318
G1 X13.925 Y1.50880
G1 X-13.923 Y1.50826
G1 X-13.923 Y2.51488
G1 X13.925 Y2.51434
G1 X13.925 Y3.52095
G1 X-13.923 Y3.52042
G1 X-13.923 Y4.52503
G1 X13.925 Y4.52550
G1 X13.925 Y5.53111
G1 X-13.923 Y5.53158
G1 X-13.923 Y6.53719
G1 X13.925 Y6.53766
G1 X13.925 Y7.54227
G1 X-13.923 Y7.54274
G1 X-13.923 Y8.54835
G1 X13.925 Y8.54882
G1 X13.925 Y9.55343
G1 X4.123 Y9.55372
G1 X5.983 Y10.55921
G1 X13.925 Y10.55987
G1 X13.925 Y11.56548
G1 X7.299 Y11.56576
G1 X8.305 Y12.57062
G1 X13.925 Y12.57028
G1 X13.925 Y13.57689
G1 X9.043 Y13.57668
G1 X9.684 Y14.58241
G1 X13.925 Y14.58220
G1 X13.925 Y15.58782
G1 X10.153 Y15.58768
G1 X10.532 Y16.59314
G1 X13.925 Y16.59340
G1 X13.973 Y17.59810
G1 X10.797 Y17.59816
G1 X10.960 Y18.60470
G1 X14.032 Y18.60443
G1 X14.136 Y19.61042
G1 X11.048 Y19.61027
G1 X11.028 Y20.61590
G1 X14.315 Y20.61566
G1 X14.493 Y21.62138
G1 X10.940 Y21.62186
G1 X10.735 Y22.62694
G1 X14.787 Y22.62648
G1 X15.090 Y23.63223
G1 X10.466 Y23.63299
G1 X10.048 Y24.63844
G1 X15.466 Y24.63890
G1 X15.903 Y25.64389
G1 X9.579 Y25.64397
G1 X8.877 Y26.64910
G1 X12.913 Y26.64952
G1 X11.920 Y27.65578
G1 X8.080 Y27.65542
G1 X7.074 Y28.66028
G1 X11.399 Y28.66000
G1 X11.199 Y29.66600
G1 X5.662 Y29.66679
ID=1 WHEN $AC_TIMER[1]>=0 DO M51
G1 X3.641 Y30.671 F3000
ID=1 WHEN $AC_TIMER[1]>=0 DO M50
G1 X11.228 Y30.6710 F600
G1 X11.542 Y31.6778
G1 X-12.871 Y31.6776
G1 X-11.898 Y32.6832
G1 X12.164 Y32.6836
ID=1 WHEN $AC_TIMER[1]>=0 DO M51
ID=1 WHEN $AC_TIMER[1]>=0 DO M51
G1 Z0.500 F3000
H=1800
ID=1 WHEN $AC_TIMER[1]>=0 DO M50
G1 X-18.115 Y36.477 F3000
ID=1 WHEN $AC_TIMER[1]>=0 DO M50
G1 X-18.321 Y35.9244 F600
G1 X-18.430 Y35.3449
G1 X-18.438 Y34.7543
G1 X-18.346 Y34.1718
G1 X-18.155 Y33.6122
G1 X-17.853 Y33.0596
G1 X-16.663 Y31.0141
G1 X-15.704 Y28.8085
G1 X-15.010 Y26.5049
G1 X-14.589 Y24.1353
G1 X-14.449 Y21.7504
G1 X-14.449 Y-21.7501
G1 X-14.589 Y-24.1352
G1 X-15.010 Y-26.5046
G1 X-15.704 Y-28.8080
G1 X-16.663 Y-31.0144
G1 X-17.853 Y-33.0599
G1 X-18.155 Y-33.6123
G1 X-18.346 Y-34.1718
G1 X-18.438 Y-34.7542
G1 X-18.430 Y-35.3446
G1 X-18.321 Y-35.9241
G1 X-18.115 Y-36.4775
G1 X-17.817 Y-36.9870
G1 X-17.437 Y-37.4384
G1 X-16.986 Y-37.8188
G1 X-16.476 Y-38.1163
G1 X-15.923 Y-38.3227
G1 X-15.343 Y-38.4312
G1 X-14.753 Y-38.4396
G1 X-14.170 Y-38.3470
G1 X-13.611 Y-38.1565
G1 X-13.058 Y-37.8549
G1 X-11.013 Y-36.6644
G1 X-8.807 Y-35.7058
G1 X-6.503 Y-35.0102
G1 X-4.134 Y-34.5906
G1 X-1.749 Y-34.4507
G1 X8.741 Y-34.4507
G1 X10.811 Y-34.3409
G1 X12.843 Y-34.0159
G1 X14.905 Y-33.4565
G1 X15.570 Y-33.4019
G1 X16.124 Y-33.2601
G1 X16.647 Y-33.0303
G1 X17.125 Y-32.7165
G1 X17.544 Y-32.3297
G1 X17.894 Y-31.8779
G1 X18.164 Y-31.3730
G1 X18.347 Y-30.8322
G1 X18.439 Y-30.2684
G1 X18.436 Y-29.6976
G1 X18.338 Y-29.1347
G1 X18.150 Y-28.5959
G1 X16.665 Y-26.0145
G1 X15.706 Y-23.8089
G1 X15.011 Y-21.5043
G1 X14.591 Y-19.1357
G1 X14.451 Y-16.7507
G1 X14.451 Y16.75076
G1 X14.591 Y19.13557
G1 X15.011 Y21.50451
G1 X15.706 Y23.80845
G1 X16.665 Y26.01439
G1 X18.150 Y28.59544
G1 X18.338 Y29.13456
G1 X18.436 Y29.69768
G1 X18.439 Y30.26879
G1 X18.347 Y30.83291
G1 X18.164 Y31.37303
G1 X17.894 Y31.87715
G1 X17.544 Y32.32927
G1 X17.125 Y32.71638
G1 X16.647 Y33.03050
G1 X16.124 Y33.26062
G1 X15.570 Y33.40174
G1 X14.905 Y33.45659
G1 X12.843 Y34.01565
G1 X10.811 Y34.34014
G1 X8.741 Y34.45067
G1 X-1.749 Y34.45027
G1 X-4.134 Y34.59007
G1 X-6.503 Y35.01002
G1 X-8.807 Y35.70596
G1 X-11.013 Y36.66490
G1 X-13.058 Y37.85405
G1 X-13.611 Y38.15629
G1 X-14.170 Y38.34773
G1 X-14.753 Y38.43917
G1 X-15.343 Y38.43162
G1 X-15.923 Y38.32206
G1 X-16.476 Y38.11651
G1 X-16.986 Y37.81895
G1 X-17.437 Y37.43839
G1 X-17.521 Y37.33855
ID=1 WHEN $AC_TIMER[1]>=0 DO M51
G1 X13.350 Y-27.140 F3000
ID=1 WHEN $AC_TIMER[1]>=0 DO M50
G1 X12.878 Y-27.4702 F600
G1 X12.471 Y-27.8774
G1 X12.141 Y-28.3495
G1 X11.898 Y-28.8717
G1 X11.749 Y-29.4279
G1 X11.699 Y-30.0001
G1 X11.749 Y-30.5732
G1 X11.898 Y-31.1294
G1 X12.141 Y-31.6516
G1 X12.471 Y-32.1238
G1 X12.878 Y-32.5300
G1 X13.350 Y-32.8601
G1 X13.872 Y-33.1033
G1 X14.428 Y-33.2525
G1 X14.834 Y-33.2877
G1 X15.001 Y-33.3027 F600
G1 X15.574 Y-33.2528
G1 X16.130 Y-33.1030
G1 X16.652 Y-32.8602
G1 X17.123 Y-32.5304
G1 X17.531 Y-32.1235
G1 X17.861 Y-31.6517
G1 X17.968 Y-31.4207
G1 X18.104 Y-31.1299
G1 X18.253 Y-30.5731
G1 X18.303 Y-30.0002
G1 X18.253 Y-29.4274
G1 X18.104 Y-28.8716
G1 X17.861 Y-28.3498
G1 X17.530 Y-27.8770
G1 X17.123 Y-27.4701
G1 X16.652 Y-27.1403
G1 X16.130 Y-26.8975
G1 X15.574 Y-26.7487
G1 X15.001 Y-26.6988
G1 X14.428 Y-26.7480
G1 X14.330 Y-26.7741
ID=1 WHEN $AC_TIMER[1]>=0 DO M51
G1 X-11.888 Y-33.903 F3000
ID=1 WHEN $AC_TIMER[1]>=0 DO M50
G1 X-12.139 Y-33.3491 F600
G1 X-12.469 Y-32.8773
G1 X-12.877 Y-32.4705
G1 X-13.348 Y-32.1407
G1 X-13.870 Y-31.8978
G1 X-14.426 Y-31.7480
G1 X-14.999 Y-31.6982
G1 X-15.572 Y-31.7484
G1 X-16.128 Y-31.8976
G1 X-16.650 Y-32.1407
G1 X-17.122 Y-32.4709
G1 X-17.529 Y-32.8771
G1 X-17.859 Y-33.3493
G1 X-18.102 Y-33.8714
G1 X-18.251 Y-34.4276
G1 X-18.301 Y-35.0008
G1 X-18.251 Y-35.5730
G1 X-18.102 Y-36.1291
G1 X-17.859 Y-36.6513
G1 X-17.529 Y-37.1235
G1 X-17.122 Y-37.5307
G1 X-16.650 Y-37.8609
G1 X-16.128 Y-38.1030
G1 X-15.572 Y-38.2522
G1 X-15.166 Y-38.2875
G1 X-14.999 Y-38.3024 F600
G1 X-14.426 Y-38.2526
G1 X-13.870 Y-38.1037
G1 X-13.348 Y-37.8609
G1 X-12.877 Y-37.5301
G1 X-12.470 Y-37.1233
G1 X-12.139 Y-36.6515
G1 X-11.896 Y-36.1296
G1 X-11.747 Y-35.5738
G1 X-11.703 Y-34.9321
ID=1 WHEN $AC_TIMER[1]>=0 DO M51
G1 X-1.427 Y-30.445 F3000
ID=1 WHEN $AC_TIMER[1]>=0 DO M50
G1 X-0.547 Y-30.5307 F600
G1 X0.632 Y-30.5263
G1 X1.466 Y-30.4472
G1 X2.650 Y-30.2112
G1 X3.372 Y-29.9942
G1 X4.480 Y-29.5538
G1 X5.157 Y-29.1975
G1 X6.174 Y-28.5578
G1 X7.016 Y-27.8740
G1 X7.623 Y-27.2936
G1 X8.375 Y-26.4182
G1 X8.977 Y-25.5343
G1 X9.392 Y-24.8076
G1 X9.857 Y-23.7620
G1 X10.111 Y-22.9981
G1 X10.374 Y-21.9267
G1 X10.521 Y-20.7896
G1 X10.544 Y-19.9071
G1 X10.489 Y-18.8517
G1 X10.303 Y-17.7352
G1 X10.113 Y-16.9955
G1 X9.732 Y-15.9236
G1 X9.299 Y-15.0304
G1 X8.839 Y-14.2402
G1 X8.210 Y-13.3721
G1 X7.508 Y-12.5969
G1 X6.870 Y-11.9945
G1 X5.787 Y-11.1857
G1 X5.162 Y-10.8077
G1 X4.273 Y-10.3530
G1 X3.161 Y-9.9373
G1 X2.374 Y-9.7243
G1 X1.263 Y-9.5254
G1 X0.451 Y-9.4652
G1 X-0.611 Y-9.4686
G1 X-1.798 Y-9.6058
G1 X-2.655 Y-9.7964
G1 X-3.685 Y-10.1149
G1 X-4.483 Y-10.4591
G1 X-5.452 Y-10.9673
G1 X-6.409 Y-11.6249
G1 X-7.001 Y-12.1101
G1 X-7.821 Y-12.9208
G1 X-8.470 Y-13.7119
G1 X-8.900 Y-14.3447
G1 X-9.468 Y-15.3474
G1 X-9.838 Y-16.2168
G1 X-9.978 Y-16.5962
G1 X-10.182 Y-17.2662
G1 X-10.404 Y-18.2504
G1 X-10.502 Y-19.0989
G1 X-10.550 Y-20.0001
G1 X-10.491 Y-21.0996
G1 X-10.364 Y-21.9392
G1 X-10.128 Y-22.9529
G1 X-9.750 Y-24.0265
G1 X-9.430 Y-24.7239
G1 X-8.865 Y-25.7207
G1 X-8.201 Y-26.6330
G1 X-7.700 Y-27.2096
G1 X-6.862 Y-28.0146
G1 X-6.010 Y-28.6634
G1 X-5.291 Y-29.1279
G1 X-4.321 Y-29.6198
G1 X-3.537 Y-29.9378
G1 X-2.460 Y-30.2579
ID=1 WHEN $AC_TIMER[1]>=0 DO M51
G1 X13.932 Y26.881 F3000
ID=1 WHEN $AC_TIMER[1]>=0 DO M50
G1 X14.428 Y26.7482 F600
G1 X14.834 Y26.7134
G1 X15.001 Y26.6984 F600
G1 X15.574 Y26.7485
G1 X16.130 Y26.8977
G1 X16.652 Y27.1409
G1 X17.123 Y27.4701
G1 X17.530 Y27.8772
G1 X17.861 Y28.3494
G1 X18.104 Y28.8716
G1 X18.253 Y29.4278
G1 X18.303 Y30.0000
G1 X18.253 Y30.5731
G1 X18.104 Y31.1293
G1 X17.861 Y31.6515
G1 X17.530 Y32.1237
G1 X17.123 Y32.5308
G1 X16.652 Y32.8600
G1 X16.130 Y33.1032
G1 X15.574 Y33.2524
G1 X15.001 Y33.3025
G1 X14.428 Y33.2527
G1 X13.872 Y33.1039
G1 X13.350 Y32.8601
G1 X12.878 Y32.5303
G1 X12.471 Y32.1234
G1 X12.141 Y31.6516
G1 X11.898 Y31.1298
G1 X11.749 Y30.5730
G1 X11.699 Y30.0001
G1 X11.749 Y29.4273
G1 X11.898 Y28.8715
G1 X12.141 Y28.3497
G1 X12.471 Y27.8778
G1 X12.878 Y27.4700
G1 X13.013 Y27.3761
ID=1 WHEN $AC_TIMER[1]>=0 DO M51
G1 X10.553 Y20.000 F3000
ID=1 WHEN $AC_TIMER[1]>=0 DO M50
G1 X10.393 Y21.8326 F600
G1 X9.917 Y23.6092
G1 X9.139 Y25.2767
G1 X8.084 Y26.7833
G1 X7.896 Y26.9711
G1 X6.784 Y28.0839
G1 X5.277 Y29.1385
G1 X3.610 Y29.9160
G1 X1.833 Y30.3926
G1 X0.001 Y30.5522
G1 X-1.831 Y30.3928
G1 X-3.608 Y29.9163
G1 X-5.275 Y29.1389
G1 X-6.782 Y28.0835
G1 X-7.894 Y26.9713
G1 X-8.082 Y26.7831
G1 X-9.137 Y25.2767
G1 X-9.915 Y23.6092
G1 X-10.391 Y21.8328
G1 X-10.551 Y20.0004
G1 X-10.391 Y18.1680
G1 X-9.915 Y16.3915
G1 X-9.137 Y14.7241
G1 X-8.082 Y13.2177
G1 X-6.782 Y11.9173
G1 X-5.275 Y10.8628
G1 X-3.608 Y10.0844
G1 X-1.831 Y9.6080
G1 X0.001 Y9.4486
G1 X1.833 Y9.6081
G1 X3.610 Y10.0847
G1 X5.277 Y10.8623
G1 X6.784 Y11.9179
G1 X8.084 Y13.2175
G1 X9.139 Y14.7240
G1 X9.917 Y16.3916
G1 X10.393 Y18.1682
G1 X10.462 Y18.9545
ID=1 WHEN $AC_TIMER[1]>=0 DO M51
G1 X-12.139 Y33.349 F3000
ID=1 WHEN $AC_TIMER[1]>=0 DO M50
G1 X-11.896 Y33.8712 F600
G1 X-11.747 Y34.4274
G1 X-11.697 Y35.0005
G1 X-11.747 Y35.5737
G1 X-11.896 Y36.1299
G1 X-12.139 Y36.6511
G1 X-12.469 Y37.1232
G1 X-12.877 Y37.5304
G1 X-13.348 Y37.8606
G1 X-13.870 Y38.1038
G1 X-14.426 Y38.2520
G1 X-14.999 Y38.3021
G1 X-15.572 Y38.2523
G1 X-16.128 Y38.1035
G1 X-16.650 Y37.8607
G1 X-17.122 Y37.5308
G1 X-17.410 Y37.2411
G1 X-17.529 Y37.1230
G1 X-17.859 Y36.6512
G1 X-18.102 Y36.1294
G1 X-18.251 Y35.5735
G1 X-18.301 Y35.0007
G1 X-18.251 Y34.4279
G1 X-18.102 Y33.8711
G1 X-17.859 Y33.3493
G1 X-17.529 Y32.8774
G1 X-17.122 Y32.4706
G1 X-16.650 Y32.1408
G1 X-16.128 Y31.8970
G1 X-15.572 Y31.7481
G1 X-15.166 Y31.7134
G1 X-14.999 Y31.6983 F600
G1 X-14.426 Y31.7485
G1 X-13.870 Y31.8977
G1 X-13.348 Y32.1409
G1 X-12.877 Y32.4700
G1 X-12.805 Y32.5421
ID=1 WHEN $AC_TIMER[1]>=0 DO M51
G1 X-11.647 Y32.914 F3000
ID=1 WHEN $AC_TIMER[1]>=0 DO M50
G1 X-11.647 Y-32.9142 F600
ID=1 WHEN $AC_TIMER[1]>=0 DO M51
G1 X-12.660 Y-31.914 F3000
ID=1 WHEN $AC_TIMER[1]>=0 DO M50
G1 X-12.660 Y31.91459 F600
G1 X-13.673 Y31.39553
G1 X-13.673 Y22.28801
ID=1 WHEN $AC_TIMER[1]>=0 DO M51
G1 X-10.634 Y23.718 F3000
ID=1 WHEN $AC_TIMER[1]>=0 DO M50
G1 X-10.634 Y35.8996 F600
G1 X-9.621 Y35.4591
G1 X-9.621 Y25.7231
G1 X-8.608 Y27.1248
G1 X-8.608 Y35.0833
G1 X-7.596 Y34.7772
G1 X-7.596 Y28.1371
G1 X-6.583 Y28.9317
G1 X-6.583 Y34.4864
G1 X-5.570 Y34.3068
G1 X-5.570 Y29.6128
G1 X-4.557 Y30.0845
G1 X-4.557 Y34.1266
G1 X-3.544 Y34.0281
G1 X-3.544 Y30.4889
G1 X-2.531 Y30.7592
G1 X-2.531 Y33.9686
G1 X-1.518 Y33.9246
G1 X-1.518 Y30.9481
G1 X-0.505 Y31.0370
G1 X-0.505 Y33.9243
G1 X0.507 Y33.9246
G1 X0.507 Y31.0379
G1 X1.520 Y30.9488
G1 X1.520 Y33.9244
G1 X2.533 Y33.9246
G1 X2.533 Y30.7598
G1 X3.546 Y30.4881
G1 X3.546 Y33.9240
G1 X4.559 Y33.9242
G1 X4.559 Y30.0843
G1 X5.572 Y29.6121
G1 X5.572 Y33.9249
G1 X6.585 Y33.9241
G1 X6.585 Y28.9315
G1 X7.598 Y28.1371
G1 X7.598 Y33.9249
G1 X8.610 Y33.9241
G1 X8.610 Y27.1241
G1 X9.623 Y25.7238
G1 X9.623 Y33.8766
G1 X10.636 Y33.8228
G1 X10.636 Y23.71834
ID=1 WHEN $AC_TIMER[1]>=0 DO M51
G1 X12.662 Y26.914 F3000
ID=1 WHEN $AC_TIMER[1]>=0 DO M50
G1 X12.662 Y-26.9148 F600
G1 X11.649 Y-27.9149
G1 X11.649 Y27.9142
ID=1 WHEN $AC_TIMER[1]>=0 DO M51
G1 X13.675 Y26.395 F3000
ID=1 WHEN $AC_TIMER[1]>=0 DO M50
G1 X13.675 Y17.2889 F600
ID=1 WHEN $AC_TIMER[1]>=0 DO M51
G1 X10.636 Y16.282 F3000
ID=1 WHEN $AC_TIMER[1]>=0 DO M50
G1 X10.636 Y-16.3054 F600
ID=1 WHEN $AC_TIMER[1]>=0 DO M51
G1 X13.675 Y-17.288 F3000
ID=1 WHEN $AC_TIMER[1]>=0 DO M50
G1 X13.675 Y-26.3959 F600
ID=1 WHEN $AC_TIMER[1]>=0 DO M51
G1 X15.701 Y-25.564 F3000
ID=1 WHEN $AC_TIMER[1]>=0 DO M50
G1 X15.701 Y-26.2306 F600
G1 X14.688 Y-26.1962
G1 X14.688 Y-22.9862
ID=1 WHEN $AC_TIMER[1]>=0 DO M51
G1 X10.636 Y-23.734 F3000
ID=1 WHEN $AC_TIMER[1]>=0 DO M50
G1 X10.636 Y-33.8224 F600
G1 X11.649 Y-33.6706
G1 X11.649 Y-32.0864
ID=1 WHEN $AC_TIMER[1]>=0 DO M51
G1 X9.623 Y-25.751 F3000
ID=1 WHEN $AC_TIMER[1]>=0 DO M50
G1 X9.623 Y-33.8763 F600
G1 X8.610 Y-33.9243
G1 X8.610 Y-27.1100
G1 X7.598 Y-28.1602
G1 X7.598 Y-33.9249
G1 X6.585 Y-33.9241
G1 X6.585 Y-28.9742
G1 X5.572 Y-29.6127
G1 X5.572 Y-33.9247
G1 X4.559 Y-33.9240
G1 X4.559 Y-30.1101
G1 X3.546 Y-30.5041
G1 X3.546 Y-33.9248
G1 X2.533 Y-33.9240
G1 X2.533 Y-30.7772
G1 X1.520 Y-30.9725
G1 X1.520 Y-33.9247
G1 X0.507 Y-33.9249
G1 X0.507 Y-31.0532
G1 X-0.505 Y-31.0564
G1 X-0.505 Y-33.9243
G1 X-1.518 Y-33.9245
G1 X-1.518 Y-30.9668
G1 X-2.531 Y-30.7897
G1 X-2.531 Y-33.9682
G1 X-3.544 Y-34.0287
G1 X-3.544 Y-30.4965
G1 X-4.557 Y-30.1146
G1 X-4.557 Y-34.1265
G1 X-5.570 Y-34.3069
G1 X-5.570 Y-29.6122
G1 X-6.583 Y-28.9644
G1 X-6.583 Y-34.4867
G1 X-7.596 Y-34.7778
G1 X-7.596 Y-28.1540
G1 X-8.608 Y-27.1222
G1 X-8.608 Y-35.0832
G1 X-9.621 Y-35.4599
G1 X-9.621 Y-25.7585
ID=1 WHEN $AC_TIMER[1]>=0 DO M51
G1 X-10.634 Y-23.697 F3000
ID=1 WHEN $AC_TIMER[1]>=0 DO M50
G1 X-10.634 Y-35.8993 F600
ID=1 WHEN $AC_TIMER[1]>=0 DO M51
G1 X-15.699 Y-31.230 F3000
ID=1 WHEN $AC_TIMER[1]>=0 DO M50
G1 X-15.699 Y-30.5646 F600
ID=1 WHEN $AC_TIMER[1]>=0 DO M51
G1 X-14.686 Y-27.986 F3000
ID=1 WHEN $AC_TIMER[1]>=0 DO M50
G1 X-14.686 Y-31.1960 F600
G1 X-13.673 Y-31.3958
G1 X-13.673 Y-22.2886
ID=1 WHEN $AC_TIMER[1]>=0 DO M51
G1 X-10.634 Y-16.291 F3000
ID=1 WHEN $AC_TIMER[1]>=0 DO M50
G1 X-10.634 Y16.2829 F600
ID=1 WHEN $AC_TIMER[1]>=0 DO M51
G1 X-9.621 Y14.277 F3000
ID=1 WHEN $AC_TIMER[1]>=0 DO M50
G1 X-9.621 Y-14.2448 F600
G1 X-8.608 Y-12.8793
G1 X-8.608 Y12.8762
G1 X-7.596 Y11.8630
G1 X-7.596 Y-11.8370
G1 X-6.583 Y-11.0421
G1 X-6.583 Y11.0694
G1 X-5.570 Y10.3886
G1 X-5.570 Y-10.3973
G1 X-4.557 Y-9.8912
G1 X-4.557 Y9.91683
G1 X-3.544 Y9.51239
G1 X-3.544 Y-9.50786
G1 X-2.531 Y-9.22373
G1 X-2.531 Y9.24121
G1 X-1.518 Y9.05256
G1 X-1.518 Y-9.04104
G1 X-0.505 Y-8.94151
G1 X-0.505 Y8.96375
G1 X0.507 Y8.96387
G1 X0.507 Y-8.94105
G1 X1.520 Y-9.03247
G1 X1.520 Y9.05232
G1 X2.533 Y9.24167
G1 X2.533 Y-9.21351
G1 X3.546 Y-9.49940
G1 X3.546 Y9.51232
G1 X4.559 Y9.91688
G1 X4.559 Y-9.87880
G1 X5.572 Y-10.39048
G1 X5.572 Y10.38848
G1 X6.585 Y11.06920
G1 X6.585 Y-11.05145
G1 X7.598 Y-11.84585
G1 X7.598 Y11.86364
G1 X8.610 Y12.87622
G1 X8.610 Y-12.88408
G1 X9.623 Y-14.24729
G1 X9.623 Y14.27716
ID=1 WHEN $AC_TIMER[1]>=0 DO M51
G1 X14.688 Y22.986 F3000
ID=1 WHEN $AC_TIMER[1]>=0 DO M50
G1 X14.688 Y26.1960 F600
G1 X15.701 Y26.2306
G1 X15.701 Y25.5642
ID=1 WHEN $AC_TIMER[1]>=0 DO M51
G1 X11.649 Y32.086 F3000
ID=1 WHEN $AC_TIMER[1]>=0 DO M50
G1 X11.649 Y33.6707 F600
ID=1 WHEN $AC_TIMER[1]>=0 DO M51
G1 X-14.686 Y27.986 F3000
ID=1 WHEN $AC_TIMER[1]>=0 DO M50
G1 X-14.686 Y31.1960 F600
G1 X-15.699 Y31.2306
G1 X-15.699 Y30.5642
ID=1 WHEN $AC_TIMER[1]>=0 DO M51
ID=1 WHEN $AC_TIMER[1]>=0 DO M51
G1 Z1.000 F3000

ID=1 WHEN $AC_TIMER[1]>=0 DO M50
G1 X-18.115 Y36.477 F3000
ID=1 WHEN $AC_TIMER[1]>=0 DO M50
G1 X-18.321 Y35.9244 F600
G1 X-18.430 Y35.3449
G1 X-18.438 Y34.7543
G1 X-18.346 Y34.1718
G1 X-18.155 Y33.6122
G1 X-17.853 Y33.0596
G1 X-16.663 Y31.0141
G1 X-15.704 Y28.8085
G1 X-15.010 Y26.5049
G1 X-14.589 Y24.1353
G1 X-14.449 Y21.7504
G1 X-14.449 Y-21.7501
G1 X-14.589 Y-24.1352
G1 X-15.010 Y-26.5046
G1 X-15.704 Y-28.8080
G1 X-16.663 Y-31.0144
G1 X-17.853 Y-33.0599
G1 X-18.155 Y-33.6123
G1 X-18.346 Y-34.1718
G1 X-18.438 Y-34.7542
G1 X-18.430 Y-35.3446
G1 X-18.321 Y-35.9241
G1 X-18.115 Y-36.4775
G1 X-17.817 Y-36.9870
G1 X-17.437 Y-37.4384
G1 X-16.986 Y-37.8188
G1 X-16.476 Y-38.1163
G1 X-15.923 Y-38.3227
G1 X-15.343 Y-38.4312
G1 X-14.753 Y-38.4396
G1 X-14.170 Y-38.3470
G1 X-13.611 Y-38.1565
G1 X-13.058 Y-37.8549
G1 X-11.013 Y-36.6644
G1 X-8.807 Y-35.7058
G1 X-6.503 Y-35.0102
G1 X-4.134 Y-34.5906
G1 X-1.749 Y-34.4507
G1 X8.741 Y-34.4507
G1 X10.811 Y-34.3409
G1 X12.843 Y-34.0159
G1 X14.905 Y-33.4565
G1 X15.570 Y-33.4019
G1 X16.124 Y-33.2601
G1 X16.647 Y-33.0303
G1 X17.125 Y-32.7165
G1 X17.544 Y-32.3297
G1 X17.894 Y-31.8779
G1 X18.164 Y-31.3730
G1 X18.347 Y-30.8322
G1 X18.439 Y-30.2684
G1 X18.436 Y-29.6976
G1 X18.338 Y-29.1347
G1 X18.150 Y-28.5959
G1 X16.665 Y-26.0145
G1 X15.706 Y-23.8089
G1 X15.011 Y-21.5043
G1 X14.591 Y-19.1357
G1 X14.451 Y-16.7507
G1 X14.451 Y16.75076
G1 X14.591 Y19.13557
G1 X15.011 Y21.50451
G1 X15.706 Y23.80845
G1 X16.665 Y26.01439
G1 X18.150 Y28.59544
G1 X18.338 Y29.13456
G1 X18.436 Y29.69768
G1 X18.439 Y30.26879
G1 X18.347 Y30.83291
G1 X18.164 Y31.37303
G1 X17.894 Y31.87715
G1 X17.544 Y32.32927
G1 X17.125 Y32.71638
G1 X16.647 Y33.03050
G1 X16.124 Y33.26062
G1 X15.570 Y33.40174
G1 X14.905 Y33.45659
G1 X12.843 Y34.01565
G1 X10.811 Y34.34014
G1 X8.741 Y34.45067
G1 X-1.749 Y34.45027
G1 X-4.134 Y34.59007
G1 X-6.503 Y35.01002
G1 X-8.807 Y35.70596
G1 X-11.013 Y36.66490
G1 X-13.058 Y37.85405
G1 X-13.611 Y38.15629
G1 X-14.170 Y38.34773
G1 X-14.753 Y38.43917
G1 X-15.343 Y38.43162
G1 X-15.923 Y38.32206
G1 X-16.476 Y38.11651
G1 X-16.986 Y37.81895
G1 X-17.437 Y37.43839
G1 X-17.521 Y37.33855
ID=1 WHEN $AC_TIMER[1]>=0 DO M51
G1 X-14.999 Y-31.698 F3000
ID=1 WHEN $AC_TIMER[1]>=0 DO M50
G1 X-15.572 Y-31.7482 F600
G1 X-16.128 Y-31.8974
G1 X-16.650 Y-32.1405
G1 X-17.122 Y-32.4707
G1 X-17.529 Y-32.8779
G1 X-17.859 Y-33.3491
G1 X-18.102 Y-33.8712
G1 X-18.251 Y-34.4274
G1 X-18.301 Y-35.0006
G1 X-18.251 Y-35.5738
G1 X-18.102 Y-36.1299
G1 X-17.859 Y-36.6511
G1 X-17.529 Y-37.1233
G1 X-17.122 Y-37.5305
G1 X-16.650 Y-37.8607
G1 X-16.128 Y-38.1038
G1 X-15.572 Y-38.2520
G1 X-15.246 Y-38.2812
G1 X-14.999 Y-38.3022 F600
G1 X-14.426 Y-38.2524
G1 X-13.870 Y-38.1035
G1 X-13.348 Y-37.8607
G1 X-12.877 Y-37.5309
G1 X-12.470 Y-37.1231
G1 X-12.139 Y-36.6512
G1 X-11.896 Y-36.1294
G1 X-11.747 Y-35.5736
G1 X-11.697 Y-35.0008
G1 X-11.747 Y-34.4270
G1 X-11.896 Y-33.8711
G1 X-12.139 Y-33.3493
G1 X-12.469 Y-32.8775
G1 X-12.877 Y-32.4707
G1 X-13.348 Y-32.1408
G1 X-13.870 Y-31.8970
G1 X-13.967 Y-31.8711
ID=1 WHEN $AC_TIMER[1]>=0 DO M51
G1 X11.699 Y-30.000 F3000
ID=1 WHEN $AC_TIMER[1]>=0 DO M50
G1 X11.749 Y-30.5732 F600
G1 X11.898 Y-31.1294
G1 X12.141 Y-31.6515
G1 X12.471 Y-32.1237
G1 X12.878 Y-32.5309
G1 X13.350 Y-32.8601
G1 X13.872 Y-33.1032
G1 X14.428 Y-33.2524
G1 X14.754 Y-33.2805
G1 X15.001 Y-33.3026 F600
G1 X15.574 Y-33.2528
G1 X16.130 Y-33.1039
G1 X16.652 Y-32.8601
G1 X17.123 Y-32.5303
G1 X17.531 Y-32.1235
G1 X17.861 Y-31.6517
G1 X18.104 Y-31.1298
G1 X18.253 Y-30.5730
G1 X18.303 Y-30.0002
G1 X18.253 Y-29.4274
G1 X18.104 Y-28.8715
G1 X17.861 Y-28.3497
G1 X17.530 Y-27.8779
G1 X17.123 Y-27.4701
G1 X16.652 Y-27.1402
G1 X16.130 Y-26.8974
G1 X15.574 Y-26.7486
G1 X15.001 Y-26.6988
G1 X14.428 Y-26.7480
G1 X13.872 Y-26.8971
G1 X13.575 Y-27.0363
G1 X13.350 Y-27.1403
G1 X12.878 Y-27.4705
G1 X12.471 Y-27.8777
G1 X12.141 Y-28.3498
G1 X11.898 Y-28.8710
G1 X11.872 Y-28.9681
ID=1 WHEN $AC_TIMER[1]>=0 DO M51
G1 X10.525 Y-20.724 F3000
ID=1 WHEN $AC_TIMER[1]>=0 DO M50
G1 X10.540 Y-19.9284 F600
G1 X10.488 Y-18.8424
G1 X10.282 Y-17.6466
G1 X10.132 Y-17.0637
G1 X9.727 Y-15.9118
G1 X9.473 Y-15.3741
G1 X9.216 Y-14.8833
G1 X8.867 Y-14.2833
G1 X8.217 Y-13.3815
G1 X7.496 Y-12.5899
G1 X6.929 Y-12.0451
G1 X5.800 Y-11.1922
G1 X5.183 Y-10.8253
G1 X4.296 Y-10.3631
G1 X3.079 Y-9.9125
G1 X2.415 Y-9.7365
G1 X1.225 Y-9.5213
G1 X0.539 Y-9.4727
G1 X-0.555 Y-9.4654
G1 X-1.866 Y-9.6180
G1 X-2.638 Y-9.7972
G1 X-3.715 Y-10.1262
G1 X-4.426 Y-10.4387
G1 X-5.450 Y-10.9662
G1 X-6.485 Y-11.6836
G1 X-6.952 Y-12.0675
G1 X-7.844 Y-12.9450
G1 X-8.497 Y-13.7486
G1 X-8.836 Y-14.2470
G1 X-9.460 Y-15.3292
G1 X-9.987 Y-16.6177
G1 X-10.179 Y-17.2706
G1 X-10.404 Y-18.2515
G1 X-10.487 Y-18.9975
G1 X-10.550 Y-19.9989
G1 X-10.484 Y-21.1609
G1 X-10.369 Y-21.8955
G1 X-10.134 Y-22.9347
G1 X-9.722 Y-24.0908
G1 X-9.471 Y-24.6406
G1 X-8.865 Y-25.7209
G1 X-8.149 Y-26.6960
G1 X-7.753 Y-27.1515
G1 X-6.848 Y-28.0264
G1 X-6.217 Y-28.5087
G1 X-5.328 Y-29.1066
G1 X-4.305 Y-29.6233
G1 X-3.625 Y-29.9042
G1 X-2.384 Y-30.2788
G1 X-1.415 Y-30.4411
G1 X-0.511 Y-30.5396
G1 X0.682 Y-30.5191
G1 X1.399 Y-30.4568
G1 X2.700 Y-30.1985
G1 X3.271 Y-30.0260
G1 X4.497 Y-29.5450
G1 X5.033 Y-29.2636
G1 X6.164 Y-28.5646
G1 X7.040 Y-27.8482
G1 X7.569 Y-27.3476
G1 X8.390 Y-26.3995
G1 X9.008 Y-25.4776
G1 X9.368 Y-24.8524
G1 X9.872 Y-23.7246
G1 X10.081 Y-23.0885
G1 X10.369 Y-21.9562
G1 X10.393 Y-21.7665
ID=1 WHEN $AC_TIMER[1]>=0 DO M51
G1 X14.677 Y26.726 F3000
ID=1 WHEN $AC_TIMER[1]>=0 DO M50
G1 X14.708 Y26.7234 F600
G1 X15.001 Y26.6985 F600
G1 X15.574 Y26.7487
G1 X16.130 Y26.8979
G1 X16.652 Y27.1401
G1 X17.123 Y27.4703
G1 X17.530 Y27.8774
G1 X17.861 Y28.3496
G1 X18.104 Y28.8718
G1 X18.253 Y29.4270
G1 X18.303 Y30.0001
G1 X18.253 Y30.5733
G1 X18.104 Y31.1295
G1 X17.861 Y31.6517
G1 X17.530 Y32.1238
G1 X17.123 Y32.5300
G1 X16.652 Y32.8602
G1 X16.130 Y33.1034
G1 X15.574 Y33.2526
G1 X15.001 Y33.3027
G1 X14.428 Y33.2529
G1 X13.872 Y33.1031
G1 X13.350 Y32.8603
G1 X12.878 Y32.5304
G1 X12.471 Y32.1236
G1 X12.141 Y31.6518
G1 X11.898 Y31.1290
G1 X11.749 Y30.5731
G1 X11.699 Y30.0003
G1 X11.749 Y29.4275
G1 X11.898 Y28.8717
G1 X12.141 Y28.3499
G1 X12.471 Y27.8770
G1 X12.878 Y27.4702
G1 X13.350 Y27.1404
G1 X13.668 Y26.9921
ID=1 WHEN $AC_TIMER[1]>=0 DO M51
G1 X10.553 Y20.000 F3000
ID=1 WHEN $AC_TIMER[1]>=0 DO M50
G1 X10.393 Y21.8326 F600
G1 X9.917 Y23.6092
G1 X9.139 Y25.2767
G1 X8.084 Y26.7833
G1 X6.784 Y28.0839
G1 X5.277 Y29.1385
G1 X3.610 Y29.9160
G1 X1.833 Y30.3926
G1 X0.001 Y30.5522
G1 X-1.831 Y30.3928
G1 X-3.608 Y29.9163
G1 X-5.275 Y29.1389
G1 X-6.782 Y28.0835
G1 X-8.082 Y26.7831
G1 X-9.137 Y25.2766
G1 X-9.915 Y23.6092
G1 X-10.391 Y21.8328
G1 X-10.551 Y20.0004
G1 X-10.391 Y18.1680
G1 X-9.915 Y16.3915
G1 X-9.137 Y14.7241
G1 X-8.082 Y13.2177
G1 X-6.782 Y11.9173
G1 X-5.275 Y10.8628
G1 X-3.608 Y10.0844
G1 X-1.831 Y9.6080
G1 X0.001 Y9.4486
G1 X1.833 Y9.6081
G1 X3.610 Y10.0847
G1 X5.277 Y10.8623
G1 X6.784 Y11.9179
G1 X8.084 Y13.2174
G1 X9.139 Y14.7240
G1 X9.917 Y16.3916
G1 X10.393 Y18.1682
G1 X10.462 Y18.9545
ID=1 WHEN $AC_TIMER[1]>=0 DO M51
G1 X-12.139 Y33.349 F3000
ID=1 WHEN $AC_TIMER[1]>=0 DO M50
G1 X-11.896 Y33.8712 F600
G1 X-11.747 Y34.4274
G1 X-11.697 Y35.0005
G1 X-11.747 Y35.5737
G1 X-11.896 Y36.1299
G1 X-12.139 Y36.6511
G1 X-12.469 Y37.1232
G1 X-12.877 Y37.5304
G1 X-13.348 Y37.8606
G1 X-13.870 Y38.1038
G1 X-14.426 Y38.2520
G1 X-14.999 Y38.3021
G1 X-15.572 Y38.2523
G1 X-16.128 Y38.1035
G1 X-16.650 Y37.8607
G1 X-17.122 Y37.5308
G1 X-17.529 Y37.1230
G1 X-17.859 Y36.6512
G1 X-18.102 Y36.1294
G1 X-18.251 Y35.5735
G1 X-18.301 Y35.0007
G1 X-18.251 Y34.4279
G1 X-18.102 Y33.8711
G1 X-17.859 Y33.3493
G1 X-17.529 Y32.8774
G1 X-17.122 Y32.4706
G1 X-16.650 Y32.1408
G1 X-16.128 Y31.8970
G1 X-15.572 Y31.7481
G1 X-15.246 Y31.7193
G1 X-14.999 Y31.6983 F600
G1 X-14.426 Y31.7485
G1 X-13.870 Y31.8977
G1 X-13.348 Y32.1409
G1 X-12.877 Y32.4700
G1 X-12.805 Y32.5421
ID=1 WHEN $AC_TIMER[1]>=0 DO M51
G1 X-11.229 Y35.700 F3000
ID=1 WHEN $AC_TIMER[1]>=0 DO M50
G1 X-10.563 Y35.7006 F600
ID=1 WHEN $AC_TIMER[1]>=0 DO M51
G1 X-8.009 Y34.694 F3000
ID=1 WHEN $AC_TIMER[1]>=0 DO M50
G1 X-11.195 Y34.6946 F600
G1 X-11.390 Y33.6880
G1 X-2.534 Y33.6883
ID=1 WHEN $AC_TIMER[1]>=0 DO M51
G1 X-3.639 Y30.671 F3000
ID=1 WHEN $AC_TIMER[1]>=0 DO M50
G1 X-15.914 Y30.6713 F600
ID=1 WHEN $AC_TIMER[1]>=0 DO M51
G1 X-5.660 Y29.666 F3000
ID=1 WHEN $AC_TIMER[1]>=0 DO M50
G1 X-15.477 Y29.6660 F600
G1 X-15.097 Y28.6608
G1 X-7.072 Y28.6607
G1 X-8.078 Y27.6553
G1 X-14.794 Y27.6552
G1 X-14.496 Y26.6496
G1 X-8.884 Y26.6496
G1 X-9.577 Y25.6433
G1 X-14.318 Y25.6431
G1 X-14.139 Y24.6382
G1 X-10.046 Y24.6383
G1 X-10.464 Y23.6329
G1 X-14.032 Y23.6326
G1 X-13.973 Y22.6260
G1 X-10.733 Y22.6260
G1 X-10.938 Y21.6218
G1 X-13.923 Y21.6215
G1 X-13.923 Y20.6157
G1 X-11.026 Y20.6157
G1 X-11.046 Y19.6109
G1 X-13.923 Y19.6101
G1 X-13.923 Y18.6042
G1 X-10.958 Y18.6042
G1 X-10.793 Y17.5988
G1 X-13.923 Y17.5984
G1 X-13.923 Y16.5936
G1 X-10.524 Y16.5934
G1 X-10.151 Y15.5875
G1 X-13.923 Y15.5872
G1 X-13.923 Y14.5823
G1 X-9.682 Y14.5823
G1 X-9.041 Y13.5766
G1 X-13.923 Y13.5764
G1 X-13.923 Y12.5706
G1 X-8.303 Y12.5702
G1 X-7.297 Y11.5658
G1 X-13.923 Y11.5656
G1 X-13.923 Y10.5597
G1 X-5.981 Y10.5593
G1 X-4.121 Y9.5532
G1 X-13.923 Y9.5531
ID=1 WHEN $AC_TIMER[1]>=0 DO M51
G1 X-4.164 Y-9.553 F3000
ID=1 WHEN $AC_TIMER[1]>=0 DO M50
G1 X-13.923 Y-9.5530 F600
G1 X-13.923 Y-10.5591
G1 X-6.011 Y-10.5599
G1 X-7.318 Y-11.5650
G1 X-13.923 Y-11.5659
G1 X-13.923 Y-12.5701
G1 X-8.303 Y-12.5705
G1 X-9.078 Y-13.5760
G1 X-13.923 Y-13.5762
G1 X-13.923 Y-14.5824
G1 X-9.682 Y-14.5825
G1 X-10.158 Y-15.5877
G1 X-13.923 Y-15.5876
G1 X-13.923 Y-16.5938
G1 X-10.541 Y-16.5939
G1 X-10.802 Y-17.5984
G1 X-13.923 Y-17.5982
G1 X-13.923 Y-18.6044
G1 X-10.975 Y-18.6048
G1 X-11.053 Y-19.6101
G1 X-13.923 Y-19.6102
G1 X-13.923 Y-20.6153
G1 X-11.042 Y-20.6151
G1 X-10.948 Y-21.6213
G1 X-13.923 Y-21.6214
G1 X-13.973 Y-22.6264
G1 X-10.750 Y-22.6265
G1 X-10.462 Y-23.6320
G1 X-14.032 Y-23.6329
G1 X-14.139 Y-24.6381
G1 X-10.080 Y-24.6387
G1 X-9.555 Y-25.6433
G1 X-14.318 Y-25.6430
G1 X-14.496 Y-26.6492
G1 X-8.907 Y-26.6498
G1 X-8.109 Y-27.6555
G1 X-14.794 Y-27.6557
G1 X-15.097 Y-28.6603
G1 X-7.077 Y-28.6601
G1 X-5.674 Y-29.6662
G1 X-15.477 Y-29.6668
G1 X-15.914 Y-30.6718
G1 X-3.628 Y-30.67198
ID=1 WHEN $AC_TIMER[1]>=0 DO M51
G1 X-2.534 Y-33.688 F3000
ID=1 WHEN $AC_TIMER[1]>=0 DO M50
G1 X-11.390 Y-33.6885 F600
ID=1 WHEN $AC_TIMER[1]>=0 DO M51
G1 X-10.563 Y-35.700 F3000
ID=1 WHEN $AC_TIMER[1]>=0 DO M50
G1 X-11.229 Y-35.7006 F600
G1 X-11.195 Y-34.6941
G1 X-8.009 Y-34.6948
ID=1 WHEN $AC_TIMER[1]>=0 DO M51
G1 X3.583 Y-30.671 F3000
ID=1 WHEN $AC_TIMER[1]>=0 DO M50
G1 X11.228 Y-30.6716 F600
G1 X11.199 Y-29.6660
G1 X5.651 Y-29.6669
G1 X7.050 Y-28.6609
G1 X11.399 Y-28.6600
G1 X11.920 Y-27.6550
G1 X8.095 Y-27.6555
G1 X8.916 Y-26.6491
G1 X12.913 Y-26.6497
ID=1 WHEN $AC_TIMER[1]>=0 DO M51
G1 X15.903 Y-25.643 F3000
ID=1 WHEN $AC_TIMER[1]>=0 DO M50
G1 X9.565 Y-25.6435 F600
G1 X10.068 Y-24.6389
G1 X15.466 Y-24.6385
G1 X15.090 Y-23.6323
G1 X10.471 Y-23.6328
G1 X10.750 Y-22.6266
G1 X14.787 Y-22.6263
G1 X14.493 Y-21.6210
G1 X10.944 Y-21.6213
G1 X11.053 Y-20.6156
G1 X14.315 Y-20.6157
G1 X14.136 Y-19.6109
G1 X11.052 Y-19.6108
G1 X10.985 Y-18.6044
G1 X14.032 Y-18.6040
G1 X13.973 Y-17.5983
G1 X10.812 Y-17.5984
G1 X10.542 Y-16.5934
G1 X13.925 Y-16.5937
G1 X13.925 Y-15.5878
G1 X10.187 Y-15.5874
G1 X9.690 Y-14.5823
G1 X13.925 Y-14.5822
G1 X13.925 Y-13.5764
G1 X9.075 Y-13.5769
G1 X8.295 Y-12.5704
G1 X13.925 Y-12.5704
G1 X13.925 Y-11.5655
G1 X7.320 Y-11.5655
G1 X6.031 Y-10.5595
G1 X13.925 Y-10.5597
G1 X13.925 Y-9.5538
G1 X4.184 Y-9.5531
ID=1 WHEN $AC_TIMER[1]>=0 DO M51
G1 X13.925 Y-8.548 F3000
ID=1 WHEN $AC_TIMER[1]>=0 DO M50
G1 X-13.923 Y-8.5487 F600
G1 X-13.923 Y-7.5428
G1 X13.925 Y-7.5424
G1 X13.925 Y-6.5376
G1 X-13.923 Y-6.5372
G1 X-13.923 Y-5.5314
G1 X13.925 Y-5.5310
G1 X13.925 Y-4.5252
G1 X-13.923 Y-4.52578
G1 X-13.923 Y-3.52040
G1 X13.925 Y-3.52086
G1 X13.925 Y-2.51447
G1 X-13.923 Y-2.51494
G1 X-13.923 Y-1.50855
G1 X13.925 Y-1.50802
G1 X13.925 Y-0.50363
G1 X-13.923 Y-0.50310
G1 X-13.923 Y0.50371
G1 X13.925 Y0.50318
G1 X13.925 Y1.50879
G1 X-13.923 Y1.50826
G1 X-13.923 Y2.51487
G1 X13.925 Y2.51434
G1 X13.925 Y3.52095
G1 X-13.923 Y3.52041
G1 X-13.923 Y4.52503
G1 X13.925 Y4.52549
G1 X13.925 Y5.53111
G1 X-13.923 Y5.53157
G1 X-13.923 Y6.53719
G1 X13.925 Y6.53765
G1 X13.925 Y7.54227
G1 X-13.923 Y7.54273
G1 X-13.923 Y8.54835
G1 X13.925 Y8.54881
G1 X13.925 Y9.55342
G1 X4.123 Y9.55371
G1 X5.983 Y10.55920
G1 X13.925 Y10.55986
G1 X13.925 Y11.56548
G1 X7.299 Y11.56575
G1 X8.305 Y12.57061
G1 X13.925 Y12.57027
G1 X13.925 Y13.57689
G1 X9.043 Y13.57667
G1 X9.684 Y14.58240
G1 X13.925 Y14.58220
G1 X13.925 Y15.58781
G1 X10.153 Y15.58768
G1 X10.526 Y16.59399
G1 X13.925 Y16.59368
G1 X13.973 Y17.59837
G1 X10.795 Y17.59853
G1 X10.960 Y18.60409
G1 X14.032 Y18.60482
G1 X14.136 Y19.61081
G1 X11.048 Y19.61066
G1 X11.028 Y20.61529
G1 X14.315 Y20.61505
G1 X14.493 Y21.62177
G1 X10.940 Y21.62125
G1 X10.735 Y22.62632
G1 X14.787 Y22.62687
G1 X15.090 Y23.63262
G1 X10.466 Y23.63237
G1 X10.048 Y24.63883
G1 X15.466 Y24.63829
G1 X15.903 Y25.64328
G1 X9.579 Y25.64336
G1 X8.886 Y26.64913
G1 X12.913 Y26.64992
G1 X11.920 Y27.65519
G1 X8.080 Y27.65582
G1 X7.074 Y28.66069
G1 X11.399 Y28.66040
G1 X11.199 Y29.66641
G1 X5.662 Y29.66620
ID=1 WHEN $AC_TIMER[1]>=0 DO M51
G1 X3.641 Y30.671 F3000
ID=1 WHEN $AC_TIMER[1]>=0 DO M50
G1 X11.228 Y30.6710 F600
G1 X11.542 Y31.6778
G1 X-12.871 Y31.6776
G1 X-11.898 Y32.6832
G1 X12.164 Y32.6836
ID=1 WHEN $AC_TIMER[1]>=0 DO M51
G1 X11.542 Y-31.677 F3000
ID=1 WHEN $AC_TIMER[1]>=0 DO M50
G1 X-12.871 Y-31.6779 F600
G1 X-11.898 Y-32.6835
G1 X12.164 Y-32.6839
ID=1 WHEN $AC_TIMER[1]>=0 DO M51
ID=1 WHEN $AC_TIMER[1]>=0 DO M51
G1 Z1.500 F3000

ID=1 WHEN $AC_TIMER[1]>=0 DO M50
G1 X-18.115 Y36.477 F3000
ID=1 WHEN $AC_TIMER[1]>=0 DO M50
G1 X-18.321 Y35.9244 F600
G1 X-18.430 Y35.3449
G1 X-18.438 Y34.7543
G1 X-18.346 Y34.1718
G1 X-18.155 Y33.6122
G1 X-17.853 Y33.0596
G1 X-16.663 Y31.0141
G1 X-15.704 Y28.8085
G1 X-15.010 Y26.5049
G1 X-14.589 Y24.1353
G1 X-14.449 Y21.7504
G1 X-14.449 Y-21.7501
G1 X-14.589 Y-24.1352
G1 X-15.010 Y-26.5046
G1 X-15.704 Y-28.8080
G1 X-16.663 Y-31.0144
G1 X-17.853 Y-33.0599
G1 X-18.155 Y-33.6123
G1 X-18.346 Y-34.1718
G1 X-18.438 Y-34.7542
G1 X-18.430 Y-35.3446
G1 X-18.321 Y-35.9241
G1 X-18.115 Y-36.4775
G1 X-17.817 Y-36.9870
G1 X-17.437 Y-37.4384
G1 X-16.986 Y-37.8188
G1 X-16.476 Y-38.1163
G1 X-15.923 Y-38.3227
G1 X-15.343 Y-38.4312
G1 X-14.753 Y-38.4396
G1 X-14.170 Y-38.3470
G1 X-13.611 Y-38.1565
G1 X-13.058 Y-37.8549
G1 X-11.013 Y-36.6644
G1 X-8.807 Y-35.7058
G1 X-6.503 Y-35.0102
G1 X-4.134 Y-34.5906
G1 X-1.749 Y-34.4507
G1 X8.741 Y-34.4507
G1 X10.811 Y-34.3409
G1 X12.843 Y-34.0159
G1 X14.905 Y-33.4565
G1 X15.570 Y-33.4019
G1 X16.124 Y-33.2601
G1 X16.647 Y-33.0303
G1 X17.125 Y-32.7165
G1 X17.544 Y-32.3297
G1 X17.894 Y-31.8779
G1 X18.164 Y-31.3730
G1 X18.347 Y-30.8322
G1 X18.439 Y-30.2684
G1 X18.436 Y-29.6976
G1 X18.338 Y-29.1347
G1 X18.150 Y-28.5959
G1 X16.665 Y-26.0145
G1 X15.706 Y-23.8089
G1 X15.011 Y-21.5043
G1 X14.591 Y-19.1357
G1 X14.451 Y-16.7507
G1 X14.451 Y16.75076
G1 X14.591 Y19.13557
G1 X15.011 Y21.50451
G1 X15.706 Y23.80845
G1 X16.665 Y26.01439
G1 X18.150 Y28.59544
G1 X18.338 Y29.13456
G1 X18.436 Y29.69768
G1 X18.439 Y30.26879
G1 X18.347 Y30.83291
G1 X18.164 Y31.37303
G1 X17.894 Y31.87715
G1 X17.544 Y32.32927
G1 X17.125 Y32.71638
G1 X16.647 Y33.03050
G1 X16.124 Y33.26062
G1 X15.570 Y33.40174
G1 X14.905 Y33.45659
G1 X12.843 Y34.01565
G1 X10.811 Y34.34014
G1 X8.741 Y34.45067
G1 X-1.749 Y34.45027
G1 X-4.134 Y34.59007
G1 X-6.503 Y35.01002
G1 X-8.807 Y35.70596
G1 X-11.013 Y36.66490
G1 X-13.058 Y37.85405
G1 X-13.611 Y38.15629
G1 X-14.170 Y38.34773
G1 X-14.753 Y38.43917
G1 X-15.343 Y38.43162
G1 X-15.923 Y38.32206
G1 X-16.476 Y38.11651
G1 X-16.986 Y37.81895
G1 X-17.437 Y37.43839
G1 X-17.521 Y37.33855
ID=1 WHEN $AC_TIMER[1]>=0 DO M51
G1 X-14.999 Y-31.698 F3000
ID=1 WHEN $AC_TIMER[1]>=0 DO M50
G1 X-15.572 Y-31.7482 F600
G1 X-16.128 Y-31.8974
G1 X-16.650 Y-32.1405
G1 X-17.122 Y-32.4707
G1 X-17.529 Y-32.8779
G1 X-17.859 Y-33.3491
G1 X-18.102 Y-33.8712
G1 X-18.251 Y-34.4274
G1 X-18.301 Y-35.0006
G1 X-18.251 Y-35.5738
G1 X-18.102 Y-36.1299
G1 X-17.859 Y-36.6511
G1 X-17.529 Y-37.1233
G1 X-17.122 Y-37.5305
G1 X-16.650 Y-37.8607
G1 X-16.128 Y-38.1038
G1 X-15.572 Y-38.2520
G1 X-15.326 Y-38.2741
G1 X-14.999 Y-38.3022 F600
G1 X-14.426 Y-38.2524
G1 X-13.870 Y-38.1035
G1 X-13.348 Y-37.8607
G1 X-12.877 Y-37.5309
G1 X-12.470 Y-37.1231
G1 X-12.139 Y-36.6512
G1 X-11.896 Y-36.1294
G1 X-11.747 Y-35.5736
G1 X-11.697 Y-35.0008
G1 X-11.747 Y-34.4270
G1 X-11.896 Y-33.8711
G1 X-12.139 Y-33.3493
G1 X-12.469 Y-32.8775
G1 X-12.877 Y-32.4707
G1 X-13.348 Y-32.1408
G1 X-13.870 Y-31.8970
G1 X-13.967 Y-31.8711
ID=1 WHEN $AC_TIMER[1]>=0 DO M51
G1 X11.699 Y-30.000 F3000
ID=1 WHEN $AC_TIMER[1]>=0 DO M50
G1 X11.749 Y-30.5732 F600
G1 X11.898 Y-31.1294
G1 X12.141 Y-31.6515
G1 X12.471 Y-32.1237
G1 X12.878 Y-32.5309
G1 X13.350 Y-32.8601
G1 X13.872 Y-33.1032
G1 X14.428 Y-33.2524
G1 X14.674 Y-33.2745
G1 X15.001 Y-33.3026 F600
G1 X15.574 Y-33.2528
G1 X16.130 Y-33.1039
G1 X16.652 Y-32.8601
G1 X17.123 Y-32.5303
G1 X17.531 Y-32.1235
G1 X17.861 Y-31.6517
G1 X18.104 Y-31.1298
G1 X18.253 Y-30.5730
G1 X18.303 Y-30.0002
G1 X18.253 Y-29.4274
G1 X18.104 Y-28.8715
G1 X17.861 Y-28.3497
G1 X17.530 Y-27.8779
G1 X17.123 Y-27.4701
G1 X16.652 Y-27.1402
G1 X16.130 Y-26.8974
G1 X15.574 Y-26.7486
G1 X15.001 Y-26.6988
G1 X14.428 Y-26.7480
G1 X13.872 Y-26.8971
G1 X13.350 Y-27.1403
G1 X12.878 Y-27.4705
G1 X12.471 Y-27.8777
G1 X12.141 Y-28.3498
G1 X11.898 Y-28.8710
G1 X11.872 Y-28.9681
ID=1 WHEN $AC_TIMER[1]>=0 DO M51
G1 X10.530 Y-20.659 F3000
ID=1 WHEN $AC_TIMER[1]>=0 DO M50
G1 X10.536 Y-19.9479 F600
G1 X10.488 Y-18.8345
G1 X10.261 Y-17.5583
G1 X10.151 Y-17.1303
G1 X9.721 Y-15.8981
G1 X9.533 Y-15.4995
G1 X8.900 Y-14.3335
G1 X8.224 Y-13.3892
G1 X7.483 Y-12.5826
G1 X6.988 Y-12.0976
G1 X5.812 Y-11.1981
G1 X5.203 Y-10.8423
G1 X4.319 Y-10.3736
G1 X2.996 Y-9.8874
G1 X2.457 Y-9.7496
G1 X1.181 Y-9.5161
G1 X0.140 Y-9.4623
G1 X-0.505 Y-9.4627
G1 X-1.935 Y-9.6301
G1 X-2.621 Y-9.7980
G1 X-3.750 Y-10.1389
G1 X-4.963 Y-10.7081
G1 X-5.451 Y-10.9670
G1 X-6.560 Y-11.7437
G1 X-6.903 Y-12.0251
G1 X-7.864 Y-12.9685
G1 X-8.524 Y-13.7861
G1 X-8.771 Y-14.1491
G1 X-9.449 Y-15.3089
G1 X-9.995 Y-16.6392
G1 X-10.099 Y-16.9617
G1 X-10.404 Y-18.2524
G1 X-10.473 Y-18.8978
G1 X-10.550 Y-19.9973
G1 X-10.477 Y-21.2226
G1 X-10.373 Y-21.8536
G1 X-10.139 Y-22.9177
G1 X-9.695 Y-24.1532
G1 X-9.511 Y-24.5566
G1 X-8.866 Y-25.7194
G1 X-8.097 Y-26.7592
G1 X-7.806 Y-27.0927
G1 X-6.831 Y-28.0411
G1 X-5.905 Y-28.7256
G1 X-5.359 Y-29.0876
G1 X-4.077 Y-29.7275
G1 X-3.706 Y-29.8741
G1 X-2.363 Y-30.2838
G1 X-1.403 Y-30.4375
G1 X-0.534 Y-30.5386
G1 X0.234 Y-30.5263
G1 X0.729 Y-30.5130
G1 X1.331 Y-30.4652
G1 X2.751 Y-30.1849
G1 X3.171 Y-30.0581
G1 X4.515 Y-29.5366
G1 X4.909 Y-29.3292
G1 X6.154 Y-28.5719
G1 X7.064 Y-27.8220
G1 X7.516 Y-27.4025
G1 X8.405 Y-26.3809
G1 X9.039 Y-25.4218
G1 X9.345 Y-24.8963
G1 X9.886 Y-23.6867
G1 X10.051 Y-23.1786
G1 X10.363 Y-21.9851
G1 X10.399 Y-21.7014
ID=1 WHEN $AC_TIMER[1]>=0 DO M51
G1 X14.675 Y26.726 F3000
ID=1 WHEN $AC_TIMER[1]>=0 DO M50
G1 X15.001 Y26.6985 F600
G1 X15.574 Y26.7487
G1 X16.130 Y26.8979
G1 X16.652 Y27.1401
G1 X17.123 Y27.4702
G1 X17.530 Y27.8774
G1 X17.861 Y28.3496
G1 X18.104 Y28.8717
G1 X18.253 Y29.4279
G1 X18.303 Y30.0001
G1 X18.253 Y30.5733
G1 X18.104 Y31.1295
G1 X17.861 Y31.6516
G1 X17.530 Y32.1238
G1 X17.123 Y32.5300
G1 X16.652 Y32.8602
G1 X16.130 Y33.1033
G1 X15.574 Y33.2525
G1 X15.001 Y33.3027
G1 X14.428 Y33.2529
G1 X13.872 Y33.1031
G1 X13.350 Y32.8602
G1 X12.878 Y32.5304
G1 X12.471 Y32.1236
G1 X12.141 Y31.6518
G1 X11.898 Y31.1299
G1 X11.749 Y30.5731
G1 X11.699 Y30.0003
G1 X11.749 Y29.4275
G1 X11.898 Y28.8716
G1 X12.141 Y28.3498
G1 X12.471 Y27.8770
G1 X12.878 Y27.4702
G1 X13.350 Y27.1404
G1 X13.667 Y26.9921
ID=1 WHEN $AC_TIMER[1]>=0 DO M51
G1 X10.553 Y20.000 F3000
ID=1 WHEN $AC_TIMER[1]>=0 DO M50
G1 X10.393 Y21.8326 F600
G1 X9.917 Y23.6092
G1 X9.139 Y25.2767
G1 X8.084 Y26.7833
G1 X6.784 Y28.0839
G1 X5.277 Y29.1385
G1 X3.610 Y29.9160
G1 X1.833 Y30.3926
G1 X0.001 Y30.5522
G1 X-1.831 Y30.3928
G1 X-3.608 Y29.9163
G1 X-5.275 Y29.1389
G1 X-6.782 Y28.0835
G1 X-8.082 Y26.7831
G1 X-9.137 Y25.2766
G1 X-9.915 Y23.6092
G1 X-10.391 Y21.8328
G1 X-10.551 Y20.0004
G1 X-10.391 Y18.1680
G1 X-9.915 Y16.3915
G1 X-9.137 Y14.7241
G1 X-8.082 Y13.2177
G1 X-6.782 Y11.9173
G1 X-5.275 Y10.8628
G1 X-3.608 Y10.0844
G1 X-1.831 Y9.6080
G1 X0.001 Y9.4486
G1 X1.833 Y9.6081
G1 X3.610 Y10.0847
G1 X5.277 Y10.8623
G1 X6.784 Y11.9179
G1 X8.084 Y13.2175
G1 X9.139 Y14.7240
G1 X9.917 Y16.3916
G1 X10.393 Y18.1682
G1 X10.462 Y18.9545
ID=1 WHEN $AC_TIMER[1]>=0 DO M51
G1 X-12.139 Y33.349 F3000
ID=1 WHEN $AC_TIMER[1]>=0 DO M50
G1 X-11.896 Y33.8712 F600
G1 X-11.747 Y34.4274
G1 X-11.697 Y35.0005
G1 X-11.747 Y35.5737
G1 X-11.896 Y36.1299
G1 X-12.139 Y36.6511
G1 X-12.469 Y37.1232
G1 X-12.877 Y37.5304
G1 X-13.348 Y37.8606
G1 X-13.870 Y38.1038
G1 X-14.426 Y38.2520
G1 X-14.999 Y38.3021
G1 X-15.572 Y38.2523
G1 X-16.128 Y38.1035
G1 X-16.650 Y37.8607
G1 X-17.122 Y37.5308
G1 X-17.529 Y37.1230
G1 X-17.859 Y36.6512
G1 X-18.102 Y36.1294
G1 X-18.251 Y35.5735
G1 X-18.301 Y35.0007
G1 X-18.251 Y34.4279
G1 X-18.102 Y33.8711
G1 X-17.859 Y33.3493
G1 X-17.529 Y32.8774
G1 X-17.122 Y32.4706
G1 X-16.650 Y32.1408
G1 X-16.128 Y31.8970
G1 X-15.572 Y31.7481
G1 X-15.326 Y31.7262
G1 X-14.999 Y31.6983 F600
G1 X-14.426 Y31.7485
G1 X-13.870 Y31.8977
G1 X-13.348 Y32.1409
G1 X-12.877 Y32.4700
G1 X-12.805 Y32.5421
ID=1 WHEN $AC_TIMER[1]>=0 DO M51
G1 X-11.647 Y32.914 F3000
ID=1 WHEN $AC_TIMER[1]>=0 DO M50
G1 X-11.647 Y-32.9142 F600
ID=1 WHEN $AC_TIMER[1]>=0 DO M51
G1 X-12.660 Y-31.914 F3000
ID=1 WHEN $AC_TIMER[1]>=0 DO M50
G1 X-12.660 Y31.91459 F600
G1 X-13.673 Y31.39553
G1 X-13.673 Y22.28801
ID=1 WHEN $AC_TIMER[1]>=0 DO M51
G1 X-10.634 Y23.718 F3000
ID=1 WHEN $AC_TIMER[1]>=0 DO M50
G1 X-10.634 Y35.8996 F600
G1 X-9.621 Y35.4591
G1 X-9.621 Y25.7231
G1 X-8.608 Y27.1248
G1 X-8.608 Y35.0833
G1 X-7.596 Y34.7772
G1 X-7.596 Y28.1371
G1 X-6.583 Y28.9317
G1 X-6.583 Y34.4864
G1 X-5.570 Y34.3068
G1 X-5.570 Y29.6128
G1 X-4.557 Y30.0845
G1 X-4.557 Y34.1265
G1 X-3.544 Y34.0281
G1 X-3.544 Y30.4889
G1 X-2.531 Y30.7592
G1 X-2.531 Y33.9686
G1 X-1.518 Y33.9246
G1 X-1.518 Y30.9481
G1 X-0.505 Y31.0370
G1 X-0.505 Y33.9243
G1 X0.507 Y33.9246
G1 X0.507 Y31.0379
G1 X1.520 Y30.9488
G1 X1.520 Y33.9243
G1 X2.533 Y33.9246
G1 X2.533 Y30.7598
G1 X3.546 Y30.4881
G1 X3.546 Y33.9249
G1 X4.559 Y33.9242
G1 X4.559 Y30.0843
G1 X5.572 Y29.6121
G1 X5.572 Y33.9249
G1 X6.585 Y33.9241
G1 X6.585 Y28.9315
G1 X7.598 Y28.1371
G1 X7.598 Y33.9249
G1 X8.610 Y33.9241
G1 X8.610 Y27.1241
G1 X9.623 Y25.7238
G1 X9.623 Y33.8766
G1 X10.636 Y33.8228
G1 X10.636 Y23.71834
ID=1 WHEN $AC_TIMER[1]>=0 DO M51
G1 X12.662 Y26.914 F3000
ID=1 WHEN $AC_TIMER[1]>=0 DO M50
G1 X12.662 Y-26.9148 F600
G1 X11.649 Y-27.9149
G1 X11.649 Y27.9142
ID=1 WHEN $AC_TIMER[1]>=0 DO M51
G1 X13.675 Y26.395 F3000
ID=1 WHEN $AC_TIMER[1]>=0 DO M50
G1 X13.675 Y17.2889 F600
ID=1 WHEN $AC_TIMER[1]>=0 DO M51
G1 X10.636 Y16.282 F3000
ID=1 WHEN $AC_TIMER[1]>=0 DO M50
G1 X10.636 Y-16.3178 F600
ID=1 WHEN $AC_TIMER[1]>=0 DO M51
G1 X13.675 Y-17.288 F3000
ID=1 WHEN $AC_TIMER[1]>=0 DO M50
G1 X13.675 Y-26.3959 F600
ID=1 WHEN $AC_TIMER[1]>=0 DO M51
G1 X15.701 Y-25.564 F3000
ID=1 WHEN $AC_TIMER[1]>=0 DO M50
G1 X15.701 Y-26.2306 F600
G1 X14.688 Y-26.1962
G1 X14.688 Y-22.9862
ID=1 WHEN $AC_TIMER[1]>=0 DO M51
G1 X10.636 Y-23.729 F3000
ID=1 WHEN $AC_TIMER[1]>=0 DO M50
G1 X10.636 Y-33.8226 F600
G1 X11.649 Y-33.6709
G1 X11.649 Y-32.0866
ID=1 WHEN $AC_TIMER[1]>=0 DO M51
G1 X9.623 Y-25.733 F3000
ID=1 WHEN $AC_TIMER[1]>=0 DO M50
G1 X9.623 Y-33.8769 F600
G1 X8.610 Y-33.9249
G1 X8.610 Y-27.1010
G1 X7.598 Y-28.1528
G1 X7.598 Y-33.9240
G1 X6.585 Y-33.9242
G1 X6.585 Y-28.9767
G1 X5.572 Y-29.5934
G1 X5.572 Y-33.9249
G1 X4.559 Y-33.9241
G1 X4.559 Y-30.1058
G1 X3.546 Y-30.4987
G1 X3.546 Y-33.9244
G1 X2.533 Y-33.9246
G1 X2.533 Y-30.7699
G1 X1.520 Y-30.9699
G1 X1.520 Y-33.9246
G1 X0.507 Y-33.9248
G1 X0.507 Y-31.0454
G1 X-0.505 Y-31.0637
G1 X-0.505 Y-33.9244
G1 X-1.518 Y-33.9247
G1 X-1.518 Y-30.9548
G1 X-2.531 Y-30.7921
G1 X-2.531 Y-33.9683
G1 X-3.544 Y-34.0288
G1 X-3.544 Y-30.4875
G1 X-4.557 Y-30.1102
G1 X-4.557 Y-34.1269
G1 X-5.570 Y-34.3063
G1 X-5.570 Y-29.6052
G1 X-6.583 Y-28.9501
G1 X-6.583 Y-34.4869
G1 X-7.596 Y-34.7770
G1 X-7.596 Y-28.1488
G1 X-8.608 Y-27.1286
G1 X-8.608 Y-35.0835
G1 X-9.621 Y-35.4592
G1 X-9.621 Y-25.7573
ID=1 WHEN $AC_TIMER[1]>=0 DO M51
G1 X-10.634 Y-23.678 F3000
ID=1 WHEN $AC_TIMER[1]>=0 DO M50
G1 X-10.634 Y-35.8995 F600
ID=1 WHEN $AC_TIMER[1]>=0 DO M51
G1 X-15.699 Y-31.230 F3000
ID=1 WHEN $AC_TIMER[1]>=0 DO M50
G1 X-15.699 Y-30.5646 F600
ID=1 WHEN $AC_TIMER[1]>=0 DO M51
G1 X-14.686 Y-27.986 F3000
ID=1 WHEN $AC_TIMER[1]>=0 DO M50
G1 X-14.686 Y-31.1960 F600
G1 X-13.673 Y-31.3958
G1 X-13.673 Y-22.2886
ID=1 WHEN $AC_TIMER[1]>=0 DO M51
G1 X-10.634 Y-16.323 F3000
ID=1 WHEN $AC_TIMER[1]>=0 DO M50
G1 X-10.634 Y16.2825 F600
ID=1 WHEN $AC_TIMER[1]>=0 DO M51
G1 X-9.621 Y14.277 F3000
ID=1 WHEN $AC_TIMER[1]>=0 DO M50
G1 X-9.621 Y-14.2692 F600
G1 X-8.608 Y-12.8732
G1 X-8.608 Y12.8769
G1 X-7.596 Y11.8638
G1 X-7.596 Y-11.8470
G1 X-6.583 Y-11.0517
G1 X-6.583 Y11.0695
G1 X-5.570 Y10.3887
G1 X-5.570 Y-10.3954
G1 X-4.557 Y-9.9056
G1 X-4.557 Y9.91674
G1 X-3.544 Y9.51230
G1 X-3.544 Y-9.51326
G1 X-2.531 Y-9.22620
G1 X-2.531 Y9.24188
G1 X-1.518 Y9.05223
G1 X-1.518 Y-9.05029
G1 X-0.505 Y-8.93686
G1 X-0.505 Y8.96374
G1 X0.507 Y8.96387
G1 X0.507 Y-8.95498
G1 X1.520 Y-9.03835
G1 X1.520 Y9.05259
G1 X2.533 Y9.24194
G1 X2.533 Y-9.22346
G1 X3.546 Y-9.50936
G1 X3.546 Y9.51200
G1 X4.559 Y9.91656
G1 X4.559 Y-9.88270
G1 X5.572 Y-10.40370
G1 X5.572 Y10.38862
G1 X6.585 Y11.06935
G1 X6.585 Y-11.04951
G1 X7.598 Y-11.83968
G1 X7.598 Y11.86302
G1 X8.610 Y12.87660
G1 X8.610 Y-12.89084
G1 X9.623 Y-14.23722
G1 X9.623 Y14.27744
ID=1 WHEN $AC_TIMER[1]>=0 DO M51
G1 X14.688 Y22.986 F3000
ID=1 WHEN $AC_TIMER[1]>=0 DO M50
G1 X14.688 Y26.1960 F600
G1 X15.701 Y26.2306
G1 X15.701 Y25.5642
ID=1 WHEN $AC_TIMER[1]>=0 DO M51
G1 X11.649 Y32.086 F3000
ID=1 WHEN $AC_TIMER[1]>=0 DO M50
G1 X11.649 Y33.6707 F600
ID=1 WHEN $AC_TIMER[1]>=0 DO M51
G1 X-14.686 Y27.986 F3000
ID=1 WHEN $AC_TIMER[1]>=0 DO M50
G1 X-14.686 Y31.1960 F600
G1 X-15.699 Y31.2306
G1 X-15.699 Y30.5642
ID=1 WHEN $AC_TIMER[1]>=0 DO M51
ID=1 WHEN $AC_TIMER[1]>=0 DO M51
G1 Z2.000 F3000

ID=1 WHEN $AC_TIMER[1]>=0 DO M50
G1 X-18.115 Y36.477 F3000
ID=1 WHEN $AC_TIMER[1]>=0 DO M50
G1 X-18.321 Y35.9244 F600
G1 X-18.430 Y35.3449
G1 X-18.438 Y34.7543
G1 X-18.346 Y34.1718
G1 X-18.155 Y33.6122
G1 X-17.853 Y33.0596
G1 X-16.663 Y31.0141
G1 X-15.704 Y28.8085
G1 X-15.010 Y26.5049
G1 X-14.589 Y24.1353
G1 X-14.449 Y21.7504
G1 X-14.449 Y-21.7501
G1 X-14.589 Y-24.1352
G1 X-15.010 Y-26.5046
G1 X-15.704 Y-28.8080
G1 X-16.663 Y-31.0144
G1 X-17.853 Y-33.0599
G1 X-18.155 Y-33.6123
G1 X-18.346 Y-34.1718
G1 X-18.438 Y-34.7542
G1 X-18.430 Y-35.3446
G1 X-18.321 Y-35.9241
G1 X-18.115 Y-36.4775
G1 X-17.817 Y-36.9870
G1 X-17.437 Y-37.4384
G1 X-16.986 Y-37.8188
G1 X-16.476 Y-38.1163
G1 X-15.923 Y-38.3227
G1 X-15.343 Y-38.4312
G1 X-14.753 Y-38.4396
G1 X-14.170 Y-38.3470
G1 X-13.611 Y-38.1565
G1 X-13.058 Y-37.8549
G1 X-11.013 Y-36.6644
G1 X-8.807 Y-35.7058
G1 X-6.503 Y-35.0102
G1 X-4.134 Y-34.5906
G1 X-1.749 Y-34.4507
G1 X8.741 Y-34.4507
G1 X10.811 Y-34.3409
G1 X12.843 Y-34.0159
G1 X14.905 Y-33.4565
G1 X15.570 Y-33.4019
G1 X16.124 Y-33.2601
G1 X16.647 Y-33.0303
G1 X17.125 Y-32.7165
G1 X17.544 Y-32.3297
G1 X17.894 Y-31.8779
G1 X18.164 Y-31.3730
G1 X18.347 Y-30.8322
G1 X18.439 Y-30.2684
G1 X18.436 Y-29.6976
G1 X18.338 Y-29.1347
G1 X18.150 Y-28.5959
G1 X16.665 Y-26.0145
G1 X15.706 Y-23.8089
G1 X15.011 Y-21.5043
G1 X14.591 Y-19.1357
G1 X14.451 Y-16.7507
G1 X14.451 Y16.75076
G1 X14.591 Y19.13557
G1 X15.011 Y21.50451
G1 X15.706 Y23.80845
G1 X16.665 Y26.01439
G1 X18.150 Y28.59544
G1 X18.338 Y29.13456
G1 X18.436 Y29.69768
G1 X18.439 Y30.26879
G1 X18.347 Y30.83291
G1 X18.164 Y31.37303
G1 X17.894 Y31.87715
G1 X17.544 Y32.32927
G1 X17.125 Y32.71638
G1 X16.647 Y33.03050
G1 X16.124 Y33.26062
G1 X15.570 Y33.40174
G1 X14.905 Y33.45659
G1 X12.843 Y34.01565
G1 X10.811 Y34.34014
G1 X8.741 Y34.45067
G1 X-1.749 Y34.45027
G1 X-4.134 Y34.59007
G1 X-6.503 Y35.01002
G1 X-8.807 Y35.70596
G1 X-11.013 Y36.66490
G1 X-13.058 Y37.85405
G1 X-13.611 Y38.15629
G1 X-14.170 Y38.34773
G1 X-14.753 Y38.43917
G1 X-15.343 Y38.43162
G1 X-15.923 Y38.32206
G1 X-16.476 Y38.11651
G1 X-16.986 Y37.81895
G1 X-17.437 Y37.43839
G1 X-17.521 Y37.33855
ID=1 WHEN $AC_TIMER[1]>=0 DO M51
G1 X-14.999 Y-31.698 F3000
ID=1 WHEN $AC_TIMER[1]>=0 DO M50
G1 X-15.572 Y-31.7482 F600
G1 X-16.128 Y-31.8974
G1 X-16.650 Y-32.1405
G1 X-17.122 Y-32.4707
G1 X-17.529 Y-32.8779
G1 X-17.859 Y-33.3491
G1 X-18.102 Y-33.8712
G1 X-18.251 Y-34.4274
G1 X-18.301 Y-35.0006
G1 X-18.251 Y-35.5738
G1 X-18.102 Y-36.1299
G1 X-17.859 Y-36.6511
G1 X-17.529 Y-37.1233
G1 X-17.122 Y-37.5305
G1 X-16.650 Y-37.8607
G1 X-16.128 Y-38.1038
G1 X-15.572 Y-38.2520
G1 X-15.405 Y-38.2670
G1 X-14.999 Y-38.3022 F600
G1 X-14.426 Y-38.2524
G1 X-13.870 Y-38.1035
G1 X-13.348 Y-37.8607
G1 X-12.877 Y-37.5309
G1 X-12.469 Y-37.1231
G1 X-12.139 Y-36.6512
G1 X-11.896 Y-36.1294
G1 X-11.747 Y-35.5736
G1 X-11.697 Y-35.0008
G1 X-11.747 Y-34.4270
G1 X-11.896 Y-33.8711
G1 X-12.139 Y-33.3493
G1 X-12.469 Y-32.8775
G1 X-12.877 Y-32.4707
G1 X-13.348 Y-32.1408
G1 X-13.870 Y-31.8970
G1 X-13.967 Y-31.8711
ID=1 WHEN $AC_TIMER[1]>=0 DO M51
G1 X11.699 Y-30.000 F3000
ID=1 WHEN $AC_TIMER[1]>=0 DO M50
G1 X11.749 Y-30.5732 F600
G1 X11.898 Y-31.1294
G1 X12.141 Y-31.6515
G1 X12.471 Y-32.1237
G1 X12.878 Y-32.5309
G1 X13.350 Y-32.8601
G1 X13.872 Y-33.1032
G1 X14.428 Y-33.2524
G1 X14.595 Y-33.2674
G1 X15.001 Y-33.3026 F600
G1 X15.574 Y-33.2528
G1 X16.130 Y-33.1039
G1 X16.652 Y-32.8601
G1 X17.123 Y-32.5303
G1 X17.531 Y-32.1235
G1 X17.861 Y-31.6517
G1 X18.104 Y-31.1298
G1 X18.253 Y-30.5730
G1 X18.303 Y-30.0002
G1 X18.253 Y-29.4274
G1 X18.209 Y-29.2643
G1 X18.104 Y-28.8715
G1 X17.861 Y-28.3497
G1 X17.530 Y-27.8779
G1 X17.123 Y-27.4701
G1 X16.652 Y-27.1402
G1 X16.130 Y-26.8974
G1 X15.574 Y-26.7486
G1 X15.001 Y-26.6988
G1 X14.428 Y-26.7480
G1 X13.872 Y-26.8971
G1 X13.350 Y-27.1403
G1 X12.878 Y-27.4705
G1 X12.471 Y-27.8777
G1 X12.141 Y-28.3498
G1 X11.898 Y-28.8710
G1 X11.872 Y-28.9681
ID=1 WHEN $AC_TIMER[1]>=0 DO M51
G1 X10.533 Y-20.604 F3000
ID=1 WHEN $AC_TIMER[1]>=0 DO M50
G1 X10.542 Y-20.3537 F600
G1 X10.487 Y-18.8264
G1 X10.240 Y-17.4705
G1 X10.171 Y-17.1986
G1 X9.716 Y-15.8842
G1 X9.596 Y-15.6302
G1 X8.928 Y-14.3785
G1 X8.232 Y-13.3987
G1 X7.472 Y-12.5766
G1 X7.047 Y-12.1494
G1 X5.824 Y-11.2041
G1 X5.223 Y-10.8594
G1 X4.343 Y-10.3840
G1 X2.912 Y-9.8614
G1 X2.496 Y-9.7619
G1 X1.138 Y-9.5107
G1 X-0.443 Y-9.4593
G1 X-2.006 Y-9.6439
G1 X-2.718 Y-9.8321
G1 X-3.780 Y-10.1495
G1 X-5.074 Y-10.7696
G1 X-5.449 Y-10.9658
G1 X-6.636 Y-11.8030
G1 X-6.855 Y-11.9827
G1 X-7.361 Y-12.4771
G1 X-7.885 Y-12.9929
G1 X-8.029 Y-13.1651
G1 X-8.551 Y-13.8232
G1 X-8.707 Y-14.0517
G1 X-9.439 Y-15.2872
G1 X-10.006 Y-16.6679
G1 X-10.073 Y-16.8760
G1 X-10.405 Y-18.2546
G1 X-10.550 Y-19.9969
G1 X-10.470 Y-21.2910
G1 X-10.145 Y-22.8966
G1 X-9.668 Y-24.2177
G1 X-9.551 Y-24.4730
G1 X-8.866 Y-25.7191
G1 X-8.045 Y-26.8214
G1 X-7.860 Y-27.0342
G1 X-6.814 Y-28.0562
G1 X-5.399 Y-29.0640
G1 X-4.030 Y-29.7471
G1 X-3.791 Y-29.8429
G1 X-2.338 Y-30.2894
G1 X-0.555 Y-30.5374
G1 X0.772 Y-30.5074
G1 X1.263 Y-30.4747
G1 X2.801 Y-30.1715
G1 X3.071 Y-30.0904
G1 X4.533 Y-29.5283
G1 X4.786 Y-29.3951
G1 X6.146 Y-28.5781
G1 X7.305 Y-27.6096
G1 X7.468 Y-27.4508
G1 X8.420 Y-26.3607
G1 X9.069 Y-25.3667
G1 X9.321 Y-24.9420
G1 X9.901 Y-23.6469
G1 X10.021 Y-23.2669
G1 X10.358 Y-22.0157
G1 X10.404 Y-21.6464
ID=1 WHEN $AC_TIMER[1]>=0 DO M51
G1 X14.674 Y26.727 F3000
ID=1 WHEN $AC_TIMER[1]>=0 DO M50
G1 X15.001 Y26.6986 F600
G1 X15.574 Y26.7488
G1 X16.130 Y26.8970
G1 X16.652 Y27.1402
G1 X17.123 Y27.4703
G1 X17.530 Y27.8775
G1 X17.861 Y28.3497
G1 X18.104 Y28.8719
G1 X18.253 Y29.4271
G1 X18.303 Y30.0002
G1 X18.253 Y30.5734
G1 X18.104 Y31.1296
G1 X17.861 Y31.6518
G1 X17.764 Y31.7897
G1 X17.530 Y32.1239
G1 X17.123 Y32.5301
G1 X16.652 Y32.8603
G1 X16.130 Y33.1035
G1 X15.574 Y33.2526
G1 X15.001 Y33.3028
G1 X14.428 Y33.2520
G1 X13.872 Y33.1032
G1 X13.350 Y32.8603
G1 X12.878 Y32.5305
G1 X12.471 Y32.1237
G1 X12.141 Y31.6519
G1 X11.898 Y31.1291
G1 X11.749 Y30.5732
G1 X11.699 Y30.0004
G1 X11.749 Y29.4276
G1 X11.898 Y28.8718
G1 X12.141 Y28.3499
G1 X12.471 Y27.8771
G1 X12.878 Y27.4703
G1 X13.350 Y27.1405
G1 X13.666 Y26.9931
ID=1 WHEN $AC_TIMER[1]>=0 DO M51
G1 X10.393 Y18.168 F3000
ID=1 WHEN $AC_TIMER[1]>=0 DO M50
G1 X10.553 Y20.0006 F600
G1 X10.393 Y21.8322
G1 X9.917 Y23.6097
G1 X9.758 Y23.9498
G1 X9.139 Y25.2763
G1 X8.084 Y26.7839
G1 X6.784 Y28.0835
G1 X5.277 Y29.1380
G1 X3.610 Y29.9166
G1 X1.833 Y30.3922
G1 X0.001 Y30.5528
G1 X-1.831 Y30.3923
G1 X-3.608 Y29.9169
G1 X-5.275 Y29.1385
G1 X-6.782 Y28.0831
G1 X-8.082 Y26.7836
G1 X-9.137 Y25.2762
G1 X-9.915 Y23.6098
G1 X-10.391 Y21.8324
G1 X-10.551 Y20.0000
G1 X-10.391 Y18.1685
G1 X-9.915 Y16.3911
G1 X-9.137 Y14.7247
G1 X-8.082 Y13.2173
G1 X-6.782 Y11.9178
G1 X-5.275 Y10.8624
G1 X-3.608 Y10.0840
G1 X-1.831 Y9.6086
G1 X0.001 Y9.4481
G1 X1.833 Y9.6087
G1 X3.610 Y10.0843
G1 X5.277 Y10.8629
G1 X6.784 Y11.9175
G1 X8.084 Y13.2170
G1 X9.139 Y14.7246
G1 X9.917 Y16.3912
G1 X10.121 Y17.1535
ID=1 WHEN $AC_TIMER[1]>=0 DO M51
G1 X-12.139 Y33.349 F3000
ID=1 WHEN $AC_TIMER[1]>=0 DO M50
G1 X-11.896 Y33.8712 F600
G1 X-11.747 Y34.4274
G1 X-11.697 Y35.0005
G1 X-11.747 Y35.5737
G1 X-11.896 Y36.1299
G1 X-12.139 Y36.6511
G1 X-12.469 Y37.1232
G1 X-12.877 Y37.5304
G1 X-13.348 Y37.8606
G1 X-13.870 Y38.1038
G1 X-14.426 Y38.2520
G1 X-14.999 Y38.3021
G1 X-15.572 Y38.2523
G1 X-16.128 Y38.1035
G1 X-16.650 Y37.8607
G1 X-17.122 Y37.5308
G1 X-17.529 Y37.1230
G1 X-17.859 Y36.6512
G1 X-18.102 Y36.1294
G1 X-18.251 Y35.5735
G1 X-18.301 Y35.0007
G1 X-18.251 Y34.4279
G1 X-18.102 Y33.8711
G1 X-17.859 Y33.3493
G1 X-17.529 Y32.8774
G1 X-17.122 Y32.4706
G1 X-16.650 Y32.1408
G1 X-16.128 Y31.8970
G1 X-15.572 Y31.7481
G1 X-15.405 Y31.7331
G1 X-14.999 Y31.6983 F600
G1 X-14.426 Y31.7485
G1 X-13.870 Y31.8977
G1 X-13.348 Y32.1409
G1 X-12.877 Y32.4700
G1 X-12.805 Y32.5421
ID=1 WHEN $AC_TIMER[1]>=0 DO M51
G1 X-11.229 Y35.700 F3000
ID=1 WHEN $AC_TIMER[1]>=0 DO M50
G1 X-10.563 Y35.7006 F600
ID=1 WHEN $AC_TIMER[1]>=0 DO M51
G1 X-8.009 Y34.694 F3000
ID=1 WHEN $AC_TIMER[1]>=0 DO M50
G1 X-11.195 Y34.6946 F600
G1 X-11.390 Y33.6880
G1 X-2.534 Y33.6883
ID=1 WHEN $AC_TIMER[1]>=0 DO M51
G1 X-3.639 Y30.671 F3000
ID=1 WHEN $AC_TIMER[1]>=0 DO M50
G1 X-15.914 Y30.6713 F600
ID=1 WHEN $AC_TIMER[1]>=0 DO M51
G1 X-5.660 Y29.666 F3000
ID=1 WHEN $AC_TIMER[1]>=0 DO M50
G1 X-15.477 Y29.6660 F600
G1 X-15.097 Y28.6607
G1 X-7.072 Y28.6607
G1 X-8.078 Y27.6553
G1 X-14.794 Y27.6552
G1 X-14.496 Y26.6496
G1 X-8.884 Y26.6496
G1 X-9.577 Y25.6433
G1 X-14.318 Y25.6431
G1 X-14.139 Y24.6382
G1 X-10.046 Y24.6384
G1 X-10.464 Y23.6329
G1 X-14.032 Y23.6326
G1 X-13.973 Y22.6260
G1 X-10.733 Y22.6261
G1 X-10.938 Y21.6218
G1 X-13.923 Y21.6215
G1 X-13.923 Y20.6157
G1 X-11.026 Y20.6157
G1 X-11.046 Y19.6109
G1 X-13.923 Y19.6101
G1 X-13.923 Y18.6043
G1 X-10.958 Y18.6042
G1 X-10.793 Y17.5988
G1 X-13.923 Y17.5984
G1 X-13.923 Y16.5936
G1 X-10.524 Y16.5935
G1 X-10.151 Y15.5876
G1 X-13.923 Y15.5872
G1 X-13.923 Y14.5823
G1 X-9.682 Y14.5823
G1 X-9.041 Y13.5766
G1 X-13.923 Y13.5764
G1 X-13.923 Y12.5706
G1 X-8.303 Y12.5702
G1 X-7.297 Y11.5658
G1 X-13.923 Y11.5656
G1 X-13.923 Y10.5597
G1 X-5.981 Y10.5593
G1 X-4.121 Y9.5532
G1 X-13.923 Y9.5531
ID=1 WHEN $AC_TIMER[1]>=0 DO M51
G1 X-4.145 Y-9.553 F3000
ID=1 WHEN $AC_TIMER[1]>=0 DO M50
G1 X-13.923 Y-9.5531 F600
G1 X-13.923 Y-10.5593
G1 X-6.004 Y-10.5598
G1 X-7.308 Y-11.5651
G1 X-13.923 Y-11.5650
G1 X-13.923 Y-12.5702
G1 X-8.308 Y-12.5709
G1 X-9.082 Y-13.5767
G1 X-13.923 Y-13.5763
G1 X-13.923 Y-14.5825
G1 X-9.681 Y-14.5823
G1 X-10.155 Y-15.5871
G1 X-13.923 Y-15.5877
G1 X-13.923 Y-16.5939
G1 X-10.550 Y-16.5935
G1 X-10.797 Y-17.5986
G1 X-13.923 Y-17.5980
G1 X-13.923 Y-18.6041
G1 X-10.970 Y-18.6046
G1 X-11.049 Y-19.6100
G1 X-13.923 Y-19.6109
G1 X-13.923 Y-20.6150
G1 X-11.039 Y-20.6159
G1 X-10.946 Y-21.6211
G1 X-13.923 Y-21.6216
G1 X-13.973 Y-22.6267
G1 X-10.742 Y-22.6262
G1 X-10.457 Y-23.6321
G1 X-14.032 Y-23.6322
G1 X-14.139 Y-24.6383
G1 X-10.084 Y-24.6380
G1 X-9.550 Y-25.6435
G1 X-14.318 Y-25.6435
G1 X-14.496 Y-26.6497
G1 X-8.903 Y-26.6496
G1 X-8.105 Y-27.6558
G1 X-14.794 Y-27.6554
G1 X-15.097 Y-28.6609
G1 X-7.076 Y-28.6602
G1 X-5.677 Y-29.6660
G1 X-15.477 Y-29.6663
G1 X-15.914 Y-30.6712
G1 X-3.599 Y-30.67142
ID=1 WHEN $AC_TIMER[1]>=0 DO M51
G1 X-2.534 Y-33.688 F3000
ID=1 WHEN $AC_TIMER[1]>=0 DO M50
G1 X-11.390 Y-33.6885 F600
ID=1 WHEN $AC_TIMER[1]>=0 DO M51
G1 X-10.563 Y-35.700 F3000
ID=1 WHEN $AC_TIMER[1]>=0 DO M50
G1 X-11.229 Y-35.7006 F600
G1 X-11.195 Y-34.6941
G1 X-8.009 Y-34.6948
ID=1 WHEN $AC_TIMER[1]>=0 DO M51
G1 X3.556 Y-30.671 F3000
ID=1 WHEN $AC_TIMER[1]>=0 DO M50
G1 X11.228 Y-30.6718 F600
G1 X11.199 Y-29.6663
G1 X5.637 Y-29.6660
G1 X7.034 Y-28.6609
G1 X11.399 Y-28.6602
G1 X11.920 Y-27.6553
G1 X8.086 Y-27.6554
G1 X8.917 Y-26.6497
G1 X12.913 Y-26.6496
ID=1 WHEN $AC_TIMER[1]>=0 DO M51
G1 X15.903 Y-25.643 F3000
ID=1 WHEN $AC_TIMER[1]>=0 DO M50
G1 X9.565 Y-25.6430 F600
G1 X10.062 Y-24.6387
G1 X15.466 Y-24.6387
G1 X15.090 Y-23.6325
G1 X10.472 Y-23.6327
G1 X10.749 Y-22.6261
G1 X14.787 Y-22.6260
G1 X14.493 Y-21.6217
G1 X10.939 Y-21.6215
G1 X11.059 Y-20.6156
G1 X14.315 Y-20.6158
G1 X14.136 Y-19.6100
G1 X11.042 Y-19.6100
G1 X10.986 Y-18.6043
G1 X14.032 Y-18.6044
G1 X13.973 Y-17.5987
G1 X10.803 Y-17.5987
G1 X10.535 Y-16.5935
G1 X13.925 Y-16.5939
G1 X13.925 Y-15.5870
G1 X10.187 Y-15.5870
G1 X9.672 Y-14.5821
G1 X13.925 Y-14.5821
G1 X13.925 Y-13.5763
G1 X9.071 Y-13.5767
G1 X8.290 Y-12.5707
G1 X13.925 Y-12.5703
G1 X13.925 Y-11.5655
G1 X7.330 Y-11.5653
G1 X6.039 Y-10.5594
G1 X13.925 Y-10.5598
G1 X13.925 Y-9.5539
G1 X4.173 Y-9.5536
ID=1 WHEN $AC_TIMER[1]>=0 DO M51
G1 X13.925 Y-8.548 F3000
ID=1 WHEN $AC_TIMER[1]>=0 DO M50
G1 X-13.923 Y-8.5487 F600
G1 X-13.923 Y-7.5428
G1 X13.925 Y-7.5424
G1 X13.925 Y-6.5376
G1 X-13.923 Y-6.5372
G1 X-13.923 Y-5.5314
G1 X13.925 Y-5.5310
G1 X13.925 Y-4.5252
G1 X-13.923 Y-4.52578
G1 X-13.923 Y-3.52040
G1 X13.925 Y-3.52086
G1 X13.925 Y-2.51447
G1 X-13.923 Y-2.51494
G1 X-13.923 Y-1.50855
G1 X13.925 Y-1.50802
G1 X13.925 Y-0.50363
G1 X-13.923 Y-0.50310
G1 X-13.923 Y0.50371
G1 X13.925 Y0.50318
G1 X13.925 Y1.50879
G1 X-13.923 Y1.50826
G1 X-13.923 Y2.51487
G1 X13.925 Y2.51434
G1 X13.925 Y3.52095
G1 X-13.923 Y3.52041
G1 X-13.923 Y4.52503
G1 X13.925 Y4.52549
G1 X13.925 Y5.53111
G1 X-13.923 Y5.53157
G1 X-13.923 Y6.53719
G1 X13.925 Y6.53765
G1 X13.925 Y7.54227
G1 X-13.923 Y7.54273
G1 X-13.923 Y8.54835
G1 X13.925 Y8.54881
G1 X13.925 Y9.55342
G1 X4.123 Y9.55371
G1 X5.983 Y10.55920
G1 X13.925 Y10.55986
G1 X13.925 Y11.56548
G1 X7.299 Y11.56575
G1 X8.305 Y12.57061
G1 X13.925 Y12.57027
G1 X13.925 Y13.57689
G1 X9.043 Y13.57667
G1 X9.684 Y14.58240
G1 X13.925 Y14.58220
G1 X13.925 Y15.58781
G1 X10.153 Y15.58768
G1 X10.526 Y16.59399
G1 X13.925 Y16.59367
G1 X13.973 Y17.59837
G1 X10.795 Y17.59853
G1 X10.960 Y18.60409
G1 X14.032 Y18.60482
G1 X14.136 Y19.61081
G1 X11.048 Y19.61066
G1 X11.028 Y20.61529
G1 X14.315 Y20.61505
G1 X14.493 Y21.62177
G1 X10.940 Y21.62125
G1 X10.735 Y22.62632
G1 X14.787 Y22.62687
G1 X15.090 Y23.63262
G1 X10.466 Y23.63237
G1 X10.048 Y24.63883
G1 X15.466 Y24.63829
G1 X15.903 Y25.64328
G1 X9.579 Y25.64336
G1 X8.886 Y26.64913
G1 X12.913 Y26.64992
G1 X11.920 Y27.65519
G1 X8.080 Y27.65582
G1 X7.074 Y28.66069
G1 X11.399 Y28.66040
G1 X11.199 Y29.66641
G1 X5.662 Y29.66620
ID=1 WHEN $AC_TIMER[1]>=0 DO M51
G1 X3.641 Y30.671 F3000
ID=1 WHEN $AC_TIMER[1]>=0 DO M50
G1 X11.228 Y30.6710 F600
G1 X11.542 Y31.6778
G1 X-12.871 Y31.6776
G1 X-11.898 Y32.6832
G1 X12.164 Y32.6836
ID=1 WHEN $AC_TIMER[1]>=0 DO M51
G1 X11.542 Y-31.677 F3000
ID=1 WHEN $AC_TIMER[1]>=0 DO M50
G1 X-12.871 Y-31.6779 F600
G1 X-11.898 Y-32.6835
G1 X12.164 Y-32.6839
ID=1 WHEN $AC_TIMER[1]>=0 DO M51
ID=1 WHEN $AC_TIMER[1]>=0 DO M51
G1 Z2.500 F3000

ID=1 WHEN $AC_TIMER[1]>=0 DO M50
G1 X-18.115 Y36.477 F3000
ID=1 WHEN $AC_TIMER[1]>=0 DO M50
G1 X-18.321 Y35.9244 F600
G1 X-18.430 Y35.3449
G1 X-18.438 Y34.7543
G1 X-18.346 Y34.1718
G1 X-18.155 Y33.6122
G1 X-17.853 Y33.0596
G1 X-16.663 Y31.0141
G1 X-15.704 Y28.8085
G1 X-15.010 Y26.5049
G1 X-14.589 Y24.1353
G1 X-14.449 Y21.7504
G1 X-14.449 Y-21.7501
G1 X-14.589 Y-24.1352
G1 X-15.010 Y-26.5046
G1 X-15.704 Y-28.8080
G1 X-16.663 Y-31.0144
G1 X-17.853 Y-33.0599
G1 X-18.155 Y-33.6123
G1 X-18.346 Y-34.1718
G1 X-18.438 Y-34.7542
G1 X-18.430 Y-35.3446
G1 X-18.321 Y-35.9241
G1 X-18.115 Y-36.4775
G1 X-17.817 Y-36.9870
G1 X-17.437 Y-37.4384
G1 X-16.986 Y-37.8188
G1 X-16.476 Y-38.1163
G1 X-15.923 Y-38.3227
G1 X-15.346 Y-38.4306
G1 X-14.700 Y-38.4316
G1 X-14.170 Y-38.3475
G1 X-13.611 Y-38.1569
G1 X-13.058 Y-37.8543
G1 X-11.013 Y-36.6648
G1 X-8.807 Y-35.7052
G1 X-6.503 Y-35.0106
G1 X-4.134 Y-34.5900
G1 X-1.749 Y-34.4501
G1 X8.741 Y-34.4501
G1 X10.811 Y-34.3403
G1 X12.843 Y-34.0153
G1 X14.905 Y-33.4569
G1 X15.570 Y-33.4014
G1 X16.124 Y-33.2606
G1 X16.647 Y-33.0308
G1 X17.125 Y-32.7169
G1 X17.544 Y-32.3291
G1 X17.894 Y-31.8773
G1 X18.164 Y-31.3735
G1 X18.347 Y-30.8327
G1 X18.439 Y-30.2688
G1 X18.436 Y-29.6970
G1 X18.338 Y-29.1342
G1 X18.150 Y-28.5954
G1 X16.665 Y-26.0149
G1 X15.706 Y-23.8083
G1 X15.011 Y-21.5047
G1 X14.591 Y-19.1351
G1 X14.451 Y-16.7502
G1 X14.451 Y16.75070
G1 X14.591 Y19.13551
G1 X15.011 Y21.50445
G1 X15.706 Y23.80839
G1 X16.665 Y26.01433
G1 X18.150 Y28.59539
G1 X18.338 Y29.13450
G1 X18.436 Y29.69762
G1 X18.439 Y30.26874
G1 X18.347 Y30.83286
G1 X18.164 Y31.37398
G1 X17.894 Y31.87709
G1 X17.544 Y32.32921
G1 X17.125 Y32.71633
G1 X16.647 Y33.03045
G1 X16.124 Y33.26057
G1 X15.570 Y33.40168
G1 X14.905 Y33.45653
G1 X12.843 Y34.01559
G1 X10.811 Y34.34009
G1 X8.741 Y34.45061
G1 X-1.749 Y34.45021
G1 X-4.134 Y34.59002
G1 X-6.503 Y35.01096
G1 X-8.807 Y35.70590
G1 X-11.013 Y36.66484
G1 X-13.058 Y37.85499
G1 X-13.611 Y38.15623
G1 X-14.170 Y38.34767
G1 X-14.753 Y38.43912
G1 X-15.343 Y38.43156
G1 X-15.923 Y38.32201
G1 X-16.476 Y38.11645
G1 X-16.982 Y37.82064
G1 X-17.521 Y37.33838
ID=1 WHEN $AC_TIMER[1]>=0 DO M51
G1 X-14.999 Y-31.698 F3000
ID=1 WHEN $AC_TIMER[1]>=0 DO M50
G1 X-15.572 Y-31.7482 F600
G1 X-16.128 Y-31.8974
G1 X-16.650 Y-32.1405
G1 X-17.122 Y-32.4707
G1 X-17.529 Y-32.8779
G1 X-17.859 Y-33.3491
G1 X-18.102 Y-33.8712
G1 X-18.251 Y-34.4274
G1 X-18.301 Y-35.0042
G1 X-18.240 Y-35.6160
G1 X-18.102 Y-36.1296
G1 X-17.859 Y-36.6517
G1 X-17.529 Y-37.1239
G1 X-17.122 Y-37.5301
G1 X-16.650 Y-37.8603
G1 X-16.125 Y-38.1050
G1 X-15.529 Y-38.2569
G1 X-14.999 Y-38.3024 F600
G1 X-14.426 Y-38.2526
G1 X-13.870 Y-38.1038
G1 X-13.348 Y-37.8609
G1 X-12.877 Y-37.5301
G1 X-12.470 Y-37.1233
G1 X-12.139 Y-36.6515
G1 X-11.896 Y-36.1297
G1 X-11.747 Y-35.5738
G1 X-11.697 Y-35.0000
G1 X-11.747 Y-34.4238
G1 X-11.915 Y-33.8316
G1 X-12.139 Y-33.3492
G1 X-12.469 Y-32.8773
G1 X-12.877 Y-32.4705
G1 X-13.348 Y-32.1407
G1 X-13.870 Y-31.8979
G1 X-13.967 Y-31.8719
ID=1 WHEN $AC_TIMER[1]>=0 DO M51
G1 X12.077 Y-33.132 F3000
ID=1 WHEN $AC_TIMER[1]>=0 DO M50
G1 X11.708 Y-32.7636 F600
G1 X11.278 Y-32.1498
G1 X10.962 Y-31.4709
G1 X10.781 Y-30.7957
G1 X10.701 Y-30.0105
G1 X10.768 Y-29.2540
G1 X10.962 Y-28.5301
G1 X11.278 Y-27.8512
G1 X11.708 Y-27.2374
G1 X12.238 Y-26.7075
G1 X12.852 Y-26.2777
G1 X13.531 Y-25.9618
G1 X14.206 Y-25.7806
G1 X14.991 Y-25.7015
G1 X15.464 Y-25.7423
G1 X14.772 Y-24.1502
G1 X14.044 Y-21.7354
G1 X13.603 Y-19.2515
G1 X13.458 Y-16.7799
G1 X13.458 Y16.7796
G1 X13.603 Y19.2519
G1 X14.044 Y21.7351
G1 X14.772 Y24.1502
G1 X15.464 Y25.7421
G1 X15.001 Y25.7017
G1 X14.305 Y25.7625
G1 X13.540 Y25.9563
G1 X12.852 Y26.2777
G1 X12.238 Y26.7079
G1 X11.708 Y27.2370
G1 X11.278 Y27.8512
G1 X10.962 Y28.5303
G1 X10.768 Y29.2545
G1 X10.702 Y30.0006
G1 X10.768 Y30.7468
G1 X10.962 Y31.4709
G1 X11.278 Y32.1491
G1 X11.708 Y32.7632
G1 X12.077 Y33.1328
G1 X10.706 Y33.3520
G1 X8.715 Y33.4578
G1 X-1.778 Y33.4578
G1 X-4.251 Y33.6022
G1 X-6.734 Y34.0433
G1 X-9.149 Y34.7715
G1 X-10.741 Y35.4634
G1 X-10.700 Y35.0009
G1 X-10.766 Y34.2541
G1 X-10.960 Y33.5302
G1 X-11.276 Y32.8514
G1 X-11.706 Y32.2375
G1 X-12.236 Y31.7077
G1 X-12.850 Y31.2778
G1 X-13.529 Y30.9610
G1 X-14.253 Y30.7671
G1 X-14.999 Y30.7013
G1 X-15.462 Y30.7428
G1 X-14.770 Y29.1507
G1 X-14.042 Y26.7359
G1 X-13.601 Y24.2510
G1 X-13.456 Y21.7794
G1 X-13.456 Y-21.77980
G1 X-13.601 Y-24.25173
G1 X-14.042 Y-26.73585
G1 X-14.770 Y-29.15096
G1 X-15.462 Y-30.74285
G1 X-14.999 Y-30.70151
G1 X-14.253 Y-30.76712
G1 X-13.529 Y-30.96174
G1 X-12.850 Y-31.27735
G1 X-12.236 Y-31.70797
G1 X-11.706 Y-32.23758
G1 X-11.276 Y-32.85120
G1 X-10.981 Y-33.48428
G1 X-10.767 Y-34.24366
G1 X-10.700 Y-35.00000
G1 X-10.741 Y-35.46365
G1 X-9.149 Y-34.77155
G1 X-6.734 Y-34.04366
G1 X-4.251 Y-33.60278
G1 X-1.778 Y-33.45771
G1 X8.715 Y-33.45751
G1 X10.706 Y-33.35250
G1 X11.040 Y-33.29829
ID=1 WHEN $AC_TIMER[1]>=0 DO M51
G1 X10.539 Y-20.524 F3000
ID=1 WHEN $AC_TIMER[1]>=0 DO M50
G1 X10.486 Y-18.8170 F600
G1 X10.195 Y-17.2812
G1 X9.671 Y-15.7860
G1 X8.957 Y-14.4230
G1 X8.238 Y-13.4063
G1 X7.110 Y-12.2049
G1 X5.835 Y-11.2096
G1 X4.367 Y-10.3942
G1 X2.819 Y-9.8339
G1 X1.102 Y-9.5063
G1 X-0.390 Y-9.4562
G1 X-2.079 Y-9.6565
G1 X-3.810 Y-10.1605
G1 X-5.442 Y-10.9608
G1 X-6.731 Y-11.8763
G1 X-7.953 Y-13.0703
G1 X-8.633 Y-13.9383
G1 X-9.429 Y-15.2664
G1 X-10.025 Y-16.7130
G1 X-10.409 Y-18.2855
G1 X-10.547 Y-20.0772
G1 X-10.463 Y-21.3525
G1 X-10.150 Y-22.8819
G1 X-9.601 Y-24.3722
G1 X-8.866 Y-25.7195
G1 X-7.980 Y-26.9019
G1 X-6.801 Y-28.0678
G1 X-5.429 Y-29.0471
G1 X-3.898 Y-29.8048
G1 X-2.318 Y-30.2949
G1 X-0.577 Y-30.5366
G1 X1.132 Y-30.4906
G1 X2.947 Y-30.1311
G1 X4.636 Y-29.4779
G1 X6.136 Y-28.5851
G1 X7.358 Y-27.5625
G1 X8.435 Y-26.3416
G1 X9.294 Y-24.9938
G1 X9.917 Y-23.6055
G1 X10.352 Y-22.0441
G1 X10.411 Y-21.5665
ID=1 WHEN $AC_TIMER[1]>=0 DO M51
G1 X11.534 Y-20.569 F3000
ID=1 WHEN $AC_TIMER[1]>=0 DO M50
G1 X11.476 Y-18.7094 F600
G1 X11.157 Y-17.0236
G1 X10.584 Y-15.3906
G1 X9.806 Y-13.9038
G1 X9.009 Y-12.7777
G1 X7.782 Y-11.4694
G1 X6.385 Y-10.3786
G1 X4.780 Y-9.4881
G1 X3.083 Y-8.8721
G1 X1.212 Y-8.5174
G1 X-0.432 Y-8.4619
G1 X-2.277 Y-8.6800
G1 X-4.170 Y-9.2311
G1 X-5.951 Y-10.1042
G1 X-7.369 Y-11.1127
G1 X-8.694 Y-12.4075
G1 X-9.452 Y-13.3752
G1 X-10.319 Y-14.8199
G1 X-10.971 Y-16.4043
G1 X-11.393 Y-18.1285
G1 X-11.542 Y-20.0719
G1 X-11.449 Y-21.4844
G1 X-11.107 Y-23.1540
G1 X-10.507 Y-24.7832
G1 X-9.704 Y-26.2570
G1 X-8.730 Y-27.5551
G1 X-7.442 Y-28.8292
G1 X-5.941 Y-29.9017
G1 X-4.267 Y-30.7290
G1 X-2.535 Y-31.2661
G1 X-0.632 Y-31.5312
G1 X1.242 Y-31.4808
G1 X3.225 Y-31.0881
G1 X5.072 Y-30.3720
G1 X6.712 Y-29.3985
G1 X8.053 Y-28.2758
G1 X9.230 Y-26.9409
G1 X10.170 Y-25.4661
G1 X10.850 Y-23.9519
G1 X11.329 Y-22.2384
G1 X11.406 Y-21.6114
ID=1 WHEN $AC_TIMER[1]>=0 DO M51
G1 X-1.241 Y9.557 F3000
ID=1 WHEN $AC_TIMER[1]>=0 DO M50
G1 X0.001 Y9.4486 F600
G1 X1.833 Y9.6081
G1 X3.610 Y10.0847
G1 X5.277 Y10.8623
G1 X6.784 Y11.9179
G1 X8.084 Y13.2174
G1 X9.139 Y14.7240
G1 X9.917 Y16.3916
G1 X10.393 Y18.1682
G1 X10.553 Y20.0007
G1 X10.393 Y21.8323
G1 X9.917 Y23.6099
G1 X9.666 Y24.1469
G1 X9.139 Y25.2765
G1 X8.084 Y26.7831
G1 X6.784 Y28.0836
G1 X5.277 Y29.1382
G1 X3.610 Y29.9168
G1 X1.833 Y30.3924
G1 X0.001 Y30.5529
G1 X-1.831 Y30.3925
G1 X-3.608 Y29.9161
G1 X-5.275 Y29.1387
G1 X-6.782 Y28.0832
G1 X-8.082 Y26.7838
G1 X-9.137 Y25.2764
G1 X-9.915 Y23.6090
G1 X-10.391 Y21.8326
G1 X-10.551 Y20.0001
G1 X-10.391 Y18.1687
G1 X-9.915 Y16.3913
G1 X-9.137 Y14.7249
G1 X-8.082 Y13.2174
G1 X-6.782 Y11.9170
G1 X-5.275 Y10.8626
G1 X-3.608 Y10.0842
G1 X-2.273 Y9.7275
ID=1 WHEN $AC_TIMER[1]>=0 DO M51
G1 X-1.328 Y8.568 F3000
ID=1 WHEN $AC_TIMER[1]>=0 DO M50
G1 X0.001 Y8.4510 F600
G1 X2.006 Y8.6276
G1 X3.951 Y9.1481
G1 X5.775 Y9.9996
G1 X7.424 Y11.1532
G1 X8.848 Y12.5777
G1 X10.002 Y14.2263
G1 X10.853 Y16.0508
G1 X11.374 Y17.9954
G1 X11.550 Y20.0009
G1 X11.374 Y22.0055
G1 X10.853 Y23.9500
G1 X10.566 Y24.5660
G1 X10.002 Y25.7746
G1 X8.848 Y27.4231
G1 X7.424 Y28.8477
G1 X5.775 Y30.0012
G1 X3.951 Y30.8528
G1 X2.006 Y31.3733
G1 X0.001 Y31.5499
G1 X-2.004 Y31.3734
G1 X-3.949 Y30.8529
G1 X-5.773 Y30.0015
G1 X-7.422 Y28.8470
G1 X-8.846 Y27.4236
G1 X-9.235 Y26.8676
G1 X-10.000 Y25.7741
G1 X-10.851 Y23.9507
G1 X-11.372 Y22.0052
G1 X-11.548 Y20.0008
G1 X-11.372 Y17.9953
G1 X-10.851 Y16.0509
G1 X-10.000 Y14.2264
G1 X-8.846 Y12.5770
G1 X-7.422 Y11.1535
G1 X-5.773 Y9.9991
G1 X-3.949 Y9.1486
G1 X-2.363 Y8.7239
ID=1 WHEN $AC_TIMER[1]>=0 DO M51
G1 X13.872 Y-26.897 F3000
ID=1 WHEN $AC_TIMER[1]>=0 DO M50
G1 X13.350 Y-27.1402 F600
G1 X12.878 Y-27.4704
G1 X12.471 Y-27.8775
G1 X12.141 Y-28.3497
G1 X11.898 Y-28.8719
G1 X11.749 Y-29.4271
G1 X11.699 Y-30.0048
G1 X11.760 Y-30.6167
G1 X11.898 Y-31.1292
G1 X12.141 Y-31.6514
G1 X12.471 Y-32.1236
G1 X12.878 Y-32.5307
G1 X13.350 Y-32.8609
G1 X13.875 Y-33.1057
G1 X14.471 Y-33.2565
G1 X15.001 Y-33.3021 F600
G1 X15.574 Y-33.2522
G1 X16.130 Y-33.1034
G1 X16.652 Y-32.8606
G1 X17.123 Y-32.5308
G1 X17.531 Y-32.1239
G1 X17.861 Y-31.6511
G1 X18.104 Y-31.1293
G1 X18.253 Y-30.5735
G1 X18.303 Y-30.0006
G1 X18.253 Y-29.4278
G1 X18.104 Y-28.8710
G1 X17.861 Y-28.3492
G1 X17.530 Y-27.8774
G1 X17.123 Y-27.4705
G1 X16.652 Y-27.1407
G1 X16.130 Y-26.8979
G1 X15.574 Y-26.7481
G1 X14.997 Y-26.6988
G1 X14.901 Y-26.7079
ID=1 WHEN $AC_TIMER[1]>=0 DO M51
G1 X15.001 Y26.698 F3000
ID=1 WHEN $AC_TIMER[1]>=0 DO M50
G1 X15.574 Y26.7482 F600
G1 X16.130 Y26.8974
G1 X16.652 Y27.1405
G1 X17.123 Y27.4707
G1 X17.530 Y27.8779
G1 X17.861 Y28.3491
G1 X18.104 Y28.8712
G1 X18.253 Y29.4274
G1 X18.303 Y30.0006
G1 X18.253 Y30.5738
G1 X18.104 Y31.1290
G1 X17.861 Y31.6511
G1 X17.528 Y32.1269
G1 X17.088 Y32.5557
G1 X16.652 Y32.8603
G1 X16.130 Y33.1034
G1 X15.574 Y33.2526
G1 X14.997 Y33.3024
G1 X14.385 Y33.2412
G1 X13.872 Y33.1038
G1 X13.350 Y32.8609
G1 X12.878 Y32.5301
G1 X12.471 Y32.1233
G1 X12.141 Y31.6515
G1 X11.898 Y31.1296
G1 X11.749 Y30.5738
G1 X11.699 Y30.0000
G1 X11.749 Y29.4272
G1 X11.898 Y28.8714
G1 X12.141 Y28.3495
G1 X12.471 Y27.8777
G1 X12.878 Y27.4709
G1 X13.350 Y27.1401
G1 X13.875 Y26.8958
G1 X13.969 Y26.8729
ID=1 WHEN $AC_TIMER[1]>=0 DO M51
G1 X-11.888 Y33.902 F3000
ID=1 WHEN $AC_TIMER[1]>=0 DO M50
G1 X-11.747 Y34.4271 F600
G1 X-11.697 Y35.0003
G1 X-11.747 Y35.5734
G1 X-11.896 Y36.1296
G1 X-12.139 Y36.6518
G1 X-12.469 Y37.1230
G1 X-12.877 Y37.5302
G1 X-13.348 Y37.8603
G1 X-13.870 Y38.1035
G1 X-14.426 Y38.2527
G1 X-14.999 Y38.3029
G1 X-15.572 Y38.2520
G1 X-16.128 Y38.1032
G1 X-16.650 Y37.8604
G1 X-17.122 Y37.5306
G1 X-17.529 Y37.1237
G1 X-17.859 Y36.6519
G1 X-18.102 Y36.1291
G1 X-18.251 Y35.5733
G1 X-18.301 Y35.0005
G1 X-18.251 Y34.4276
G1 X-18.102 Y33.8718
G1 X-17.859 Y33.3490
G1 X-17.529 Y32.8772
G1 X-17.122 Y32.4703
G1 X-16.650 Y32.1405
G1 X-16.125 Y31.8953
G1 X-15.529 Y31.7441
G1 X-14.999 Y31.6987 F600
G1 X-14.426 Y31.7488
G1 X-13.870 Y31.8970
G1 X-13.348 Y32.1402
G1 X-12.877 Y32.4704
G1 X-12.469 Y32.8775
G1 X-12.393 Y32.9877
ID=1 WHEN $AC_TIMER[1]>=0 DO M51
G1 X-14.187 Y29.577 F3000
ID=1 WHEN $AC_TIMER[1]>=0 DO M50
G1 X-14.187 Y30.2436 F600
G1 X-13.174 Y30.5154
G1 X-13.174 Y26.2585
ID=1 WHEN $AC_TIMER[1]>=0 DO M51
G1 X-12.160 Y21.949 F3000
ID=1 WHEN $AC_TIMER[1]>=0 DO M50
G1 X-12.160 Y31.0520 F600
G1 X-11.147 Y31.9291
G1 X-11.147 Y24.9685
G1 X-10.133 Y26.7230
G1 X-10.133 Y33.7308
G1 X-9.120 Y34.2004
G1 X-9.120 Y28.0171
G1 X-8.106 Y29.0306
G1 X-8.106 Y33.8941
G1 X-7.092 Y33.5894
G1 X-7.092 Y29.7869
G1 X-6.079 Y30.4707
G1 X-6.079 Y33.3887
G1 X-5.065 Y33.2085
G1 X-5.065 Y30.9433
G1 X-4.052 Y31.3803
G1 X-4.052 Y33.0635
G1 X-3.038 Y33.0045
G1 X-3.038 Y31.6513
G1 X-2.025 Y31.9012
G1 X-2.025 Y32.9442
G1 X-1.011 Y32.9310
G1 X-1.011 Y31.9895
G1 X0.003 Y32.0780
G1 X0.003 Y32.9315
G1 X1.016 Y32.9312
G1 X1.016 Y31.9899
G1 X2.030 Y31.9004
G1 X2.030 Y32.9314
G1 X3.043 Y32.9311
G1 X3.043 Y31.6506
G1 X4.057 Y31.3795
G1 X4.057 Y32.9317
G1 X5.070 Y32.9314
G1 X5.070 Y30.9419
G1 X6.084 Y30.4692
G1 X6.084 Y32.9315
G1 X7.098 Y32.9313
G1 X7.098 Y29.7838
G1 X8.111 Y29.0278
G1 X8.111 Y32.9314
G1 X9.125 Y32.9083
G1 X9.125 Y28.0135
G1 X10.138 Y28.7170
G1 X10.138 Y26.7185
G1 X11.152 Y26.9260
G1 X11.152 Y24.9601
ID=1 WHEN $AC_TIMER[1]>=0 DO M51
G1 X12.165 Y26.050 F3000
ID=1 WHEN $AC_TIMER[1]>=0 DO M50
G1 X12.165 Y21.9371 F600
ID=1 WHEN $AC_TIMER[1]>=0 DO M51
G1 X13.179 Y21.277 F3000
ID=1 WHEN $AC_TIMER[1]>=0 DO M50
G1 X13.179 Y25.5141 F600
G1 X14.193 Y25.2437
G1 X14.193 Y24.5857
ID=1 WHEN $AC_TIMER[1]>=0 DO M51
G1 X12.165 Y18.063 F3000
ID=1 WHEN $AC_TIMER[1]>=0 DO M50
G1 X12.165 Y-18.2204 F600
ID=1 WHEN $AC_TIMER[1]>=0 DO M51
G1 X11.152 Y-14.996 F3000
ID=1 WHEN $AC_TIMER[1]>=0 DO M50
G1 X11.152 Y15.0404 F600
G1 X10.138 Y13.2813
G1 X10.138 Y-13.2458
G1 X9.125 Y-11.9942
G1 X9.125 Y11.9872
G1 X8.111 Y10.9738
G1 X8.111 Y-10.9790
G1 X7.098 Y-10.1888
G1 X7.098 Y10.2176
G1 X6.084 Y9.5317
G1 X6.084 Y-9.56727
G1 X5.070 Y-9.01533
G1 X5.070 Y9.05944
G1 X4.057 Y8.62196
G1 X4.057 Y-8.64753
G1 X3.043 Y-8.32423
G1 X3.043 Y8.35004
G1 X2.030 Y8.10034
G1 X2.030 Y-8.13107
G1 X1.016 Y-7.98400
G1 X1.016 Y8.01113
G1 X0.003 Y7.92257
G1 X0.003 Y-7.95009
G1 X-1.011 Y-7.99834
G1 X-1.011 Y8.01148
G1 X-2.025 Y8.09992
G1 X-2.025 Y-8.11870
G1 X-3.038 Y-8.34157
G1 X-3.038 Y8.34952
G1 X-4.052 Y8.62020
G1 X-4.052 Y-8.63696
G1 X-5.065 Y-9.05084
G1 X-5.065 Y9.05736
G1 X-6.079 Y9.53089
G1 X-6.079 Y-9.54748
G1 X-7.092 Y-10.20323
G1 X-7.092 Y10.21489
G1 X-8.106 Y10.97065
G1 X-8.106 Y-10.97880
G1 X-9.120 Y-11.96830
G1 X-9.120 Y11.98315
G1 X-10.133 Y13.27754
G1 X-10.133 Y-13.20613
G1 X-11.147 Y-14.96567
G1 X-11.147 Y15.03203
ID=1 WHEN $AC_TIMER[1]>=0 DO M51
G1 X-12.160 Y18.051 F3000
ID=1 WHEN $AC_TIMER[1]>=0 DO M50
G1 X-12.160 Y-18.0954 F600
ID=1 WHEN $AC_TIMER[1]>=0 DO M51
G1 X-12.160 Y-21.820 F3000
ID=1 WHEN $AC_TIMER[1]>=0 DO M50
G1 X-12.160 Y-31.0521 F600
G1 X-11.147 Y-31.9292
G1 X-11.147 Y-25.0342
G1 X-10.133 Y-26.7596
G1 X-10.133 Y-33.7535
G1 X-9.120 Y-34.2003
G1 X-9.120 Y-28.0312
G1 X-8.106 Y-29.0332
G1 X-8.106 Y-33.8947
G1 X-7.092 Y-33.5891
G1 X-7.092 Y-29.7931
G1 X-6.079 Y-30.4548
G1 X-6.079 Y-33.3888
G1 X-5.065 Y-33.2086
G1 X-5.065 Y-30.9555
G1 X-4.052 Y-31.3609
G1 X-4.052 Y-33.0638
G1 X-3.038 Y-33.0047
G1 X-3.038 Y-31.6752
G1 X-2.025 Y-31.8711
G1 X-2.025 Y-32.9440
ID=1 WHEN $AC_TIMER[1]>=0 DO M51
G1 X3.043 Y-32.931 F3000
ID=1 WHEN $AC_TIMER[1]>=0 DO M50
G1 X3.043 Y-31.6667 F600
G1 X4.057 Y-31.3519
G1 X4.057 Y-32.9314
G1 X5.070 Y-32.9312
G1 X5.070 Y-30.9585
G1 X6.084 Y-30.4318
G1 X6.084 Y-32.9314
G1 X7.098 Y-32.9311
G1 X7.098 Y-29.8297
G1 X8.111 Y-29.0038
G1 X8.111 Y-32.9314
G1 X9.125 Y-32.9083
G1 X9.125 Y-28.0079
G1 X10.138 Y-28.7178
G1 X10.138 Y-26.7502
G1 X11.152 Y-24.9929
G1 X11.152 Y-26.9266
G1 X12.165 Y-26.0503
G1 X12.165 Y-21.8856
G1 X13.179 Y-21.2778
G1 X13.179 Y-25.5147
G1 X14.193 Y-25.2519
G1 X14.193 Y-24.5855
ID=1 WHEN $AC_TIMER[1]>=0 DO M51
G1 X10.138 Y-31.283 F3000
ID=1 WHEN $AC_TIMER[1]>=0 DO M50
G1 X10.138 Y-32.8559 F600
ID=1 WHEN $AC_TIMER[1]>=0 DO M51
G1 X-13.174 Y-26.258 F3000
ID=1 WHEN $AC_TIMER[1]>=0 DO M50
G1 X-13.174 Y-30.5151 F600
G1 X-14.187 Y-30.2439
G1 X-14.187 Y-29.5775
ID=1 WHEN $AC_TIMER[1]>=0 DO M51
G1 X10.138 Y31.283 F3000
ID=1 WHEN $AC_TIMER[1]>=0 DO M50
G1 X10.138 Y32.8559 F600
ID=1 WHEN $AC_TIMER[1]>=0 DO M51
G1 X0.940 Y-32.015 F3000
ID=1 WHEN $AC_TIMER[1]>=0 DO M50
G1 X0.836 Y-32.0277 F600
G1 X0.760 Y-32.0730
G1 X0.401 Y-32.4802
G1 X-0.627 Y-32.4940
ID=1 WHEN $AC_TIMER[1]>=0 DO M51
ID=1 WHEN $AC_TIMER[1]>=0 DO M51
G1 Z3.000 F3000

ID=1 WHEN $AC_TIMER[1]>=0 DO M50
G1 X-1.834 Y30.651 F3000
ID=1 WHEN $AC_TIMER[1]>=0 DO M50
G1 X-3.755 Y30.1367 F600
G1 X-5.423 Y29.3559
G1 X-6.933 Y28.3011
G1 X-8.340 Y26.8948
G1 X-9.394 Y25.3841
G1 X-10.003 Y24.0842
G1 X-10.221 Y23.5830
G1 X-10.668 Y21.9125
G1 X-10.847 Y19.9608
G1 X-10.690 Y18.1250
G1 X-10.175 Y16.2047
G1 X-9.394 Y14.5369
G1 X-8.340 Y13.0261
G1 X-6.933 Y11.6198
G1 X-5.423 Y10.5650
G1 X-3.645 Y9.7454
G1 X-1.835 Y9.2709
G1 X0.000 Y9.1127
G1 X1.855 Y9.2717
G1 X3.756 Y9.7842
G1 X5.425 Y10.5664
G1 X7.041 Y11.7113
G1 X8.341 Y13.0250
G1 X9.396 Y14.5363
G1 X10.222 Y16.3361
G1 X10.691 Y18.1241
G1 X10.843 Y19.8537
G1 X10.849 Y19.9551
G1 X10.691 Y21.7952
G1 X10.177 Y23.7169
G1 X9.396 Y25.3841
G1 X8.342 Y26.8943
G1 X6.935 Y28.3010
G1 X5.425 Y29.3552
G1 X3.647 Y30.1756
G1 X1.837 Y30.6514
G1 X0.006 Y30.8094
G1 X-0.788 Y30.7402
ID=1 WHEN $AC_TIMER[1]>=0 DO M51
G1 X1.790 Y30.359 F3000
ID=1 WHEN $AC_TIMER[1]>=0 DO M50
G1 X0.006 Y30.5127 F600
G1 X-0.172 Y30.5001
G1 X-1.787 Y30.3596
G1 X-3.494 Y29.9102
G1 X-3.666 Y29.8522
G1 X-5.275 Y29.0982
G1 X-6.747 Y28.0718
G1 X-8.110 Y26.7080
G1 X-9.137 Y25.2367
G1 X-9.899 Y23.6103
G1 X-10.398 Y21.7495
G1 X-10.551 Y19.9663
G1 X-10.398 Y18.1721
G1 X-9.942 Y16.4377
G1 X-9.139 Y14.6868
G1 X-8.111 Y13.2130
G1 X-6.849 Y11.9389
G1 X-5.277 Y10.8230
G1 X-3.651 Y10.0611
G1 X-1.923 Y9.5899
G1 X0.000 Y9.4083
G1 X1.788 Y9.5613
G1 X3.668 Y10.0680
G1 X5.277 Y10.8229
G1 X6.749 Y11.8496
G1 X8.112 Y13.2128
G1 X9.139 Y14.6844
G1 X9.901 Y16.3101
G1 X10.400 Y18.1713
G1 X10.553 Y19.9609
G1 X10.400 Y21.7467
G1 X9.900 Y23.6136
G1 X9.139 Y25.2364
G1 X8.112 Y26.7080
G1 X6.749 Y28.0712
G1 X5.277 Y29.0989
G1 X3.651 Y29.8605
G1 X2.804 Y30.0874
ID=1 WHEN $AC_TIMER[1]>=0 DO M51
G1 X-1.834 Y-9.270 F3000
ID=1 WHEN $AC_TIMER[1]>=0 DO M50
G1 X-3.755 Y-9.7847 F600
G1 X-5.423 Y-10.5660
G1 X-7.039 Y-11.7119
G1 X-8.339 Y-13.0255
G1 X-9.394 Y-14.5368
G1 X-10.221 Y-16.3387
G1 X-10.689 Y-18.1235
G1 X-10.847 Y-19.9605
G1 X-10.690 Y-21.7957
G1 X-10.175 Y-23.7164
G1 X-9.394 Y-25.3846
G1 X-8.340 Y-26.8948
G1 X-6.933 Y-28.3015
G1 X-5.423 Y-29.3557
G1 X-3.645 Y-30.1751
G1 X-1.835 Y-30.6516
G1 X0.000 Y-30.8084
G1 X1.855 Y-30.6494
G1 X3.741 Y-30.1433
G1 X5.425 Y-29.3552
G1 X6.935 Y-28.3014
G1 X8.342 Y-26.8941
G1 X9.396 Y-25.3844
G1 X10.005 Y-24.0845
G1 X10.223 Y-23.5834
G1 X10.670 Y-21.9128
G1 X10.849 Y-19.9602
G1 X10.691 Y-18.1254
G1 X10.177 Y-16.2041
G1 X9.396 Y-14.5363
G1 X8.342 Y-13.0265
G1 X6.935 Y-11.6192
G1 X5.425 Y-10.5654
G1 X3.755 Y-9.7834
G1 X1.838 Y-9.2705
G1 X0.001 Y-9.1125
G1 X-0.788 Y-9.1804
ID=1 WHEN $AC_TIMER[1]>=0 DO M51
G1 X2.773 Y-9.779 F3000
ID=1 WHEN $AC_TIMER[1]>=0 DO M50
G1 X1.111 Y-9.4683 F600
G1 X-0.327 Y-9.4140
G1 X-2.040 Y-9.6103
G1 X-3.855 Y-10.1395
G1 X-5.425 Y-10.9103
G1 X-6.736 Y-11.8406
G1 X-7.965 Y-13.0442
G1 X-8.578 Y-13.8185
G1 X-9.458 Y-15.2914
G1 X-10.046 Y-16.7419
G1 X-10.412 Y-18.2565
G1 X-10.551 Y-19.9568
G1 X-10.460 Y-21.3417
G1 X-10.156 Y-22.8186
G1 X-9.637 Y-24.2517
G1 X-8.893 Y-25.6353
G1 X-7.994 Y-26.8435
G1 X-6.757 Y-28.0620
G1 X-5.429 Y-29.0072
G1 X-3.950 Y-29.7446
G1 X-2.350 Y-30.2461
G1 X-0.665 Y-30.4884
G1 X1.174 Y-30.4467
G1 X2.870 Y-30.1140
G1 X4.642 Y-29.4331
G1 X6.160 Y-28.5272
G1 X7.386 Y-27.4978
G1 X8.432 Y-26.3044
G1 X8.527 Y-26.1613
G1 X9.261 Y-25.0189
G1 X9.909 Y-23.5868
G1 X10.334 Y-22.0866
G1 X10.534 Y-20.5397
G1 X10.484 Y-18.7562
G1 X10.204 Y-17.2720
G1 X9.708 Y-15.8246
G1 X8.988 Y-14.4335
G1 X8.255 Y-13.3887
G1 X7.172 Y-12.2211
G1 X5.909 Y-11.2213
G1 X5.695 Y-11.0870
G1 X4.333 Y-10.3409
G1 X3.761 Y-10.1356
ID=1 WHEN $AC_TIMER[1]>=0 DO M51
ID=1 WHEN $AC_TIMER[1]>=0 DO M51
G1 Z3.500 F3000

ID=1 WHEN $AC_TIMER[1]>=0 DO M50
G1 X0.995 Y9.119 F3000
ID=1 WHEN $AC_TIMER[1]>=0 DO M50
G1 X1.758 Y9.1774 F600
G1 X2.143 Y9.2539
G1 X3.845 Y9.7386
G1 X5.425 Y10.4860
G1 X6.589 Y11.2891
G1 X6.925 Y11.5835
G1 X7.191 Y11.7705
G1 X8.401 Y13.0190
G1 X9.396 Y14.4565
G1 X10.002 Y15.7345
G1 X10.145 Y16.1570
G1 X10.285 Y16.4550
G1 X10.706 Y18.1436
G1 X10.849 Y19.8807
G1 X10.705 Y21.6365
G1 X10.627 Y22.0274
G1 X10.277 Y23.3341
G1 X10.149 Y23.7121
G1 X9.396 Y25.3049
G1 X8.393 Y26.7527
G1 X8.130 Y27.0526
G1 X7.173 Y28.0103
G1 X6.873 Y28.2723
G1 X5.425 Y29.2753
G1 X3.834 Y30.0278
G1 X3.455 Y30.1568
G1 X2.147 Y30.5065
G1 X1.756 Y30.5845
G1 X0.001 Y30.7283
G1 X-1.754 Y30.5841
G1 X-2.146 Y30.5060
G1 X-3.453 Y30.1567
G1 X-3.831 Y30.0287
G1 X-5.423 Y29.2755
G1 X-6.871 Y28.2722
G1 X-7.171 Y28.0102
G1 X-8.128 Y27.0529
G1 X-8.391 Y26.7528
G1 X-9.394 Y25.3046
G1 X-10.147 Y23.7124
G1 X-10.275 Y23.3344
G1 X-10.450 Y22.6817
G1 X-10.625 Y22.0271
G1 X-10.703 Y21.6360
G1 X-10.847 Y19.8808
G1 X-10.703 Y18.1256
G1 X-10.625 Y17.7346
G1 X-10.275 Y16.4263
G1 X-10.147 Y16.0482
G1 X-9.394 Y14.4560
G1 X-8.391 Y13.0088
G1 X-8.128 Y12.7088
G1 X-7.171 Y11.7515
G1 X-6.871 Y11.4884
G1 X-5.423 Y10.4852
G1 X-3.831 Y9.7330
G1 X-3.457 Y9.6069
G1 X-1.741 Y9.1756
G1 X-0.051 Y9.0363
ID=1 WHEN $AC_TIMER[1]>=0 DO M51
G1 X-0.955 Y9.412 F3000
ID=1 WHEN $AC_TIMER[1]>=0 DO M50
G1 X-0.001 Y9.3281 F600
G1 X1.698 Y9.4687
G1 X3.327 Y9.8769
G1 X3.750 Y10.0207
G1 X5.277 Y10.7427
G1 X6.666 Y11.7037
G1 X6.998 Y11.9955
G1 X7.886 Y12.8830
G1 X8.178 Y13.2167
G1 X9.139 Y14.6047
G1 X9.861 Y16.1317
G1 X10.003 Y16.5504
G1 X10.328 Y17.7630
G1 X10.415 Y18.1977
G1 X10.553 Y19.8807
G1 X10.415 Y21.5647
G1 X10.328 Y21.9984
G1 X10.003 Y23.2100
G1 X9.862 Y23.6287
G1 X9.719 Y23.9339
G1 X9.139 Y25.1569
G1 X8.178 Y26.5457
G1 X7.886 Y26.8774
G1 X7.442 Y27.3212
G1 X6.998 Y27.7650
G1 X6.666 Y28.0577
G1 X5.277 Y29.0187
G1 X3.750 Y29.7407
G1 X3.331 Y29.8834
G1 X2.725 Y30.0452
G1 X2.118 Y30.2079
G1 X1.684 Y30.2947
G1 X0.001 Y30.4327
G1 X-1.682 Y30.2947
G1 X-2.116 Y30.2074
G1 X-2.723 Y30.0451
G1 X-3.329 Y29.8839
G1 X-3.748 Y29.7406
G1 X-5.275 Y29.0186
G1 X-6.664 Y28.0576
G1 X-6.996 Y27.7654
G1 X-7.440 Y27.3211
G1 X-7.884 Y26.8779
G1 X-8.176 Y26.5456
G1 X-9.137 Y25.1566
G1 X-9.859 Y23.6296
G1 X-10.001 Y23.2103
G1 X-10.326 Y21.9989
G1 X-10.413 Y21.5646
G1 X-10.551 Y19.8854
G1 X-10.522 Y19.4461
G1 X-10.411 Y18.1823
G1 X-9.995 Y16.5256
G1 X-9.857 Y16.2293
G1 X-9.730 Y15.8555
G1 X-9.137 Y14.6046
G1 X-8.168 Y13.2040
G1 X-6.979 Y11.9764
G1 X-6.711 Y11.7891
G1 X-6.414 Y11.5293
G1 X-5.275 Y10.7424
G1 X-3.736 Y10.0148
G1 X-1.997 Y9.5295
ID=1 WHEN $AC_TIMER[1]>=0 DO M51
G1 X-1.754 Y-9.176 F3000
ID=1 WHEN $AC_TIMER[1]>=0 DO M50
G1 X-2.146 Y-9.2540 F600
G1 X-2.782 Y-9.4257
G1 X-3.206 Y-9.5694
G1 X-3.847 Y-9.7402
G1 X-5.423 Y-10.4865
G1 X-6.587 Y-11.2896
G1 X-6.923 Y-11.5830
G1 X-7.189 Y-11.7700
G1 X-8.399 Y-13.0195
G1 X-9.394 Y-14.4569
G1 X-10.000 Y-15.7340
G1 X-10.144 Y-16.1574
G1 X-10.283 Y-16.4555
G1 X-10.608 Y-17.6692
G1 X-10.703 Y-18.1276
G1 X-10.847 Y-19.8807
G1 X-10.703 Y-21.6365
G1 X-10.625 Y-22.0274
G1 X-10.275 Y-23.3341
G1 X-10.147 Y-23.7121
G1 X-9.394 Y-25.3049
G1 X-8.391 Y-26.7527
G1 X-8.128 Y-27.0526
G1 X-7.171 Y-28.0103
G1 X-6.871 Y-28.2723
G1 X-5.423 Y-29.2751
G1 X-3.831 Y-30.0288
G1 X-3.453 Y-30.1568
G1 X-2.146 Y-30.5065
G1 X-1.754 Y-30.5845
G1 X-0.001 Y-30.7282
G1 X1.758 Y-30.5844
G1 X2.147 Y-30.5060
G1 X3.455 Y-30.1567
G1 X3.833 Y-30.0286
G1 X5.425 Y-29.2754
G1 X6.873 Y-28.2722
G1 X7.173 Y-28.0102
G1 X8.130 Y-27.0528
G1 X8.393 Y-26.7528
G1 X9.396 Y-25.3049
G1 X10.148 Y-23.7134
G1 X10.277 Y-23.3344
G1 X10.627 Y-22.0271
G1 X10.705 Y-21.6360
G1 X10.849 Y-19.8808
G1 X10.705 Y-18.1279
G1 X10.610 Y-17.6693
G1 X10.277 Y-16.4261
G1 X10.149 Y-16.0481
G1 X9.396 Y-14.4569
G1 X8.393 Y-13.0087
G1 X8.130 Y-12.7087
G1 X7.173 Y-11.7513
G1 X6.873 Y-11.4883
G1 X5.425 Y-10.4851
G1 X3.833 Y-9.7339
G1 X3.455 Y-9.6049
G1 X1.738 Y-9.1756
G1 X0.001 Y-9.0327
G1 X-0.708 Y-9.0901
ID=1 WHEN $AC_TIMER[1]>=0 DO M51
G1 X1.171 Y-9.395 F3000
ID=1 WHEN $AC_TIMER[1]>=0 DO M50
G1 X-0.250 Y-9.3338 F600
G1 X-1.878 Y-9.5042
G1 X-2.309 Y-9.5907
G1 X-3.479 Y-9.9341
G1 X-3.896 Y-10.0760
G1 X-5.391 Y-10.8114
G1 X-6.656 Y-11.6979
G1 X-6.985 Y-11.9862
G1 X-7.779 Y-12.7615
G1 X-8.062 Y-13.0832
G1 X-8.533 Y-13.6783
G1 X-9.211 Y-14.7663
G1 X-9.522 Y-15.3513
G1 X-9.891 Y-16.2463
G1 X-10.080 Y-16.7773
G1 X-10.422 Y-18.2490
G1 X-10.550 Y-19.8777
G1 X-10.460 Y-21.2605
G1 X-10.164 Y-22.7105
G1 X-9.662 Y-24.1150
G1 X-8.951 Y-25.4596
G1 X-8.710 Y-25.8199
G1 X-8.084 Y-26.6523
G1 X-7.795 Y-26.9810
G1 X-6.682 Y-28.0431
G1 X-5.395 Y-28.9476
G1 X-3.974 Y-29.6548
G1 X-2.444 Y-30.1429
G1 X-2.014 Y-30.2275
G1 X-0.838 Y-30.3914
G1 X-0.398 Y-30.4202
G1 X1.221 Y-30.3615
G1 X2.839 Y-30.0427
G1 X4.401 Y-29.4668
G1 X4.796 Y-29.2718
G1 X5.861 Y-28.6411
G1 X6.225 Y-28.3985
G1 X7.406 Y-27.3973
G1 X8.421 Y-26.2392
G1 X9.234 Y-24.9877
G1 X9.875 Y-23.5942
G1 X10.304 Y-22.1365
G1 X10.519 Y-20.6300
G1 X10.507 Y-20.2823
G1 X10.533 Y-19.8874
G1 X10.478 Y-18.6366
G1 X10.202 Y-17.1825
G1 X9.717 Y-15.7667
G1 X9.022 Y-14.4095
G1 X8.281 Y-13.3419
G1 X7.233 Y-12.1996
G1 X6.023 Y-11.2238
G1 X5.607 Y-10.9524
G1 X4.661 Y-10.4268
G1 X4.268 Y-10.2327
G1 X2.764 Y-9.6974
G1 X2.202 Y-9.5900
ID=1 WHEN $AC_TIMER[1]>=0 DO M51
ID=1 WHEN $AC_TIMER[1]>=0 DO M51
G1 Z4.000 F3000

ID=1 WHEN $AC_TIMER[1]>=0 DO M50
G1 X0.699 Y9.014 F3000
ID=1 WHEN $AC_TIMER[1]>=0 DO M50
G1 X1.661 Y9.0823 F600
G1 X2.342 Y9.2170
G1 X2.786 Y9.3369
G1 X3.494 Y9.5764
G1 X3.941 Y9.6966
G1 X5.425 Y10.4060
G1 X6.594 Y11.2059
G1 X7.153 Y11.6953
G1 X7.341 Y11.8275
G1 X7.645 Y12.1313
G1 X8.138 Y12.6928
G1 X8.467 Y13.0228
G1 X9.005 Y13.7902
G1 X9.395 Y14.3731
G1 X10.008 Y15.6534
G1 X10.247 Y16.3578
G1 X10.344 Y16.5650
G1 X10.456 Y16.9808
G1 X10.601 Y17.7133
G1 X10.721 Y18.1605
G1 X10.849 Y19.8006
G1 X10.720 Y21.4584
G1 X10.584 Y22.1414
G1 X10.337 Y23.0645
G1 X10.113 Y23.7245
G1 X9.396 Y25.2252
G1 X8.455 Y26.5960
G1 X7.996 Y27.1190
G1 X7.320 Y27.7951
G1 X6.794 Y28.2569
G1 X6.012 Y28.8040
G1 X5.428 Y29.1946
G1 X3.925 Y29.9128
G1 X3.265 Y30.1368
G1 X2.342 Y30.3838
G1 X1.659 Y30.5198
G1 X0.001 Y30.6496
G1 X-1.657 Y30.5194
G1 X-2.340 Y30.3834
G1 X-3.263 Y30.1365
G1 X-3.923 Y29.9125
G1 X-5.424 Y29.1956
G1 X-6.617 Y28.3795
G1 X-6.792 Y28.2563
G1 X-7.318 Y27.7951
G1 X-7.994 Y27.1191
G1 X-8.453 Y26.5961
G1 X-9.394 Y25.2259
G1 X-10.111 Y23.7247
G1 X-10.335 Y23.0647
G1 X-10.458 Y22.6032
G1 X-10.582 Y22.1418
G1 X-10.718 Y21.4588
G1 X-10.847 Y19.8006
G1 X-10.718 Y18.1423
G1 X-10.582 Y17.4593
G1 X-10.458 Y16.9989
G1 X-10.335 Y16.5364
G1 X-10.111 Y15.8774
G1 X-9.394 Y14.3765
G1 X-8.455 Y13.0072
G1 X-7.994 Y12.4810
G1 X-7.318 Y11.8061
G1 X-6.794 Y11.3471
G1 X-5.423 Y10.4059
G1 X-3.923 Y9.6896
G1 X-3.263 Y9.4656
G1 X-2.819 Y9.3465
G1 X-2.086 Y9.2001
G1 X-1.639 Y9.0803
G1 X-0.348 Y8.9799
ID=1 WHEN $AC_TIMER[1]>=0 DO M51
G1 X-0.693 Y9.309 F3000
ID=1 WHEN $AC_TIMER[1]>=0 DO M50
G1 X-0.002 Y9.2481 F600
G1 X1.615 Y9.3757
G1 X2.067 Y9.4962
G1 X2.709 Y9.6231
G1 X3.164 Y9.7450
G1 X3.832 Y9.9724
G1 X5.277 Y10.6625
G1 X6.597 Y11.5685
G1 X7.127 Y12.0339
G1 X7.768 Y12.6743
G1 X8.231 Y13.2030
G1 X9.139 Y14.5251
G1 X9.829 Y15.9698
G1 X10.056 Y16.6373
G1 X10.290 Y17.5127
G1 X10.428 Y18.2041
G1 X10.553 Y19.8002
G1 X10.428 Y21.3962
G1 X10.290 Y22.0886
G1 X10.056 Y22.9640
G1 X9.829 Y23.6325
G1 X9.139 Y25.0765
G1 X8.233 Y26.3965
G1 X7.768 Y26.9260
G1 X7.127 Y27.5674
G1 X6.599 Y28.0310
G1 X5.276 Y28.9392
G1 X3.832 Y29.6289
G1 X3.164 Y29.8553
G1 X2.289 Y30.0907
G1 X1.597 Y30.2272
G1 X0.001 Y30.3522
G1 X-1.595 Y30.2272
G1 X-2.287 Y30.0907
G1 X-3.162 Y29.8551
G1 X-3.831 Y29.6286
G1 X-5.272 Y28.9402
G1 X-6.597 Y28.0314
G1 X-7.125 Y27.5670
G1 X-7.766 Y26.9264
G1 X-8.231 Y26.3969
G1 X-9.137 Y25.0769
G1 X-9.827 Y23.6329
G1 X-10.054 Y22.9644
G1 X-10.289 Y22.0888
G1 X-10.426 Y21.3962
G1 X-10.551 Y19.8003
G1 X-10.425 Y18.1945
G1 X-10.049 Y16.6154
G1 X-9.947 Y16.3952
G1 X-9.735 Y15.7712
G1 X-9.138 Y14.5272
G1 X-8.219 Y13.1888
G1 X-7.890 Y12.8595
G1 X-7.458 Y12.3674
G1 X-7.104 Y12.0124
G1 X-6.911 Y11.8778
G1 X-6.416 Y11.4438
G1 X-5.275 Y10.6622
G1 X-3.821 Y9.9682
G1 X-2.295 Y9.5129
G1 X-1.738 Y9.4024
ID=1 WHEN $AC_TIMER[1]>=0 DO M51
G1 X0.001 Y-8.952 F3000
ID=1 WHEN $AC_TIMER[1]>=0 DO M50
G1 X-1.657 Y-9.0818 F600
G1 X-2.340 Y-9.2178
G1 X-2.784 Y-9.3367
G1 X-3.492 Y-9.5762
G1 X-3.939 Y-9.6964
G1 X-5.424 Y-10.4068
G1 X-6.592 Y-11.2057
G1 X-7.151 Y-11.6951
G1 X-7.339 Y-11.8273
G1 X-7.643 Y-12.1311
G1 X-8.136 Y-12.6926
G1 X-8.465 Y-13.0226
G1 X-9.003 Y-13.7900
G1 X-9.393 Y-14.3739
G1 X-10.006 Y-15.6532
G1 X-10.246 Y-16.3576
G1 X-10.343 Y-16.5658
G1 X-10.570 Y-17.4139
G1 X-10.718 Y-18.1435
G1 X-10.847 Y-19.8005
G1 X-10.718 Y-21.4583
G1 X-10.582 Y-22.1413
G1 X-10.458 Y-22.6038
G1 X-10.335 Y-23.0653
G1 X-10.111 Y-23.7243
G1 X-9.394 Y-25.2254
G1 X-8.455 Y-26.5941
G1 X-7.994 Y-27.1199
G1 X-7.318 Y-27.7950
G1 X-6.794 Y-28.2540
G1 X-5.423 Y-29.1958
G1 X-3.923 Y-29.9125
G1 X-3.263 Y-30.1365
G1 X-2.340 Y-30.3836
G1 X-1.657 Y-30.5196
G1 X-0.002 Y-30.6486
G1 X1.661 Y-30.5195
G1 X2.342 Y-30.3831
G1 X3.265 Y-30.1362
G1 X3.927 Y-29.9110
G1 X5.422 Y-29.1976
G1 X6.796 Y-28.2548
G1 X7.320 Y-27.7958
G1 X7.996 Y-27.1199
G1 X8.455 Y-26.5969
G1 X9.396 Y-25.2257
G1 X10.113 Y-23.7245
G1 X10.337 Y-23.0655
G1 X10.584 Y-22.1415
G1 X10.720 Y-21.4585
G1 X10.849 Y-19.8003
G1 X10.720 Y-18.1433
G1 X10.572 Y-17.4139
G1 X10.337 Y-16.5361
G1 X10.113 Y-15.8771
G1 X9.396 Y-14.3769
G1 X8.455 Y-13.0057
G1 X7.996 Y-12.4817
G1 X7.320 Y-11.8067
G1 X6.794 Y-11.3456
G1 X5.428 Y-10.4071
G1 X3.925 Y-9.6893
G1 X3.265 Y-9.4653
G1 X2.821 Y-9.3462
G1 X2.088 Y-9.2008
G1 X1.641 Y-9.0800
G1 X1.048 Y-9.0348
ID=1 WHEN $AC_TIMER[1]>=0 DO M51
