; generated by Slic3r 1.2.9 on 2017-11-29 at 12:34:29

; external perimeters extrusion width = 1.10mm
; perimeters extrusion width = 1.10mm
; infill extrusion width = 1.10mm
; solid infill extrusion width = 1.10mm
; top infill extrusion width = 1.10mm

H=2000
$ac_timer[1]=0
;General Config.--------------------
G91			;relative positioning
G641			;
G603			;
M55			;home mirror
G4F4			;necessary delay for positioning of the mirror				
M0			;wait for user-input

;R-Parameters-----------------------
R0=1500			;Laser Power

;Process Start-up--------------------
M56			;set canal 1 as laser-source
G4F4			;necessary delay for positioning of the mirror
M0			;wait for user-input
;START POWDER!!!
G4F10
H=2000
G54

;Laser On and Path------------------
G90 ; use absolute coordinates
ID=1 WHEN $AC_TIMER[1]>=0 DO M51
G1 Z0.000 F2000

ID=1 WHEN $AC_TIMER[1]>=0 DO M50
G1 X-8.525 Y0.665 F2000
ID=1 WHEN $AC_TIMER[1]>=0 DO M50
G1 X-8.550 Y0.0061 F600
G1 X-8.525 Y-0.6656
G1 X-8.327 Y-1.9496
G1 X-7.932 Y-3.1979
G1 X-7.351 Y-4.3703
G1 X-6.597 Y-5.4416
G1 X-5.690 Y-6.3840
G1 X-4.648 Y-7.1783
G1 X-3.498 Y-7.8036
G1 X-2.266 Y-8.2460
G1 X-0.981 Y-8.4953
G1 X0.315 Y-8.5451
G1 X1.628 Y-8.3956
G1 X2.891 Y-8.0482
G1 X4.085 Y-7.5136
G1 X5.184 Y-6.8019
G1 X6.162 Y-5.9302
G1 X6.995 Y-4.9206
G1 X7.664 Y-3.7959
G1 X8.153 Y-2.5802
G1 X8.451 Y-1.3056
G1 X8.552 Y-0.0009
G1 X8.451 Y1.3052
G1 X8.153 Y2.5806
G1 X7.664 Y3.7959
G1 X6.995 Y4.9203
G1 X6.162 Y5.9306
G1 X5.184 Y6.8019
G1 X4.085 Y7.5133
G1 X2.891 Y8.0486
G1 X1.628 Y8.3959
G1 X0.328 Y8.5453
G1 X-0.981 Y8.4956
G1 X-2.266 Y8.2469
G1 X-3.498 Y7.8033
G1 X-4.648 Y7.1786
G1 X-5.690 Y6.3840
G1 X-6.597 Y5.4413
G1 X-7.351 Y4.3706
G1 X-7.932 Y3.1970
G1 X-8.327 Y1.9493
G1 X-8.365 Y1.7039
ID=1 WHEN $AC_TIMER[1]>=0 DO M51
G1 X-15.393 Y1.037 F2000
ID=1 WHEN $AC_TIMER[1]>=0 DO M50
G1 X-15.449 Y-0.0006 F600
G1 X-15.359 Y-1.6702
G1 X-15.088 Y-3.3218
G1 X-14.640 Y-4.9334
G1 X-14.021 Y-6.4871
G1 X-13.288 Y-7.8719
G1 X-12.298 Y-9.3511
G1 X-11.216 Y-10.6245
G1 X-10.002 Y-11.7752
G1 X-8.670 Y-12.7878
G1 X-7.237 Y-13.6504
G1 X-5.718 Y-14.3521
G1 X-4.133 Y-14.8867
G1 X-2.499 Y-15.2463
G1 X-0.836 Y-15.4279
G1 X0.836 Y-15.4276
G1 X2.393 Y-15.2574
G1 X4.135 Y-14.8866 F600
G1 X5.718 Y-14.3520
G1 X7.237 Y-13.6507
G1 X8.670 Y-12.7873
G1 X10.002 Y-11.7759
G1 X11.216 Y-10.6245
G1 X12.299 Y-9.3492
G1 X13.238 Y-7.9658
G1 X14.021 Y-6.4874
G1 X14.640 Y-4.9331
G1 X15.088 Y-3.3217
G1 X15.359 Y-1.6703
G1 X15.449 Y-0.0009
G1 X15.359 Y1.6706
G1 X15.088 Y3.3212
G1 X14.640 Y4.9338
G1 X14.021 Y6.4875
G1 X13.238 Y7.9651
G1 X12.299 Y9.3497
G1 X11.216 Y10.6243
G1 X10.002 Y11.7750
G1 X8.670 Y12.7876
G1 X7.237 Y13.6502
G1 X5.718 Y14.3529
G1 X4.133 Y14.8865
G1 X2.603 Y15.2233
G1 X0.835 Y15.4276
G1 X-0.836 Y15.4270
G1 X-2.499 Y15.2466
G1 X-4.133 Y14.8862
G1 X-5.718 Y14.3528
G1 X-7.237 Y13.6505
G1 X-8.670 Y12.7871
G1 X-10.002 Y11.7757
G1 X-11.216 Y10.6244
G1 X-12.299 Y9.3490
G1 X-13.238 Y7.9656
G1 X-14.021 Y6.4872
G1 X-14.640 Y4.9339
G1 X-15.088 Y3.3215
G1 X-15.291 Y2.0819
ID=1 WHEN $AC_TIMER[1]>=0 DO M51
G1 X-10.384 Y10.560 F2000
ID=1 WHEN $AC_TIMER[1]>=0 DO M50
G1 X10.384 Y10.5601 F600
G1 X9.213 Y11.5669
G1 X-9.213 Y11.5669
G1 X-7.728 Y12.5712
G1 X7.728 Y12.5719
ID=1 WHEN $AC_TIMER[1]>=0 DO M51
G1 X5.729 Y13.577 F2000
ID=1 WHEN $AC_TIMER[1]>=0 DO M50
G1 X-5.729 Y13.5779 F600
ID=1 WHEN $AC_TIMER[1]>=0 DO M51
G1 X-1.273 Y14.583 F2000
ID=1 WHEN $AC_TIMER[1]>=0 DO M50
G1 X1.259 Y14.5831 F600
ID=1 WHEN $AC_TIMER[1]>=0 DO M51
G1 X-12.141 Y-8.549 F2000
ID=1 WHEN $AC_TIMER[1]>=0 DO M50
G1 X-3.555 Y-8.5495 F600
G1 X-5.231 Y-7.5431
G1 X-12.814 Y-7.5438
G1 X-13.360 Y-6.5375
G1 X-6.388 Y-6.5373
G1 X-7.243 Y-5.5313
G1 X-13.813 Y-5.5316
G1 X-14.196 Y-4.5263
G1 X-7.895 Y-4.5261
G1 X-8.393 Y-3.5201
G1 X-14.476 Y-3.5203
G1 X-14.683 Y-2.5144
G1 X-8.714 Y-2.5140
G1 X-8.930 Y-1.5094
G1 X-14.840 Y-1.5093
G1 X-14.895 Y-0.5035
G1 X-9.058 Y-0.5033
G1 X-9.058 Y0.5035
G1 X-14.895 Y0.5032
G1 X-14.840 Y1.5094
G1 X-8.930 Y1.5093
G1 X-8.714 Y2.5147
G1 X-14.683 Y2.5143
G1 X-14.476 Y3.5204
G1 X-8.393 Y3.5206
G1 X-7.895 Y4.5266
G1 X-14.196 Y4.5264
G1 X-13.813 Y5.5311
G1 X-7.243 Y5.5315
G1 X-6.388 Y6.5374
G1 X-13.360 Y6.5372
G1 X-12.826 Y7.5437
G1 X-5.231 Y7.5433
G1 X-3.555 Y8.5499
G1 X-12.145 Y8.5498
G1 X-11.342 Y9.5543
G1 X11.342 Y9.55498
G1 X12.145 Y8.54933
G1 X3.491 Y8.54900
G1 X5.256 Y7.54369
G1 X12.826 Y7.54325
G1 X13.360 Y6.53719
G1 X6.421 Y6.53747
G1 X7.260 Y5.53147
G1 X13.813 Y5.53160
G1 X14.196 Y4.52617
G1 X7.890 Y4.52603
G1 X8.365 Y3.52014
G1 X14.476 Y3.52024
G1 X14.683 Y2.51435
G1 X8.717 Y2.51432
G1 X8.952 Y1.50985
G1 X14.840 Y1.50931
G1 X14.895 Y0.50303
G1 X9.041 Y0.50305
G1 X9.041 Y-0.50367
G1 X14.895 Y-0.50368
G1 X14.840 Y-1.50941
G1 X8.952 Y-1.50987
G1 X8.717 Y-2.51439
G1 X14.683 Y-2.51436
G1 X14.476 Y-3.52047
G1 X8.365 Y-3.52058
G1 X7.890 Y-4.52668
G1 X14.196 Y-4.52654
G1 X13.813 Y-5.53112
G1 X7.260 Y-5.53125
G1 X6.421 Y-6.53724
G1 X13.360 Y-6.53752
G1 X12.826 Y-7.54347
G1 X5.257 Y-7.54302
G1 X3.491 Y-8.54971
G1 X12.145 Y-8.54938
G1 X11.342 Y-9.55473
G1 X-11.342 Y-9.55458
G1 X-10.384 Y-10.56011
G1 X10.384 Y-10.56043
G1 X9.213 Y-11.56681
G1 X-9.213 Y-11.56671
G1 X-7.728 Y-12.57164
G1 X7.728 Y-12.57101
ID=1 WHEN $AC_TIMER[1]>=0 DO M51
G1 X5.729 Y-13.577 F2000
ID=1 WHEN $AC_TIMER[1]>=0 DO M50
G1 X-5.729 Y-13.5779 F600
ID=1 WHEN $AC_TIMER[1]>=0 DO M51
G1 X-1.273 Y-14.583 F2000
ID=1 WHEN $AC_TIMER[1]>=0 DO M50
G1 X1.273 Y-14.5834 F600
ID=1 WHEN $AC_TIMER[1]>=0 DO M51
ID=1 WHEN $AC_TIMER[1]>=0 DO M51
G1 Z0.500 F2000
H=1800
ID=1 WHEN $AC_TIMER[1]>=0 DO M50
G1 X-8.327 Y1.949 F2000
ID=1 WHEN $AC_TIMER[1]>=0 DO M50
G1 X-8.525 Y0.6659 F600
G1 X-8.550 Y0.0184
G1 X-8.525 Y-0.6642
G1 X-8.327 Y-1.9495
G1 X-7.932 Y-3.1978
G1 X-7.351 Y-4.3702
G1 X-6.597 Y-5.4415
G1 X-5.690 Y-6.3848
G1 X-4.648 Y-7.1782
G1 X-3.498 Y-7.8035
G1 X-2.266 Y-8.2468
G1 X-0.981 Y-8.4952
G1 X0.291 Y-8.5449
G1 X1.627 Y-8.3967
G1 X2.891 Y-8.0489
G1 X4.085 Y-7.5132
G1 X5.184 Y-6.8016
G1 X6.162 Y-5.9309
G1 X6.995 Y-4.9203
G1 X7.645 Y-3.8269
G1 X8.153 Y-2.5818
G1 X8.451 Y-1.3050
G1 X8.552 Y-0.0003
G1 X8.451 Y1.3057
G1 X8.153 Y2.5800
G1 X7.664 Y3.7953
G1 X6.995 Y4.9207
G1 X6.162 Y5.9300
G1 X5.184 Y6.8013
G1 X4.085 Y7.5137
G1 X2.924 Y8.0334
G1 X1.629 Y8.3952
G1 X0.328 Y8.5454
G1 X-0.981 Y8.4957
G1 X-2.266 Y8.2461
G1 X-3.498 Y7.8034
G1 X-4.648 Y7.1787
G1 X-5.690 Y6.3841
G1 X-6.597 Y5.4414
G1 X-7.351 Y4.3708
G1 X-7.932 Y3.1971
G1 X-8.010 Y2.9501
ID=1 WHEN $AC_TIMER[1]>=0 DO M51
G1 X-14.958 Y3.790 F2000
ID=1 WHEN $AC_TIMER[1]>=0 DO M50
G1 X-15.088 Y3.3215 F600
G1 X-15.359 Y1.6701
G1 X-15.449 Y-0.0007
G1 X-15.359 Y-1.6703
G1 X-15.088 Y-3.3210
G1 X-14.640 Y-4.9336
G1 X-14.021 Y-6.4872
G1 X-13.238 Y-7.9659
G1 X-12.299 Y-9.3495
G1 X-11.216 Y-10.6241
G1 X-10.002 Y-11.7757
G1 X-8.670 Y-12.7874
G1 X-7.237 Y-13.6500
G1 X-5.718 Y-14.3526
G1 X-4.133 Y-14.8862
G1 X-2.499 Y-15.2469
G1 X-0.836 Y-15.4275
G1 X0.836 Y-15.4271
G1 X2.206 Y-15.2786
G1 X2.499 Y-15.2468 F600
G1 X4.133 Y-14.8864
G1 X5.718 Y-14.3520
G1 X7.237 Y-13.6506
G1 X8.670 Y-12.7873
G1 X10.002 Y-11.7759
G1 X11.216 Y-10.6245
G1 X12.299 Y-9.3492
G1 X13.238 Y-7.9658
G1 X14.021 Y-6.4874
G1 X14.640 Y-4.9330
G1 X15.088 Y-3.3217
G1 X15.359 Y-1.6703
G1 X15.449 Y-0.0009
G1 X15.359 Y1.6706
G1 X15.088 Y3.3212
G1 X14.640 Y4.9338
G1 X14.021 Y6.4874
G1 X13.238 Y7.9651
G1 X12.299 Y9.3497
G1 X11.216 Y10.6243
G1 X10.002 Y11.7750
G1 X8.670 Y12.7876
G1 X7.237 Y13.6502
G1 X5.718 Y14.3528
G1 X4.133 Y14.8865
G1 X2.788 Y15.1829
G1 X2.499 Y15.2461
G1 X0.836 Y15.4277
G1 X-0.836 Y15.4274
G1 X-2.499 Y15.2460
G1 X-4.133 Y14.8866
G1 X-5.718 Y14.3522
G1 X-7.237 Y13.6509
G1 X-8.670 Y12.7875
G1 X-10.002 Y11.7751
G1 X-11.216 Y10.6248
G1 X-12.299 Y9.3494
G1 X-13.238 Y7.9650
G1 X-14.021 Y6.4876
G1 X-14.640 Y4.9333
G1 X-14.677 Y4.8012
ID=1 WHEN $AC_TIMER[1]>=0 DO M51
G1 X-13.597 Y5.624 F2000
ID=1 WHEN $AC_TIMER[1]>=0 DO M50
G1 X-13.597 Y-5.6245 F600
ID=1 WHEN $AC_TIMER[1]>=0 DO M51
G1 X-14.604 Y-0.667 F2000
ID=1 WHEN $AC_TIMER[1]>=0 DO M50
G1 X-14.604 Y0.6679 F600
ID=1 WHEN $AC_TIMER[1]>=0 DO M51
G1 X-12.590 Y7.726 F2000
ID=1 WHEN $AC_TIMER[1]>=0 DO M50
G1 X-12.590 Y-7.7265 F600
G1 X-11.583 Y-9.2185
G1 X-11.583 Y9.2184
G1 X-10.575 Y10.3947
G1 X-10.575 Y-10.3943
ID=1 WHEN $AC_TIMER[1]>=0 DO M51
G1 X8.561 Y-12.133 F2000
ID=1 WHEN $AC_TIMER[1]>=0 DO M50
G1 X8.561 Y-3.4645 F600
G1 X7.554 Y-5.2397
G1 X7.554 Y-12.7957
G1 X6.547 Y-13.3592
G1 X6.547 Y-6.3929
G1 X5.540 Y-7.2559
G1 X5.540 Y-13.8254
G1 X4.532 Y-14.1804
G1 X4.532 Y-7.9074
G1 X3.525 Y-8.3695
G1 X3.525 Y-14.4746
G1 X2.518 Y-14.6968
G1 X2.518 Y-8.7070
G1 X1.511 Y-8.9398
G1 X1.511 Y-14.8227
G1 X0.504 Y-14.8811
G1 X0.504 Y-9.0513
G1 X-0.504 Y-9.0406
G1 X-0.504 Y-14.8818
G1 X-1.511 Y-14.8222
G1 X-1.511 Y-8.9341
G1 X-2.518 Y-8.7333
G1 X-2.518 Y-14.6964
G1 X-3.525 Y-14.4746
G1 X-3.525 Y-8.3710
G1 X-4.532 Y-7.8816
G1 X-4.532 Y-14.1808
G1 X-5.540 Y-13.8258
G1 X-5.540 Y-7.2379
G1 X-6.547 Y-6.3846
G1 X-6.547 Y-13.3594
G1 X-7.554 Y-12.7959
G1 X-7.554 Y-5.2153
G1 X-8.561 Y-3.4846
G1 X-8.561 Y-12.1336
G1 X-9.568 Y-11.3480
G1 X-9.568 Y11.34875
G1 X-8.561 Y12.13340
G1 X-8.561 Y3.48469
G1 X-7.554 Y5.21532
G1 X-7.554 Y12.79557
G1 X-6.547 Y13.35962
G1 X-6.547 Y6.38439
G1 X-5.540 Y7.23707
G1 X-5.540 Y13.82568
G1 X-4.532 Y14.18067
G1 X-4.532 Y7.88199
G1 X-3.525 Y8.37165
G1 X-3.525 Y14.47420
G1 X-2.518 Y14.69661
G1 X-2.518 Y8.73333
G1 X-1.511 Y8.93444
G1 X-1.511 Y14.82294
G1 X-0.504 Y14.88178
G1 X-0.504 Y9.04089
G1 X0.504 Y9.05663
G1 X0.504 Y14.88159
G1 X1.511 Y14.82243
G1 X1.511 Y8.94047
G1 X2.518 Y8.70411
G1 X2.518 Y14.69683
G1 X3.525 Y14.47425
G1 X3.525 Y8.36997
G1 X4.532 Y7.90777
G1 X4.532 Y14.18028
G1 X5.540 Y13.82527
G1 X5.540 Y7.25563
G1 X6.547 Y6.39272
G1 X6.547 Y13.35990
G1 X7.554 Y12.79595
G1 X7.554 Y5.23954
G1 X8.561 Y3.47423
G1 X8.561 Y12.13326
G1 X9.568 Y11.34891
G1 X9.568 Y-11.34866
G1 X10.575 Y-10.39407
G1 X10.575 Y10.39483
G1 X11.583 Y9.21857
G1 X11.583 Y-9.21815
G1 X12.590 Y-7.72655
G1 X12.590 Y7.72660
ID=1 WHEN $AC_TIMER[1]>=0 DO M51
G1 X13.597 Y5.624 F2000
ID=1 WHEN $AC_TIMER[1]>=0 DO M50
G1 X13.597 Y-5.6244 F600
ID=1 WHEN $AC_TIMER[1]>=0 DO M51
G1 X14.604 Y-0.667 F2000
ID=1 WHEN $AC_TIMER[1]>=0 DO M50
G1 X14.604 Y0.6670 F600
ID=1 WHEN $AC_TIMER[1]>=0 DO M51
ID=1 WHEN $AC_TIMER[1]>=0 DO M51
G1 Z1.000 F2000

ID=1 WHEN $AC_TIMER[1]>=0 DO M50
G1 X-8.525 Y0.665 F2000
ID=1 WHEN $AC_TIMER[1]>=0 DO M50
G1 X-8.549 Y0.0300 F600
G1 X-8.525 Y-0.6640
G1 X-8.327 Y-1.9496
G1 X-7.932 Y-3.1979
G1 X-7.351 Y-4.3702
G1 X-6.632 Y-5.3919
G1 X-5.691 Y-6.3831
G1 X-4.648 Y-7.1788
G1 X-3.498 Y-7.8031
G1 X-2.266 Y-8.2465
G1 X-0.981 Y-8.4958
G1 X0.267 Y-8.5434
G1 X1.626 Y-8.3966
G1 X2.891 Y-8.0483
G1 X4.085 Y-7.5137
G1 X5.184 Y-6.8010
G1 X6.162 Y-5.9304
G1 X6.995 Y-4.9207
G1 X7.664 Y-3.7950
G1 X8.153 Y-2.5804
G1 X8.451 Y-1.3057
G1 X8.552 Y-0.0000
G1 X8.451 Y1.3054
G1 X8.153 Y2.5807
G1 X7.664 Y3.7950
G1 X6.995 Y4.9204
G1 X6.162 Y5.9307
G1 X5.184 Y6.8011
G1 X4.085 Y7.5134
G1 X2.891 Y8.0487
G1 X1.628 Y8.3951
G1 X0.328 Y8.5454
G1 X-0.981 Y8.4957
G1 X-2.266 Y8.2461
G1 X-3.441 Y7.8247
G1 X-4.647 Y7.1799
G1 X-5.690 Y6.3846
G1 X-6.597 Y5.4410
G1 X-7.351 Y4.3703
G1 X-7.932 Y3.1976
G1 X-8.327 Y1.9490
G1 X-8.365 Y1.7036
ID=1 WHEN $AC_TIMER[1]>=0 DO M51
G1 X-15.393 Y1.037 F2000
ID=1 WHEN $AC_TIMER[1]>=0 DO M50
G1 X-15.449 Y0.0006 F600
G1 X-15.359 Y-1.6702
G1 X-15.088 Y-3.3218
G1 X-14.640 Y-4.9334
G1 X-14.021 Y-6.4871
G1 X-13.238 Y-7.9657
G1 X-12.299 Y-9.3493
G1 X-11.216 Y-10.6240
G1 X-10.002 Y-11.7756
G1 X-8.670 Y-12.7872
G1 X-7.237 Y-13.6508
G1 X-5.718 Y-14.3525
G1 X-4.133 Y-14.8861
G1 X-2.499 Y-15.2467
G1 X-0.836 Y-15.4274
G1 X0.836 Y-15.4270
G1 X2.256 Y-15.2720
G1 X2.499 Y-15.2466 F600
G1 X4.133 Y-14.8862
G1 X5.718 Y-14.3529
G1 X7.237 Y-13.6505
G1 X8.670 Y-12.7871
G1 X10.002 Y-11.7758
G1 X11.216 Y-10.6244
G1 X12.299 Y-9.3490
G1 X13.238 Y-7.9656
G1 X14.021 Y-6.4873
G1 X14.640 Y-4.9339
G1 X15.088 Y-3.3215
G1 X15.359 Y-1.6702
G1 X15.449 Y-0.0008
G1 X15.359 Y1.6704
G1 X15.088 Y3.3210
G1 X14.640 Y4.9337
G1 X14.021 Y6.4873
G1 X13.238 Y7.9659
G1 X12.299 Y9.3496
G1 X11.216 Y10.6242
G1 X10.002 Y11.7758
G1 X8.670 Y12.7874
G1 X7.237 Y13.6501
G1 X5.718 Y14.3527
G1 X4.133 Y14.8863
G1 X2.499 Y15.2460
G1 X0.836 Y15.4276
G1 X-0.836 Y15.4272
G1 X-2.499 Y15.2468
G1 X-4.133 Y14.8865
G1 X-5.718 Y14.3521
G1 X-7.237 Y13.6507
G1 X-8.670 Y12.7874
G1 X-10.002 Y11.7750
G1 X-11.216 Y10.6246
G1 X-12.299 Y9.3492
G1 X-13.238 Y7.9659
G1 X-14.021 Y6.4875
G1 X-14.640 Y4.9331
G1 X-15.088 Y3.3218
G1 X-15.291 Y2.0812
ID=1 WHEN $AC_TIMER[1]>=0 DO M51
G1 X-10.384 Y10.560 F2000
ID=1 WHEN $AC_TIMER[1]>=0 DO M50
G1 X10.384 Y10.5601 F600
G1 X9.213 Y11.5669
G1 X-9.213 Y11.5669
G1 X-7.728 Y12.5712
G1 X7.728 Y12.5719
ID=1 WHEN $AC_TIMER[1]>=0 DO M51
G1 X5.729 Y13.577 F2000
ID=1 WHEN $AC_TIMER[1]>=0 DO M50
G1 X-5.729 Y13.5779 F600
ID=1 WHEN $AC_TIMER[1]>=0 DO M51
G1 X-1.273 Y14.583 F2000
ID=1 WHEN $AC_TIMER[1]>=0 DO M50
G1 X1.273 Y14.5834 F600
ID=1 WHEN $AC_TIMER[1]>=0 DO M51
G1 X-12.145 Y-8.549 F2000
ID=1 WHEN $AC_TIMER[1]>=0 DO M50
G1 X-3.555 Y-8.5498 F600
G1 X-5.231 Y-7.5435
G1 X-12.826 Y-7.5431
G1 X-13.360 Y-6.5376
G1 X-6.383 Y-6.5370
G1 X-7.243 Y-5.5313
G1 X-13.813 Y-5.5316
G1 X-14.196 Y-4.5264
G1 X-7.895 Y-4.5261
G1 X-8.393 Y-3.5201
G1 X-14.476 Y-3.5203
G1 X-14.683 Y-2.5144
G1 X-8.714 Y-2.5141
G1 X-8.930 Y-1.5095
G1 X-14.840 Y-1.5093
G1 X-14.895 Y-0.5035
G1 X-9.057 Y-0.5036
G1 X-9.058 Y0.5038
G1 X-14.895 Y0.5036
G1 X-14.840 Y1.5098
G1 X-8.930 Y1.5096
G1 X-8.714 Y2.5140
G1 X-14.683 Y2.5147
G1 X-14.476 Y3.5208
G1 X-8.393 Y3.5200
G1 X-7.895 Y4.5260
G1 X-14.196 Y4.5267
G1 X-13.813 Y5.5315
G1 X-7.243 Y5.5318
G1 X-6.388 Y6.5378
G1 X-13.360 Y6.5376
G1 X-12.826 Y7.5430
G1 X-5.231 Y7.5436
G1 X-3.535 Y8.5490
G1 X-12.145 Y8.5495
G1 X-11.342 Y9.5540
G1 X11.342 Y9.55485
G1 X12.145 Y8.54920
G1 X3.491 Y8.54987
G1 X5.256 Y7.54356
G1 X12.826 Y7.54312
G1 X13.360 Y6.53706
G1 X6.421 Y6.53734
G1 X7.260 Y5.53134
G1 X13.813 Y5.53147
G1 X14.196 Y4.52604
G1 X7.890 Y4.52690
G1 X8.365 Y3.52001
G1 X14.476 Y3.52011
G1 X14.683 Y2.51422
G1 X8.717 Y2.51419
G1 X8.952 Y1.50972
G1 X14.840 Y1.50918
G1 X14.895 Y0.50390
G1 X9.041 Y0.50392
G1 X9.041 Y-0.50354
G1 X14.895 Y-0.50355
G1 X14.840 Y-1.50928
G1 X8.952 Y-1.50974
G1 X8.717 Y-2.51426
G1 X14.683 Y-2.51423
G1 X14.476 Y-3.52034
G1 X8.365 Y-3.52045
G1 X7.890 Y-4.52655
G1 X14.196 Y-4.52641
G1 X13.813 Y-5.53199
G1 X7.260 Y-5.53112
G1 X6.421 Y-6.53711
G1 X13.360 Y-6.53739
G1 X12.826 Y-7.54334
G1 X5.257 Y-7.54389
G1 X3.491 Y-8.54958
G1 X12.145 Y-8.54925
G1 X11.342 Y-9.55460
G1 X-11.342 Y-9.55445
G1 X-10.384 Y-10.56098
G1 X10.384 Y-10.56030
G1 X9.213 Y-11.56668
G1 X-9.213 Y-11.56658
G1 X-7.728 Y-12.57151
G1 X7.728 Y-12.57188
ID=1 WHEN $AC_TIMER[1]>=0 DO M51
G1 X5.729 Y-13.577 F2000
ID=1 WHEN $AC_TIMER[1]>=0 DO M50
G1 X-5.729 Y-13.5779 F600
ID=1 WHEN $AC_TIMER[1]>=0 DO M51
G1 X-1.273 Y-14.583 F2000
ID=1 WHEN $AC_TIMER[1]>=0 DO M50
G1 X1.273 Y-14.5834 F600
ID=1 WHEN $AC_TIMER[1]>=0 DO M51
ID=1 WHEN $AC_TIMER[1]>=0 DO M51
G1 Z1.500 F2000

ID=1 WHEN $AC_TIMER[1]>=0 DO M50
G1 X-8.525 Y0.665 F2000
ID=1 WHEN $AC_TIMER[1]>=0 DO M50
G1 X-8.549 Y0.0435 F600
G1 X-8.525 Y-0.6647
G1 X-8.327 Y-1.9495
G1 X-7.932 Y-3.1979
G1 X-7.351 Y-4.3702
G1 X-6.646 Y-5.3718
G1 X-5.692 Y-6.3834
G1 X-4.648 Y-7.1786
G1 X-3.498 Y-7.8039
G1 X-2.266 Y-8.2463
G1 X-0.981 Y-8.4956
G1 X0.243 Y-8.5422
G1 X1.626 Y-8.3968
G1 X2.891 Y-8.0480
G1 X4.085 Y-7.5133
G1 X5.184 Y-6.8017
G1 X6.162 Y-5.9300
G1 X6.995 Y-4.9203
G1 X7.664 Y-3.7957
G1 X8.153 Y-2.5800
G1 X8.451 Y-1.3053
G1 X8.552 Y0.0007
G1 X8.451 Y1.3050
G1 X8.172 Y2.4976
G1 X7.665 Y3.7922
G1 X6.995 Y4.9204
G1 X6.162 Y5.9307
G1 X5.184 Y6.8011
G1 X4.085 Y7.5134
G1 X2.891 Y8.0487
G1 X1.628 Y8.3951
G1 X0.328 Y8.5454
G1 X-0.981 Y8.4957
G1 X-2.266 Y8.2461
G1 X-3.418 Y7.8327
G1 X-4.646 Y7.1802
G1 X-5.690 Y6.3844
G1 X-6.597 Y5.4418
G1 X-7.351 Y4.3701
G1 X-7.932 Y3.1975
G1 X-8.327 Y1.9498
G1 X-8.365 Y1.7034
ID=1 WHEN $AC_TIMER[1]>=0 DO M51
G1 X-15.393 Y1.037 F2000
ID=1 WHEN $AC_TIMER[1]>=0 DO M50
G1 X-15.449 Y-0.0006 F600
G1 X-15.359 Y-1.6702
G1 X-15.088 Y-3.3218
G1 X-14.640 Y-4.9334
G1 X-14.021 Y-6.4871
G1 X-13.238 Y-7.9657
G1 X-12.299 Y-9.3493
G1 X-11.216 Y-10.6240
G1 X-10.002 Y-11.7756
G1 X-8.670 Y-12.7872
G1 X-7.237 Y-13.6508
G1 X-5.718 Y-14.3525
G1 X-4.133 Y-14.8861
G1 X-2.499 Y-15.2467
G1 X-0.836 Y-15.4274
G1 X0.836 Y-15.4270
G1 X1.446 Y-15.3602
G1 X2.499 Y-15.2466 F600
G1 X4.133 Y-14.8862
G1 X5.718 Y-14.3529
G1 X7.237 Y-13.6505
G1 X8.670 Y-12.7871
G1 X10.002 Y-11.7758
G1 X11.216 Y-10.6244
G1 X12.299 Y-9.3490
G1 X13.238 Y-7.9656
G1 X14.021 Y-6.4873
G1 X14.640 Y-4.9339
G1 X15.088 Y-3.3215
G1 X15.359 Y-1.6702
G1 X15.449 Y-0.0008
G1 X15.359 Y1.6704
G1 X15.088 Y3.3210
G1 X14.640 Y4.9337
G1 X14.021 Y6.4873
G1 X13.238 Y7.9659
G1 X12.299 Y9.3496
G1 X11.216 Y10.6242
G1 X10.002 Y11.7758
G1 X8.670 Y12.7874
G1 X7.237 Y13.6501
G1 X5.718 Y14.3527
G1 X4.133 Y14.8863
G1 X2.499 Y15.2460
G1 X0.836 Y15.4276
G1 X-0.836 Y15.4272
G1 X-2.499 Y15.2468
G1 X-4.133 Y14.8865
G1 X-5.718 Y14.3521
G1 X-7.237 Y13.6507
G1 X-8.670 Y12.7874
G1 X-10.002 Y11.7750
G1 X-11.216 Y10.6246
G1 X-12.299 Y9.3492
G1 X-13.238 Y7.9659
G1 X-14.021 Y6.4875
G1 X-14.640 Y4.9331
G1 X-15.088 Y3.3218
G1 X-15.291 Y2.0812
ID=1 WHEN $AC_TIMER[1]>=0 DO M51
G1 X-14.604 Y0.667 F2000
ID=1 WHEN $AC_TIMER[1]>=0 DO M50
G1 X-14.604 Y-0.6671 F600
ID=1 WHEN $AC_TIMER[1]>=0 DO M51
G1 X-13.597 Y-5.624 F2000
ID=1 WHEN $AC_TIMER[1]>=0 DO M50
G1 X-13.597 Y5.6244 F600
ID=1 WHEN $AC_TIMER[1]>=0 DO M51
G1 X-12.590 Y7.726 F2000
ID=1 WHEN $AC_TIMER[1]>=0 DO M50
G1 X-12.590 Y-7.7265 F600
G1 X-11.583 Y-9.2185
G1 X-11.583 Y9.2184
G1 X-10.575 Y10.3947
G1 X-10.575 Y-10.3943
ID=1 WHEN $AC_TIMER[1]>=0 DO M51
G1 X8.561 Y-12.133 F2000
ID=1 WHEN $AC_TIMER[1]>=0 DO M50
G1 X8.561 Y-3.4743 F600
G1 X7.554 Y-5.2392
G1 X7.554 Y-12.7952
G1 X6.547 Y-13.3597
G1 X6.547 Y-6.3924
G1 X5.540 Y-7.2554
G1 X5.540 Y-13.8259
G1 X4.532 Y-14.1809
G1 X4.532 Y-7.9079
G1 X3.525 Y-8.3690
G1 X3.525 Y-14.4741
G1 X2.518 Y-14.6963
G1 X2.518 Y-8.7075
G1 X1.511 Y-8.9392
G1 X1.511 Y-14.8227
G1 X0.504 Y-14.8811
G1 X0.504 Y-9.0458
G1 X-0.504 Y-9.0400
G1 X-0.504 Y-14.8811
G1 X-1.511 Y-14.8226
G1 X-1.511 Y-8.9345
G1 X-2.518 Y-8.7337
G1 X-2.518 Y-14.6968
G1 X-3.525 Y-14.4740
G1 X-3.525 Y-8.3714
G1 X-4.532 Y-7.8810
G1 X-4.532 Y-14.1802
G1 X-5.540 Y-13.8251
G1 X-5.540 Y-7.2373
G1 X-6.547 Y-6.3791
G1 X-6.547 Y-13.3591
G1 X-7.554 Y-12.7956
G1 X-7.554 Y-5.2151
G1 X-8.561 Y-3.4844
G1 X-8.561 Y-12.1333
G1 X-9.568 Y-11.3488
G1 X-9.568 Y11.34843
G1 X-8.561 Y12.13307
G1 X-8.561 Y3.48437
G1 X-7.554 Y5.21500
G1 X-7.554 Y12.79524
G1 X-6.547 Y13.35929
G1 X-6.547 Y6.38407
G1 X-5.540 Y7.23774
G1 X-5.540 Y13.82535
G1 X-4.532 Y14.18035
G1 X-4.532 Y7.87507
G1 X-3.525 Y8.37191
G1 X-3.525 Y14.47446
G1 X-2.518 Y14.69687
G1 X-2.518 Y8.73359
G1 X-1.511 Y8.93470
G1 X-1.511 Y14.82220
G1 X-0.504 Y14.88104
G1 X-0.504 Y9.04015
G1 X0.504 Y9.05689
G1 X0.504 Y14.88185
G1 X1.511 Y14.82269
G1 X1.511 Y8.94073
G1 X2.518 Y8.70732
G1 X2.518 Y14.69684
G1 X3.525 Y14.47426
G1 X3.525 Y8.36998
G1 X4.532 Y7.90779
G1 X4.532 Y14.18029
G1 X5.540 Y13.82528
G1 X5.540 Y7.25564
G1 X6.547 Y6.39273
G1 X6.547 Y13.35991
G1 X7.554 Y12.79596
G1 X7.554 Y5.23955
G1 X8.561 Y3.46674
G1 X8.561 Y12.13334
G1 X9.568 Y11.34899
G1 X9.568 Y-11.34873
G1 X10.575 Y-10.39415
G1 X10.575 Y10.39491
G1 X11.583 Y9.21864
G1 X11.583 Y-9.21823
G1 X12.590 Y-7.72663
G1 X12.590 Y7.72668
ID=1 WHEN $AC_TIMER[1]>=0 DO M51
G1 X13.597 Y5.624 F2000
ID=1 WHEN $AC_TIMER[1]>=0 DO M50
G1 X13.597 Y-5.6244 F600
ID=1 WHEN $AC_TIMER[1]>=0 DO M51
G1 X14.604 Y-0.667 F2000
ID=1 WHEN $AC_TIMER[1]>=0 DO M50
G1 X14.604 Y0.6670 F600
ID=1 WHEN $AC_TIMER[1]>=0 DO M51
ID=1 WHEN $AC_TIMER[1]>=0 DO M51
G1 Z2.000 F2000

ID=1 WHEN $AC_TIMER[1]>=0 DO M50
G1 X-8.548 Y0.055 F2000
ID=1 WHEN $AC_TIMER[1]>=0 DO M50
G1 X-8.525 Y-0.6635 F600
G1 X-8.327 Y-1.9496
G1 X-7.932 Y-3.1979
G1 X-7.351 Y-4.3703
G1 X-6.597 Y-5.4416
G1 X-5.690 Y-6.3849
G1 X-4.648 Y-7.1783
G1 X-3.498 Y-7.8036
G1 X-2.266 Y-8.2469
G1 X-0.981 Y-8.4953
G1 X0.328 Y-8.5456
G1 X1.628 Y-8.3950
G1 X2.891 Y-8.0483
G1 X4.085 Y-7.5136
G1 X5.184 Y-6.8010
G1 X6.162 Y-5.9303
G1 X6.995 Y-4.9206
G1 X7.664 Y-3.7950
G1 X8.153 Y-2.5803
G1 X8.451 Y-1.3056
G1 X8.552 Y-0.0000
G1 X8.451 Y1.3053
G1 X8.153 Y2.5807
G1 X7.664 Y3.7950
G1 X6.995 Y4.9203
G1 X6.162 Y5.9307
G1 X5.184 Y6.8010
G1 X4.085 Y7.5133
G1 X2.891 Y8.0487
G1 X1.628 Y8.3950
G1 X0.328 Y8.5453
G1 X-0.981 Y8.4957
G1 X-2.266 Y8.2460
G1 X-3.498 Y7.8034
G1 X-4.648 Y7.1787
G1 X-5.690 Y6.3840
G1 X-6.597 Y5.4414
G1 X-7.351 Y4.3707
G1 X-7.932 Y3.1970
G1 X-8.327 Y1.9494
G1 X-8.458 Y1.0999
ID=1 WHEN $AC_TIMER[1]>=0 DO M51
G1 X-15.426 Y0.428 F2000
ID=1 WHEN $AC_TIMER[1]>=0 DO M50
G1 X-15.449 Y-0.0007 F600
G1 X-15.359 Y-1.6703
G1 X-15.088 Y-3.3219
G1 X-14.640 Y-4.9336
G1 X-14.021 Y-6.4872
G1 X-13.238 Y-7.9658
G1 X-12.299 Y-9.3494
G1 X-11.216 Y-10.6241
G1 X-10.002 Y-11.7757
G1 X-8.670 Y-12.7873
G1 X-7.237 Y-13.6500
G1 X-5.718 Y-14.3526
G1 X-4.133 Y-14.8862
G1 X-2.499 Y-15.2468
G1 X-0.836 Y-15.4275
G1 X0.836 Y-15.4271
G1 X1.230 Y-15.3843
G1 X2.499 Y-15.2467 F600
G1 X4.133 Y-14.8864
G1 X5.718 Y-14.3520
G1 X7.237 Y-13.6506
G1 X8.670 Y-12.7872
G1 X10.002 Y-11.7759
G1 X11.216 Y-10.6245
G1 X12.299 Y-9.3491
G1 X13.238 Y-7.9658
G1 X14.021 Y-6.4874
G1 X14.640 Y-4.9330
G1 X15.088 Y-3.3216
G1 X15.359 Y-1.6703
G1 X15.449 Y-0.0009
G1 X15.359 Y1.6705
G1 X15.088 Y3.3212
G1 X14.640 Y4.9338
G1 X14.021 Y6.4874
G1 X13.238 Y7.9650
G1 X12.299 Y9.3497
G1 X11.216 Y10.6243
G1 X10.002 Y11.7759
G1 X8.670 Y12.7876
G1 X7.237 Y13.6502
G1 X5.718 Y14.3528
G1 X4.133 Y14.8864
G1 X2.499 Y15.2461
G1 X0.836 Y15.4277
G1 X-0.836 Y15.4273
G1 X-2.499 Y15.2460
G1 X-4.133 Y14.8866
G1 X-5.718 Y14.3522
G1 X-7.237 Y13.6508
G1 X-8.670 Y12.7875
G1 X-10.002 Y11.7751
G1 X-11.216 Y10.6247
G1 X-12.299 Y9.3494
G1 X-13.238 Y7.9650
G1 X-14.021 Y6.4876
G1 X-14.640 Y4.9332
G1 X-15.088 Y3.3219
G1 X-15.359 Y1.6705
G1 X-15.369 Y1.4762
ID=1 WHEN $AC_TIMER[1]>=0 DO M51
G1 X-10.384 Y10.560 F2000
ID=1 WHEN $AC_TIMER[1]>=0 DO M50
G1 X10.384 Y10.5601 F600
G1 X9.213 Y11.5669
G1 X-9.213 Y11.5669
G1 X-7.728 Y12.5712
G1 X7.728 Y12.5719
ID=1 WHEN $AC_TIMER[1]>=0 DO M51
G1 X5.729 Y13.577 F2000
ID=1 WHEN $AC_TIMER[1]>=0 DO M50
G1 X-5.729 Y13.5779 F600
ID=1 WHEN $AC_TIMER[1]>=0 DO M51
G1 X-1.273 Y14.583 F2000
ID=1 WHEN $AC_TIMER[1]>=0 DO M50
G1 X1.273 Y14.5834 F600
ID=1 WHEN $AC_TIMER[1]>=0 DO M51
G1 X-12.145 Y-8.549 F2000
ID=1 WHEN $AC_TIMER[1]>=0 DO M50
G1 X-3.555 Y-8.5498 F600
G1 X-5.231 Y-7.5435
G1 X-12.826 Y-7.5431
G1 X-13.360 Y-6.5376
G1 X-6.388 Y-6.5373
G1 X-7.243 Y-5.5313
G1 X-13.813 Y-5.5317
G1 X-14.196 Y-4.5264
G1 X-7.895 Y-4.5262
G1 X-8.393 Y-3.5202
G1 X-14.476 Y-3.5203
G1 X-14.683 Y-2.5144
G1 X-8.714 Y-2.5141
G1 X-8.930 Y-1.5095
G1 X-14.840 Y-1.5093
G1 X-14.895 Y-0.5036
G1 X-9.057 Y-0.5030
G1 X-9.058 Y0.5032
G1 X-14.895 Y0.5039
G1 X-14.840 Y1.5091
G1 X-8.930 Y1.5099
G1 X-8.714 Y2.5143
G1 X-14.683 Y2.5140
G1 X-14.476 Y3.5201
G1 X-8.393 Y3.5203
G1 X-7.895 Y4.5263
G1 X-14.196 Y4.5260
G1 X-13.813 Y5.5318
G1 X-7.243 Y5.5311
G1 X-6.388 Y6.5371
G1 X-13.360 Y6.5379
G1 X-12.826 Y7.5433
G1 X-5.231 Y7.5430
G1 X-3.555 Y8.5496
G1 X-12.145 Y8.5495
G1 X-11.342 Y9.5540
G1 X11.342 Y9.55475
G1 X12.145 Y8.54910
G1 X3.491 Y8.54976
G1 X5.256 Y7.54346
G1 X12.826 Y7.54301
G1 X13.360 Y6.53796
G1 X6.421 Y6.53724
G1 X7.260 Y5.53123
G1 X13.813 Y5.53136
G1 X14.196 Y4.52694
G1 X7.890 Y4.52680
G1 X8.365 Y3.52091
G1 X14.476 Y3.52001
G1 X14.683 Y2.51412
G1 X8.717 Y2.51409
G1 X8.952 Y1.50962
G1 X14.840 Y1.50908
G1 X14.895 Y0.50380
G1 X9.041 Y0.50381
G1 X9.041 Y-0.50343
G1 X14.895 Y-0.50345
G1 X14.840 Y-1.50917
G1 X8.952 Y-1.50963
G1 X8.717 Y-2.51416
G1 X14.683 Y-2.51413
G1 X14.476 Y-3.52024
G1 X8.365 Y-3.52034
G1 X7.890 Y-4.52645
G1 X14.196 Y-4.52631
G1 X13.813 Y-5.53189
G1 X7.260 Y-5.53102
G1 X6.421 Y-6.53701
G1 X13.360 Y-6.53729
G1 X12.826 Y-7.54323
G1 X5.257 Y-7.54379
G1 X3.491 Y-8.54948
G1 X12.145 Y-8.54915
G1 X11.342 Y-9.55450
G1 X-11.342 Y-9.55435
G1 X-10.384 Y-10.56088
G1 X10.384 Y-10.56020
G1 X9.213 Y-11.56657
G1 X-9.213 Y-11.56647
G1 X-7.728 Y-12.57140
G1 X7.728 Y-12.57178
ID=1 WHEN $AC_TIMER[1]>=0 DO M51
G1 X5.729 Y-13.577 F2000
ID=1 WHEN $AC_TIMER[1]>=0 DO M50
G1 X-5.729 Y-13.5779 F600
ID=1 WHEN $AC_TIMER[1]>=0 DO M51
G1 X-1.273 Y-14.583 F2000
ID=1 WHEN $AC_TIMER[1]>=0 DO M50
G1 X1.273 Y-14.5834 F600
ID=1 WHEN $AC_TIMER[1]>=0 DO M51
ID=1 WHEN $AC_TIMER[1]>=0 DO M51
G1 Z2.500 F2000

ID=1 WHEN $AC_TIMER[1]>=0 DO M50
G1 X-8.548 Y0.067 F2000
ID=1 WHEN $AC_TIMER[1]>=0 DO M50
G1 X-8.525 Y-0.6638 F600
G1 X-8.327 Y-1.9491
G1 X-7.932 Y-3.1974
G1 X-7.351 Y-4.3708
G1 X-6.597 Y-5.4411
G1 X-5.690 Y-6.3844
G1 X-4.648 Y-7.1788
G1 X-3.498 Y-7.8031
G1 X-2.266 Y-8.2464
G1 X-0.981 Y-8.4958
G1 X0.328 Y-8.5451
G1 X1.628 Y-8.3954
G1 X2.891 Y-8.0488
G1 X4.085 Y-7.5131
G1 X5.184 Y-6.8015
G1 X6.162 Y-5.9308
G1 X6.995 Y-4.9201
G1 X7.664 Y-3.7955
G1 X8.153 Y-2.5808
G1 X8.451 Y-1.3051
G1 X8.552 Y-0.0005
G1 X8.451 Y1.3058
G1 X8.153 Y2.5801
G1 X7.664 Y3.7955
G1 X6.995 Y4.9208
G1 X6.162 Y5.9302
G1 X5.184 Y6.8015
G1 X4.085 Y7.5138
G1 X3.047 Y7.9785
G1 X2.891 Y8.0482
G1 X1.628 Y8.3955
G1 X0.328 Y8.5458
G1 X-0.981 Y8.4952
G1 X-2.266 Y8.2465
G1 X-3.498 Y7.8038
G1 X-4.648 Y7.1782
G1 X-5.690 Y6.3845
G1 X-6.597 Y5.4419
G1 X-7.351 Y4.3702
G1 X-7.932 Y3.1975
G1 X-8.327 Y1.9499
G1 X-8.456 Y1.1119
ID=1 WHEN $AC_TIMER[1]>=0 DO M51
G1 X-15.425 Y0.440 F2000
ID=1 WHEN $AC_TIMER[1]>=0 DO M50
G1 X-15.449 Y-0.0002 F600
G1 X-15.359 Y-1.6708
G1 X-15.088 Y-3.3214
G1 X-14.640 Y-4.9331
G1 X-14.021 Y-6.4877
G1 X-13.238 Y-7.9653
G1 X-12.299 Y-9.3490
G1 X-11.216 Y-10.6246
G1 X-10.002 Y-11.7752
G1 X-8.670 Y-12.7878
G1 X-7.237 Y-13.6505
G1 X-5.718 Y-14.3521
G1 X-4.133 Y-14.8867
G1 X-2.499 Y-15.2464
G1 X-0.836 Y-15.4270
G1 X0.836 Y-15.4276
G1 X1.345 Y-15.3718
G1 X2.499 Y-15.2462 F600
G1 X4.133 Y-14.8869
G1 X5.718 Y-14.3525
G1 X7.237 Y-13.6501
G1 X8.670 Y-12.7878
G1 X10.002 Y-11.7754
G1 X11.216 Y-10.6240
G1 X12.299 Y-9.3496
G1 X13.238 Y-7.9653
G1 X14.021 Y-6.4879
G1 X14.640 Y-4.9335
G1 X15.088 Y-3.3212
G1 X15.359 Y-1.6708
G1 X15.449 Y-0.0004
G1 X15.359 Y1.6700
G1 X15.088 Y3.3217
G1 X14.640 Y4.9333
G1 X14.021 Y6.4879
G1 X13.238 Y7.9656
G1 X12.299 Y9.3492
G1 X11.216 Y10.6248
G1 X10.002 Y11.7754
G1 X8.670 Y12.7871
G1 X7.237 Y13.6507
G1 X5.718 Y14.3523
G1 X4.133 Y14.8860
G1 X2.499 Y15.2466
G1 X0.836 Y15.4272
G1 X-0.836 Y15.4278
G1 X-2.499 Y15.2465
G1 X-4.133 Y14.8861
G1 X-5.718 Y14.3527
G1 X-7.237 Y13.6504
G1 X-8.670 Y12.7870
G1 X-10.002 Y11.7756
G1 X-11.216 Y10.6242
G1 X-12.299 Y9.3499
G1 X-13.238 Y7.9655
G1 X-14.021 Y6.4871
G1 X-14.640 Y4.9338
G1 X-15.088 Y3.3214
G1 X-15.359 Y1.6700
G1 X-15.369 Y1.4882
ID=1 WHEN $AC_TIMER[1]>=0 DO M51
G1 X-14.604 Y0.667 F2000
ID=1 WHEN $AC_TIMER[1]>=0 DO M50
G1 X-14.604 Y-0.6671 F600
ID=1 WHEN $AC_TIMER[1]>=0 DO M51
G1 X-13.597 Y-5.624 F2000
ID=1 WHEN $AC_TIMER[1]>=0 DO M50
G1 X-13.597 Y5.6244 F600
ID=1 WHEN $AC_TIMER[1]>=0 DO M51
G1 X-12.590 Y7.726 F2000
ID=1 WHEN $AC_TIMER[1]>=0 DO M50
G1 X-12.590 Y-7.7265 F600
G1 X-11.583 Y-9.2185
G1 X-11.583 Y9.2184
G1 X-10.575 Y10.3947
G1 X-10.575 Y-10.3943
ID=1 WHEN $AC_TIMER[1]>=0 DO M51
G1 X8.561 Y-12.133 F2000
ID=1 WHEN $AC_TIMER[1]>=0 DO M50
G1 X8.561 Y-3.4743 F600
G1 X7.554 Y-5.2392
G1 X7.554 Y-12.7952
G1 X6.547 Y-13.3597
G1 X6.547 Y-6.3924
G1 X5.540 Y-7.2554
G1 X5.540 Y-13.8259
G1 X4.532 Y-14.1809
G1 X4.532 Y-7.9079
G1 X3.525 Y-8.3690
G1 X3.525 Y-14.4741
G1 X2.518 Y-14.6963
G1 X2.518 Y-8.7075
G1 X1.511 Y-8.9404
G1 X1.511 Y-14.8228
G1 X0.504 Y-14.8812
G1 X0.504 Y-9.0569
G1 X-0.504 Y-9.0402
G1 X-0.504 Y-14.8813
G1 X-1.511 Y-14.8228
G1 X-1.511 Y-8.9347
G1 X-2.518 Y-8.7339
G1 X-2.518 Y-14.6960
G1 X-3.525 Y-14.4742
G1 X-3.525 Y-8.3716
G1 X-4.532 Y-7.8812
G1 X-4.532 Y-14.1804
G1 X-5.540 Y-13.8253
G1 X-5.540 Y-7.2375
G1 X-6.547 Y-6.3842
G1 X-6.547 Y-13.3590
G1 X-7.554 Y-12.7955
G1 X-7.554 Y-5.2159
G1 X-8.561 Y-3.4842
G1 X-8.561 Y-12.1332
G1 X-9.568 Y-11.3486
G1 X-9.568 Y11.34801
G1 X-8.561 Y12.13365
G1 X-8.561 Y3.48495
G1 X-7.554 Y5.21558
G1 X-7.554 Y12.79582
G1 X-6.547 Y13.35987
G1 X-6.547 Y6.38465
G1 X-5.540 Y7.23732
G1 X-5.540 Y13.82594
G1 X-4.532 Y14.18093
G1 X-4.532 Y7.88125
G1 X-3.525 Y8.37191
G1 X-3.525 Y14.47445
G1 X-2.518 Y14.69687
G1 X-2.518 Y8.73358
G1 X-1.511 Y8.93470
G1 X-1.511 Y14.82219
G1 X-0.504 Y14.88104
G1 X-0.504 Y9.04015
G1 X0.504 Y9.05688
G1 X0.504 Y14.88185
G1 X1.511 Y14.82269
G1 X1.511 Y8.94073
G1 X2.518 Y8.70732
G1 X2.518 Y14.69684
G1 X3.525 Y14.47426
G1 X3.525 Y8.36998
G1 X4.532 Y7.90778
G1 X4.532 Y14.18028
G1 X5.540 Y13.82528
G1 X5.540 Y7.25563
G1 X6.547 Y6.39273
G1 X6.547 Y13.35990
G1 X7.554 Y12.79596
G1 X7.554 Y5.23955
G1 X8.561 Y3.47424
G1 X8.561 Y12.13327
G1 X9.568 Y11.34892
G1 X9.568 Y-11.34866
G1 X10.575 Y-10.39408
G1 X10.575 Y10.39484
G1 X11.583 Y9.21857
G1 X11.583 Y-9.21816
G1 X12.590 Y-7.72656
G1 X12.590 Y7.72661
ID=1 WHEN $AC_TIMER[1]>=0 DO M51
G1 X13.597 Y5.624 F2000
ID=1 WHEN $AC_TIMER[1]>=0 DO M50
G1 X13.597 Y-5.6244 F600
ID=1 WHEN $AC_TIMER[1]>=0 DO M51
G1 X14.604 Y-0.667 F2000
ID=1 WHEN $AC_TIMER[1]>=0 DO M50
G1 X14.604 Y0.6670 F600
ID=1 WHEN $AC_TIMER[1]>=0 DO M51
ID=1 WHEN $AC_TIMER[1]>=0 DO M51
G1 Z3.000 F2000

ID=1 WHEN $AC_TIMER[1]>=0 DO M50
G1 X-7.932 Y3.197 F2000
ID=1 WHEN $AC_TIMER[1]>=0 DO M50
G1 X-8.327 Y1.9493 F600
G1 X-8.525 Y0.6652
G1 X-8.547 Y0.0792
G1 X-8.525 Y-0.6632
G1 X-8.327 Y-1.9497
G1 X-7.932 Y-3.1971
G1 X-7.351 Y-4.3704
G1 X-6.597 Y-5.4417
G1 X-5.690 Y-6.3841
G1 X-4.648 Y-7.1784
G1 X-3.498 Y-7.8037
G1 X-2.266 Y-8.2461
G1 X-0.981 Y-8.4954
G1 X0.328 Y-8.5458
G1 X1.628 Y-8.3951
G1 X2.891 Y-8.0484
G1 X4.085 Y-7.5138
G1 X5.184 Y-6.8011
G1 X6.162 Y-5.9304
G1 X6.995 Y-4.9208
G1 X7.664 Y-3.7951
G1 X8.153 Y-2.5804
G1 X8.451 Y-1.3058
G1 X8.552 Y-0.0001
G1 X8.451 Y1.3055
G1 X8.153 Y2.5808
G1 X7.664 Y3.7951
G1 X6.995 Y4.9205
G1 X6.162 Y5.9308
G1 X5.184 Y6.8011
G1 X4.085 Y7.5135
G1 X2.891 Y8.0488
G1 X1.628 Y8.3951
G1 X0.328 Y8.5455
G1 X-0.981 Y8.4958
G1 X-2.266 Y8.2462
G1 X-3.498 Y7.8035
G1 X-4.648 Y7.1788
G1 X-5.690 Y6.3842
G1 X-6.597 Y5.4415
G1 X-7.351 Y4.3708
G1 X-7.466 Y4.1389
ID=1 WHEN $AC_TIMER[1]>=0 DO M51
G1 X-14.318 Y5.741 F2000
ID=1 WHEN $AC_TIMER[1]>=0 DO M50
G1 X-14.640 Y4.9331 F600
G1 X-15.088 Y3.3217
G1 X-15.359 Y1.6704
G1 X-15.449 Y-0.0000
G1 X-15.359 Y-1.6706
G1 X-15.088 Y-3.3213
G1 X-14.640 Y-4.9339
G1 X-14.021 Y-6.4875
G1 X-13.238 Y-7.9651
G1 X-12.299 Y-9.3498
G1 X-11.216 Y-10.6244
G1 X-10.002 Y-11.7750
G1 X-8.670 Y-12.7877
G1 X-7.237 Y-13.6503
G1 X-5.718 Y-14.3529
G1 X-4.133 Y-14.8865
G1 X-2.499 Y-15.2462
G1 X-0.836 Y-15.4278
G1 X0.836 Y-15.4274
G1 X1.130 Y-15.3956
G1 X2.499 Y-15.2461 F600
G1 X4.133 Y-14.8867
G1 X5.718 Y-14.3523
G1 X7.237 Y-13.6509
G1 X8.670 Y-12.7876
G1 X10.002 Y-11.7752
G1 X11.216 Y-10.6248
G1 X12.299 Y-9.3495
G1 X13.238 Y-7.9651
G1 X14.021 Y-6.4877
G1 X14.640 Y-4.9333
G1 X15.088 Y-3.3210
G1 X15.359 Y-1.6706
G1 X15.449 Y-0.0002
G1 X15.359 Y1.6709
G1 X15.088 Y3.3215
G1 X14.640 Y4.9331
G1 X14.021 Y6.4877
G1 X13.238 Y7.9654
G1 X12.299 Y9.3490
G1 X11.216 Y10.6246
G1 X10.002 Y11.7753
G1 X8.670 Y12.7879
G1 X7.237 Y13.6505
G1 X5.718 Y14.3521
G1 X4.133 Y14.8868
G1 X2.499 Y15.2464
G1 X0.836 Y15.4270
G1 X-0.836 Y15.4277
G1 X-2.499 Y15.2463
G1 X-4.133 Y14.8869
G1 X-5.718 Y14.3525
G1 X-7.237 Y13.6502
G1 X-8.670 Y12.7878
G1 X-10.002 Y11.7754
G1 X-11.216 Y10.6241
G1 X-12.299 Y9.3497
G1 X-13.238 Y7.9653
G1 X-13.905 Y6.7062
ID=1 WHEN $AC_TIMER[1]>=0 DO M51
G1 X-10.384 Y10.560 F2000
ID=1 WHEN $AC_TIMER[1]>=0 DO M50
G1 X10.384 Y10.5601 F600
G1 X9.213 Y11.5669
G1 X-9.213 Y11.5669
G1 X-7.728 Y12.5712
G1 X7.728 Y12.5719
ID=1 WHEN $AC_TIMER[1]>=0 DO M51
G1 X5.729 Y13.577 F2000
ID=1 WHEN $AC_TIMER[1]>=0 DO M50
G1 X-5.729 Y13.5779 F600
ID=1 WHEN $AC_TIMER[1]>=0 DO M51
G1 X-1.273 Y14.583 F2000
ID=1 WHEN $AC_TIMER[1]>=0 DO M50
G1 X1.273 Y14.5834 F600
ID=1 WHEN $AC_TIMER[1]>=0 DO M51
G1 X-12.145 Y-8.549 F2000
ID=1 WHEN $AC_TIMER[1]>=0 DO M50
G1 X-3.555 Y-8.5498 F600
G1 X-5.231 Y-7.5435
G1 X-12.826 Y-7.5431
G1 X-13.360 Y-6.5376
G1 X-6.388 Y-6.5373
G1 X-7.243 Y-5.5313
G1 X-13.813 Y-5.5317
G1 X-14.196 Y-4.5264
G1 X-7.895 Y-4.5262
G1 X-8.393 Y-3.5202
G1 X-14.476 Y-3.5203
G1 X-14.683 Y-2.5144
G1 X-8.714 Y-2.5141
G1 X-8.930 Y-1.5095
G1 X-14.840 Y-1.5093
G1 X-14.895 Y-0.5036
G1 X-9.056 Y-0.5032
G1 X-9.058 Y0.5034
G1 X-14.895 Y0.5031
G1 X-14.840 Y1.5094
G1 X-8.930 Y1.5092
G1 X-8.714 Y2.5146
G1 X-14.683 Y2.5143
G1 X-14.476 Y3.5204
G1 X-8.393 Y3.5205
G1 X-7.895 Y4.5266
G1 X-14.196 Y4.5263
G1 X-13.813 Y5.5311
G1 X-7.243 Y5.5314
G1 X-6.388 Y6.5374
G1 X-13.360 Y6.5371
G1 X-12.826 Y7.5436
G1 X-5.231 Y7.5432
G1 X-3.555 Y8.5499
G1 X-12.145 Y8.5497
G1 X-11.342 Y9.5542
G1 X11.342 Y9.55477
G1 X12.145 Y8.54912
G1 X3.491 Y8.54979
G1 X5.256 Y7.54348
G1 X12.826 Y7.54304
G1 X13.360 Y6.53799
G1 X6.421 Y6.53727
G1 X7.260 Y5.53126
G1 X13.813 Y5.53139
G1 X14.196 Y4.52696
G1 X7.890 Y4.52683
G1 X8.365 Y3.52093
G1 X14.476 Y3.52004
G1 X14.683 Y2.51415
G1 X8.717 Y2.51411
G1 X8.952 Y1.50964
G1 X14.840 Y1.50910
G1 X14.895 Y0.50382
G1 X9.041 Y0.50384
G1 X9.041 Y-0.50346
G1 X14.895 Y-0.50348
G1 X14.840 Y-1.50920
G1 X8.952 Y-1.50966
G1 X8.717 Y-2.51419
G1 X14.683 Y-2.51415
G1 X14.476 Y-3.52026
G1 X8.365 Y-3.52037
G1 X7.890 Y-4.52647
G1 X14.196 Y-4.52634
G1 X13.813 Y-5.53191
G1 X7.260 Y-5.53104
G1 X6.421 Y-6.53703
G1 X13.360 Y-6.53731
G1 X12.826 Y-7.54326
G1 X5.257 Y-7.54381
G1 X3.491 Y-8.54951
G1 X12.145 Y-8.54917
G1 X11.342 Y-9.55452
G1 X-11.342 Y-9.55438
G1 X-10.384 Y-10.56091
G1 X10.384 Y-10.56022
G1 X9.213 Y-11.56660
G1 X-9.213 Y-11.56650
G1 X-7.728 Y-12.57143
G1 X7.728 Y-12.57180
ID=1 WHEN $AC_TIMER[1]>=0 DO M51
G1 X5.729 Y-13.577 F2000
ID=1 WHEN $AC_TIMER[1]>=0 DO M50
G1 X-5.729 Y-13.5779 F600
ID=1 WHEN $AC_TIMER[1]>=0 DO M51
G1 X-1.273 Y-14.583 F2000
ID=1 WHEN $AC_TIMER[1]>=0 DO M50
G1 X1.273 Y-14.5834 F600
ID=1 WHEN $AC_TIMER[1]>=0 DO M51
ID=1 WHEN $AC_TIMER[1]>=0 DO M51
G1 Z3.500 F2000

ID=1 WHEN $AC_TIMER[1]>=0 DO M50
G1 X-8.547 Y0.091 F2000
ID=1 WHEN $AC_TIMER[1]>=0 DO M50
G1 X-8.525 Y-0.6623 F600
G1 X-8.327 Y-1.9490
G1 X-7.932 Y-3.1974
G1 X-7.351 Y-4.3707
G1 X-6.597 Y-5.4411
G1 X-5.690 Y-6.3844
G1 X-4.648 Y-7.1787
G1 X-3.498 Y-7.8031
G1 X-2.266 Y-8.2464
G1 X-0.981 Y-8.4957
G1 X0.328 Y-8.5451
G1 X1.628 Y-8.3954
G1 X2.891 Y-8.0487
G1 X4.085 Y-7.5131
G1 X5.184 Y-6.8014
G1 X6.162 Y-5.9308
G1 X6.995 Y-4.9201
G1 X7.664 Y-3.7954
G1 X8.153 Y-2.5808
G1 X8.451 Y-1.3051
G1 X8.552 Y-0.0004
G1 X8.451 Y1.3058
G1 X8.153 Y2.5801
G1 X7.664 Y3.7954
G1 X6.995 Y4.9208
G1 X6.162 Y5.9301
G1 X5.184 Y6.8015
G1 X4.085 Y7.5138
G1 X2.891 Y8.0481
G1 X1.628 Y8.3955
G1 X0.328 Y8.5458
G1 X-0.981 Y8.4951
G1 X-2.266 Y8.2465
G1 X-3.292 Y7.8771
G1 X-3.498 Y7.8038
G1 X-4.648 Y7.1781
G1 X-5.690 Y6.3845
G1 X-6.597 Y5.4418
G1 X-7.351 Y4.3702
G1 X-7.932 Y3.1975
G1 X-8.327 Y1.9498
G1 X-8.452 Y1.1359
ID=1 WHEN $AC_TIMER[1]>=0 DO M51
G1 X-15.424 Y0.464 F2000
ID=1 WHEN $AC_TIMER[1]>=0 DO M50
G1 X-15.449 Y-0.0002 F600
G1 X-15.359 Y-1.6696
G1 X-15.060 Y-3.4248
G1 X-14.640 Y-4.9337
G1 X-14.021 Y-6.4873
G1 X-13.238 Y-7.9659
G1 X-12.299 Y-9.3495
G1 X-11.216 Y-10.6242
G1 X-10.002 Y-11.7758
G1 X-8.670 Y-12.7874
G1 X-7.237 Y-13.6501
G1 X-5.718 Y-14.3527
G1 X-4.133 Y-14.8863
G1 X-2.499 Y-15.2469
G1 X-0.838 Y-15.4263
G1 X0.942 Y-15.4156
G1 X2.499 Y-15.2464 F600
G1 X4.133 Y-14.8860
G1 X5.718 Y-14.3527
G1 X7.237 Y-13.6503
G1 X8.670 Y-12.7879
G1 X10.002 Y-11.7755
G1 X11.216 Y-10.6242
G1 X12.299 Y-9.3498
G1 X13.238 Y-7.9654
G1 X14.021 Y-6.4871
G1 X14.640 Y-4.9337
G1 X15.088 Y-3.3213
G1 X15.359 Y-1.6709
G1 X15.449 Y-0.0006
G1 X15.359 Y1.6702
G1 X15.088 Y3.3218
G1 X14.640 Y4.9335
G1 X14.021 Y6.4871
G1 X13.238 Y7.9657
G1 X12.299 Y9.3493
G1 X11.216 Y10.6240
G1 X10.002 Y11.7756
G1 X8.670 Y12.7872
G1 X7.237 Y13.6509
G1 X5.718 Y14.3525
G1 X4.133 Y14.8861
G1 X2.499 Y15.2467
G1 X0.836 Y15.4274
G1 X-0.836 Y15.4270
G1 X-2.499 Y15.2466
G1 X-4.133 Y14.8863
G1 X-5.718 Y14.3529
G1 X-7.237 Y13.6505
G1 X-8.670 Y12.7871
G1 X-10.002 Y11.7758
G1 X-11.216 Y10.6244
G1 X-12.299 Y9.3490
G1 X-13.238 Y7.9657
G1 X-14.020 Y6.4890
G1 X-14.669 Y4.8303
G1 X-15.088 Y3.3211
G1 X-15.359 Y1.6707
G1 X-15.367 Y1.5129
ID=1 WHEN $AC_TIMER[1]>=0 DO M51
G1 X-14.604 Y0.667 F2000
ID=1 WHEN $AC_TIMER[1]>=0 DO M50
G1 X-14.604 Y-0.6678 F600
ID=1 WHEN $AC_TIMER[1]>=0 DO M51
G1 X-13.597 Y-5.624 F2000
ID=1 WHEN $AC_TIMER[1]>=0 DO M50
G1 X-13.597 Y5.6077 F600
ID=1 WHEN $AC_TIMER[1]>=0 DO M51
G1 X-12.590 Y7.726 F2000
ID=1 WHEN $AC_TIMER[1]>=0 DO M50
G1 X-12.590 Y-7.7265 F600
G1 X-11.583 Y-9.2185
G1 X-11.583 Y9.2184
G1 X-10.575 Y10.3947
G1 X-10.575 Y-10.3943
ID=1 WHEN $AC_TIMER[1]>=0 DO M51
G1 X8.561 Y-12.133 F2000
ID=1 WHEN $AC_TIMER[1]>=0 DO M50
G1 X8.561 Y-3.4743 F600
G1 X7.554 Y-5.2392
G1 X7.554 Y-12.7952
G1 X6.547 Y-13.3597
G1 X6.547 Y-6.3924
G1 X5.540 Y-7.2554
G1 X5.540 Y-13.8259
G1 X4.532 Y-14.1809
G1 X4.532 Y-7.9079
G1 X3.525 Y-8.3690
G1 X3.525 Y-14.4741
G1 X2.518 Y-14.6963
G1 X2.518 Y-8.7075
G1 X1.511 Y-8.9404
G1 X1.511 Y-14.8228
G1 X0.504 Y-14.8802
G1 X0.504 Y-9.0565
G1 X-0.504 Y-9.0408
G1 X-0.504 Y-14.8807
G1 X-1.511 Y-14.8221
G1 X-1.511 Y-8.9340
G1 X-2.518 Y-8.7332
G1 X-2.518 Y-14.6963
G1 X-3.525 Y-14.4745
G1 X-3.525 Y-8.3719
G1 X-4.532 Y-7.8815
G1 X-4.532 Y-14.1807
G1 X-5.540 Y-13.8256
G1 X-5.540 Y-7.2378
G1 X-6.547 Y-6.3845
G1 X-6.547 Y-13.3593
G1 X-7.554 Y-12.7958
G1 X-7.554 Y-5.2152
G1 X-8.561 Y-3.4845
G1 X-8.561 Y-12.1335
G1 X-9.568 Y-11.3489
G1 X-9.568 Y11.34894
G1 X-8.561 Y12.13358
G1 X-8.561 Y3.48488
G1 X-7.554 Y5.21551
G1 X-7.554 Y12.79575
G1 X-6.547 Y13.35980
G1 X-6.547 Y6.38458
G1 X-5.540 Y7.23725
G1 X-5.540 Y13.82587
G1 X-4.532 Y14.18086
G1 X-4.532 Y7.88118
G1 X-3.525 Y8.37184
G1 X-3.525 Y14.47438
G1 X-2.518 Y14.69680
G1 X-2.518 Y8.73351
G1 X-1.511 Y8.93463
G1 X-1.511 Y14.82212
G1 X-0.504 Y14.88197
G1 X-0.504 Y9.04008
G1 X0.504 Y9.05681
G1 X0.504 Y14.88178
G1 X1.511 Y14.82262
G1 X1.511 Y8.94066
G1 X2.518 Y8.70725
G1 X2.518 Y14.69677
G1 X3.525 Y14.47419
G1 X3.525 Y8.36990
G1 X4.532 Y7.90771
G1 X4.532 Y14.18021
G1 X5.540 Y13.82521
G1 X5.540 Y7.25556
G1 X6.547 Y6.39266
G1 X6.547 Y13.35983
G1 X7.554 Y12.79588
G1 X7.554 Y5.23948
G1 X8.561 Y3.47417
G1 X8.561 Y12.13320
G1 X9.568 Y11.34885
G1 X9.568 Y-11.34859
G1 X10.575 Y-10.39401
G1 X10.575 Y10.39477
G1 X11.583 Y9.21850
G1 X11.583 Y-9.21809
G1 X12.590 Y-7.72649
G1 X12.590 Y7.72654
ID=1 WHEN $AC_TIMER[1]>=0 DO M51
G1 X13.597 Y5.624 F2000
ID=1 WHEN $AC_TIMER[1]>=0 DO M50
G1 X13.597 Y-5.6244 F600
ID=1 WHEN $AC_TIMER[1]>=0 DO M51
G1 X14.604 Y-0.667 F2000
ID=1 WHEN $AC_TIMER[1]>=0 DO M50
G1 X14.604 Y0.6670 F600
ID=1 WHEN $AC_TIMER[1]>=0 DO M51
ID=1 WHEN $AC_TIMER[1]>=0 DO M51
G1 Z4.000 F2000

ID=1 WHEN $AC_TIMER[1]>=0 DO M50
G1 X-9.540 Y0.108 F2000
ID=1 WHEN $AC_TIMER[1]>=0 DO M50
G1 X-9.516 Y-0.7524 F600
G1 X-9.296 Y-2.1757
G1 X-8.855 Y-3.5691
G1 X-8.207 Y-4.8795
G1 X-7.366 Y-6.0748
G1 X-6.352 Y-7.1282
G1 X-5.190 Y-8.0146
G1 X-3.905 Y-8.7129
G1 X-2.530 Y-9.2063
G1 X-1.095 Y-9.4847
G1 X0.366 Y-9.5401
G1 X1.818 Y-9.3734
G1 X3.227 Y-8.9858
G1 X4.561 Y-8.3872
G1 X5.788 Y-7.5935
G1 X6.879 Y-6.6209
G1 X7.809 Y-5.4933
G1 X8.556 Y-4.2367
G1 X9.102 Y-2.8810
G1 X9.435 Y-1.4574
G1 X9.547 Y-0.0008
G1 X9.435 Y1.4571
G1 X9.102 Y2.8815
G1 X8.556 Y4.2369
G1 X7.809 Y5.4932
G1 X6.879 Y6.6206
G1 X5.788 Y7.5930
G1 X4.561 Y8.3873
G1 X3.227 Y8.9857
G1 X1.818 Y9.3731
G1 X0.366 Y9.5405
G1 X-1.095 Y9.4848
G1 X-2.530 Y9.2062
G1 X-3.905 Y8.7126
G1 X-5.190 Y8.0149
G1 X-6.352 Y7.1283
G1 X-7.366 Y6.0747
G1 X-8.207 Y4.8791
G1 X-8.855 Y3.5694
G1 X-9.296 Y2.1758
G1 X-9.454 Y1.1530
ID=1 WHEN $AC_TIMER[1]>=0 DO M51
G1 X-8.546 Y0.103 F2000
ID=1 WHEN $AC_TIMER[1]>=0 DO M50
G1 X-8.525 Y-0.6625 F600
G1 X-8.327 Y-1.9495
G1 X-7.932 Y-3.1979
G1 X-7.351 Y-4.3702
G1 X-6.597 Y-5.4415
G1 X-5.690 Y-6.3849
G1 X-4.648 Y-7.1782
G1 X-3.498 Y-7.8036
G1 X-2.266 Y-8.2469
G1 X-0.981 Y-8.4952
G1 X0.328 Y-8.5456
G1 X1.628 Y-8.3959
G1 X2.891 Y-8.0482
G1 X4.085 Y-7.5136
G1 X5.184 Y-6.8019
G1 X6.162 Y-5.9302
G1 X6.995 Y-4.9206
G1 X7.664 Y-3.7959
G1 X8.153 Y-2.5803
G1 X8.451 Y-1.3056
G1 X8.552 Y-0.0009
G1 X8.451 Y1.3053
G1 X8.153 Y2.5806
G1 X7.664 Y3.7959
G1 X6.995 Y4.9203
G1 X6.162 Y5.9306
G1 X5.184 Y6.8019
G1 X4.085 Y7.5133
G1 X2.891 Y8.0486
G1 X1.628 Y8.3950
G1 X0.328 Y8.5453
G1 X-0.981 Y8.4956
G1 X-2.266 Y8.2460
G1 X-3.498 Y7.8033
G1 X-4.648 Y7.1786
G1 X-5.690 Y6.3840
G1 X-6.597 Y5.4413
G1 X-7.351 Y4.3706
G1 X-7.932 Y3.1970
G1 X-8.327 Y1.9493
G1 X-8.450 Y1.1479
ID=1 WHEN $AC_TIMER[1]>=0 DO M51
G1 X-11.878 Y-0.699 F2000
ID=1 WHEN $AC_TIMER[1]>=0 DO M50
G1 X-11.786 Y-1.6289 F600
G1 X-11.616 Y-2.5742
G1 X-11.386 Y-3.4530
G1 X-11.080 Y-4.3360
G1 X-10.707 Y-5.1900
G1 X-10.252 Y-6.0372
G1 X-9.762 Y-6.8020
G1 X-9.198 Y-7.5471
G1 X-8.578 Y-8.2461
G1 X-7.905 Y-8.8920
G1 X-7.161 Y-9.5012
G1 X-6.416 Y-10.0201
G1 X-5.610 Y-10.4931
G1 X-4.769 Y-10.9011
G1 X-3.899 Y-11.2411
G1 X-3.005 Y-11.5132
G1 X-2.093 Y-11.7132
G1 X-1.169 Y-11.8411
G1 X-0.209 Y-11.8954
G1 X0.699 Y-11.8782
G1 X1.629 Y-11.7862
G1 X2.549 Y-11.6222
G1 X3.453 Y-11.3863
G1 X4.336 Y-11.0803
G1 X5.192 Y-10.7063
G1 X6.016 Y-10.2663
G1 X6.802 Y-9.7623
G1 X7.547 Y-9.1984
G1 X8.246 Y-8.5784
G1 X8.892 Y-7.9053
G1 X9.501 Y-7.1615
G1 X10.020 Y-6.4164
G1 X10.493 Y-5.6104
G1 X10.901 Y-4.7694
G1 X11.241 Y-3.9014
G1 X11.518 Y-2.9806
G1 X11.713 Y-2.0934
G1 X11.841 Y-1.1675
G1 X11.896 Y-0.2355
G1 X11.878 Y0.6995
G1 X11.786 Y1.6295
G1 X11.622 Y2.5495
G1 X11.386 Y3.4536
G1 X11.080 Y4.3366
G1 X10.706 Y5.1926
G1 X10.266 Y6.0166
G1 X9.762 Y6.8026
G1 X9.198 Y7.5477
G1 X8.578 Y8.2467
G1 X7.904 Y8.8937
G1 X7.182 Y9.4867
G1 X6.416 Y10.0208
G1 X5.610 Y10.4938
G1 X4.769 Y10.9018
G1 X3.899 Y11.2418
G1 X3.005 Y11.5138
G1 X2.093 Y11.7139
G1 X1.167 Y11.8419
G1 X0.235 Y11.8969
G1 X-0.699 Y11.8789
G1 X-1.629 Y11.7869
G1 X-2.549 Y11.6220
G1 X-3.453 Y11.3860
G1 X-4.336 Y11.0800
G1 X-5.192 Y10.7060
G1 X-6.016 Y10.2660
G1 X-6.802 Y9.7621
G1 X-7.547 Y9.1981
G1 X-8.246 Y8.5781
G1 X-8.893 Y7.9041
G1 X-9.486 Y7.1822
G1 X-10.020 Y6.4162
G1 X-10.493 Y5.6102
G1 X-10.901 Y4.7692
G1 X-11.241 Y3.8992
G1 X-11.513 Y3.0053
G1 X-11.713 Y2.0933
G1 X-11.841 Y1.1673
G1 X-11.889 Y0.3500
ID=1 WHEN $AC_TIMER[1]>=0 DO M51
G1 X-12.866 Y-0.797 F2000
ID=1 WHEN $AC_TIMER[1]>=0 DO M50
G1 X-12.770 Y-1.7651 F600
G1 X-12.586 Y-2.7881
G1 X-12.337 Y-3.7410
G1 X-12.005 Y-4.6988
G1 X-11.600 Y-5.6252
G1 X-11.108 Y-6.5402
G1 X-10.577 Y-7.3701
G1 X-9.966 Y-8.1789
G1 X-9.294 Y-8.9347
G1 X-8.565 Y-9.6361
G1 X-7.760 Y-10.2941
G1 X-6.951 Y-10.8570
G1 X-6.078 Y-11.3698
G1 X-5.167 Y-11.8116
G1 X-4.225 Y-12.1804
G1 X-3.256 Y-12.4742
G1 X-2.267 Y-12.6910
G1 X-1.265 Y-12.8294
G1 X-0.227 Y-12.8894
G1 X0.758 Y-12.8694
G1 X1.765 Y-12.7702 F600
G1 X2.762 Y-12.5920
G1 X3.741 Y-12.3377
G1 X4.698 Y-12.0055
G1 X5.625 Y-11.6003
G1 X6.518 Y-11.1231
G1 X7.370 Y-10.5779
G1 X8.178 Y-9.9667
G1 X8.934 Y-9.2945
G1 X9.636 Y-8.5659
G1 X10.294 Y-7.7609
G1 X10.857 Y-6.9519
G1 X11.369 Y-6.0787
G1 X11.811 Y-5.1675
G1 X12.180 Y-4.2259
G1 X12.480 Y-3.2309
G1 X12.691 Y-2.2678
G1 X12.830 Y-1.2656
G1 X12.889 Y-0.2544
G1 X12.869 Y0.7582
G1 X12.770 Y1.7650
G1 X12.592 Y2.7628
G1 X12.337 Y3.7416
G1 X12.005 Y4.6984
G1 X11.600 Y5.6252
G1 X11.123 Y6.5180
G1 X10.577 Y7.3707
G1 X9.966 Y8.1785
G1 X9.294 Y8.9343
G1 X8.564 Y9.6361
G1 X7.782 Y10.2789
G1 X6.951 Y10.8577
G1 X6.078 Y11.3695
G1 X5.167 Y11.8113
G1 X4.225 Y12.1801
G1 X3.256 Y12.4749
G1 X2.267 Y12.6917
G1 X1.265 Y12.8305
G1 X0.254 Y12.8893
G1 X-0.758 Y12.8691
G1 X-1.765 Y12.7709
G1 X-2.762 Y12.5927
G1 X-3.741 Y12.3375
G1 X-4.698 Y12.0053
G1 X-5.625 Y11.6001
G1 X-6.518 Y11.1239
G1 X-7.370 Y10.5777
G1 X-8.178 Y9.96605
G1 X-8.934 Y9.29413
G1 X-9.636 Y8.56421
G1 X-10.278 Y7.78229
G1 X-10.857 Y6.95137
G1 X-11.369 Y6.07845
G1 X-11.811 Y5.16753
G1 X-12.180 Y4.22561
G1 X-12.474 Y3.25669
G1 X-12.691 Y2.26776
G1 X-12.830 Y1.26584
G1 X-12.889 Y0.25301
ID=1 WHEN $AC_TIMER[1]>=0 DO M51
G1 X-10.716 Y0.092 F2000
ID=1 WHEN $AC_TIMER[1]>=0 DO M50
G1 X-10.680 Y-0.9001 F600
G1 X-10.608 Y-1.4649
G1 X-10.465 Y-2.3209
G1 X-10.248 Y-3.1087
G1 X-9.963 Y-3.9603
G1 X-9.636 Y-4.6708
G1 X-9.188 Y-5.5238
G1 X-8.786 Y-6.1227
G1 X-8.289 Y-6.8023
G1 X-7.720 Y-7.4210
G1 X-7.125 Y-8.0137
G1 X-6.444 Y-8.5529
G1 X-5.871 Y-8.9700
G1 X-5.049 Y-9.4442
G1 X-4.338 Y-9.8047
G1 X-3.509 Y-10.1173
G1 X-2.707 Y-10.3727
G1 X-1.883 Y-10.5421
G1 X-1.281 Y-10.6427
G1 X-0.186 Y-10.7072
G1 X0.630 Y-10.6989
G1 X1.466 Y-10.6092
G1 X1.990 Y-10.5324
G1 X3.108 Y-10.2497
G1 X3.574 Y-10.1051
G1 X3.904 Y-9.9785
G1 X5.075 Y-9.4400
G1 X5.417 Y-9.2431
G1 X6.124 Y-8.7882
G1 X6.456 Y-8.5552
G1 X6.795 Y-8.2820
G1 X7.687 Y-7.4691
G1 X8.005 Y-7.1186
G1 X8.556 Y-6.4472
G1 X8.796 Y-6.1240
G1 X9.448 Y-5.0513
G1 X9.628 Y-4.7099
G1 X9.813 Y-4.2931
G1 X10.122 Y-3.5142
G1 X10.234 Y-3.1840
G1 X10.549 Y-1.8858
G1 X10.658 Y-1.0510
G1 X10.715 Y-0.2113
G1 X10.691 Y0.6305
G1 X10.585 Y1.6871
G1 X10.460 Y2.2941
G1 X10.258 Y3.1116
G1 X9.972 Y3.9020
G1 X9.584 Y4.8033
G1 X9.239 Y5.4148
G1 X8.797 Y6.1304
G1 X8.278 Y6.7930
G1 X7.730 Y7.4317
G1 X7.114 Y8.0044
G1 X6.472 Y8.5491
G1 X5.774 Y9.0187
G1 X5.167 Y9.3931
G1 X4.292 Y9.8116
G1 X3.513 Y10.1280
G1 X2.705 Y10.3624
G1 X2.092 Y10.5134
G1 X1.051 Y10.6571
G1 X0.462 Y10.7094
G1 X-0.630 Y10.6917
G1 X-1.467 Y10.6159
G1 X-2.790 Y10.3496
G1 X-3.903 Y9.9742
G1 X-4.337 Y9.8013
G1 X-4.675 Y9.6400
G1 X-5.783 Y9.0242
G1 X-6.125 Y8.7906
G1 X-7.092 Y8.0361
G1 X-7.424 Y7.7232
G1 X-8.007 Y7.1174
G1 X-8.302 Y6.7791
G1 X-9.022 Y5.7770
G1 X-9.239 Y5.4339
G1 X-9.446 Y5.0508
G1 X-9.816 Y4.2959
G1 X-9.960 Y3.9591
G1 X-10.368 Y2.7065
G1 X-10.448 Y2.3920
G1 X-10.543 Y1.8843
G1 X-10.652 Y1.1404
ID=1 WHEN $AC_TIMER[1]>=0 DO M51
ID=1 WHEN $AC_TIMER[1]>=0 DO M51
G1 Z4.500 F2000

ID=1 WHEN $AC_TIMER[1]>=0 DO M50
G1 X-8.546 Y0.115 F2000
ID=1 WHEN $AC_TIMER[1]>=0 DO M50
G1 X-8.525 Y-0.6628 F600
G1 X-8.327 Y-1.9490
G1 X-7.932 Y-3.1973
G1 X-7.351 Y-4.3707
G1 X-6.597 Y-5.4410
G1 X-5.690 Y-6.3843
G1 X-4.648 Y-7.1787
G1 X-3.498 Y-7.8030
G1 X-2.266 Y-8.2463
G1 X-0.981 Y-8.4957
G1 X0.328 Y-8.5450
G1 X1.628 Y-8.3953
G1 X2.891 Y-8.0487
G1 X4.085 Y-7.5130
G1 X5.184 Y-6.8014
G1 X6.162 Y-5.9307
G1 X6.995 Y-4.9200
G1 X7.664 Y-3.7954
G1 X8.153 Y-2.5807
G1 X8.451 Y-1.3050
G1 X8.552 Y-0.0004
G1 X8.451 Y1.3057
G1 X8.153 Y2.5800
G1 X7.664 Y3.7954
G1 X6.995 Y4.9207
G1 X6.162 Y5.9301
G1 X5.184 Y6.8014
G1 X4.085 Y7.5137
G1 X2.891 Y8.0481
G1 X1.628 Y8.3954
G1 X0.328 Y8.5457
G1 X-0.981 Y8.4951
G1 X-2.266 Y8.2464
G1 X-3.248 Y7.8930
G1 X-3.498 Y7.8038
G1 X-4.648 Y7.1781
G1 X-5.690 Y6.3844
G1 X-6.597 Y5.4418
G1 X-7.351 Y4.3701
G1 X-7.932 Y3.1974
G1 X-8.327 Y1.9498
G1 X-8.449 Y1.1598
ID=1 WHEN $AC_TIMER[1]>=0 DO M51
G1 X-11.811 Y-0.696 F2000
ID=1 WHEN $AC_TIMER[1]>=0 DO M50
G1 X-11.720 Y-1.6203 F600
G1 X-11.557 Y-2.5357
G1 X-11.322 Y-3.4340
G1 X-11.018 Y-4.3114
G1 X-10.646 Y-5.1637
G1 X-10.208 Y-5.9821
G1 X-10.081 Y-6.1805
G1 X-9.707 Y-6.7644
G1 X-9.147 Y-7.5058
G1 X-8.530 Y-8.2001
G1 X-7.860 Y-8.8445
G1 X-7.142 Y-9.4338
G1 X-6.949 Y-9.5682
G1 X-6.380 Y-9.9642
G1 X-5.578 Y-10.4345
G1 X-4.742 Y-10.8409
G1 X-3.877 Y-11.1782
G1 X-2.988 Y-11.4485
G1 X-2.081 Y-11.6479
G1 X-1.161 Y-11.7752
G1 X-0.301 Y-11.8319
G1 X0.696 Y-11.8111
G1 X1.620 Y-11.7204
G1 X2.535 Y-11.5578
G1 X3.434 Y-11.3221
G1 X4.311 Y-11.0185
G1 X5.163 Y-10.6468
G1 X5.982 Y-10.2082
G1 X6.764 Y-9.7075
G1 X7.505 Y-9.1479
G1 X8.200 Y-8.5302
G1 X8.844 Y-7.8606
G1 X9.433 Y-7.1429
G1 X9.964 Y-6.3802
G1 X10.434 Y-5.5786
G1 X10.840 Y-4.7429
G1 X11.178 Y-3.8773
G1 X11.448 Y-2.9886
G1 X11.647 Y-2.0810
G1 X11.775 Y-1.1613
G1 X11.829 Y-0.2337
G1 X11.811 Y0.6960
G1 X11.720 Y1.6204
G1 X11.557 Y2.5357
G1 X11.322 Y3.4341
G1 X11.018 Y4.3114
G1 X10.646 Y5.1638
G1 X10.208 Y5.9821
G1 X9.707 Y6.7644
G1 X9.147 Y7.5058
G1 X8.530 Y8.2001
G1 X7.860 Y8.8445
G1 X7.142 Y9.4338
G1 X6.380 Y9.9642
G1 X5.578 Y10.4345
G1 X4.742 Y10.8409
G1 X3.877 Y11.1782
G1 X2.988 Y11.4486
G1 X2.081 Y11.6479
G1 X1.161 Y11.7753
G1 X0.233 Y11.8296
G1 X-0.696 Y11.8110
G1 X-1.620 Y11.7203
G1 X-2.535 Y11.5576
G1 X-3.434 Y11.3220
G1 X-4.311 Y11.0183
G1 X-5.163 Y10.6467
G1 X-5.982 Y10.2080
G1 X-6.764 Y9.7074
G1 X-7.505 Y9.1477
G1 X-8.200 Y8.5301
G1 X-8.844 Y7.8604
G1 X-9.433 Y7.1428
G1 X-9.568 Y6.9491
G1 X-9.964 Y6.3801
G1 X-10.434 Y5.5785
G1 X-10.840 Y4.7428
G1 X-11.178 Y3.8772
G1 X-11.448 Y2.9885
G1 X-11.647 Y2.0818
G1 X-11.775 Y1.1612
G1 X-11.822 Y0.3546
ID=1 WHEN $AC_TIMER[1]>=0 DO M51
G1 X-10.985 Y0.854 F2000
ID=1 WHEN $AC_TIMER[1]>=0 DO M50
G1 X-10.985 Y-0.9777 F600
ID=1 WHEN $AC_TIMER[1]>=0 DO M51
G1 X-8.988 Y-2.292 F2000
ID=1 WHEN $AC_TIMER[1]>=0 DO M50
G1 X-8.988 Y-6.6486 F600
ID=1 WHEN $AC_TIMER[1]>=0 DO M51
G1 X-9.986 Y-4.912 F2000
ID=1 WHEN $AC_TIMER[1]>=0 DO M50
G1 X-9.986 Y4.9123 F600
G1 X-8.988 Y6.6387
G1 X-8.988 Y2.2923
ID=1 WHEN $AC_TIMER[1]>=0 DO M51
G1 X-7.989 Y4.596 F2000
ID=1 WHEN $AC_TIMER[1]>=0 DO M50
G1 X-7.989 Y7.8581 F600
G1 X-6.991 Y8.8000
G1 X-6.991 Y5.9232
G1 X-5.992 Y6.8924
G1 X-5.992 Y9.5219
G1 X-4.993 Y10.1004
G1 X-4.993 Y7.6307
G1 X-3.995 Y8.1739
G1 X-3.995 Y10.5545
G1 X-2.996 Y10.8839
G1 X-2.996 Y8.5612
G1 X-1.997 Y8.8391
G1 X-1.997 Y11.1143
G1 X-0.999 Y11.2511
G1 X-0.999 Y9.0212
G1 X-0.000 Y9.0590
G1 X-0.000 Y11.2833
G1 X0.999 Y11.2578
G1 X0.999 Y8.9999
G1 X1.997 Y8.8509
G1 X1.997 Y11.1207
G1 X2.996 Y10.8835
G1 X2.996 Y8.5763
G1 X3.995 Y8.1584
G1 X3.995 Y10.5466
G1 X4.993 Y10.1005
G1 X4.993 Y7.6082
G1 X5.992 Y6.8872
G1 X5.992 Y9.5280
G1 X6.990 Y8.7894
G1 X6.990 Y5.9228
G1 X7.989 Y4.5610
G1 X7.989 Y7.8651
G1 X8.988 Y6.6489
G1 X8.988 Y2.3312
ID=1 WHEN $AC_TIMER[1]>=0 DO M51
G1 X10.985 Y0.977 F2000
ID=1 WHEN $AC_TIMER[1]>=0 DO M50
G1 X10.985 Y-0.8542 F600
ID=1 WHEN $AC_TIMER[1]>=0 DO M51
G1 X8.988 Y-2.331 F2000
ID=1 WHEN $AC_TIMER[1]>=0 DO M50
G1 X8.988 Y-6.6383 F600
G1 X7.989 Y-7.8584
G1 X7.989 Y-4.5612
G1 X6.990 Y-5.9223
G1 X6.990 Y-8.8001
G1 X5.992 Y-9.5213
G1 X5.992 Y-6.8872
G1 X4.993 Y-7.6083
G1 X4.993 Y-10.1001
G1 X3.995 Y-10.5543
G1 X3.995 Y-8.1585
G1 X2.996 Y-8.5765
G1 X2.996 Y-10.8836
G1 X1.997 Y-11.1144
G1 X1.997 Y-8.8508
G1 X0.999 Y-8.9998
G1 X0.999 Y-11.2512
G1 X-0.000 Y-11.2849
G1 X-0.000 Y-9.0591
G1 X-0.999 Y-9.0218
G1 X-0.999 Y-11.2572
G1 X-1.997 Y-11.1200
G1 X-1.997 Y-8.8394
G1 X-2.996 Y-8.5614
G1 X-2.996 Y-10.8834
G1 X-3.995 Y-10.5465
G1 X-3.995 Y-8.1733
G1 X-4.993 Y-7.6305
G1 X-4.993 Y-10.1008
G1 X-5.992 Y-9.5288
G1 X-5.992 Y-6.8921
G1 X-6.991 Y-5.9233
G1 X-6.991 Y-8.7892
G1 X-7.989 Y-7.8655
G1 X-7.989 Y-4.5969
ID=1 WHEN $AC_TIMER[1]>=0 DO M51
G1 X9.986 Y-4.912 F2000
ID=1 WHEN $AC_TIMER[1]>=0 DO M50
G1 X9.986 Y4.9123 F600
ID=1 WHEN $AC_TIMER[1]>=0 DO M51
ID=1 WHEN $AC_TIMER[1]>=0 DO M51
G1 Z5.000 F2000

ID=1 WHEN $AC_TIMER[1]>=0 DO M50
G1 X-7.932 Y3.197 F2000
ID=1 WHEN $AC_TIMER[1]>=0 DO M50
G1 X-8.327 Y1.9493 F600
G1 X-8.525 Y0.6652
G1 X-8.546 Y0.1272
G1 X-8.525 Y-0.6623
G1 X-8.327 Y-1.9497
G1 X-7.932 Y-3.1970
G1 X-7.351 Y-4.3703
G1 X-6.597 Y-5.4417
G1 X-5.690 Y-6.3840
G1 X-4.648 Y-7.1783
G1 X-3.498 Y-7.8037
G1 X-2.266 Y-8.2460
G1 X-0.981 Y-8.4953
G1 X0.328 Y-8.5457
G1 X1.628 Y-8.3950
G1 X2.891 Y-8.0484
G1 X4.085 Y-7.5137
G1 X5.184 Y-6.8010
G1 X6.162 Y-5.9304
G1 X6.995 Y-4.9207
G1 X7.664 Y-3.7950
G1 X8.153 Y-2.5804
G1 X8.451 Y-1.3057
G1 X8.552 Y-0.0001
G1 X8.451 Y1.3054
G1 X8.153 Y2.5807
G1 X7.664 Y3.7951
G1 X6.995 Y4.9204
G1 X6.162 Y5.9307
G1 X5.184 Y6.8011
G1 X4.085 Y7.5134
G1 X2.891 Y8.0487
G1 X1.628 Y8.3951
G1 X0.328 Y8.5454
G1 X-0.981 Y8.4958
G1 X-2.266 Y8.2461
G1 X-3.498 Y7.8034
G1 X-4.648 Y7.1788
G1 X-5.690 Y6.3841
G1 X-6.597 Y5.4414
G1 X-7.351 Y4.3708
G1 X-7.466 Y4.1388
ID=1 WHEN $AC_TIMER[1]>=0 DO M51
G1 X-11.122 Y-0.853 F2000
ID=1 WHEN $AC_TIMER[1]>=0 DO M50
G1 X-11.071 Y-1.3329 F600
G1 X-10.886 Y-2.3841
G1 X-10.665 Y-3.2340
G1 X-10.378 Y-4.0614
G1 X-10.027 Y-4.8639
G1 X-9.615 Y-5.6341
G1 X-9.140 Y-6.3754
G1 X-8.725 Y-6.9473
G1 X-8.227 Y-7.5287
G1 X-7.764 Y-8.0021
G1 X-7.261 Y-8.4672
G1 X-6.887 Y-8.7701
G1 X-6.012 Y-9.3833
G1 X-5.254 Y-9.8283
G1 X-4.467 Y-10.2107
G1 X-3.652 Y-10.5291
G1 X-2.815 Y-10.7834
G1 X-1.954 Y-10.9718
G1 X-1.304 Y-11.0756
G1 X-0.493 Y-11.1405
G1 X0.169 Y-11.1493
G1 X0.703 Y-11.1289
G1 X1.336 Y-11.0700
G1 X2.384 Y-10.8863
G1 X3.234 Y-10.6652
G1 X4.061 Y-10.3786
G1 X4.863 Y-10.0271
G1 X5.634 Y-9.6153
G1 X6.375 Y-9.1405
G1 X6.947 Y-8.7255
G1 X7.528 Y-8.2279
G1 X8.002 Y-7.7643
G1 X8.467 Y-7.2614
G1 X8.770 Y-6.8873
G1 X9.383 Y-6.0125
G1 X9.828 Y-5.2544
G1 X10.210 Y-4.4678
G1 X10.529 Y-3.6523
G1 X10.783 Y-2.8155
G1 X10.971 Y-1.9558
G1 X11.081 Y-1.2577
G1 X11.140 Y-0.4941
G1 X11.149 Y0.1695
G1 X11.122 Y0.8527
G1 X11.061 Y1.3983
G1 X10.886 Y2.3834
G1 X10.665 Y3.2346
G1 X10.378 Y4.0610
G1 X10.027 Y4.8635
G1 X9.615 Y5.6347
G1 X9.140 Y6.3750
G1 X8.725 Y6.9479
G1 X8.227 Y7.5283
G1 X7.765 Y8.0021
G1 X7.204 Y8.5165
G1 X6.834 Y8.8094
G1 X6.012 Y9.3836
G1 X5.254 Y9.8289
G1 X4.467 Y10.2103
G1 X3.652 Y10.5297
G1 X2.815 Y10.7830
G1 X1.955 Y10.9712
G1 X1.257 Y11.0811
G1 X0.494 Y11.1406
G1 X-0.169 Y11.1499
G1 X-0.853 Y11.1220
G1 X-1.332 Y11.0719
G1 X-2.384 Y10.8862
G1 X-3.234 Y10.6651
G1 X-4.061 Y10.3785
G1 X-4.863 Y10.0279
G1 X-5.634 Y9.6152
G1 X-6.375 Y9.1404
G1 X-6.947 Y8.7253
G1 X-7.528 Y8.2278
G1 X-8.002 Y7.7655
G1 X-8.517 Y7.2038
G1 X-8.769 Y6.8880
G1 X-9.383 Y6.0124
G1 X-9.828 Y5.2543
G1 X-10.210 Y4.4677
G1 X-10.529 Y3.6521
G1 X-10.783 Y2.8154
G1 X-10.971 Y1.9556
G1 X-11.081 Y1.2575
G1 X-11.140 Y0.4940
G1 X-11.144 Y0.1962
ID=1 WHEN $AC_TIMER[1]>=0 DO M51
G1 X0.899 Y-9.274 F2000
ID=1 WHEN $AC_TIMER[1]>=0 DO M50
G1 X4.822 Y-9.2745 F600
G1 X4.170 Y-8.2445
G1 X6.505 Y-8.2445
G1 X5.662 Y-7.2132
G1 X7.685 Y-7.2130
G1 X6.723 Y-6.1839
G1 X8.555 Y-6.1834
G1 X9.230 Y-5.1525
G1 X7.517 Y-5.1525
G1 X8.122 Y-4.1226
G1 X9.758 Y-4.1223
G1 X10.136 Y-3.0910
G1 X8.537 Y-3.0914
G1 X8.823 Y-2.0612
G1 X10.402 Y-2.0611
G1 X10.570 Y-1.0303
G1 X9.001 Y-1.0303
G1 X9.080 Y0.0001
G1 X10.603 Y0.0001
G1 X10.571 Y1.0301
G1 X9.001 Y1.0304
G1 X8.823 Y2.0618
G1 X10.405 Y2.0615
G1 X10.140 Y3.0916
G1 X8.537 Y3.0918
G1 X8.122 Y4.1220
G1 X9.750 Y4.1220
G1 X9.236 Y5.1525
G1 X7.517 Y5.1528
G1 X6.723 Y6.1832
G1 X8.559 Y6.1834
G1 X7.681 Y7.2131
G1 X5.662 Y7.2138
G1 X6.503 Y8.2446
G1 X4.170 Y8.2442
G1 X4.806 Y9.2742
G1 X0.899 Y9.2744
G1 X0.913 Y10.3050
G1 X-0.959 Y10.3057
G1 X-0.993 Y9.2747
G1 X-4.822 Y9.2744
G1 X-4.115 Y8.2448
G1 X-6.505 Y8.2449
G1 X-5.663 Y7.2131
G1 X-7.685 Y7.2131
G1 X-6.729 Y6.1833
G1 X-8.555 Y6.1836
G1 X-9.230 Y5.1526
G1 X-7.510 Y5.1528
G1 X-8.095 Y4.1229
G1 X-9.758 Y4.1226
G1 X-10.136 Y3.0913
G1 X-8.531 Y3.0910
G1 X-8.845 Y2.0614
G1 X-10.402 Y2.0617
G1 X-10.570 Y1.0309
G1 X-9.004 Y1.0306
G1 X-9.069 Y0.0006
G1 X-10.603 Y0.0008
G1 X-10.572 Y-1.0307
G1 X-9.004 Y-1.0306
G1 X-8.845 Y-2.0618
G1 X-10.404 Y-2.0617
G1 X-10.140 Y-3.0917
G1 X-8.531 Y-3.0913
G1 X-8.095 Y-4.1220
G1 X-9.750 Y-4.1221
G1 X-9.236 Y-5.1526
G1 X-7.510 Y-5.1529
G1 X-6.729 Y-6.1837
G1 X-8.559 Y-6.1838
G1 X-7.681 Y-7.2135
G1 X-5.663 Y-7.2134
G1 X-6.500 Y-8.2446
G1 X-4.115 Y-8.2443
G1 X-4.806 Y-9.2744
G1 X-0.993 Y-9.2747
G1 X-0.905 Y-10.3050
G1 X0.953 Y-10.3053
ID=1 WHEN $AC_TIMER[1]>=0 DO M51
ID=1 WHEN $AC_TIMER[1]>=0 DO M51
G1 Z5.500 F2000

ID=1 WHEN $AC_TIMER[1]>=0 DO M50
G1 X-8.545 Y0.139 F2000
ID=1 WHEN $AC_TIMER[1]>=0 DO M50
G1 X-8.525 Y-0.6613 F600
G1 X-8.327 Y-1.9499
G1 X-7.932 Y-3.1972
G1 X-7.351 Y-4.3706
G1 X-6.597 Y-5.4419
G1 X-5.690 Y-6.3842
G1 X-4.648 Y-7.1786
G1 X-3.498 Y-7.8039
G1 X-2.266 Y-8.2463
G1 X-0.981 Y-8.4956
G1 X0.328 Y-8.5459
G1 X1.628 Y-8.3953
G1 X2.891 Y-8.0486
G1 X4.085 Y-7.5139
G1 X5.184 Y-6.8013
G1 X6.162 Y-5.9306
G1 X6.995 Y-4.9209
G1 X7.664 Y-3.7953
G1 X8.153 Y-2.5806
G1 X8.451 Y-1.3050
G1 X8.552 Y-0.0003
G1 X8.451 Y1.3056
G1 X8.153 Y2.5800
G1 X7.664 Y3.7953
G1 X6.995 Y4.9206
G1 X6.162 Y5.9300
G1 X5.184 Y6.8013
G1 X4.085 Y7.5136
G1 X2.891 Y8.0480
G1 X1.628 Y8.3953
G1 X0.328 Y8.5457
G1 X-0.981 Y8.4950
G1 X-2.266 Y8.2463
G1 X-3.498 Y7.8037
G1 X-4.648 Y7.1780
G1 X-5.690 Y6.3843
G1 X-6.597 Y5.4417
G1 X-7.351 Y4.3700
G1 X-7.932 Y3.1973
G1 X-8.327 Y1.9497
G1 X-8.445 Y1.1838
ID=1 WHEN $AC_TIMER[1]>=0 DO M51
G1 X-10.868 Y-0.938 F2000
ID=1 WHEN $AC_TIMER[1]>=0 DO M50
G1 X-10.814 Y-1.1896 F600
G1 X-10.495 Y-1.9207
G1 X-10.195 Y-3.0938
G1 X-9.922 Y-3.8823
G1 X-9.587 Y-4.6497
G1 X-9.190 Y-5.3919
G1 X-8.781 Y-6.0581
G1 X-8.478 Y-6.8267
G1 X-8.312 Y-7.0614
G1 X-7.022 Y-8.3482
G1 X-6.806 Y-8.4879
G1 X-6.063 Y-8.7799
G1 X-5.022 Y-9.3960
G1 X-4.271 Y-9.7615
G1 X-3.492 Y-10.0669
G1 X-2.686 Y-10.3101
G1 X-1.924 Y-10.4936
G1 X-1.279 Y-10.7782
G1 X-1.028 Y-10.8568
G1 X-0.884 Y-10.8707
G1 X0.918 Y-10.8689
G1 X1.144 Y-10.8279
G1 X1.922 Y-10.4945
G1 X3.093 Y-10.1951
G1 X3.882 Y-9.9226
G1 X4.649 Y-9.5870
G1 X5.391 Y-9.1902
G1 X6.060 Y-8.7807
G1 X6.716 Y-8.5253
G1 X6.936 Y-8.4103
G1 X7.317 Y-8.0620
G1 X8.347 Y-7.0226
G1 X8.487 Y-6.8068
G1 X8.779 Y-6.0639
G1 X9.396 Y-5.0220
G1 X9.761 Y-4.2714
G1 X10.066 Y-3.4929
G1 X10.310 Y-2.6861
G1 X10.493 Y-1.9253
G1 X10.821 Y-1.1689
G1 X10.870 Y-0.8856
G1 X10.868 Y0.9384
G1 X10.814 Y1.1891
G1 X10.495 Y1.9201
G1 X10.195 Y3.0932
G1 X9.922 Y3.8827
G1 X9.587 Y4.6491
G1 X9.190 Y5.3913
G1 X8.781 Y6.0586
G1 X8.478 Y6.8261
G1 X8.312 Y7.0604
G1 X6.998 Y8.3650
G1 X6.795 Y8.4929
G1 X6.063 Y8.7790
G1 X5.022 Y9.3961
G1 X4.271 Y9.7616
G1 X3.492 Y10.0660
G1 X2.686 Y10.3102
G1 X1.925 Y10.4934
G1 X1.168 Y10.8210
G1 X0.885 Y10.8707
G1 X-0.938 Y10.8686
G1 X-1.189 Y10.8142
G1 X-1.920 Y10.4953
G1 X-3.093 Y10.1954
G1 X-3.882 Y9.9228
G1 X-4.649 Y9.5872
G1 X-5.391 Y9.1904
G1 X-6.058 Y8.7817
G1 X-6.826 Y8.4782
G1 X-7.060 Y8.3125
G1 X-8.365 Y6.9981
G1 X-8.492 Y6.7950
G1 X-8.779 Y6.0632
G1 X-9.396 Y5.0222
G1 X-9.761 Y4.2717
G1 X-10.066 Y3.4921
G1 X-10.310 Y2.6863
G1 X-10.493 Y1.9256
G1 X-10.821 Y1.1681
G1 X-10.855 Y1.0416
G1 X-10.870 Y0.8855
G1 X-10.869 Y0.1120
ID=1 WHEN $AC_TIMER[1]>=0 DO M51
G1 X-9.707 Y0.126 F2000
ID=1 WHEN $AC_TIMER[1]>=0 DO M50
G1 X-9.692 Y-0.8194 F600
G1 X-9.487 Y-1.5248
G1 X-9.336 Y-2.2281
G1 X-9.176 Y-2.7878
G1 X-8.941 Y-3.4981
G1 X-8.629 Y-4.1845
G1 X-8.277 Y-4.8680
G1 X-7.844 Y-5.5343
G1 X-7.426 Y-6.2792
G1 X-6.503 Y-7.2204
G1 X-6.270 Y-7.4281
G1 X-5.631 Y-7.7882
G1 X-5.183 Y-8.0812
G1 X-4.518 Y-8.4596
G1 X-3.848 Y-8.7960
G1 X-3.143 Y-9.0614
G1 X-2.585 Y-9.2460
G1 X-1.630 Y-9.4617
G1 X-1.157 Y-9.6041
G1 X-0.801 Y-9.6873
G1 X0.321 Y-9.7103
G1 X0.801 Y-9.6845
G1 X1.535 Y-9.4904
G1 X1.870 Y-9.4218
G1 X2.787 Y-9.1780
G1 X3.205 Y-9.0480
G1 X4.185 Y-8.6314
G1 X4.548 Y-8.4531
G1 X5.539 Y-7.8454
G1 X6.251 Y-7.4340
G1 X6.962 Y-6.7716
G1 X7.422 Y-6.2685
G1 X8.584 Y-4.2971
G1 X8.788 Y-3.8457
G1 X9.139 Y-2.9373
G1 X9.681 Y-0.8092
G1 X9.710 Y0.0517
G1 X9.680 Y0.8170
G1 X9.166 Y2.8562
G1 X8.931 Y3.4951
G1 X8.624 Y4.2226
G1 X8.266 Y4.8622
G1 X7.418 Y6.27382
G1 X6.961 Y6.76973
G1 X6.259 Y7.42932
G1 X5.552 Y7.83824
G1 X4.523 Y8.46989
G1 X3.844 Y8.78683
G1 X3.146 Y9.07037
G1 X2.407 Y9.28423
G1 X1.537 Y9.48959
G1 X0.810 Y9.68406
G1 X0.321 Y9.70845
G1 X-0.818 Y9.68512
G1 X-1.616 Y9.46561
G1 X-2.503 Y9.26616
G1 X-2.789 Y9.18229
G1 X-3.495 Y8.93220
G1 X-4.187 Y8.63471
G1 X-5.184 Y8.08334
G1 X-5.622 Y7.79305
G1 X-6.277 Y7.42339
G1 X-6.503 Y7.22045
G1 X-7.437 Y6.26427
G1 X-7.787 Y5.63137
G1 X-8.228 Y4.94164
G1 X-8.461 Y4.51996
G1 X-8.887 Y3.62723
G1 X-9.062 Y3.14342
G1 X-9.340 Y2.22985
G1 X-9.460 Y1.63387
G1 X-9.592 Y1.16228
ID=1 WHEN $AC_TIMER[1]>=0 DO M51
ID=1 WHEN $AC_TIMER[1]>=0 DO M51
G1 Z6.000 F2000

ID=1 WHEN $AC_TIMER[1]>=0 DO M50
G1 X-7.932 Y3.197 F2000
ID=1 WHEN $AC_TIMER[1]>=0 DO M50
G1 X-8.327 Y1.9493 F600
G1 X-8.525 Y0.6652
G1 X-8.545 Y0.1513
G1 X-8.526 Y-0.6618
G1 X-8.327 Y-1.9496
G1 X-7.932 Y-3.1970
G1 X-7.351 Y-4.3703
G1 X-6.597 Y-5.4416
G1 X-5.690 Y-6.3840
G1 X-4.648 Y-7.1783
G1 X-3.498 Y-7.8036
G1 X-2.266 Y-8.2460
G1 X-0.981 Y-8.4953
G1 X0.328 Y-8.5457
G1 X1.628 Y-8.3950
G1 X2.891 Y-8.0483
G1 X4.085 Y-7.5137
G1 X5.184 Y-6.8010
G1 X6.162 Y-5.9303
G1 X6.995 Y-4.9207
G1 X7.664 Y-3.7950
G1 X8.153 Y-2.5803
G1 X8.451 Y-1.3057
G1 X8.552 Y-0.0000
G1 X8.451 Y1.3054
G1 X8.153 Y2.5807
G1 X7.664 Y3.7950
G1 X6.995 Y4.9204
G1 X6.162 Y5.9307
G1 X5.184 Y6.8010
G1 X4.085 Y7.5134
G1 X2.891 Y8.0487
G1 X1.628 Y8.3950
G1 X0.328 Y8.5454
G1 X-0.981 Y8.4957
G1 X-2.266 Y8.2461
G1 X-3.498 Y7.8034
G1 X-4.648 Y7.1787
G1 X-5.690 Y6.3841
G1 X-6.597 Y5.4414
G1 X-7.351 Y4.3707
G1 X-7.466 Y4.1388
ID=1 WHEN $AC_TIMER[1]>=0 DO M51
G1 X-10.846 Y-0.971 F2000
ID=1 WHEN $AC_TIMER[1]>=0 DO M50
G1 X-10.790 Y-1.1452 F600
G1 X-10.323 Y-1.6902
G1 X-10.078 Y-2.1114
G1 X-9.835 Y-2.9779
G1 X-9.569 Y-3.7441
G1 X-9.246 Y-4.4811
G1 X-8.618 Y-5.6376
G1 X-8.495 Y-6.1039
G1 X-8.452 Y-6.7634
G1 X-8.403 Y-6.9107
G1 X-8.299 Y-7.0472
G1 X-6.983 Y-8.3568
G1 X-6.820 Y-8.4390
G1 X-6.104 Y-8.4940
G1 X-5.633 Y-8.6192
G1 X-4.849 Y-9.0598
G1 X-4.119 Y-9.4149
G1 X-3.369 Y-9.7070
G1 X-2.108 Y-10.0794
G1 X-1.692 Y-10.3227
G1 X-1.194 Y-10.7582
G1 X-1.055 Y-10.8285
G1 X-0.884 Y-10.8526
G1 X0.884 Y-10.8525
G1 X1.064 Y-10.8242
G1 X1.145 Y-10.7903
G1 X1.690 Y-10.3239
G1 X2.111 Y-10.0782
G1 X2.977 Y-9.8357
G1 X3.744 Y-9.5698
G1 X4.481 Y-9.2469
G1 X5.637 Y-8.6183
G1 X6.103 Y-8.4957
G1 X6.763 Y-8.4522
G1 X6.910 Y-8.4034
G1 X7.047 Y-8.2999
G1 X8.356 Y-6.9835
G1 X8.439 Y-6.8208
G1 X8.494 Y-6.1047
G1 X8.619 Y-5.6330
G1 X9.059 Y-4.8495
G1 X9.414 Y-4.1196
G1 X9.707 Y-3.3697
G1 X10.079 Y-2.1081
G1 X10.322 Y-1.6925
G1 X10.758 Y-1.1940
G1 X10.828 Y-1.0552
G1 X10.852 Y-0.8858
G1 X10.846 Y0.9714
G1 X10.790 Y1.1456
G1 X10.323 Y1.6905
G1 X10.078 Y2.1118
G1 X9.835 Y2.9773
G1 X9.569 Y3.7444
G1 X9.246 Y4.4815
G1 X8.618 Y5.6379
G1 X8.495 Y6.1033
G1 X8.452 Y6.7638
G1 X8.403 Y6.9101
G1 X8.299 Y7.0476
G1 X6.983 Y8.3562
G1 X6.820 Y8.4394
G1 X6.104 Y8.4944
G1 X5.633 Y8.6196
G1 X4.849 Y9.0591
G1 X4.119 Y9.4142
G1 X3.369 Y9.7073
G1 X2.108 Y10.0798
G1 X1.692 Y10.3221
G1 X1.194 Y10.7586
G1 X1.055 Y10.8289
G1 X0.885 Y10.8524
G1 X-0.971 Y10.8460
G1 X-1.145 Y10.7902
G1 X-1.690 Y10.3232
G1 X-2.111 Y10.0784
G1 X-2.977 Y9.8359
G1 X-3.744 Y9.5690
G1 X-4.481 Y9.2461
G1 X-5.637 Y8.6186
G1 X-6.103 Y8.4959
G1 X-6.763 Y8.4524
G1 X-6.910 Y8.4037
G1 X-7.047 Y8.2992
G1 X-8.356 Y6.9838
G1 X-8.439 Y6.8200
G1 X-8.494 Y6.1040
G1 X-8.619 Y5.6332
G1 X-9.059 Y4.8497
G1 X-9.414 Y4.1199
G1 X-9.707 Y3.3699
G1 X-10.079 Y2.1084
G1 X-10.322 Y1.6927
G1 X-10.758 Y1.1942
G1 X-10.828 Y1.0555
G1 X-10.852 Y0.8850
G1 X-10.849 Y0.0793
ID=1 WHEN $AC_TIMER[1]>=0 DO M51
G1 X-9.697 Y0.140 F2000
ID=1 WHEN $AC_TIMER[1]>=0 DO M50
G1 X-9.687 Y-0.6580 F600
G1 X-9.474 Y-1.1391
G1 X-9.271 Y-1.7148
G1 X-9.162 Y-2.1734
G1 X-8.764 Y-3.4293
G1 X-8.461 Y-4.0978
G1 X-8.103 Y-4.7858
G1 X-7.763 Y-5.3499
G1 X-7.510 Y-5.8928
G1 X-7.306 Y-6.3886
G1 X-6.384 Y-7.3152
G1 X-5.893 Y-7.5020
G1 X-5.344 Y-7.7714
G1 X-4.444 Y-8.2841
G1 X-3.875 Y-8.5775
G1 X-3.086 Y-8.8805
G1 X-2.520 Y-9.0651
G1 X-1.707 Y-9.2716
G1 X-0.647 Y-9.6805
G1 X0.321 Y-9.6999
G1 X0.650 Y-9.6842
G1 X1.137 Y-9.4725
G1 X1.719 Y-9.2797
G1 X3.155 Y-8.8651
G1 X4.098 Y-8.4623
G1 X4.519 Y-8.2528
G1 X5.349 Y-7.7648
G1 X6.386 Y-7.3014
G1 X6.955 Y-6.7638
G1 X7.306 Y-6.3804
G1 X7.503 Y-5.8946
G1 X7.819 Y-5.2571
G1 X8.421 Y-4.2007
G1 X8.614 Y-3.7696
G1 X8.885 Y-3.0879
G1 X8.978 Y-2.8128
G1 X9.246 Y-1.7999
G1 X9.511 Y-1.0448
G1 X9.678 Y-0.6474
G1 X9.700 Y0.0507
G1 X9.676 Y0.6545
G1 X9.513 Y1.0386
G1 X9.242 Y1.8113
G1 X8.964 Y2.8665
G1 X8.754 Y3.4260
G1 X8.447 Y4.1518
G1 X7.814 Y5.26804
G1 X7.505 Y5.89103
G1 X7.303 Y6.38729
G1 X6.955 Y6.76312
G1 X6.380 Y7.30409
G1 X5.343 Y7.76713
G1 X4.449 Y8.29573
G1 X3.768 Y8.61202
G1 X3.155 Y8.86727
G1 X1.712 Y9.28147
G1 X1.140 Y9.47166
G1 X0.649 Y9.68392
G1 X0.322 Y9.69845
G1 X-0.655 Y9.67898
G1 X-1.713 Y9.26999
G1 X-2.717 Y9.00662
G1 X-3.426 Y8.75687
G1 X-3.875 Y8.57544
G1 X-5.097 Y7.92353
G1 X-5.350 Y7.76851
G1 X-5.891 Y7.50453
G1 X-6.391 Y7.31184
G1 X-7.310 Y6.38232
G1 X-7.509 Y5.89517
G1 X-7.766 Y5.34338
G1 X-8.078 Y4.83560
G1 X-8.286 Y4.44505
G1 X-8.738 Y3.49217
G1 X-8.881 Y3.08686
G1 X-9.161 Y2.17330
G1 X-9.273 Y1.70809
G1 X-9.472 Y1.14459
ID=1 WHEN $AC_TIMER[1]>=0 DO M51
ID=1 WHEN $AC_TIMER[1]>=0 DO M51
G1 Z6.500 F2000

ID=1 WHEN $AC_TIMER[1]>=0 DO M50
G1 X-8.544 Y0.163 F2000
ID=1 WHEN $AC_TIMER[1]>=0 DO M50
G1 X-8.526 Y-0.66148 F600
G1 X-8.327 Y-1.94997
G1 X-7.932 Y-3.19791
G1 X-7.351 Y-4.37084
G1 X-6.597 Y-5.44177
G1 X-5.690 Y-6.38471
G1 X-4.648 Y-7.17864
G1 X-3.498 Y-7.80357
G1 X-2.266 Y-8.24651
G1 X-0.981 Y-8.49544
G1 X0.328 Y-8.54537
G1 X1.628 Y-8.39531
G1 X2.891 Y-8.04824
G1 X4.085 Y-7.51318
G1 X5.184 Y-6.80111
G1 X6.162 Y-5.93004
G1 X6.995 Y-4.92098
G1 X7.664 Y-3.79591
G1 X8.153 Y-2.58084
G1 X8.451 Y-1.30578
G1 X8.552 Y-0.00071
G1 X8.451 Y1.30565
G1 X8.153 Y2.58058
G1 X7.664 Y3.79551
G1 X6.995 Y4.92045
G1 X6.162 Y5.93038
G1 X5.184 Y6.80131
G1 X4.085 Y7.51325
G1 X2.891 Y8.04818
G1 X1.628 Y8.39511
G1 X0.328 Y8.54505
G1 X-0.981 Y8.49598
G1 X-2.266 Y8.24692
G1 X-3.159 Y7.92556
G1 X-3.498 Y7.80385
G1 X-4.648 Y7.17878
G1 X-5.690 Y6.38472
G1 X-6.597 Y5.44165
G1 X-7.351 Y4.37058
G1 X-7.932 Y3.19752
G1 X-8.327 Y1.94945
G1 X-8.441 Y1.20717
ID=1 WHEN $AC_TIMER[1]>=0 DO M51
G1 X-10.846 Y-0.959 F2000
ID=1 WHEN $AC_TIMER[1]>=0 DO M50
G1 X-10.812 Y-1.0917 F600
G1 X-10.717 Y-1.2462
G1 X-10.380 Y-1.4731
G1 X-10.178 Y-1.6444
G1 X-10.000 Y-1.8365
G1 X-9.855 Y-2.0459
G1 X-9.743 Y-2.2727
G1 X-9.562 Y-2.8917
G1 X-9.302 Y-3.6401
G1 X-8.988 Y-4.3593
G1 X-8.486 Y-5.3046
G1 X-8.377 Y-5.7212
G1 X-8.359 Y-6.0278
G1 X-8.381 Y-6.2986
G1 X-8.453 Y-6.6582
G1 X-8.440 Y-6.8136
G1 X-8.397 Y-6.9180
G1 X-8.299 Y-7.0477
G1 X-6.991 Y-8.3482
G1 X-6.874 Y-8.4179
G1 X-6.697 Y-8.4604
G1 X-6.298 Y-8.3813
G1 X-6.035 Y-8.3607
G1 X-5.773 Y-8.3707
G1 X-5.523 Y-8.4151
G1 X-5.283 Y-8.4969
G1 X-4.717 Y-8.8069
G1 X-4.004 Y-9.1523
G1 X-3.273 Y-9.4385
G1 X-2.250 Y-9.7518
G1 X-1.878 Y-9.9695
G1 X-1.648 Y-10.1730
G1 X-1.473 Y-10.3808
G1 X-1.270 Y-10.6854
G1 X-1.150 Y-10.7858
G1 X-1.046 Y-10.8292
G1 X-0.885 Y-10.8525
G1 X0.888 Y-10.8511
G1 X1.053 Y-10.8262
G1 X1.183 Y-10.7622
G1 X1.271 Y-10.6813
G1 X1.473 Y-10.3800
G1 X1.644 Y-10.1784
G1 X1.836 Y-10.0005
G1 X2.045 Y-9.8558
G1 X2.272 Y-9.7437
G1 X2.891 Y-9.5627
G1 X3.640 Y-9.3021
G1 X4.359 Y-8.9883
G1 X5.304 Y-8.4865
G1 X5.721 Y-8.3772
G1 X6.027 Y-8.3598
G1 X6.298 Y-8.3815
G1 X6.658 Y-8.4532
G1 X6.813 Y-8.4405
G1 X6.918 Y-8.3970
G1 X7.047 Y-8.2997
G1 X8.348 Y-6.9912
G1 X8.417 Y-6.8749
G1 X8.460 Y-6.6974
G1 X8.381 Y-6.2982
G1 X8.360 Y-6.0356
G1 X8.370 Y-5.7737
G1 X8.415 Y-5.5231
G1 X8.496 Y-5.2839
G1 X8.806 Y-4.7179
G1 X9.152 Y-4.0043
G1 X9.438 Y-3.2735
G1 X9.751 Y-2.2507
G1 X9.969 Y-1.8784
G1 X10.173 Y-1.6480
G1 X10.380 Y-1.4737
G1 X10.685 Y-1.2704
G1 X10.785 Y-1.1508
G1 X10.829 Y-1.0462
G1 X10.852 Y-0.8859
G1 X10.846 Y0.9594
G1 X10.812 Y1.0911
G1 X10.717 Y1.2466
G1 X10.380 Y1.4734
G1 X10.178 Y1.6448
G1 X10.000 Y1.8369
G1 X9.855 Y2.0453
G1 X9.743 Y2.2721
G1 X9.562 Y2.8911
G1 X9.302 Y3.6405
G1 X8.988 Y4.3597
G1 X8.486 Y5.3040
G1 X8.377 Y5.7216
G1 X8.359 Y6.0272
G1 X8.381 Y6.2980
G1 X8.453 Y6.6586
G1 X8.440 Y6.8130
G1 X8.397 Y6.9184
G1 X8.299 Y7.0471
G1 X6.991 Y8.3486
G1 X6.874 Y8.4173
G1 X6.697 Y8.4608
G1 X6.298 Y8.3817
G1 X6.035 Y8.3600
G1 X5.773 Y8.3701
G1 X5.523 Y8.4155
G1 X5.283 Y8.4963
G1 X4.717 Y8.8063
G1 X4.004 Y9.1527
G1 X3.273 Y9.4389
G1 X2.250 Y9.7512
G1 X1.878 Y9.9699
G1 X1.648 Y10.1734
G1 X1.473 Y10.3802
G1 X1.270 Y10.6858
G1 X1.150 Y10.7852
G1 X1.046 Y10.8296
G1 X0.885 Y10.8524
G1 X-0.959 Y10.8468
G1 X-1.091 Y10.8125
G1 X-1.246 Y10.7170
G1 X-1.473 Y10.3809
G1 X-1.644 Y10.1783
G1 X-1.836 Y10.0004
G1 X-2.045 Y9.8557
G1 X-2.272 Y9.7435
G1 X-2.891 Y9.5625
G1 X-3.640 Y9.3029
G1 X-4.359 Y8.9882
G1 X-5.304 Y8.4864
G1 X-5.721 Y8.3771
G1 X-6.027 Y8.3596
G1 X-6.298 Y8.3814
G1 X-6.658 Y8.4530
G1 X-6.813 Y8.4404
G1 X-6.918 Y8.3978
G1 X-7.047 Y8.2996
G1 X-8.348 Y6.9911
G1 X-8.417 Y6.8747
G1 X-8.460 Y6.6973
G1 X-8.381 Y6.2981
G1 X-8.360 Y6.0355
G1 X-8.370 Y5.7736
G1 X-8.415 Y5.5239
G1 X-8.496 Y5.2838
G1 X-8.806 Y4.7178
G1 X-9.152 Y4.0042
G1 X-9.438 Y3.2734
G1 X-9.751 Y2.2506
G1 X-9.969 Y1.8783
G1 X-10.173 Y1.6489
G1 X-10.380 Y1.4736
G1 X-10.685 Y1.2703
G1 X-10.785 Y1.1506
G1 X-10.829 Y1.0461
G1 X-10.852 Y0.8858
G1 X-10.849 Y0.0910
ID=1 WHEN $AC_TIMER[1]>=0 DO M51
G1 X-9.121 Y1.812 F2000
ID=1 WHEN $AC_TIMER[1]>=0 DO M50
G1 X-9.292 Y1.3436 F600
G1 X-9.691 Y0.5392
G1 X-9.697 Y0.1526
G1 X-9.688 Y-0.5427
G1 X-9.328 Y-1.2613
G1 X-9.111 Y-1.7989
ID=1 WHEN $AC_TIMER[1]>=0 DO M51
G1 X-9.105 Y-1.796 F2000
ID=1 WHEN $AC_TIMER[1]>=0 DO M50
G1 X-9.029 Y-2.1310 F600
G1 X-8.603 Y-3.4499
G1 X-8.329 Y-4.0417
G1 X-7.979 Y-4.7246
G1 X-7.712 Y-5.1610
ID=1 WHEN $AC_TIMER[1]>=0 DO M51
G1 X-7.728 Y-5.168 F2000
ID=1 WHEN $AC_TIMER[1]>=0 DO M50
G1 X-7.522 Y-5.6214 F600
G1 X-7.227 Y-6.4699
G1 X-6.495 Y-7.2120
G1 X-6.469 Y-7.2391
G1 X-5.704 Y-7.4863
G1 X-5.178 Y-7.7169
ID=1 WHEN $AC_TIMER[1]>=0 DO M51
G1 X-5.180 Y-7.720 F2000
ID=1 WHEN $AC_TIMER[1]>=0 DO M50
G1 X-4.381 Y-8.1569 F600
G1 X-3.715 Y-8.4918
G1 X-2.472 Y-8.9339
G1 X-1.793 Y-9.1049
ID=1 WHEN $AC_TIMER[1]>=0 DO M51
G1 X-1.800 Y-9.121 F2000
ID=1 WHEN $AC_TIMER[1]>=0 DO M50
G1 X-1.346 Y-9.2960 F600
G1 X-0.534 Y-9.6828
G1 X0.321 Y-9.6998
G1 X0.538 Y-9.6900
G1 X1.261 Y-9.3289
G1 X1.784 Y-9.1289
ID=1 WHEN $AC_TIMER[1]>=0 DO M51
G1 X1.781 Y-9.118 F2000
ID=1 WHEN $AC_TIMER[1]>=0 DO M50
G1 X2.669 Y-8.8664 F600
G1 X3.117 Y-8.7275
G1 X3.375 Y-8.6265
G1 X4.413 Y-8.1500
G1 X5.190 Y-7.6949
ID=1 WHEN $AC_TIMER[1]>=0 DO M51
G1 X5.199 Y-7.714 F2000
ID=1 WHEN $AC_TIMER[1]>=0 DO M50
G1 X6.005 Y-7.3808 F600
G1 X6.468 Y-7.2235
G1 X6.955 Y-6.7620
G1 X7.229 Y-6.4662
G1 X7.490 Y-5.7042
G1 X7.716 Y-5.2136
ID=1 WHEN $AC_TIMER[1]>=0 DO M51
G1 X7.692 Y-5.202 F2000
ID=1 WHEN $AC_TIMER[1]>=0 DO M50
G1 X8.297 Y-4.1271 F600
G1 X8.483 Y-3.7117
G1 X8.831 Y-2.8127
G1 X9.057 Y-1.9774
G1 X9.253 Y-1.4784
ID=1 WHEN $AC_TIMER[1]>=0 DO M51
G1 X9.647 Y-1.493 F2000
ID=1 WHEN $AC_TIMER[1]>=0 DO M50
G1 X9.700 Y-0.0509 F600
G1 X9.681 Y0.5381
G1 X9.333 Y1.2663
G1 X9.158 Y1.7541
ID=1 WHEN $AC_TIMER[1]>=0 DO M51
G1 X9.141 Y1.748 F2000
ID=1 WHEN $AC_TIMER[1]>=0 DO M50
G1 X9.044 Y2.0224 F600
G1 X8.842 Y2.7815
G1 X8.621 Y3.3737
G1 X8.315 Y4.0982
G1 X7.695 Y5.2016
ID=1 WHEN $AC_TIMER[1]>=0 DO M51
G1 X7.728 Y5.218 F2000
ID=1 WHEN $AC_TIMER[1]>=0 DO M50
G1 X7.525 Y5.6220 F600
G1 X7.350 Y6.0760
G1 X7.228 Y6.4697
G1 X6.955 Y6.7639
G1 X6.464 Y7.2255
G1 X6.027 Y7.3727
G1 X5.197 Y7.7004
ID=1 WHEN $AC_TIMER[1]>=0 DO M51
G1 X5.193 Y7.689 F2000
ID=1 WHEN $AC_TIMER[1]>=0 DO M50
G1 X4.414 Y8.1538 F600
G1 X3.711 Y8.4818
G1 X3.036 Y8.7567
G1 X1.787 Y9.1190
ID=1 WHEN $AC_TIMER[1]>=0 DO M51
G1 X1.793 Y9.139 F2000
ID=1 WHEN $AC_TIMER[1]>=0 DO M50
G1 X1.344 Y9.2935 F600
G1 X0.902 Y9.4942
G1 X0.539 Y9.6906
G1 X0.322 Y9.6982
G1 X-0.538 Y9.6800
G1 X-1.315 Y9.3102
G1 X-1.787 Y9.1111
ID=1 WHEN $AC_TIMER[1]>=0 DO M51
G1 X-1.784 Y9.104 F2000
ID=1 WHEN $AC_TIMER[1]>=0 DO M50
G1 X-2.473 Y8.9353 F600
G1 X-3.374 Y8.6239
G1 X-3.776 Y8.4633
G1 X-5.174 Y7.7258
ID=1 WHEN $AC_TIMER[1]>=0 DO M51
G1 X-5.178 Y7.732 F2000
ID=1 WHEN $AC_TIMER[1]>=0 DO M50
G1 X-5.621 Y7.5206 F600
G1 X-6.005 Y7.3788
G1 X-6.472 Y7.2378
G1 X-6.496 Y7.2138
G1 X-7.228 Y6.4650
G1 X-7.490 Y5.7048
G1 X-7.711 Y5.1714
ID=1 WHEN $AC_TIMER[1]>=0 DO M51
G1 X-7.705 Y5.168 F2000
ID=1 WHEN $AC_TIMER[1]>=0 DO M50
G1 X-7.980 Y4.7241 F600
G1 X-8.589 Y3.4800
G1 X-8.748 Y3.0331
G1 X-9.029 Y2.1315
G1 X-9.105 Y1.8065
ID=1 WHEN $AC_TIMER[1]>=0 DO M51
ID=1 WHEN $AC_TIMER[1]>=0 DO M51
G1 Z7.000 F2000

ID=1 WHEN $AC_TIMER[1]>=0 DO M50
G1 X-8.544 Y0.175 F2000
ID=1 WHEN $AC_TIMER[1]>=0 DO M50
G1 X-8.526 Y-0.6616 F600
G1 X-8.327 Y-1.9497
G1 X-7.932 Y-3.1971
G1 X-7.351 Y-4.3704
G1 X-6.597 Y-5.4417
G1 X-5.690 Y-6.3841
G1 X-4.648 Y-7.1784
G1 X-3.498 Y-7.8038
G1 X-2.266 Y-8.2461
G1 X-0.981 Y-8.4954
G1 X0.328 Y-8.5458
G1 X1.628 Y-8.3951
G1 X2.891 Y-8.0484
G1 X4.085 Y-7.5138
G1 X5.184 Y-6.8011
G1 X6.162 Y-5.9304
G1 X6.995 Y-4.9208
G1 X7.664 Y-3.7951
G1 X8.153 Y-2.5805
G1 X8.451 Y-1.3058
G1 X8.552 Y0.0001
G1 X8.451 Y1.3055
G1 X8.153 Y2.5808
G1 X7.664 Y3.7951
G1 X6.995 Y4.9205
G1 X6.162 Y5.9308
G1 X5.184 Y6.8011
G1 X4.085 Y7.5135
G1 X3.170 Y7.9235
G1 X2.891 Y8.0488
G1 X1.628 Y8.3952
G1 X0.328 Y8.5455
G1 X-0.981 Y8.4958
G1 X-2.266 Y8.2462
G1 X-3.137 Y7.9330
G1 X-3.498 Y7.8035
G1 X-4.648 Y7.1788
G1 X-5.690 Y6.3842
G1 X-6.597 Y5.4415
G1 X-7.351 Y4.37068
G1 X-7.932 Y3.19762
G1 X-8.327 Y1.94955
G1 X-8.439 Y1.21843
ID=1 WHEN $AC_TIMER[1]>=0 DO M51
G1 X-10.846 Y-0.974 F2000
ID=1 WHEN $AC_TIMER[1]>=0 DO M50
G1 X-10.821 Y-1.0929 F600
G1 X-10.703 Y-1.2526
G1 X-10.069 Y-1.6482
G1 X-9.867 Y-1.8211
G1 X-9.597 Y-2.1631
G1 X-9.442 Y-2.5101
G1 X-9.355 Y-2.8354
G1 X-9.103 Y-3.5624
G1 X-8.796 Y-4.2666
G1 X-8.381 Y-5.0443
G1 X-8.276 Y-5.4762
G1 X-8.277 Y-5.8864
G1 X-8.445 Y-6.6035
G1 X-8.441 Y-6.8044
G1 X-8.394 Y-6.9224
G1 X-8.300 Y-7.0477
G1 X-6.981 Y-8.3585
G1 X-6.879 Y-8.4245
G1 X-6.683 Y-8.4541
G1 X-5.955 Y-8.2857
G1 X-5.689 Y-8.2657
G1 X-5.257 Y-8.3167
G1 X-4.901 Y-8.4527
G1 X-4.610 Y-8.6200
G1 X-3.918 Y-8.9560
G1 X-3.203 Y-9.2362
G1 X-2.359 Y-9.4939
G1 X-1.980 Y-9.7248
G1 X-1.690 Y-10.0150
G1 X-1.303 Y-10.6410
G1 X-1.158 Y-10.7800
G1 X-1.041 Y-10.8309
G1 X-0.885 Y-10.8528
G1 X0.906 Y-10.8513
G1 X1.079 Y-10.8200
G1 X1.214 Y-10.7371
G1 X1.303 Y-10.6396
G1 X1.648 Y-10.0697
G1 X1.821 Y-9.8676
G1 X2.163 Y-9.5976
G1 X2.510 Y-9.4426
G1 X2.835 Y-9.3559
G1 X3.562 Y-9.1039
G1 X4.266 Y-8.7961
G1 X5.044 Y-8.3818
G1 X5.476 Y-8.2767
G1 X5.886 Y-8.2779
G1 X6.603 Y-8.4450
G1 X6.804 Y-8.4419
G1 X6.922 Y-8.3949
G1 X7.047 Y-8.3002
G1 X8.358 Y-6.9810
G1 X8.424 Y-6.8799
G1 X8.454 Y-6.6836
G1 X8.285 Y-5.9552
G1 X8.265 Y-5.6892
G1 X8.316 Y-5.2571
G1 X8.452 Y-4.9011
G1 X8.620 Y-4.6104
G1 X8.956 Y-3.9185
G1 X9.236 Y-3.2036
G1 X9.493 Y-2.3593
G1 X9.724 Y-1.9802
G1 X10.015 Y-1.6905
G1 X10.641 Y-1.3035
G1 X10.780 Y-1.1584
G1 X10.830 Y-1.0414
G1 X10.852 Y-0.8867
G1 X10.846 Y0.9746
G1 X10.821 Y1.0925
G1 X10.703 Y1.2521
G1 X10.069 Y1.6488
G1 X9.867 Y1.8217
G1 X9.597 Y2.1637
G1 X9.442 Y2.5107
G1 X9.355 Y2.8350
G1 X9.103 Y3.5620
G1 X8.796 Y4.2662
G1 X8.381 Y5.0449
G1 X8.276 Y5.4768
G1 X8.277 Y5.8860
G1 X8.445 Y6.6031
G1 X8.441 Y6.8040
G1 X8.394 Y6.9220
G1 X8.300 Y7.0473
G1 X6.981 Y8.3581
G1 X6.879 Y8.4240
G1 X6.683 Y8.4547
G1 X5.955 Y8.2853
G1 X5.689 Y8.2652
G1 X5.257 Y8.3162
G1 X4.901 Y8.4522
G1 X4.610 Y8.6205
G1 X3.918 Y8.9565
G1 X3.203 Y9.2367
G1 X2.359 Y9.4934
G1 X1.980 Y9.7243
G1 X1.690 Y10.0155
G1 X1.303 Y10.6416
G1 X1.158 Y10.7805
G1 X1.041 Y10.8305
G1 X0.886 Y10.8528
G1 X-0.974 Y10.8467
G1 X-1.092 Y10.8216
G1 X-1.252 Y10.7032
G1 X-1.648 Y10.0698
G1 X-1.821 Y9.8678
G1 X-2.163 Y9.5978
G1 X-2.510 Y9.4428
G1 X-2.835 Y9.3551
G1 X-3.562 Y9.1031
G1 X-4.266 Y8.7963
G1 X-5.044 Y8.3810
G1 X-5.476 Y8.2769
G1 X-5.886 Y8.2771
G1 X-6.603 Y8.4451
G1 X-6.804 Y8.4411
G1 X-6.922 Y8.3941
G1 X-7.047 Y8.3004
G1 X-8.358 Y6.9812
G1 X-8.424 Y6.8791
G1 X-8.454 Y6.6838
G1 X-8.285 Y5.9554
G1 X-8.265 Y5.6893
G1 X-8.316 Y5.2573
G1 X-8.452 Y4.9013
G1 X-8.620 Y4.6106
G1 X-8.956 Y3.9186
G1 X-9.236 Y3.2038
G1 X-9.493 Y2.3595
G1 X-9.724 Y1.9804
G1 X-10.015 Y1.6906
G1 X-10.641 Y1.3037
G1 X-10.780 Y1.1586
G1 X-10.830 Y1.0416
G1 X-10.852 Y0.8869
G1 X-10.849 Y0.0764
ID=1 WHEN $AC_TIMER[1]>=0 DO M51
G1 X-9.677 Y1.327 F2000
ID=1 WHEN $AC_TIMER[1]>=0 DO M50
G1 X-9.697 Y0.1659 F600
G1 X-9.678 Y-1.3296
ID=1 WHEN $AC_TIMER[1]>=0 DO M51
G1 X-9.236 Y-1.324 F2000
ID=1 WHEN $AC_TIMER[1]>=0 DO M50
G1 X-9.016 Y-1.8368 F600
G1 X-8.501 Y-3.4175
G1 X-8.234 Y-3.9938
G1 X-7.788 Y-4.8360
G1 X-7.554 Y-5.3521
ID=1 WHEN $AC_TIMER[1]>=0 DO M51
G1 X-7.549 Y-5.351 F2000
ID=1 WHEN $AC_TIMER[1]>=0 DO M50
G1 X-7.218 Y-6.4780 F600
G1 X-5.931 Y-7.7860
ID=1 WHEN $AC_TIMER[1]>=0 DO M51
G1 X-5.604 Y-7.463 F2000
ID=1 WHEN $AC_TIMER[1]>=0 DO M50
G1 X-5.117 Y-7.6605 F600
G1 X-4.643 Y-7.8877
G1 X-3.672 Y-8.3935
G1 X-2.998 Y-8.6468
G1 X-2.436 Y-8.8327
G1 X-2.085 Y-8.9221
G1 X-1.544 Y-9.1327
ID=1 WHEN $AC_TIMER[1]>=0 DO M51
G1 X-1.542 Y-9.129 F2000
ID=1 WHEN $AC_TIMER[1]>=0 DO M50
G1 X-0.903 Y-9.4602 F600
G1 X-0.521 Y-9.6836
G1 X0.422 Y-9.6971
G1 X1.360 Y-9.6428
ID=1 WHEN $AC_TIMER[1]>=0 DO M51
G1 X1.336 Y-9.233 F2000
ID=1 WHEN $AC_TIMER[1]>=0 DO M50
G1 X1.838 Y-9.0211 F600
G1 X2.293 Y-8.8585
G1 X3.088 Y-8.6246
G1 X3.336 Y-8.5278
G1 X4.369 Y-8.0527
G1 X4.834 Y-7.7818
G1 X5.577 Y-7.4618
ID=1 WHEN $AC_TIMER[1]>=0 DO M51
G1 X5.880 Y-7.781 F2000
ID=1 WHEN $AC_TIMER[1]>=0 DO M50
G1 X6.955 Y-6.7624 F600
G1 X7.780 Y-5.8570
ID=1 WHEN $AC_TIMER[1]>=0 DO M51
G1 X7.477 Y-5.583 F2000
ID=1 WHEN $AC_TIMER[1]>=0 DO M50
G1 X7.673 Y-5.0770 F600
G1 X7.884 Y-4.6426
G1 X8.206 Y-4.0728
G1 X8.385 Y-3.6690
G1 X8.731 Y-2.7728
G1 X8.920 Y-2.0832
G1 X9.226 Y-1.3358
ID=1 WHEN $AC_TIMER[1]>=0 DO M51
G1 X9.652 Y-1.351 F2000
ID=1 WHEN $AC_TIMER[1]>=0 DO M50
G1 X9.700 Y0.0508 F600
G1 X9.648 Y1.3555
ID=1 WHEN $AC_TIMER[1]>=0 DO M51
G1 X9.249 Y1.339 F2000
ID=1 WHEN $AC_TIMER[1]>=0 DO M50
G1 X9.013 Y1.8346 F600
G1 X8.858 Y2.2935
G1 X8.732 Y2.7735
G1 X8.522 Y3.3359
G1 X8.243 Y3.9983
G1 X7.796 Y4.8044
G1 X7.585 Y5.3158
G1 X7.459 Y5.5701
ID=1 WHEN $AC_TIMER[1]>=0 DO M51
G1 X7.780 Y5.863 F2000
ID=1 WHEN $AC_TIMER[1]>=0 DO M50
G1 X6.955 Y6.7632 F600
G1 X5.873 Y7.7817
ID=1 WHEN $AC_TIMER[1]>=0 DO M51
G1 X5.590 Y7.480 F2000
ID=1 WHEN $AC_TIMER[1]>=0 DO M50
G1 X5.075 Y7.6694 F600
G1 X4.643 Y7.8886
G1 X4.322 Y8.0786
G1 X3.668 Y8.3847
G1 X3.105 Y8.6203
G1 X2.116 Y8.9111
G1 X1.744 Y9.0698
G1 X1.335 Y9.2095
ID=1 WHEN $AC_TIMER[1]>=0 DO M51
G1 X1.360 Y9.644 F2000
ID=1 WHEN $AC_TIMER[1]>=0 DO M50
G1 X0.322 Y9.6981 F600
G1 X-1.342 Y9.6630
ID=1 WHEN $AC_TIMER[1]>=0 DO M51
G1 X-1.333 Y9.238 F2000
ID=1 WHEN $AC_TIMER[1]>=0 DO M50
G1 X-1.834 Y9.0119 F600
G1 X-2.654 Y8.7647
G1 X-3.739 Y8.3621
G1 X-4.807 Y7.8018
G1 X-5.594 Y7.44130
ID=1 WHEN $AC_TIMER[1]>=0 DO M51
G1 X-5.942 Y7.781 F2000
ID=1 WHEN $AC_TIMER[1]>=0 DO M50
G1 X-7.783 Y5.89816 F600
ID=1 WHEN $AC_TIMER[1]>=0 DO M51
G1 X-7.470 Y5.592 F2000
ID=1 WHEN $AC_TIMER[1]>=0 DO M50
G1 X-7.670 Y5.07601 F600
G1 X-8.070 Y4.31819
G1 X-8.493 Y3.43212
G1 X-8.920 Y2.11908
G1 X-9.213 Y1.31994
ID=1 WHEN $AC_TIMER[1]>=0 DO M51
ID=1 WHEN $AC_TIMER[1]>=0 DO M51
G1 Z7.500 F2000

ID=1 WHEN $AC_TIMER[1]>=0 DO M50
G1 X-8.543 Y0.187 F2000
ID=1 WHEN $AC_TIMER[1]>=0 DO M50
G1 X-8.526 Y-0.66048 F600
G1 X-8.327 Y-1.94901
G1 X-7.932 Y-3.19794
G1 X-7.351 Y-4.37088
G1 X-6.597 Y-5.44181
G1 X-5.690 Y-6.38474
G1 X-4.648 Y-7.17868
G1 X-3.498 Y-7.80361
G1 X-2.266 Y-8.24654
G1 X-0.981 Y-8.49548
G1 X0.328 Y-8.54541
G1 X1.628 Y-8.39534
G1 X2.891 Y-8.04828
G1 X4.085 Y-7.51321
G1 X5.184 Y-6.80115
G1 X6.162 Y-5.93008
G1 X6.995 Y-4.92001
G1 X7.664 Y-3.79595
G1 X8.153 Y-2.58088
G1 X8.451 Y-1.30581
G1 X8.552 Y-0.00075
G1 X8.451 Y1.30568
G1 X8.153 Y2.58061
G1 X7.664 Y3.79555
G1 X6.995 Y4.92048
G1 X6.162 Y5.93042
G1 X5.184 Y6.80135
G1 X4.085 Y7.51328
G1 X2.891 Y8.04822
G1 X1.628 Y8.39515
G1 X0.328 Y8.54508
G1 X-0.981 Y8.49502
G1 X-2.266 Y8.24695
G1 X-3.148 Y7.92975
G1 X-3.498 Y7.80388
G1 X-4.648 Y7.17882
G1 X-5.690 Y6.38475
G1 X-6.597 Y5.44169
G1 X-7.351 Y4.37062
G1 X-7.932 Y3.19755
G1 X-8.327 Y1.94949
G1 X-8.438 Y1.23052
ID=1 WHEN $AC_TIMER[1]>=0 DO M51
G1 X-10.846 Y-0.975 F2000
ID=1 WHEN $AC_TIMER[1]>=0 DO M50
G1 X-10.795 Y-1.1363 F600
G1 X-10.719 Y-1.2375
G1 X-10.595 Y-1.3318
G1 X-9.831 Y-1.7842
G1 X-9.536 Y-2.0713
G1 X-9.386 Y-2.2887
G1 X-9.243 Y-2.6246
G1 X-9.203 Y-2.8003
G1 X-8.958 Y-3.5059
G1 X-8.655 Y-4.1988
G1 X-8.315 Y-4.8415
G1 X-8.245 Y-5.0646
G1 X-8.204 Y-5.3390
G1 X-8.213 Y-5.6905
G1 X-8.450 Y-6.6563
G1 X-8.448 Y-6.7691
G1 X-8.412 Y-6.8921
G1 X-8.307 Y-7.0395
G1 X-6.979 Y-8.3597
G1 X-6.830 Y-8.4379
G1 X-6.704 Y-8.4542
G1 X-6.550 Y-8.4335
G1 X-5.690 Y-8.2139
G1 X-5.279 Y-8.2079
G1 X-5.019 Y-8.2554
G1 X-4.681 Y-8.3913
G1 X-4.528 Y-8.4870
G1 X-3.856 Y-8.8135
G1 X-3.152 Y-9.0895
G1 X-2.456 Y-9.3022
G1 X-2.249 Y-9.4113
G1 X-2.026 Y-9.5767
G1 X-1.784 Y-9.8312
G1 X-1.268 Y-10.6820
G1 X-1.187 Y-10.7598
G1 X-1.075 Y-10.8228
G1 X-0.896 Y-10.8526
G1 X0.910 Y-10.8506
G1 X1.092 Y-10.8163
G1 X1.232 Y-10.7242
G1 X1.332 Y-10.5939
G1 X1.775 Y-9.8450
G1 X1.936 Y-9.6584
G1 X2.258 Y-9.4017
G1 X2.623 Y-9.2447
G1 X2.800 Y-9.2032
G1 X3.505 Y-8.9588
G1 X4.198 Y-8.6557
G1 X4.856 Y-8.3069
G1 X5.264 Y-8.2073
G1 X5.689 Y-8.2121
G1 X6.549 Y-8.4336
G1 X6.700 Y-8.4531
G1 X6.804 Y-8.4416
G1 X6.923 Y-8.3940
G1 X7.047 Y-8.3009
G1 X8.359 Y-6.9798
G1 X8.437 Y-6.8301
G1 X8.454 Y-6.7043
G1 X8.433 Y-6.5506
G1 X8.213 Y-5.6900
G1 X8.207 Y-5.2791
G1 X8.255 Y-5.0196
G1 X8.391 Y-4.6814
G1 X8.487 Y-4.5281
G1 X8.813 Y-3.8567
G1 X9.089 Y-3.1527
G1 X9.302 Y-2.4563
G1 X9.411 Y-2.2494
G1 X9.576 Y-2.0268
G1 X9.831 Y-1.7843
G1 X10.682 Y-1.2682
G1 X10.759 Y-1.1879
G1 X10.822 Y-1.0750
G1 X10.852 Y-0.8963
G1 X10.846 Y0.9755
G1 X10.795 Y1.1368
G1 X10.719 Y1.2370
G1 X10.595 Y1.3313
G1 X9.831 Y1.7847
G1 X9.536 Y2.0718
G1 X9.386 Y2.2883
G1 X9.243 Y2.6241
G1 X9.203 Y2.8008
G1 X8.958 Y3.5054
G1 X8.655 Y4.1984
G1 X8.315 Y4.8410
G1 X8.245 Y5.0641
G1 X8.204 Y5.3395
G1 X8.213 Y5.6900
G1 X8.450 Y6.6568
G1 X8.448 Y6.7696
G1 X8.412 Y6.8927
G1 X8.307 Y7.0390
G1 X6.979 Y8.3592
G1 X6.830 Y8.4375
G1 X6.704 Y8.4547
G1 X6.550 Y8.4330
G1 X5.690 Y8.2134
G1 X5.279 Y8.2075
G1 X5.019 Y8.2559
G1 X4.681 Y8.3918
G1 X4.528 Y8.4875
G1 X3.856 Y8.8131
G1 X3.152 Y9.0890
G1 X2.456 Y9.3027
G1 X2.249 Y9.4118
G1 X2.026 Y9.5762
G1 X1.784 Y9.8317
G1 X1.268 Y10.6825
G1 X1.187 Y10.7593
G1 X1.075 Y10.8223
G1 X0.896 Y10.8526
G1 X-0.975 Y10.8469
G1 X-1.136 Y10.7951
G1 X-1.237 Y10.7194
G1 X-1.331 Y10.5957
G1 X-1.784 Y9.8311
G1 X-2.071 Y9.5361
G1 X-2.288 Y9.3866
G1 X-2.624 Y9.2435
G1 X-2.800 Y9.2032
G1 X-3.505 Y8.9587
G1 X-4.198 Y8.6557
G1 X-4.841 Y8.3154
G1 X-5.064 Y8.2455
G1 X-5.339 Y8.2049
G1 X-5.690 Y8.2134
G1 X-6.656 Y8.4502
G1 X-6.769 Y8.4480
G1 X-6.892 Y8.4120
G1 X-7.039 Y8.3073
G1 X-8.359 Y6.9796
G1 X-8.437 Y6.8308
G1 X-8.454 Y6.7040
G1 X-8.433 Y6.5503
G1 X-8.213 Y5.6908
G1 X-8.207 Y5.2798
G1 X-8.255 Y5.0193
G1 X-8.391 Y4.6811
G1 X-8.487 Y4.5289
G1 X-8.813 Y3.8564
G1 X-9.089 Y3.1524
G1 X-9.302 Y2.4561
G1 X-9.411 Y2.2491
G1 X-9.576 Y2.0266
G1 X-9.831 Y1.7840
G1 X-10.682 Y1.2689
G1 X-10.759 Y1.1877
G1 X-10.822 Y1.0757
G1 X-10.852 Y0.8960
G1 X-10.849 Y0.0759
ID=1 WHEN $AC_TIMER[1]>=0 DO M51
G1 X-9.677 Y1.297 F2000
ID=1 WHEN $AC_TIMER[1]>=0 DO M50
G1 X-9.696 Y0.1783 F600
G1 X-9.679 Y-1.2978
ID=1 WHEN $AC_TIMER[1]>=0 DO M51
G1 X-9.592 Y-1.320 F2000
ID=1 WHEN $AC_TIMER[1]>=0 DO M50
G1 X-9.110 Y-1.5001 F600
G1 X-8.891 Y-2.0082
G1 X-8.427 Y-3.3939
G1 X-8.163 Y-3.9609
G1 X-7.669 Y-4.9390
G1 X-7.501 Y-5.3803
G1 X-7.717 Y-5.8505
ID=1 WHEN $AC_TIMER[1]>=0 DO M51
G1 X-7.760 Y-5.927 F2000
ID=1 WHEN $AC_TIMER[1]>=0 DO M50
G1 X-5.949 Y-7.7677 F600
ID=1 WHEN $AC_TIMER[1]>=0 DO M51
G1 X-5.868 Y-7.720 F2000
ID=1 WHEN $AC_TIMER[1]>=0 DO M50
G1 X-5.384 Y-7.5038 F600
G1 X-5.209 Y-7.5630
G1 X-4.438 Y-7.9075
G1 X-3.641 Y-8.3227
G1 X-2.972 Y-8.5735
G1 X-1.942 Y-8.9088
G1 X-1.562 Y-9.0769
G1 X-1.499 Y-9.1114
G1 X-1.325 Y-9.5851
ID=1 WHEN $AC_TIMER[1]>=0 DO M51
G1 X-1.303 Y-9.668 F2000
ID=1 WHEN $AC_TIMER[1]>=0 DO M50
G1 X0.321 Y-9.6987 F600
G1 X1.317 Y-9.6454
ID=1 WHEN $AC_TIMER[1]>=0 DO M51
G1 X1.291 Y-9.200 F2000
ID=1 WHEN $AC_TIMER[1]>=0 DO M50
G1 X1.968 Y-8.8998 F600
G1 X2.450 Y-8.7305
G1 X3.068 Y-8.5492
G1 X3.308 Y-8.4546
G1 X4.337 Y-7.9819
G1 X4.666 Y-7.7898
G1 X5.209 Y-7.5588
G1 X5.387 Y-7.5067
G1 X5.832 Y-7.7120
ID=1 WHEN $AC_TIMER[1]>=0 DO M51
G1 X5.906 Y-7.755 F2000
ID=1 WHEN $AC_TIMER[1]>=0 DO M50
G1 X6.955 Y-6.7627 F600
G1 X7.751 Y-5.8899
ID=1 WHEN $AC_TIMER[1]>=0 DO M51
G1 X7.709 Y-5.819 F2000
ID=1 WHEN $AC_TIMER[1]>=0 DO M50
G1 X7.509 Y-5.3955 F600
G1 X7.704 Y-4.8509
G1 X7.908 Y-4.4396
G1 X8.139 Y-4.0336
G1 X8.314 Y-3.6371
G1 X8.659 Y-2.7433
G1 X8.792 Y-2.2527
G1 X8.907 Y-1.9429
G1 X9.124 Y-1.4937
G1 X9.574 Y-1.3325
ID=1 WHEN $AC_TIMER[1]>=0 DO M51
G1 X9.654 Y-1.311 F2000
ID=1 WHEN $AC_TIMER[1]>=0 DO M50
G1 X9.700 Y0.0505 F600
G1 X9.649 Y1.3144
ID=1 WHEN $AC_TIMER[1]>=0 DO M51
G1 X9.568 Y1.335 F2000
ID=1 WHEN $AC_TIMER[1]>=0 DO M50
G1 X9.125 Y1.4960 F600
G1 X8.882 Y2.0023
G1 X8.733 Y2.4545
G1 X8.660 Y2.7430
G1 X8.449 Y3.3069
G1 X8.143 Y4.0291
G1 X7.804 Y4.6335
G1 X7.668 Y4.9398
G1 X7.507 Y5.3974
G1 X7.711 Y5.8254
ID=1 WHEN $AC_TIMER[1]>=0 DO M51
G1 X7.752 Y5.894 F2000
ID=1 WHEN $AC_TIMER[1]>=0 DO M50
G1 X6.955 Y6.7631 F600
G1 X5.901 Y7.7547
ID=1 WHEN $AC_TIMER[1]>=0 DO M51
G1 X5.828 Y7.711 F2000
ID=1 WHEN $AC_TIMER[1]>=0 DO M50
G1 X5.386 Y7.5075 F600
G1 X4.865 Y7.6969
G1 X4.268 Y8.0180
G1 X3.637 Y8.3121
G1 X3.068 Y8.5510
G1 X2.243 Y8.7954
G1 X1.493 Y9.1188
G1 X1.335 Y9.5700
ID=1 WHEN $AC_TIMER[1]>=0 DO M51
G1 X1.316 Y9.646 F2000
ID=1 WHEN $AC_TIMER[1]>=0 DO M50
G1 X0.322 Y9.6988 F600
G1 X-1.305 Y9.6647
ID=1 WHEN $AC_TIMER[1]>=0 DO M51
G1 X-1.328 Y9.580 F2000
ID=1 WHEN $AC_TIMER[1]>=0 DO M50
G1 X-1.502 Y9.1115 F600
G1 X-1.632 Y9.0419
G1 X-2.018 Y8.8788
G1 X-2.650 Y8.6834
G1 X-3.713 Y8.28973
G1 X-4.626 Y7.81106
G1 X-5.283 Y7.53614
G1 X-5.386 Y7.50172
G1 X-5.874 Y7.72238
ID=1 WHEN $AC_TIMER[1]>=0 DO M51
G1 X-5.955 Y7.767 F2000
ID=1 WHEN $AC_TIMER[1]>=0 DO M50
G1 X-7.213 Y6.48078 F600
G1 X-7.385 Y5.76132
G1 X-7.484 Y5.43908
ID=1 WHEN $AC_TIMER[1]>=0 DO M51
G1 X-7.484 Y5.439 F2000
ID=1 WHEN $AC_TIMER[1]>=0 DO M50
G1 X-7.558 Y5.20813 F600
G1 X-7.702 Y4.86620
G1 X-8.423 Y3.39807
G1 X-8.798 Y2.25460
G1 X-9.076 Y1.56297
G1 X-9.110 Y1.49617
G1 X-9.594 Y1.31935
ID=1 WHEN $AC_TIMER[1]>=0 DO M51
ID=1 WHEN $AC_TIMER[1]>=0 DO M51
G1 Z8.000 F2000

ID=1 WHEN $AC_TIMER[1]>=0 DO M50
G1 X-8.543 Y0.199 F2000
ID=1 WHEN $AC_TIMER[1]>=0 DO M50
G1 X-8.526 Y-0.66071 F600
G1 X-8.327 Y-1.94926
G1 X-7.932 Y-3.19719
G1 X-7.351 Y-4.37012
G1 X-6.597 Y-5.44106
G1 X-5.690 Y-6.38499
G1 X-4.648 Y-7.17892
G1 X-3.498 Y-7.80386
G1 X-2.266 Y-8.24679
G1 X-0.981 Y-8.49573
G1 X0.328 Y-8.54566
G1 X1.628 Y-8.39559
G1 X2.891 Y-8.04853
G1 X4.085 Y-7.51346
G1 X5.184 Y-6.80139
G1 X6.162 Y-5.93033
G1 X6.995 Y-4.92026
G1 X7.664 Y-3.79519
G1 X8.153 Y-2.58013
G1 X8.451 Y-1.30506
G1 X8.552 Y0.00000
G1 X8.451 Y1.30593
G1 X8.153 Y2.58086
G1 X7.664 Y3.79580
G1 X6.995 Y4.92073
G1 X6.162 Y5.93066
G1 X5.184 Y6.80160
G1 X4.085 Y7.51353
G1 X2.891 Y8.04846
G1 X1.628 Y8.39540
G1 X0.328 Y8.54533
G1 X-0.981 Y8.49527
G1 X-2.266 Y8.24620
G1 X-3.498 Y7.80313
G1 X-4.648 Y7.17807
G1 X-5.690 Y6.38400
G1 X-6.597 Y5.44193
G1 X-7.351 Y4.37087
G1 X-7.932 Y3.19780
G1 X-8.327 Y1.94974
G1 X-8.436 Y1.24292
ID=1 WHEN $AC_TIMER[1]>=0 DO M51
G1 X-10.845 Y-0.977 F2000
ID=1 WHEN $AC_TIMER[1]>=0 DO M50
G1 X-10.797 Y-1.1331 F600
G1 X-10.718 Y-1.2384
G1 X-10.595 Y-1.3311
G1 X-9.697 Y-1.8592
G1 X-9.519 Y-2.0133
G1 X-9.280 Y-2.3150
G1 X-9.135 Y-2.6427
G1 X-8.859 Y-3.4709
G1 X-8.560 Y-4.1558
G1 X-8.261 Y-4.7357
G1 X-8.173 Y-5.0662
G1 X-8.165 Y-5.5131
G1 X-8.450 Y-6.6575
G1 X-8.447 Y-6.7710
G1 X-8.412 Y-6.8927
G1 X-8.307 Y-7.0398
G1 X-6.978 Y-8.3591
G1 X-6.833 Y-8.4361
G1 X-6.703 Y-8.4544
G1 X-6.551 Y-8.4332
G1 X-5.525 Y-8.1675
G1 X-5.123 Y-8.1639
G1 X-4.742 Y-8.2573
G1 X-3.812 Y-8.7185
G1 X-3.115 Y-8.9912
G1 X-2.489 Y-9.1919
G1 X-2.152 Y-9.3932
G1 X-1.895 Y-9.6510
G1 X-1.772 Y-9.8314
G1 X-1.267 Y-10.6841
G1 X-1.186 Y-10.7615
G1 X-1.075 Y-10.8222
G1 X-0.896 Y-10.8528
G1 X0.914 Y-10.8509
G1 X1.091 Y-10.8162
G1 X1.231 Y-10.7255
G1 X1.332 Y-10.5939
G1 X1.868 Y-9.6824
G1 X2.150 Y-9.3958
G1 X2.485 Y-9.1922
G1 X3.469 Y-8.8604
G1 X4.155 Y-8.5602
G1 X4.738 Y-8.2599
G1 X5.120 Y-8.1642
G1 X5.484 Y-8.1650
G1 X5.699 Y-8.2053
G1 X6.659 Y-8.4500
G1 X6.771 Y-8.4474
G1 X6.892 Y-8.4121
G1 X7.039 Y-8.3073
G1 X8.359 Y-6.9785
G1 X8.436 Y-6.8336
G1 X8.454 Y-6.7038
G1 X8.433 Y-6.5516
G1 X8.172 Y-5.5427
G1 X8.154 Y-5.3078
G1 X8.199 Y-4.9255
G1 X8.327 Y-4.5912
G1 X8.719 Y-3.8114
G1 X8.991 Y-3.1153
G1 X9.189 Y-2.4932
G1 X9.361 Y-2.1977
G1 X9.671 Y-1.8756
G1 X10.683 Y-1.2689
G1 X10.761 Y-1.1865
G1 X10.822 Y-1.0752
G1 X10.852 Y-0.8973
G1 X10.845 Y0.9775
G1 X10.797 Y1.1336
G1 X10.718 Y1.2389
G1 X10.595 Y1.3317
G1 X9.697 Y1.8597
G1 X9.519 Y2.0138
G1 X9.280 Y2.3155
G1 X9.135 Y2.6422
G1 X8.859 Y3.4705
G1 X8.560 Y4.1554
G1 X8.261 Y4.7353
G1 X8.173 Y5.0668
G1 X8.165 Y5.5136
G1 X8.450 Y6.6570
G1 X8.447 Y6.7715
G1 X8.412 Y6.8922
G1 X8.307 Y7.0394
G1 X6.978 Y8.3596
G1 X6.833 Y8.4367
G1 X6.703 Y8.4549
G1 X6.551 Y8.4337
G1 X5.542 Y8.1728
G1 X5.308 Y8.1549
G1 X4.925 Y8.1996
G1 X4.591 Y8.3273
G1 X3.811 Y8.7195
G1 X3.115 Y8.9914
G1 X2.493 Y9.1893
G1 X2.197 Y9.3618
G1 X1.875 Y9.6717
G1 X1.268 Y10.6830
G1 X1.186 Y10.7616
G1 X1.075 Y10.8223
G1 X0.897 Y10.8524
G1 X-0.977 Y10.8456
G1 X-1.133 Y10.7977
G1 X-1.238 Y10.7180
G1 X-1.331 Y10.5958
G1 X-1.859 Y9.6978
G1 X-2.013 Y9.5199
G1 X-2.315 Y9.2806
G1 X-2.642 Y9.1353
G1 X-3.470 Y8.8596
G1 X-4.155 Y8.5605
G1 X-4.735 Y8.2614
G1 X-5.066 Y8.1739
G1 X-5.513 Y8.1657
G1 X-6.657 Y8.4501
G1 X-6.771 Y8.4476
G1 X-6.892 Y8.4123
G1 X-7.039 Y8.3075
G1 X-8.359 Y6.9787
G1 X-8.436 Y6.8338
G1 X-8.454 Y6.7030
G1 X-8.433 Y6.5518
G1 X-8.172 Y5.5429
G1 X-8.154 Y5.3070
G1 X-8.199 Y4.9257
G1 X-8.327 Y4.5914
G1 X-8.719 Y3.8116
G1 X-8.991 Y3.1155
G1 X-9.189 Y2.4934
G1 X-9.361 Y2.1979
G1 X-9.671 Y1.8758
G1 X-10.683 Y1.2682
G1 X-10.761 Y1.1867
G1 X-10.822 Y1.0754
G1 X-10.852 Y0.8975
G1 X-10.849 Y0.0734
ID=1 WHEN $AC_TIMER[1]>=0 DO M51
G1 X-9.677 Y1.293 F2000
ID=1 WHEN $AC_TIMER[1]>=0 DO M50
G1 X-9.696 Y0.1915 F600
G1 X-9.679 Y-1.2941
ID=1 WHEN $AC_TIMER[1]>=0 DO M51
G1 X-9.592 Y-1.317 F2000
ID=1 WHEN $AC_TIMER[1]>=0 DO M50
G1 X-9.093 Y-1.4768 F600
G1 X-8.841 Y-2.0309
ID=1 WHEN $AC_TIMER[1]>=0 DO M51
G1 X-7.710 Y-4.769 F2000
ID=1 WHEN $AC_TIMER[1]>=0 DO M50
G1 X-7.606 Y-4.9958 F600
G1 X-7.478 Y-5.3862
G1 X-7.566 Y-5.5941
G1 X-7.713 Y-5.8531
ID=1 WHEN $AC_TIMER[1]>=0 DO M51
G1 X-7.757 Y-5.930 F2000
ID=1 WHEN $AC_TIMER[1]>=0 DO M50
G1 X-5.951 Y-7.7654 F600
ID=1 WHEN $AC_TIMER[1]>=0 DO M51
G1 X-5.869 Y-7.718 F2000
ID=1 WHEN $AC_TIMER[1]>=0 DO M50
G1 X-5.616 Y-7.5755 F600
G1 X-5.388 Y-7.4784
G1 X-5.066 Y-7.5855
G1 X-4.771 Y-7.7090
ID=1 WHEN $AC_TIMER[1]>=0 DO M51
G1 X-2.105 Y-8.811 F2000
ID=1 WHEN $AC_TIMER[1]>=0 DO M50
G1 X-1.780 Y-8.9365 F600
G1 X-1.473 Y-9.1014
G1 X-1.314 Y-9.5832
ID=1 WHEN $AC_TIMER[1]>=0 DO M51
G1 X-1.292 Y-9.668 F2000
ID=1 WHEN $AC_TIMER[1]>=0 DO M50
G1 X0.321 Y-9.6985 F600
G1 X1.314 Y-9.6454
ID=1 WHEN $AC_TIMER[1]>=0 DO M51
G1 X1.333 Y-9.566 F2000
ID=1 WHEN $AC_TIMER[1]>=0 DO M50
G1 X1.390 Y-9.3308 F600
G1 X1.473 Y-9.1041
G1 X2.105 Y-8.8086
ID=1 WHEN $AC_TIMER[1]>=0 DO M51
G1 X5.915 Y-7.748 F2000
ID=1 WHEN $AC_TIMER[1]>=0 DO M50
G1 X6.954 Y-6.7625 F600
G1 X7.749 Y-5.8909
ID=1 WHEN $AC_TIMER[1]>=0 DO M51
G1 X7.707 Y-5.820 F2000
ID=1 WHEN $AC_TIMER[1]>=0 DO M50
G1 X7.480 Y-5.4004 F600
G1 X7.691 Y-4.7716
ID=1 WHEN $AC_TIMER[1]>=0 DO M51
G1 X8.799 Y-2.120 F2000
ID=1 WHEN $AC_TIMER[1]>=0 DO M50
G1 X8.910 Y-1.8451 F600
G1 X9.113 Y-1.4722
G1 X9.307 Y-1.3968
G1 X9.574 Y-1.3272
ID=1 WHEN $AC_TIMER[1]>=0 DO M51
G1 X9.654 Y-1.307 F2000
ID=1 WHEN $AC_TIMER[1]>=0 DO M50
G1 X9.700 Y0.0506 F600
G1 X9.649 Y1.3126
ID=1 WHEN $AC_TIMER[1]>=0 DO M51
G1 X9.568 Y1.332 F2000
ID=1 WHEN $AC_TIMER[1]>=0 DO M50
G1 X9.109 Y1.4726 F600
G1 X8.809 Y2.0685
ID=1 WHEN $AC_TIMER[1]>=0 DO M51
G1 X7.720 Y4.727 F2000
ID=1 WHEN $AC_TIMER[1]>=0 DO M50
G1 X7.614 Y4.9806 F600
G1 X7.483 Y5.4029
G1 X7.568 Y5.5944
G1 X7.707 Y5.8285
ID=1 WHEN $AC_TIMER[1]>=0 DO M51
G1 X7.749 Y5.897 F2000
ID=1 WHEN $AC_TIMER[1]>=0 DO M50
G1 X6.955 Y6.7634 F600
G1 X5.903 Y7.7523
ID=1 WHEN $AC_TIMER[1]>=0 DO M51
G1 X5.829 Y7.709 F2000
ID=1 WHEN $AC_TIMER[1]>=0 DO M50
G1 X5.391 Y7.4787 F600
G1 X4.769 Y7.6927
ID=1 WHEN $AC_TIMER[1]>=0 DO M51
G1 X2.101 Y8.810 F2000
ID=1 WHEN $AC_TIMER[1]>=0 DO M50
G1 X1.472 Y9.1058 F600
G1 X1.395 Y9.3072
G1 X1.330 Y9.5695
ID=1 WHEN $AC_TIMER[1]>=0 DO M51
G1 X1.311 Y9.646 F2000
ID=1 WHEN $AC_TIMER[1]>=0 DO M50
G1 X0.322 Y9.6984 F600
G1 X-1.303 Y9.6646
ID=1 WHEN $AC_TIMER[1]>=0 DO M51
G1 X-1.325 Y9.579 F2000
ID=1 WHEN $AC_TIMER[1]>=0 DO M50
G1 X-1.478 Y9.0942 F600
G1 X-2.059 Y8.8175
ID=1 WHEN $AC_TIMER[1]>=0 DO M51
G1 X-4.777 Y7.706 F2000
ID=1 WHEN $AC_TIMER[1]>=0 DO M50
G1 X-5.390 Y7.4783 F600
G1 X-5.595 Y7.5628
G1 X-5.877 Y7.7199
ID=1 WHEN $AC_TIMER[1]>=0 DO M51
G1 X-5.958 Y7.764 F2000
ID=1 WHEN $AC_TIMER[1]>=0 DO M50
G1 X-7.758 Y5.9230 F600
ID=1 WHEN $AC_TIMER[1]>=0 DO M51
G1 X-7.713 Y5.845 F2000
ID=1 WHEN $AC_TIMER[1]>=0 DO M50
G1 X-7.474 Y5.3849 F600
G1 X-7.689 Y4.7951
ID=1 WHEN $AC_TIMER[1]>=0 DO M51
G1 X-8.840 Y2.053 F2000
ID=1 WHEN $AC_TIMER[1]>=0 DO M50
G1 X-8.913 Y1.8492 F600
G1 X-9.098 Y1.4762
G1 X-9.305 Y1.3920
G1 X-9.594 Y1.3159
ID=1 WHEN $AC_TIMER[1]>=0 DO M51
ID=1 WHEN $AC_TIMER[1]>=0 DO M51
G1 Z8.500 F2000

ID=1 WHEN $AC_TIMER[1]>=0 DO M50
G1 X-8.525 Y0.665 F2000
ID=1 WHEN $AC_TIMER[1]>=0 DO M50
G1 X-8.542 Y0.2117 F600
G1 X-8.526 Y-0.6606
G1 X-8.327 Y-1.9493
G1 X-7.932 Y-3.1976
G1 X-7.351 Y-4.3709
G1 X-6.597 Y-5.4413
G1 X-5.690 Y-6.3846
G1 X-4.648 Y-7.1789
G1 X-3.498 Y-7.8033
G1 X-2.266 Y-8.2466
G1 X-0.981 Y-8.4950
G1 X0.328 Y-8.5453
G1 X1.628 Y-8.3956
G1 X2.891 Y-8.0480
G1 X4.085 Y-7.5133
G1 X5.184 Y-6.8016
G1 X6.162 Y-5.9300
G1 X6.995 Y-4.9203
G1 X7.664 Y-3.7956
G1 X8.153 Y-2.5800
G1 X8.451 Y-1.3053
G1 X8.552 Y-0.0007
G1 X8.451 Y1.3050
G1 X8.153 Y2.5803
G1 X7.664 Y3.7957
G1 X6.995 Y4.9200
G1 X6.162 Y5.9303
G1 X5.184 Y6.8017
G1 X4.085 Y7.5130
G1 X2.891 Y8.0483
G1 X1.628 Y8.3957
G1 X0.328 Y8.5450
G1 X-0.981 Y8.4954
G1 X-2.266 Y8.2467
G1 X-3.498 Y7.8030
G1 X-4.648 Y7.1784
G1 X-5.690 Y6.3847
G1 X-6.597 Y5.4410
G1 X-7.351 Y4.3704
G1 X-7.932 Y3.1977
G1 X-8.327 Y1.9491
G1 X-8.365 Y1.7037
ID=1 WHEN $AC_TIMER[1]>=0 DO M51
G1 X-10.845 Y-0.978 F2000
ID=1 WHEN $AC_TIMER[1]>=0 DO M50
G1 X-10.798 Y-1.1309 F600
G1 X-10.717 Y-1.2392
G1 X-10.596 Y-1.3308
G1 X-9.620 Y-1.9032
G1 X-9.440 Y-2.0626
G1 X-9.228 Y-2.3335
G1 X-9.128 Y-2.5268
G1 X-8.807 Y-3.4459
G1 X-8.505 Y-4.1348
G1 X-8.234 Y-4.6825
G1 X-8.142 Y-5.0499
G1 X-8.140 Y-5.3670
G1 X-8.181 Y-5.6091
G1 X-8.450 Y-6.6597
G1 X-8.447 Y-6.7734
G1 X-8.412 Y-6.8928
G1 X-8.307 Y-7.0397
G1 X-6.977 Y-8.3600
G1 X-6.836 Y-8.4348
G1 X-6.702 Y-8.4542
G1 X-6.552 Y-8.4338
G1 X-5.457 Y-8.1482
G1 X-5.218 Y-8.1335
G1 X-4.875 Y-8.1755
G1 X-4.669 Y-8.2408
G1 X-3.791 Y-8.6639
G1 X-3.091 Y-8.9377
G1 X-2.511 Y-9.1334
G1 X-2.187 Y-9.3289
G1 X-1.961 Y-9.5519
G1 X-1.819 Y-9.7501
G1 X-1.266 Y-10.6847
G1 X-1.184 Y-10.7624
G1 X-1.075 Y-10.8228
G1 X-0.896 Y-10.8521
G1 X0.919 Y-10.8504
G1 X1.090 Y-10.8163
G1 X1.241 Y-10.7158
G1 X1.330 Y-10.5962
G1 X1.911 Y-9.6071
G1 X2.176 Y-9.3379
G1 X2.392 Y-9.1956
G1 X2.663 Y-9.0789
G1 X3.446 Y-8.8066
G1 X4.134 Y-8.5050
G1 X4.682 Y-8.2347
G1 X5.049 Y-8.1421
G1 X5.367 Y-8.1402
G1 X5.609 Y-8.1813
G1 X6.659 Y-8.4509
G1 X6.773 Y-8.4476
G1 X6.892 Y-8.4120
G1 X7.039 Y-8.3079
G1 X8.360 Y-6.9771
G1 X8.434 Y-6.8360
G1 X8.454 Y-6.7024
G1 X8.433 Y-6.5520
G1 X8.148 Y-5.4573
G1 X8.133 Y-5.2187
G1 X8.175 Y-4.8757
G1 X8.240 Y-4.6690
G1 X8.663 Y-3.7911
G1 X8.937 Y-3.0919
G1 X9.133 Y-2.5116
G1 X9.328 Y-2.1870
G1 X9.551 Y-1.9611
G1 X9.750 Y-1.8192
G1 X10.684 Y-1.2669
G1 X10.762 Y-1.1845
G1 X10.822 Y-1.0759
G1 X10.852 Y-0.8979
G1 X10.845 Y0.9781
G1 X10.798 Y1.1300
G1 X10.717 Y1.2393
G1 X10.596 Y1.3309
G1 X9.620 Y1.9033
G1 X9.440 Y2.0627
G1 X9.228 Y2.3336
G1 X9.128 Y2.5260
G1 X8.807 Y3.4450
G1 X8.505 Y4.1349
G1 X8.234 Y4.6826
G1 X8.142 Y5.0490
G1 X8.140 Y5.3671
G1 X8.181 Y5.6092
G1 X8.450 Y6.6598
G1 X8.447 Y6.7735
G1 X8.412 Y6.8929
G1 X8.307 Y7.0398
G1 X6.977 Y8.3601
G1 X6.836 Y8.4349
G1 X6.702 Y8.4543
G1 X6.552 Y8.4339
G1 X5.457 Y8.1483
G1 X5.218 Y8.1336
G1 X4.875 Y8.1756
G1 X4.669 Y8.2409
G1 X3.791 Y8.6630
G1 X3.091 Y8.9378
G1 X2.511 Y9.1336
G1 X2.187 Y9.3280
G1 X1.961 Y9.5510
G1 X1.819 Y9.7502
G1 X1.266 Y10.6848
G1 X1.184 Y10.7625
G1 X1.075 Y10.8229
G1 X0.897 Y10.8528
G1 X-0.978 Y10.8450
G1 X-1.130 Y10.7989
G1 X-1.239 Y10.7173
G1 X-1.330 Y10.5969
G1 X-1.903 Y9.6202
G1 X-2.062 Y9.4406
G1 X-2.333 Y9.2285
G1 X-2.526 Y9.1289
G1 X-3.445 Y8.8070
G1 X-4.134 Y8.5058
G1 X-4.682 Y8.2345
G1 X-5.049 Y8.1429
G1 X-5.367 Y8.1400
G1 X-5.609 Y8.1811
G1 X-6.659 Y8.4507
G1 X-6.773 Y8.4474
G1 X-6.892 Y8.4128
G1 X-7.039 Y8.3078
G1 X-8.360 Y6.9770
G1 X-8.434 Y6.8368
G1 X-8.454 Y6.7022
G1 X-8.433 Y6.5528
G1 X-8.148 Y5.4572
G1 X-8.133 Y5.2186
G1 X-8.175 Y4.8755
G1 X-8.240 Y4.6698
G1 X-8.663 Y3.7919
G1 X-8.937 Y3.0918
G1 X-9.133 Y2.5115
G1 X-9.328 Y2.1879
G1 X-9.551 Y1.9610
G1 X-9.750 Y1.8191
G1 X-10.684 Y1.2667
G1 X-10.762 Y1.1844
G1 X-10.822 Y1.0758
G1 X-10.852 Y0.8977
G1 X-10.849 Y0.0727
ID=1 WHEN $AC_TIMER[1]>=0 DO M51
G1 X-9.678 Y1.285 F2000
ID=1 WHEN $AC_TIMER[1]>=0 DO M50
G1 X-9.696 Y0.2046 F600
G1 X-9.679 Y-1.2935
ID=1 WHEN $AC_TIMER[1]>=0 DO M51
G1 X-7.653 Y-4.851 F2000
ID=1 WHEN $AC_TIMER[1]>=0 DO M50
G1 X-7.591 Y-4.9866 F600
G1 X-7.461 Y-5.3933
G1 X-7.707 Y-5.8571
ID=1 WHEN $AC_TIMER[1]>=0 DO M51
G1 X-7.752 Y-5.935 F2000
ID=1 WHEN $AC_TIMER[1]>=0 DO M50
G1 X-5.952 Y-7.7640 F600
ID=1 WHEN $AC_TIMER[1]>=0 DO M51
G1 X-1.996 Y-8.832 F2000
ID=1 WHEN $AC_TIMER[1]>=0 DO M50
G1 X-1.840 Y-8.8924 F600
G1 X-1.461 Y-9.0925
G1 X-1.313 Y-9.5835
ID=1 WHEN $AC_TIMER[1]>=0 DO M51
G1 X-1.291 Y-9.668 F2000
ID=1 WHEN $AC_TIMER[1]>=0 DO M50
G1 X0.321 Y-9.6982 F600
G1 X1.313 Y-9.6448
ID=1 WHEN $AC_TIMER[1]>=0 DO M51
G1 X4.824 Y-7.658 F2000
