; generated by Slic3r 1.2.9 on 2017-12-10 at 20:05:23

; external perimeters extrusion width = 1.10mm
; perimeters extrusion width = 1.10mm
; infill extrusion width = 1.10mm
; solid infill extrusion width = 1.10mm
; top infill extrusion width = 1.10mm

H=2000
$ac_timer[1]=0
;General Config.--------------------
G91			;relative positioning
M55			;home mirror
G4F4			;necessary delay for positioning of the mirror				
M0			;wait for user-input

;R-Parameters-----------------------
R0=1500			;Laser Power


;Process Start-up--------------------
M56			;set canal 1 as laser-source
G4F4			;necessary delay for positioning of the mirror
M0			;wait for user-input
;START POWDER!!!
G4F10
H=2000
G54

;Laser On and Path------------------
G90 ; use absolute coordinates
ID=1 WHEN $AC_TIMER[1]>=0 DO M51
G1 Z0.000 F3000

ID=1 WHEN $AC_TIMER[1]>=0 DO M50
G1 X37.419 Y-12.527 F3000
ID=1 WHEN $AC_TIMER[1]>=0 DO M50
G1 X37.889 Y-13.2686 F600
G1 X38.146 Y-13.7979
G1 X38.307 Y-14.3611
G1 X38.360 Y-14.7585
G1 X38.366 Y-15.0534
G1 X38.352 Y-15.3356
G1 X38.304 Y-15.6458
G1 X38.244 Y-15.9018
G1 X38.044 Y-16.4426
G1 X37.753 Y-16.9405
G1 X37.382 Y-17.3814
G1 X36.941 Y-17.7523
G1 X36.637 Y-17.9429
G1 X36.202 Y-18.1445
G1 X35.907 Y-18.2434
G1 X35.637 Y-18.3031
G1 X35.283 Y-18.3522
G1 X35.006 Y-18.3648
G1 X34.759 Y-18.3592
G1 X34.362 Y-18.3065
G1 X33.798 Y-18.1457
G1 X33.269 Y-17.8880
G1 X32.529 Y-17.4189
ID=1 WHEN $AC_TIMER[1]>=0 DO M51
G1 X27.529 Y17.420 F3000
ID=1 WHEN $AC_TIMER[1]>=0 DO M50
G1 X28.269 Y17.8919 F600
G1 X28.627 Y18.0773
G1 X28.899 Y18.1834
G1 X29.362 Y18.3070
G1 X29.704 Y18.3574
G1 X30.262 Y18.3593
G1 X30.813 Y18.2703
G1 X31.342 Y18.0923
G1 X31.834 Y17.8283
G1 X32.207 Y17.5473
G1 X32.617 Y17.1268
G1 X32.890 Y16.7324
G1 X32.963 Y16.6119
G1 X33.188 Y16.1035
G1 X33.309 Y15.6391
G1 X33.396 Y14.7605
ID=1 WHEN $AC_TIMER[1]>=0 DO M51
G1 X-33.397 Y14.750 F3000
ID=1 WHEN $AC_TIMER[1]>=0 DO M50
G1 X-33.309 Y15.6398 F600
G1 X-33.188 Y16.1034
G1 X-32.947 Y16.6392
G1 X-32.656 Y17.0772
G1 X-32.276 Y17.4874
G1 X-31.834 Y17.8285
G1 X-31.342 Y18.0925
G1 X-30.813 Y18.2705
G1 X-30.262 Y18.3595
G1 X-29.704 Y18.3574
G1 X-29.362 Y18.3078
G1 X-28.899 Y18.1834
G1 X-28.627 Y18.0775
G1 X-28.269 Y17.8918
G1 X-27.529 Y17.4208
ID=1 WHEN $AC_TIMER[1]>=0 DO M51
G1 X-32.529 Y-17.418 F3000
ID=1 WHEN $AC_TIMER[1]>=0 DO M50
G1 X-33.269 Y-17.8889 F600
G1 X-33.798 Y-18.1452
G1 X-34.362 Y-18.3064
G1 X-34.759 Y-18.3587
G1 X-34.971 Y-18.3657
G1 X-35.532 Y-18.3241
G1 X-35.903 Y-18.2456
G1 X-36.202 Y-18.1444
G1 X-36.637 Y-17.9420
G1 X-36.941 Y-17.7526
G1 X-37.382 Y-17.3815
G1 X-37.753 Y-16.9404
G1 X-38.042 Y-16.4464
G1 X-38.257 Y-15.8500
G1 X-38.352 Y-15.3358
G1 X-38.366 Y-15.0531
G1 X-38.360 Y-14.7580
G1 X-38.307 Y-14.3614
G1 X-38.146 Y-13.7976
G1 X-37.889 Y-13.2689
G1 X-37.419 Y-12.5288
ID=1 WHEN $AC_TIMER[1]>=0 DO M51
G1 X-37.218 Y-11.966 F3000
ID=1 WHEN $AC_TIMER[1]>=0 DO M50
G1 X-36.866 Y-12.2901 F600
G1 X-36.651 Y-12.1391
G1 X-36.129 Y-11.8963
G1 X-35.573 Y-11.7475
G1 X-35.000 Y-11.6976
G1 X-34.427 Y-11.7478
G1 X-33.871 Y-11.8960
G1 X-33.349 Y-12.1392
G1 X-32.877 Y-12.4703
G1 X-32.470 Y-12.8775
G1 X-32.140 Y-13.3487
G1 X-31.897 Y-13.8709
G1 X-31.748 Y-14.4261
G1 X-31.698 Y-14.9992
G1 X-31.748 Y-15.5724
G1 X-31.897 Y-16.1286
G1 X-32.140 Y-16.6508
G1 X-32.291 Y-16.8658
G1 X-31.966 Y-17.2171
G1 X-31.014 Y-16.6638
G1 X-28.808 Y-15.7042
G1 X-26.504 Y-15.0106
G1 X-24.135 Y-14.5890
G1 X-21.750 Y-14.4491
G1 X21.750 Y-14.4498
G1 X24.135 Y-14.5899
G1 X26.504 Y-15.0103
G1 X28.808 Y-15.7047
G1 X31.014 Y-16.6631
G1 X31.966 Y-17.2179
G1 X32.291 Y-16.8651
G1 X32.140 Y-16.6502
G1 X31.897 Y-16.1283
G1 X31.748 Y-15.5725
G1 X31.698 Y-14.9997
G1 X31.748 Y-14.4225
G1 X31.915 Y-13.8303
G1 X32.140 Y-13.3488
G1 X32.470 Y-12.8770
G1 X32.877 Y-12.4702
G1 X33.349 Y-12.1394
G1 X33.871 Y-11.8966
G1 X34.427 Y-11.7477
G1 X35.000 Y-11.6979
G1 X35.573 Y-11.7471
G1 X36.129 Y-11.8963
G1 X36.654 Y-12.1410
G1 X36.861 Y-12.2902
G1 X37.219 Y-11.9668
G1 X36.664 Y-11.0139
G1 X35.705 Y-8.8074
G1 X35.010 Y-6.5038
G1 X34.590 Y-4.1342
G1 X34.450 Y-1.7492
G1 X34.450 Y8.7412
G1 X34.340 Y10.8115
G1 X34.015 Y12.8434
G1 X33.645 Y14.2093
G1 X33.192 Y14.2115
G1 X33.085 Y13.8323
G1 X32.860 Y13.3508
G1 X32.530 Y12.8780
G1 X32.123 Y12.4712
G1 X31.651 Y12.1413
G1 X31.129 Y11.8985
G1 X30.570 Y11.7483
G1 X29.957 Y11.7031
G1 X29.427 Y11.7496
G1 X28.871 Y11.8988
G1 X28.349 Y12.1410
G1 X27.877 Y12.4712
G1 X27.470 Y12.8784
G1 X27.140 Y13.3505
G1 X26.897 Y13.8727
G1 X26.748 Y14.4289
G1 X26.698 Y15.0011
G1 X26.748 Y15.5742
G1 X26.898 Y16.1340
G1 X27.165 Y16.6889
G1 X27.291 Y16.8672
G1 X26.966 Y17.2195
G1 X26.014 Y16.6652
G1 X23.808 Y15.7066
G1 X21.504 Y15.0111
G1 X19.135 Y14.59195
G1 X16.750 Y14.45175
G1 X-16.750 Y14.45104
G1 X-19.135 Y14.59184
G1 X-21.504 Y15.01178
G1 X-23.808 Y15.70673
G1 X-26.014 Y16.66567
G1 X-26.966 Y17.21904
G1 X-27.291 Y16.86767
G1 X-27.140 Y16.65207
G1 X-26.897 Y16.13049
G1 X-26.748 Y15.57490
G1 X-26.698 Y15.00132
G1 X-26.748 Y14.42874
G1 X-26.897 Y13.87216
G1 X-27.140 Y13.35058
G1 X-27.470 Y12.87899
G1 X-27.877 Y12.47141
G1 X-28.349 Y12.14183
G1 X-28.871 Y11.89825
G1 X-29.430 Y11.74892
G1 X-30.043 Y11.70311
G1 X-30.573 Y11.74946
G1 X-31.129 Y11.89888
G1 X-31.651 Y12.14130
G1 X-32.123 Y12.47171
G1 X-32.530 Y12.87813
G1 X-32.860 Y13.35055
G1 X-33.103 Y13.87297
G1 X-33.191 Y14.19980
G1 X-33.647 Y14.20085
G1 X-34.015 Y12.84360
G1 X-34.340 Y10.81109
G1 X-34.450 Y8.74161
G1 X-34.450 Y-1.74922
G1 X-34.590 Y-4.13402
G1 X-35.010 Y-6.50396
G1 X-35.705 Y-8.80790
G1 X-36.690 Y-11.05846
ID=1 WHEN $AC_TIMER[1]>=0 DO M51
G1 X9.455 Y0.292 F3000
ID=1 WHEN $AC_TIMER[1]>=0 DO M50
G1 X9.471 Y-0.6675 F600
G1 X9.593 Y-1.7308
G1 X9.796 Y-2.6729
G1 X10.104 Y-3.6568
G1 X10.480 Y-4.5418
G1 X10.969 Y-5.4543
G1 X11.563 Y-6.3330
G1 X12.152 Y-7.0508
G1 X12.895 Y-7.7996
G1 X13.674 Y-8.4432
G1 X14.443 Y-8.9657
G1 X15.368 Y-9.4784
G1 X16.277 Y-9.8682
G1 X17.260 Y-10.1867
G1 X18.249 Y-10.4049
G1 X19.202 Y-10.5164
G1 X19.991 Y-10.5509
G1 X21.038 Y-10.4988
G1 X21.983 Y-10.3604
G1 X22.970 Y-10.1233
G1 X23.962 Y-9.7775
G1 X24.807 Y-9.3907
G1 X25.720 Y-8.8648
G1 X26.569 Y-8.2542
G1 X27.268 Y-7.6463
G1 X28.001 Y-6.8774
G1 X28.631 Y-6.0633
G1 X29.146 Y-5.2598
G1 X29.615 Y-4.3384
G1 X29.969 Y-3.4507
G1 X30.268 Y-2.4271
G1 X30.449 Y-1.4404
G1 X30.541 Y-0.4552
G1 X30.532 Y0.5884
G1 X30.438 Y1.5331
G1 X30.224 Y2.6009
G1 X29.962 Y3.4735
G1 X29.560 Y4.4644
G1 X29.098 Y5.3379
G1 X28.549 Y6.1854
G1 X27.952 Y6.9292
G1 X27.239 Y7.6766
G1 X26.438 Y8.3601
G1 X25.677 Y8.8917
G1 X24.764 Y9.4144
G1 X23.800 Y9.8435
G1 X22.908 Y10.1410
G1 X21.896 Y10.3802
G1 X20.853 Y10.5175
G1 X19.887 Y10.5495
G1 X18.860 Y10.4909
G1 X17.824 Y10.3238
G1 X16.927 Y10.0946
G1 X15.938 Y9.7388
G1 X15.035 Y9.3088
G1 X14.195 Y8.8115
G1 X13.363 Y8.2030
G1 X12.603 Y7.5219
G1 X11.945 Y6.8156
G1 X11.385 Y6.0797
G1 X10.814 Y5.1862
G1 X10.343 Y4.2500
G1 X9.961 Y3.2430
G1 X9.711 Y2.3312
G1 X9.537 Y1.3396
ID=1 WHEN $AC_TIMER[1]>=0 DO M51
G1 X-10.100 Y-3.642 F3000
ID=1 WHEN $AC_TIMER[1]>=0 DO M50
G1 X-9.608 Y-1.8327 F600
G1 X-9.448 Y0.0019
G1 X-9.608 Y1.8335
G1 X-10.084 Y3.6101
G1 X-10.862 Y5.2790
G1 X-11.969 Y6.8369
G1 X-13.217 Y8.0841
G1 X-14.724 Y9.1397
G1 X-16.391 Y9.9172
G1 X-18.168 Y10.3938
G1 X-20.000 Y10.5534
G1 X-21.832 Y10.3930
G1 X-23.609 Y9.9175
G1 X-25.276 Y9.1391
G1 X-26.783 Y8.0847
G1 X-28.031 Y6.8369
G1 X-29.138 Y5.2798
G1 X-29.916 Y3.6107
G1 X-30.392 Y1.8333
G1 X-30.552 Y0.0018
G1 X-30.392 Y-1.8314
G1 X-29.916 Y-3.6080
G1 X-29.138 Y-5.2756
G1 X-28.083 Y-6.7821
G1 X-26.783 Y-8.0827
G1 X-25.276 Y-9.1373
G1 X-23.609 Y-9.9159
G1 X-21.832 Y-10.3914
G1 X-20.000 Y-10.5510
G1 X-18.168 Y-10.3916
G1 X-16.391 Y-9.9152
G1 X-14.724 Y-9.1378
G1 X-13.217 Y-8.0823
G1 X-11.917 Y-6.7829
G1 X-10.862 Y-5.2755
G1 X-10.544 Y-4.5936
ID=1 WHEN $AC_TIMER[1]>=0 DO M51
G1 X-14.277 Y-9.621 F3000
ID=1 WHEN $AC_TIMER[1]>=0 DO M50
G1 X14.240 Y-9.6214 F600
G1 X12.880 Y-8.6095
G1 X-12.876 Y-8.6099
G1 X-11.863 Y-7.5968
G1 X11.832 Y-7.5964
G1 X11.036 Y-6.5831
G1 X-11.069 Y-6.5831
G1 X-10.388 Y-5.5704
G1 X10.394 Y-5.5704
G1 X9.889 Y-4.5571
G1 X-9.916 Y-4.55740
G1 X-9.518 Y-3.54482
G1 X9.503 Y-3.54445
G1 X9.221 Y-2.53128
G1 X-9.242 Y-2.53175
G1 X-9.052 Y-1.51812
G1 X9.037 Y-1.51830
G1 X8.942 Y-0.50574
G1 X-8.963 Y-0.50503
G1 X-8.963 Y0.50715
G1 X8.943 Y0.50749
G1 X9.030 Y1.52088
G1 X-9.052 Y1.52054
G1 X-9.241 Y2.53390
G1 X9.210 Y2.53352
G1 X9.493 Y3.54635
G1 X-9.512 Y3.54686
G1 X-9.916 Y4.55942
G1 X9.877 Y4.55925
G1 X10.384 Y5.57277
G1 X-10.388 Y5.57233
G1 X-11.078 Y6.58537
G1 X11.033 Y6.58595
G1 X11.846 Y7.59818
G1 X-11.863 Y7.59805
G1 X-12.876 Y8.61063
G1 X12.881 Y8.61030
G1 X14.248 Y9.62377
G1 X-14.277 Y9.62378
ID=1 WHEN $AC_TIMER[1]>=0 DO M51
G1 X-16.282 Y10.636 F3000
ID=1 WHEN $AC_TIMER[1]>=0 DO M50
G1 X16.299 Y10.6361 F600
ID=1 WHEN $AC_TIMER[1]>=0 DO M51
G1 X17.288 Y13.675 F3000
ID=1 WHEN $AC_TIMER[1]>=0 DO M50
G1 X26.395 Y13.6759 F600
G1 X26.914 Y12.6622
G1 X-26.914 Y12.6620
ID=1 WHEN $AC_TIMER[1]>=0 DO M51
G1 X-26.395 Y13.675 F3000
ID=1 WHEN $AC_TIMER[1]>=0 DO M50
G1 X-17.288 Y13.6759 F600
ID=1 WHEN $AC_TIMER[1]>=0 DO M51
G1 X-22.986 Y14.688 F3000
ID=1 WHEN $AC_TIMER[1]>=0 DO M50
G1 X-26.196 Y14.6880 F600
G1 X-26.230 Y15.7016
G1 X-25.564 Y15.7012
ID=1 WHEN $AC_TIMER[1]>=0 DO M51
G1 X-27.914 Y11.649 F3000
ID=1 WHEN $AC_TIMER[1]>=0 DO M50
G1 X27.914 Y11.6492 F600
ID=1 WHEN $AC_TIMER[1]>=0 DO M51
G1 X25.758 Y9.623 F3000
ID=1 WHEN $AC_TIMER[1]>=0 DO M50
G1 X33.876 Y9.6234 F600
G1 X33.924 Y8.6104
G1 X27.115 Y8.6106
G1 X28.158 Y7.5988
G1 X33.924 Y7.5983
G1 X33.924 Y6.5855
G1 X28.973 Y6.5859
G1 X29.608 Y5.5723
G1 X33.924 Y5.5728
G1 X33.924 Y4.5591
G1 X30.113 Y4.5593
G1 X30.502 Y3.5462
G1 X33.924 Y3.5462
G1 X33.924 Y2.5334
G1 X30.780 Y2.5331
G1 X30.970 Y1.5206
G1 X33.924 Y1.5202
G1 X33.924 Y0.5074
G1 X31.059 Y0.5072
G1 X31.066 Y-0.5054
G1 X33.924 Y-0.5055
G1 X33.924 Y-1.5188
G1 X30.971 Y-1.5183
G1 X30.788 Y-2.5310
G1 X33.968 Y-2.5312
G1 X34.028 Y-3.5447
G1 X30.502 Y-3.5445
G1 X30.117 Y-4.5574
G1 X34.126 Y-4.5575
G1 X34.306 Y-5.5709
G1 X29.614 Y-5.5703
G1 X28.973 Y-6.5833
G1 X34.486 Y-6.5835
G1 X34.777 Y-7.5966
G1 X28.156 Y-7.5969
G1 X27.119 Y-8.6099
G1 X35.083 Y-8.6090
G1 X35.459 Y-9.6216
G1 X25.759 Y-9.6218
ID=1 WHEN $AC_TIMER[1]>=0 DO M51
G1 X23.707 Y-10.634 F3000
ID=1 WHEN $AC_TIMER[1]>=0 DO M50
G1 X35.899 Y-10.6347 F600
ID=1 WHEN $AC_TIMER[1]>=0 DO M51
G1 X32.914 Y-11.647 F3000
ID=1 WHEN $AC_TIMER[1]>=0 DO M50
G1 X-32.914 Y-11.6471 F600
G1 X-31.914 Y-12.6603
G1 X31.914 Y-12.6600
ID=1 WHEN $AC_TIMER[1]>=0 DO M51
G1 X31.230 Y-15.699 F3000
ID=1 WHEN $AC_TIMER[1]>=0 DO M50
G1 X30.564 Y-15.6996 F600
ID=1 WHEN $AC_TIMER[1]>=0 DO M51
G1 X27.986 Y-14.686 F3000
ID=1 WHEN $AC_TIMER[1]>=0 DO M50
G1 X31.196 Y-14.6860 F600
G1 X31.402 Y-13.6737
G1 X22.288 Y-13.6735
ID=1 WHEN $AC_TIMER[1]>=0 DO M51
G1 X16.272 Y-10.634 F3000
ID=1 WHEN $AC_TIMER[1]>=0 DO M50
G1 X-16.282 Y-10.6341 F600
ID=1 WHEN $AC_TIMER[1]>=0 DO M51
G1 X-22.288 Y-13.673 F3000
ID=1 WHEN $AC_TIMER[1]>=0 DO M50
G1 X-31.395 Y-13.6739 F600
ID=1 WHEN $AC_TIMER[1]>=0 DO M51
G1 X-30.564 Y-15.699 F3000
ID=1 WHEN $AC_TIMER[1]>=0 DO M50
G1 X-31.230 Y-15.6996 F600
G1 X-31.196 Y-14.6862
G1 X-27.986 Y-14.6862
ID=1 WHEN $AC_TIMER[1]>=0 DO M51
G1 X-23.718 Y-10.634 F3000
ID=1 WHEN $AC_TIMER[1]>=0 DO M50
G1 X-35.899 Y-10.6346 F600
G1 X-35.459 Y-9.6211
G1 X-25.723 Y-9.6211
G1 X-27.124 Y-8.6098
G1 X-35.083 Y-8.6093
G1 X-34.777 Y-7.5962
G1 X-28.137 Y-7.5960
G1 X-28.931 Y-6.5837
G1 X-34.486 Y-6.5834
G1 X-34.306 Y-5.5708
G1 X-29.612 Y-5.5707
G1 X-30.084 Y-4.5575
G1 X-34.126 Y-4.5575
G1 X-34.028 Y-3.5441
G1 X-30.488 Y-3.5448
G1 X-30.759 Y-2.5312
G1 X-33.968 Y-2.5316
G1 X-33.924 Y-1.5185
G1 X-30.948 Y-1.5181
G1 X-31.037 Y-0.5050
G1 X-33.924 Y-0.5053
G1 X-33.924 Y0.5076
G1 X-31.037 Y0.5079
G1 X-30.948 Y1.5208
G1 X-33.924 Y1.5203
G1 X-33.924 Y2.5336
G1 X-30.759 Y2.5338
G1 X-30.488 Y3.5461
G1 X-33.924 Y3.5469
G1 X-33.924 Y4.5592
G1 X-30.084 Y4.5593
G1 X-29.612 Y5.5721
G1 X-33.924 Y5.5729
G1 X-33.924 Y6.5851
G1 X-28.922 Y6.5852
G1 X-28.137 Y7.5983
G1 X-33.924 Y7.5981
G1 X-33.924 Y8.6103
G1 X-27.124 Y8.6103
G1 X-25.723 Y9.6230
G1 X-33.876 Y9.6238
G1 X-33.822 Y10.6361
G1 X-23.718 Y10.63656
ID=1 WHEN $AC_TIMER[1]>=0 DO M51
G1 X-32.086 Y11.649 F3000
ID=1 WHEN $AC_TIMER[1]>=0 DO M50
G1 X-33.670 Y11.6497 F600
ID=1 WHEN $AC_TIMER[1]>=0 DO M51
G1 X22.986 Y14.688 F3000
ID=1 WHEN $AC_TIMER[1]>=0 DO M50
G1 X26.196 Y14.6880 F600
G1 X26.230 Y15.7016
G1 X25.564 Y15.7012
ID=1 WHEN $AC_TIMER[1]>=0 DO M51
G1 X23.729 Y10.636 F3000
ID=1 WHEN $AC_TIMER[1]>=0 DO M50
G1 X33.822 Y10.6368 F600
G1 X33.670 Y11.6490
G1 X32.086 Y11.6497
ID=1 WHEN $AC_TIMER[1]>=0 DO M51
ID=1 WHEN $AC_TIMER[1]>=0 DO M51
G1 Z0.500 F3000
H=1800
ID=1 WHEN $AC_TIMER[1]>=0 DO M50
G1 X37.419 Y-12.528 F3000
ID=1 WHEN $AC_TIMER[1]>=0 DO M50
G1 X37.889 Y-13.2680 F600
G1 X38.146 Y-13.7972
G1 X38.307 Y-14.3614
G1 X38.360 Y-14.7588
G1 X38.366 Y-15.0537
G1 X38.325 Y-15.5313
G1 X38.246 Y-15.9028
G1 X38.044 Y-16.4428
G1 X37.753 Y-16.9407
G1 X37.382 Y-17.3816
G1 X36.941 Y-17.7525
G1 X36.443 Y-18.0434
G1 X35.903 Y-18.2453
G1 X35.532 Y-18.3247
G1 X35.054 Y-18.3654
G1 X34.759 Y-18.3593
G1 X34.362 Y-18.3067
G1 X33.798 Y-18.1459
G1 X33.269 Y-17.8882
G1 X32.529 Y-17.4181
ID=1 WHEN $AC_TIMER[1]>=0 DO M51
G1 X27.529 Y17.420 F3000
ID=1 WHEN $AC_TIMER[1]>=0 DO M50
G1 X28.269 Y17.8919 F600
G1 X28.627 Y18.0773
G1 X28.899 Y18.1834
G1 X29.362 Y18.3070
G1 X29.704 Y18.3574
G1 X30.262 Y18.3593
G1 X30.813 Y18.2703
G1 X31.342 Y18.0923
G1 X31.834 Y17.8283
G1 X32.276 Y17.4874
G1 X32.656 Y17.0776
G1 X32.947 Y16.6396
G1 X33.188 Y16.1035
G1 X33.309 Y15.6391
G1 X33.397 Y14.7508
ID=1 WHEN $AC_TIMER[1]>=0 DO M51
G1 X-33.397 Y14.750 F3000
ID=1 WHEN $AC_TIMER[1]>=0 DO M50
G1 X-33.309 Y15.6398 F600
G1 X-33.188 Y16.1034
G1 X-32.947 Y16.6392
G1 X-32.656 Y17.0772
G1 X-32.276 Y17.4874
G1 X-31.834 Y17.8285
G1 X-31.342 Y18.0925
G1 X-30.813 Y18.2705
G1 X-30.262 Y18.3595
G1 X-29.704 Y18.3574
G1 X-29.362 Y18.3078
G1 X-28.899 Y18.1834
G1 X-28.627 Y18.0775
G1 X-28.269 Y17.8919
G1 X-27.529 Y17.4208
ID=1 WHEN $AC_TIMER[1]>=0 DO M51
G1 X-32.529 Y-17.418 F3000
ID=1 WHEN $AC_TIMER[1]>=0 DO M50
G1 X-33.269 Y-17.8880 F600
G1 X-33.798 Y-18.1452
G1 X-34.362 Y-18.3064
G1 X-34.759 Y-18.3567
G1 X-35.021 Y-18.3633
G1 X-35.336 Y-18.3516
G1 X-35.638 Y-18.3050
G1 X-35.903 Y-18.2458
G1 X-36.202 Y-18.1446
G1 X-36.637 Y-17.9422
G1 X-36.941 Y-17.7528
G1 X-37.382 Y-17.3817
G1 X-37.753 Y-16.9406
G1 X-38.044 Y-16.4425
G1 X-38.246 Y-15.9025
G1 X-38.325 Y-15.5319
G1 X-38.366 Y-15.0535
G1 X-38.360 Y-14.7585
G1 X-38.307 Y-14.3619
G1 X-38.146 Y-13.7971
G1 X-37.889 Y-13.2683
G1 X-37.419 Y-12.5283
ID=1 WHEN $AC_TIMER[1]>=0 DO M51
G1 X-37.218 Y-11.966 F3000
ID=1 WHEN $AC_TIMER[1]>=0 DO M50
G1 X-36.866 Y-12.2906 F600
G1 X-36.651 Y-12.1396
G1 X-36.129 Y-11.8968
G1 X-35.573 Y-11.7479
G1 X-35.000 Y-11.6971
G1 X-34.427 Y-11.7473
G1 X-33.871 Y-11.8965
G1 X-33.349 Y-12.1397
G1 X-32.877 Y-12.4708
G1 X-32.470 Y-12.8770
G1 X-32.140 Y-13.3482
G1 X-31.897 Y-13.8704
G1 X-31.748 Y-14.4265
G1 X-31.698 Y-14.9997
G1 X-31.748 Y-15.5729
G1 X-31.897 Y-16.1281
G1 X-32.140 Y-16.6502
G1 X-32.291 Y-16.8653
G1 X-31.966 Y-17.2175
G1 X-31.014 Y-16.6633
G1 X-28.808 Y-15.7047
G1 X-26.504 Y-15.0101
G1 X-24.135 Y-14.5895
G1 X-21.750 Y-14.4496
G1 X21.750 Y-14.4493
G1 X24.135 Y-14.5894
G1 X26.504 Y-15.0108
G1 X28.808 Y-15.7042
G1 X31.014 Y-16.6636
G1 X31.966 Y-17.2173
G1 X32.291 Y-16.8656
G1 X32.140 Y-16.6506
G1 X31.897 Y-16.1288
G1 X31.748 Y-15.5720
G1 X31.698 Y-14.9992
G1 X31.748 Y-14.4264
G1 X31.897 Y-13.8705
G1 X32.140 Y-13.3487
G1 X32.470 Y-12.8779
G1 X32.877 Y-12.4701
G1 X33.349 Y-12.1392
G1 X33.871 Y-11.8964
G1 X34.427 Y-11.7476
G1 X35.000 Y-11.6978
G1 X35.573 Y-11.7470
G1 X36.129 Y-11.8961
G1 X36.651 Y-12.1393
G1 X36.866 Y-12.2903
G1 X37.218 Y-11.9666
G1 X36.664 Y-11.0133
G1 X35.705 Y-8.8077
G1 X35.010 Y-6.5031
G1 X34.590 Y-4.1345
G1 X34.450 Y-1.7496
G1 X34.450 Y8.7416
G1 X34.340 Y10.8118
G1 X34.015 Y12.8438
G1 X33.647 Y14.2003
G1 X33.191 Y14.1997
G1 X33.103 Y13.8721
G1 X32.860 Y13.3503
G1 X32.530 Y12.8785
G1 X32.123 Y12.4716
G1 X31.651 Y12.1418
G1 X31.129 Y11.8980
G1 X30.573 Y11.7492
G1 X30.000 Y11.6994
G1 X29.427 Y11.7495
G1 X28.871 Y11.8987
G1 X28.349 Y12.1419
G1 X27.877 Y12.4711
G1 X27.470 Y12.8782
G1 X27.140 Y13.3504
G1 X26.897 Y13.8726
G1 X26.748 Y14.4288
G1 X26.698 Y15.0019
G1 X26.748 Y15.5741
G1 X26.897 Y16.1303
G1 X27.140 Y16.6525
G1 X27.291 Y16.8675
G1 X26.966 Y17.2198
G1 X26.014 Y16.6655
G1 X23.808 Y15.7069
G1 X21.504 Y15.0113
G1 X19.135 Y14.59187
G1 X16.750 Y14.45168
G1 X-16.750 Y14.45196
G1 X-19.135 Y14.59177
G1 X-21.504 Y15.01171
G1 X-23.808 Y15.70665
G1 X-26.014 Y16.66559
G1 X-26.966 Y17.21997
G1 X-27.291 Y16.86759
G1 X-27.140 Y16.65200
G1 X-26.897 Y16.13041
G1 X-26.748 Y15.57483
G1 X-26.698 Y15.00125
G1 X-26.748 Y14.42867
G1 X-26.897 Y13.87209
G1 X-27.140 Y13.35050
G1 X-27.470 Y12.87892
G1 X-27.877 Y12.47134
G1 X-28.349 Y12.14176
G1 X-28.871 Y11.89817
G1 X-29.427 Y11.74959
G1 X-30.000 Y11.69901
G1 X-30.573 Y11.74943
G1 X-31.129 Y11.89884
G1 X-31.651 Y12.14126
G1 X-32.123 Y12.47168
G1 X-32.530 Y12.87810
G1 X-32.860 Y13.35052
G1 X-33.103 Y13.87293
G1 X-33.191 Y14.19977
G1 X-33.647 Y14.20082
G1 X-34.015 Y12.84356
G1 X-34.340 Y10.81106
G1 X-34.450 Y8.74158
G1 X-34.450 Y-1.74918
G1 X-34.590 Y-4.13499
G1 X-35.010 Y-6.50393
G1 X-35.705 Y-8.80787
G1 X-36.690 Y-11.05843
ID=1 WHEN $AC_TIMER[1]>=0 DO M51
G1 X9.465 Y0.451 F3000
ID=1 WHEN $AC_TIMER[1]>=0 DO M50
G1 X9.468 Y-0.6114 F600
G1 X9.605 Y-1.7986
G1 X9.796 Y-2.6552
G1 X10.114 Y-3.6857
G1 X10.459 Y-4.4839
G1 X10.967 Y-5.4521
G1 X11.623 Y-6.4097
G1 X12.110 Y-7.0019
G1 X12.920 Y-7.8216
G1 X13.711 Y-8.4707
G1 X14.344 Y-8.9005
G1 X15.347 Y-9.4682
G1 X16.216 Y-9.8386
G1 X16.596 Y-9.9780
G1 X17.266 Y-10.1820
G1 X18.250 Y-10.4042
G1 X19.103 Y-10.5023
G1 X19.992 Y-10.5502
G1 X21.099 Y-10.4915
G1 X21.939 Y-10.3640
G1 X22.952 Y-10.1287
G1 X24.026 Y-9.7503
G1 X24.723 Y-9.4307
G1 X25.720 Y-8.8655
G1 X26.633 Y-8.2018
G1 X27.209 Y-7.7005
G1 X28.014 Y-6.8625
G1 X28.663 Y-6.0102
G1 X29.127 Y-5.2917
G1 X29.619 Y-4.3217
G1 X29.937 Y-3.5377
G1 X30.273 Y-2.4065
G1 X30.445 Y-1.4284
G1 X30.540 Y-0.4796
G1 X30.526 Y0.6355
G1 X30.447 Y1.4667
G1 X30.211 Y2.6507
G1 X29.994 Y3.3727
G1 X29.553 Y4.4803
G1 X29.197 Y5.1570
G1 X28.557 Y6.1743
G1 X27.874 Y7.0165
G1 X27.293 Y7.6231
G1 X26.418 Y8.3757
G1 X25.534 Y8.9778
G1 X24.807 Y9.3921
G1 X23.762 Y9.8575
G1 X22.998 Y10.1116
G1 X21.926 Y10.3742
G1 X20.789 Y10.5211
G1 X19.907 Y10.5445
G1 X18.851 Y10.4892
G1 X17.735 Y10.3037
G1 X16.995 Y10.1130
G1 X15.923 Y9.7321
G1 X15.030 Y9.2999
G1 X14.240 Y8.8397
G1 X13.372 Y8.2106
G1 X12.596 Y7.5083
G1 X11.994 Y6.8700
G1 X11.185 Y5.7872
G1 X10.807 Y5.1621
G1 X10.353 Y4.2735
G1 X9.937 Y3.1618
G1 X9.724 Y2.3748
G1 X9.567 Y1.4954
ID=1 WHEN $AC_TIMER[1]>=0 DO M51
G1 X-9.448 Y0.001 F3000
ID=1 WHEN $AC_TIMER[1]>=0 DO M50
G1 X-9.608 Y1.8336 F600
G1 X-10.084 Y3.6102
G1 X-10.862 Y5.2777
G1 X-11.917 Y6.7843
G1 X-13.217 Y8.0849
G1 X-14.724 Y9.1395
G1 X-16.391 Y9.9170
G1 X-18.168 Y10.3936
G1 X-20.000 Y10.5532
G1 X-21.832 Y10.3938
G1 X-23.609 Y9.9173
G1 X-25.276 Y9.1399
G1 X-26.783 Y8.0845
G1 X-28.083 Y6.7841
G1 X-29.138 Y5.2777
G1 X-29.916 Y3.6102
G1 X-30.392 Y1.8338
G1 X-30.552 Y0.0014
G1 X-30.392 Y-1.8310
G1 X-29.916 Y-3.6085
G1 X-29.138 Y-5.2751
G1 X-28.083 Y-6.7827
G1 X-26.783 Y-8.0823
G1 X-25.276 Y-9.1378
G1 X-23.609 Y-9.9154
G1 X-21.832 Y-10.3910
G1 X-20.000 Y-10.5516
G1 X-18.168 Y-10.3911
G1 X-16.391 Y-9.9157
G1 X-14.724 Y-9.1373
G1 X-13.217 Y-8.0829
G1 X-11.917 Y-6.7825
G1 X-10.862 Y-5.2750
G1 X-10.084 Y-3.6086
G1 X-9.608 Y-1.8312
G1 X-9.539 Y-1.0455
ID=1 WHEN $AC_TIMER[1]>=0 DO M51
G1 X-9.553 Y-13.923 F3000
ID=1 WHEN $AC_TIMER[1]>=0 DO M50
G1 X-9.553 Y-4.1219 F600
G1 X-10.559 Y-5.9818
G1 X-10.559 Y-13.9234
G1 X-11.565 Y-13.9235
G1 X-11.565 Y-7.2973
G1 X-12.570 Y-8.3039
G1 X-12.570 Y-13.9235
G1 X-13.576 Y-13.9236
G1 X-13.576 Y-9.0415
G1 X-14.582 Y-9.6828
G1 X-14.582 Y-13.9237
G1 X-15.587 Y-13.9239
G1 X-15.587 Y-10.1515
G1 X-16.593 Y-10.5246
G1 X-16.593 Y-13.9235
G1 X-17.598 Y-13.9237
G1 X-17.598 Y-10.7933
G1 X-18.604 Y-10.9589
G1 X-18.604 Y-13.9238
G1 X-19.610 Y-13.9230
G1 X-19.610 Y-11.0461
G1 X-20.615 Y-11.0264
G1 X-20.615 Y-13.9234
G1 X-21.621 Y-13.9235
G1 X-21.621 Y-10.9383
G1 X-22.626 Y-10.7330
G1 X-22.626 Y-13.9731
G1 X-23.632 Y-14.0325
G1 X-23.632 Y-10.4642
G1 X-24.638 Y-10.0467
G1 X-24.638 Y-14.1398
G1 X-25.643 Y-14.3180
G1 X-25.643 Y-9.5778
G1 X-26.649 Y-8.8845
G1 X-26.649 Y-14.4965
G1 X-27.655 Y-14.7948
G1 X-27.655 Y-8.0787
G1 X-28.660 Y-7.0724
G1 X-28.660 Y-15.0973
G1 X-29.666 Y-15.4771
G1 X-29.666 Y-5.6601
ID=1 WHEN $AC_TIMER[1]>=0 DO M51
G1 X-30.671 Y-3.639 F3000
ID=1 WHEN $AC_TIMER[1]>=0 DO M50
G1 X-30.671 Y-15.9143 F600
ID=1 WHEN $AC_TIMER[1]>=0 DO M51
G1 X-35.700 Y-11.229 F3000
ID=1 WHEN $AC_TIMER[1]>=0 DO M50
G1 X-35.700 Y-10.5636 F600
ID=1 WHEN $AC_TIMER[1]>=0 DO M51
G1 X-34.694 Y-8.009 F3000
ID=1 WHEN $AC_TIMER[1]>=0 DO M50
G1 X-34.694 Y-11.1956 F600
G1 X-33.688 Y-11.3900
G1 X-33.688 Y-2.5343
ID=1 WHEN $AC_TIMER[1]>=0 DO M51
G1 X-30.671 Y3.641 F3000
ID=1 WHEN $AC_TIMER[1]>=0 DO M50
G1 X-30.671 Y11.2280 F600
G1 X-31.677 Y11.5428
G1 X-31.677 Y-12.8716
G1 X-32.683 Y-11.8982
G1 X-32.683 Y12.1646
ID=1 WHEN $AC_TIMER[1]>=0 DO M51
G1 X-29.666 Y5.662 F3000
ID=1 WHEN $AC_TIMER[1]>=0 DO M50
G1 X-29.666 Y11.1999 F600
G1 X-28.660 Y11.3999
G1 X-28.660 Y7.0741
G1 X-27.655 Y8.0807
G1 X-27.655 Y11.9201
G1 X-26.649 Y12.9137
G1 X-26.649 Y8.8867
G1 X-25.643 Y9.5794
G1 X-25.643 Y15.9031
G1 X-24.638 Y15.4661
G1 X-24.638 Y10.0487
G1 X-23.632 Y10.4662
G1 X-23.632 Y15.0908
G1 X-22.626 Y14.7873
G1 X-22.626 Y10.7357
G1 X-21.621 Y10.9404
G1 X-21.621 Y14.4932
G1 X-20.615 Y14.3154
G1 X-20.615 Y11.0281
G1 X-19.610 Y11.0484
G1 X-19.610 Y14.1369
G1 X-18.604 Y14.0328
G1 X-18.604 Y10.9601
G1 X-17.598 Y10.7956
G1 X-17.598 Y13.9732
G1 X-16.593 Y13.9252
G1 X-16.593 Y10.5261
G1 X-15.587 Y10.1532
G1 X-15.587 Y13.9258
G1 X-14.582 Y13.9250
G1 X-14.582 Y9.6849
G1 X-13.576 Y9.0432
G1 X-13.576 Y13.9251
G1 X-12.570 Y13.9252
G1 X-12.570 Y8.3058
G1 X-11.565 Y7.2994
G1 X-11.565 Y13.9252
G1 X-10.559 Y13.9253
G1 X-10.559 Y5.9839
G1 X-9.553 Y4.1238
G1 X-9.553 Y13.9257
G1 X-8.548 Y13.9259
G1 X-8.548 Y-13.92385
G1 X-7.542 Y-13.92346
G1 X-7.542 Y13.92593
G1 X-6.537 Y13.92554
G1 X-6.537 Y-13.92301
G1 X-5.531 Y-13.92362
G1 X-5.531 Y13.92509
G1 X-4.525 Y13.92570
G1 X-4.525 Y-13.92317
G1 X-3.520 Y-13.92378
G1 X-3.520 Y13.92525
G1 X-2.514 Y13.92586
G1 X-2.514 Y-13.92332
G1 X-1.508 Y-13.92394
G1 X-1.508 Y13.92540
G1 X-0.503 Y13.92502
G1 X-0.503 Y-13.92348
G1 X0.503 Y-13.92310
G1 X0.503 Y13.92556
G1 X1.508 Y13.92518
G1 X1.508 Y-13.92364
G1 X2.514 Y-13.92325
G1 X2.514 Y13.92572
G1 X3.520 Y13.92533
G1 X3.520 Y-13.92380
G1 X4.525 Y-13.92341
G1 X4.525 Y13.92588
G1 X5.531 Y13.92549
G1 X5.531 Y-13.92396
G1 X6.537 Y-13.92357
G1 X6.537 Y13.92504
G1 X7.542 Y13.92565
G1 X7.542 Y-13.92312
G1 X8.548 Y-13.92373
G1 X8.548 Y13.92519
G1 X9.553 Y13.92581
G1 X9.553 Y4.18850
ID=1 WHEN $AC_TIMER[1]>=0 DO M51
G1 X10.559 Y6.027 F3000
ID=1 WHEN $AC_TIMER[1]>=0 DO M50
G1 X10.559 Y13.9257 F600
G1 X11.565 Y13.9259
G1 X11.565 Y7.3183
G1 X12.570 Y8.2983
G1 X12.570 Y13.9255
G1 X13.576 Y13.9257
G1 X13.576 Y9.0783
G1 X14.582 Y9.6945
G1 X14.582 Y13.9255
G1 X15.587 Y13.9256
G1 X15.587 Y10.1874
G1 X16.593 Y10.5462
G1 X16.593 Y13.9256
G1 X17.598 Y13.9736
G1 X17.598 Y10.8178
G1 X18.604 Y10.9857
G1 X18.604 Y14.0323
G1 X19.610 Y14.1362
G1 X19.610 Y11.0562
G1 X20.615 Y11.0523
G1 X20.615 Y14.3155
G1 X21.621 Y14.4937
G1 X21.621 Y10.9462
G1 X22.626 Y10.7534
G1 X22.626 Y14.7875
G1 X23.632 Y15.0900
G1 X23.632 Y10.4719
G1 X24.638 Y10.0717
G1 X24.638 Y15.4661
G1 X25.643 Y15.9030
G1 X25.643 Y9.5654
G1 X26.649 Y8.9177
G1 X26.649 Y12.9139
G1 X27.655 Y11.9206
G1 X27.655 Y8.1004
G1 X28.660 Y7.0563
G1 X28.660 Y11.3990
G1 X29.666 Y11.1990
G1 X29.666 Y5.6617
ID=1 WHEN $AC_TIMER[1]>=0 DO M51
G1 X30.671 Y3.599 F3000
ID=1 WHEN $AC_TIMER[1]>=0 DO M50
G1 X30.671 Y11.2285 F600
G1 X31.677 Y11.5422
G1 X31.677 Y-12.8711
G1 X32.683 Y-11.8987
G1 X32.683 Y12.1641
ID=1 WHEN $AC_TIMER[1]>=0 DO M51
G1 X33.688 Y-2.534 F3000
ID=1 WHEN $AC_TIMER[1]>=0 DO M50
G1 X33.688 Y-11.3905 F600
ID=1 WHEN $AC_TIMER[1]>=0 DO M51
G1 X35.700 Y-10.563 F3000
ID=1 WHEN $AC_TIMER[1]>=0 DO M50
G1 X35.700 Y-11.2296 F600
G1 X34.694 Y-11.1951
G1 X34.694 Y-8.0098
ID=1 WHEN $AC_TIMER[1]>=0 DO M51
G1 X30.671 Y-3.620 F3000
ID=1 WHEN $AC_TIMER[1]>=0 DO M50
G1 X30.671 Y-15.9145 F600
G1 X29.666 Y-15.4774
G1 X29.666 Y-5.6773
G1 X28.660 Y-7.0754
G1 X28.660 Y-15.0973
G1 X27.655 Y-14.7948
G1 X27.655 Y-8.1068
G1 X26.649 Y-8.9108
G1 X26.649 Y-14.4964
G1 X25.643 Y-14.3186
G1 X25.643 Y-9.5582
G1 X24.638 Y-10.0782
G1 X24.638 Y-14.1392
G1 X23.632 Y-14.0324
G1 X23.632 Y-10.4646
G1 X22.626 Y-10.7522
G1 X22.626 Y-13.9738
G1 X21.621 Y-13.9238
G1 X21.621 Y-10.9481
G1 X20.615 Y-11.0445
G1 X20.615 Y-13.9230
G1 X19.610 Y-13.9232
G1 X19.610 Y-11.0475
G1 X18.604 Y-10.9764
G1 X18.604 Y-13.9238
G1 X17.598 Y-13.9239
G1 X17.598 Y-10.8043
G1 X16.593 Y-10.5403
G1 X16.593 Y-13.9235
G1 X15.587 Y-13.9237
G1 X15.587 Y-10.1683
G1 X14.582 Y-9.6841
G1 X14.582 Y-13.9230
G1 X13.576 Y-13.9231
G1 X13.576 Y-9.0766
G1 X12.570 Y-8.3028
G1 X12.570 Y-13.9230
G1 X11.565 Y-13.9231
G1 X11.565 Y-7.3241
G1 X10.559 Y-6.0159
G1 X10.559 Y-13.9237
G1 X9.553 Y-13.9238
G1 X9.553 Y-4.1676
ID=1 WHEN $AC_TIMER[1]>=0 DO M51
ID=1 WHEN $AC_TIMER[1]>=0 DO M51
G1 Z1.000 F3000

ID=1 WHEN $AC_TIMER[1]>=0 DO M50
G1 X37.419 Y-12.528 F3000
ID=1 WHEN $AC_TIMER[1]>=0 DO M50
G1 X37.889 Y-13.2680 F600
G1 X38.146 Y-13.7972
G1 X38.307 Y-14.3614
G1 X38.360 Y-14.7588
G1 X38.366 Y-15.0537
G1 X38.325 Y-15.5313
G1 X38.246 Y-15.9028
G1 X38.044 Y-16.4428
G1 X37.753 Y-16.9407
G1 X37.382 Y-17.3816
G1 X36.941 Y-17.7525
G1 X36.443 Y-18.0434
G1 X35.903 Y-18.2453
G1 X35.532 Y-18.3247
G1 X35.054 Y-18.3654
G1 X34.759 Y-18.3593
G1 X34.362 Y-18.3067
G1 X33.798 Y-18.1459
G1 X33.269 Y-17.8882
G1 X32.529 Y-17.4181
ID=1 WHEN $AC_TIMER[1]>=0 DO M51
G1 X27.529 Y17.420 F3000
ID=1 WHEN $AC_TIMER[1]>=0 DO M50
G1 X28.269 Y17.8919 F600
G1 X28.627 Y18.0773
G1 X28.899 Y18.1834
G1 X29.362 Y18.3070
G1 X29.704 Y18.3574
G1 X30.262 Y18.3593
G1 X30.813 Y18.2703
G1 X31.342 Y18.0923
G1 X31.834 Y17.8283
G1 X32.276 Y17.4874
G1 X32.656 Y17.0776
G1 X32.947 Y16.6396
G1 X33.188 Y16.1035
G1 X33.309 Y15.6391
G1 X33.397 Y14.7508
ID=1 WHEN $AC_TIMER[1]>=0 DO M51
G1 X-33.397 Y14.750 F3000
ID=1 WHEN $AC_TIMER[1]>=0 DO M50
G1 X-33.309 Y15.6398 F600
G1 X-33.188 Y16.1034
G1 X-32.947 Y16.6392
G1 X-32.656 Y17.0772
G1 X-32.276 Y17.4874
G1 X-31.834 Y17.8285
G1 X-31.342 Y18.0925
G1 X-30.813 Y18.2705
G1 X-30.262 Y18.3595
G1 X-29.704 Y18.3574
G1 X-29.362 Y18.3078
G1 X-28.899 Y18.1834
G1 X-28.627 Y18.0775
G1 X-28.269 Y17.8919
G1 X-27.529 Y17.4208
ID=1 WHEN $AC_TIMER[1]>=0 DO M51
G1 X-32.529 Y-17.418 F3000
ID=1 WHEN $AC_TIMER[1]>=0 DO M50
G1 X-33.269 Y-17.8880 F600
G1 X-33.798 Y-18.1452
G1 X-34.362 Y-18.3064
G1 X-34.759 Y-18.3598
G1 X-35.054 Y-18.3658
G1 X-35.532 Y-18.3244
G1 X-35.903 Y-18.2458
G1 X-36.443 Y-18.0437
G1 X-36.941 Y-17.7526
G1 X-37.382 Y-17.3815
G1 X-37.753 Y-16.9404
G1 X-38.044 Y-16.4424
G1 X-38.246 Y-15.9023
G1 X-38.325 Y-15.5317
G1 X-38.366 Y-15.0533
G1 X-38.360 Y-14.7583
G1 X-38.307 Y-14.3617
G1 X-38.146 Y-13.7979
G1 X-37.889 Y-13.2682
G1 X-37.419 Y-12.5281
ID=1 WHEN $AC_TIMER[1]>=0 DO M51
G1 X-33.647 Y14.200 F3000
ID=1 WHEN $AC_TIMER[1]>=0 DO M50
G1 X-34.015 Y12.8435 F600
G1 X-34.340 Y10.8114
G1 X-34.450 Y8.7417
G1 X-34.450 Y-1.7497
G1 X-34.590 Y-4.1347
G1 X-35.010 Y-6.5031
G1 X-35.705 Y-8.8075
G1 X-36.664 Y-11.0130
G1 X-37.218 Y-11.9667
G1 X-36.866 Y-12.2900
G1 X-36.651 Y-12.1390
G1 X-36.129 Y-11.8962
G1 X-35.573 Y-11.7474
G1 X-35.000 Y-11.6975
G1 X-34.427 Y-11.7477
G1 X-33.871 Y-11.8969
G1 X-33.349 Y-12.1391
G1 X-32.877 Y-12.4702
G1 X-32.470 Y-12.8774
G1 X-32.140 Y-13.3486
G1 X-31.897 Y-13.8708
G1 X-31.748 Y-14.4260
G1 X-31.698 Y-14.9991
G1 X-31.748 Y-15.5723
G1 X-31.897 Y-16.1285
G1 X-32.140 Y-16.6507
G1 X-32.291 Y-16.8657
G1 X-31.966 Y-17.2170
G1 X-31.014 Y-16.6637
G1 X-28.808 Y-15.7041
G1 X-26.504 Y-15.0105
G1 X-24.135 Y-14.5899
G1 X-21.750 Y-14.4490
G1 X21.750 Y-14.4497
G1 X24.135 Y-14.5898
G1 X26.504 Y-15.0102
G1 X28.808 Y-15.7046
G1 X31.014 Y-16.6630
G1 X31.966 Y-17.2178
G1 X32.291 Y-16.8650
G1 X32.140 Y-16.6501
G1 X31.897 Y-16.1282
G1 X31.748 Y-15.5724
G1 X31.698 Y-14.9996
G1 X31.748 Y-14.4268
G1 X31.897 Y-13.8700
G1 X32.140 Y-13.3481
G1 X32.470 Y-12.8773
G1 X32.877 Y-12.4705
G1 X33.349 Y-12.1397
G1 X33.871 Y-11.8968
G1 X34.427 Y-11.7470
G1 X35.000 Y-11.6972
G1 X35.573 Y-11.7474
G1 X36.129 Y-11.8965
G1 X36.651 Y-12.1397
G1 X36.866 Y-12.2907
G1 X37.218 Y-11.9660
G1 X36.664 Y-11.0137
G1 X35.705 Y-8.8071
G1 X35.010 Y-6.5035
G1 X34.590 Y-4.1340
G1 X34.450 Y-1.7490
G1 X34.450 Y8.7410
G1 X34.340 Y10.8113
G1 X34.015 Y12.8432
G1 X33.647 Y14.2007
G1 X33.191 Y14.1992
G1 X33.103 Y13.8725
G1 X32.860 Y13.3507
G1 X32.530 Y12.8789
G1 X32.123 Y12.4711
G1 X31.651 Y12.1412
G1 X31.129 Y11.8984
G1 X30.573 Y11.74926
G1 X30.000 Y11.69968
G1 X29.427 Y11.74909
G1 X28.871 Y11.89851
G1 X28.349 Y12.14193
G1 X27.877 Y12.47135
G1 X27.470 Y12.87877
G1 X27.140 Y13.35018
G1 X26.897 Y13.87260
G1 X26.748 Y14.42802
G1 X26.698 Y15.00144
G1 X26.748 Y15.57485
G1 X26.897 Y16.13027
G1 X27.140 Y16.65269
G1 X27.291 Y16.86709
G1 X26.966 Y17.21972
G1 X26.014 Y16.66509
G1 X23.808 Y15.70603
G1 X21.504 Y15.01197
G1 X19.135 Y14.59191
G1 X16.750 Y14.45172
G1 X-16.750 Y14.45101
G1 X-19.135 Y14.59181
G1 X-21.504 Y15.01175
G1 X-23.808 Y15.70669
G1 X-26.014 Y16.66563
G1 X-26.966 Y17.21901
G1 X-27.291 Y16.86763
G1 X-27.140 Y16.65204
G1 X-26.897 Y16.13046
G1 X-26.748 Y15.57487
G1 X-26.698 Y15.00129
G1 X-26.748 Y14.42871
G1 X-26.897 Y13.87213
G1 X-27.140 Y13.35054
G1 X-27.470 Y12.87896
G1 X-27.877 Y12.47138
G1 X-28.349 Y12.14180
G1 X-28.871 Y11.89821
G1 X-29.427 Y11.74963
G1 X-30.000 Y11.69905
G1 X-30.573 Y11.74947
G1 X-31.129 Y11.89889
G1 X-31.651 Y12.14130
G1 X-32.123 Y12.47172
G1 X-32.530 Y12.87814
G1 X-32.860 Y13.35056
G1 X-32.996 Y13.64113
ID=1 WHEN $AC_TIMER[1]>=0 DO M51
G1 X9.472 Y0.539 F3000
ID=1 WHEN $AC_TIMER[1]>=0 DO M50
G1 X9.465 Y-0.5557 F600
G1 X9.618 Y-1.8663
G1 X9.797 Y-2.6385
G1 X10.126 Y-3.7155
G1 X10.438 Y-4.4269
G1 X10.966 Y-5.4505
G1 X11.683 Y-6.4859
G1 X12.067 Y-6.9528
G1 X12.945 Y-7.8443
G1 X13.748 Y-8.4979
G1 X14.247 Y-8.8362
G1 X15.326 Y-9.4581
G1 X16.167 Y-9.8147
G1 X17.038 Y-10.1224
G1 X18.250 Y-10.4043
G1 X19.005 Y-10.4882
G1 X19.993 Y-10.5504
G1 X21.165 Y-10.4847
G1 X22.298 Y-10.2862
G1 X22.936 Y-10.1339
G1 X24.090 Y-9.7225
G1 X24.640 Y-9.4719
G1 X25.720 Y-8.8652
G1 X26.696 Y-8.1493
G1 X27.151 Y-7.7538
G1 X28.026 Y-6.8487
G1 X28.508 Y-6.2170
G1 X29.106 Y-5.3289
G1 X29.622 Y-4.3056
G1 X29.904 Y-3.6255
G1 X30.278 Y-2.3841
G1 X30.440 Y-1.4165
G1 X30.539 Y-0.5028
G1 X30.519 Y0.6824
G1 X30.456 Y1.3991
G1 X30.198 Y2.7008
G1 X30.026 Y3.2713
G1 X29.545 Y4.4973
G1 X29.263 Y5.0339
G1 X28.564 Y6.1649
G1 X27.848 Y7.0404
G1 X27.347 Y7.5699
G1 X26.399 Y8.3907
G1 X25.477 Y9.0089
G1 X24.852 Y9.3687
G1 X23.724 Y9.8728
G1 X23.088 Y10.0818
G1 X21.956 Y10.3694
G1 X20.724 Y10.5251
G1 X19.928 Y10.5404
G1 X18.842 Y10.4885
G1 X17.646 Y10.2827
G1 X17.063 Y10.1328
G1 X15.911 Y9.7279
G1 X14.883 Y9.2162
G1 X14.283 Y8.8672
G1 X13.381 Y8.2174
G1 X12.589 Y7.4968
G1 X12.045 Y6.9290
G1 X11.192 Y5.8001
G1 X10.825 Y5.1832
G1 X10.363 Y4.2960
G1 X9.912 Y3.0794
G1 X9.736 Y2.4154
G1 X9.586 Y1.5823
ID=1 WHEN $AC_TIMER[1]>=0 DO M51
G1 X-10.084 Y-3.608 F3000
ID=1 WHEN $AC_TIMER[1]>=0 DO M50
G1 X-9.608 Y-1.8316 F600
G1 X-9.448 Y0.0012
G1 X-9.608 Y1.8337
G1 X-10.084 Y3.6103
G1 X-10.862 Y5.2779
G1 X-11.917 Y6.7845
G1 X-13.217 Y8.0840
G1 X-14.724 Y9.1396
G1 X-16.391 Y9.9172
G1 X-18.168 Y10.3938
G1 X-20.000 Y10.5533
G1 X-21.832 Y10.3939
G1 X-23.609 Y9.9175
G1 X-25.276 Y9.1391
G1 X-26.783 Y8.0847
G1 X-28.083 Y6.7842
G1 X-29.138 Y5.2778
G1 X-29.916 Y3.6104
G1 X-30.392 Y1.8330
G1 X-30.552 Y0.0015
G1 X-30.392 Y-1.8311
G1 X-29.916 Y-3.6087
G1 X-29.138 Y-5.2753
G1 X-28.083 Y-6.7828
G1 X-26.783 Y-8.0824
G1 X-25.276 Y-9.1370
G1 X-23.609 Y-9.9156
G1 X-21.832 Y-10.3911
G1 X-20.000 Y-10.5517
G1 X-18.168 Y-10.3913
G1 X-16.391 Y-9.9159
G1 X-14.724 Y-9.1375
G1 X-13.217 Y-8.0820
G1 X-11.917 Y-6.7826
G1 X-10.862 Y-5.2752
G1 X-10.528 Y-4.5605
ID=1 WHEN $AC_TIMER[1]>=0 DO M51
G1 X-14.277 Y-9.621 F3000
ID=1 WHEN $AC_TIMER[1]>=0 DO M50
G1 X14.258 Y-9.6217 F600
G1 X12.878 Y-8.6089
G1 X-12.876 Y-8.6089
G1 X-11.863 Y-7.5968
G1 X11.842 Y-7.5966
G1 X11.047 Y-6.5831
G1 X-11.069 Y-6.5838
G1 X-10.388 Y-5.5701
G1 X10.399 Y-5.5701
G1 X9.893 Y-4.5570
G1 X-9.916 Y-4.55765
G1 X-9.512 Y-3.54421
G1 X9.510 Y-3.54492
G1 X9.224 Y-2.53182
G1 X-9.241 Y-2.53142
G1 X-9.052 Y-1.51877
G1 X9.046 Y-1.51854
G1 X8.939 Y-0.50506
G1 X-8.963 Y-0.50513
G1 X-8.963 Y0.50726
G1 X8.945 Y0.50778
G1 X9.035 Y1.52018
G1 X-9.052 Y1.52022
G1 X-9.241 Y2.53357
G1 X9.218 Y2.53375
G1 X9.504 Y3.54665
G1 X-9.512 Y3.54695
G1 X-9.916 Y4.55951
G1 X9.880 Y4.55954
G1 X10.396 Y5.57237
G1 X-10.388 Y5.57282
G1 X-11.069 Y6.58555
G1 X11.050 Y6.58577
G1 X11.843 Y7.59808
G1 X-11.863 Y7.59871
G1 X-12.876 Y8.61029
G1 X12.887 Y8.61035
G1 X14.242 Y9.62317
G1 X-14.277 Y9.62376
ID=1 WHEN $AC_TIMER[1]>=0 DO M51
G1 X-16.282 Y10.636 F3000
ID=1 WHEN $AC_TIMER[1]>=0 DO M50
G1 X16.311 Y10.6366 F600
ID=1 WHEN $AC_TIMER[1]>=0 DO M51
G1 X17.288 Y13.675 F3000
ID=1 WHEN $AC_TIMER[1]>=0 DO M50
G1 X26.395 Y13.6759 F600
G1 X26.914 Y12.6622
G1 X-26.914 Y12.6620
ID=1 WHEN $AC_TIMER[1]>=0 DO M51
G1 X-26.395 Y13.675 F3000
ID=1 WHEN $AC_TIMER[1]>=0 DO M50
G1 X-17.288 Y13.6759 F600
ID=1 WHEN $AC_TIMER[1]>=0 DO M51
G1 X-22.986 Y14.688 F3000
ID=1 WHEN $AC_TIMER[1]>=0 DO M50
G1 X-26.196 Y14.6880 F600
G1 X-26.230 Y15.7016
G1 X-25.564 Y15.7012
ID=1 WHEN $AC_TIMER[1]>=0 DO M51
G1 X-27.914 Y11.649 F3000
ID=1 WHEN $AC_TIMER[1]>=0 DO M50
G1 X27.914 Y11.6492 F600
ID=1 WHEN $AC_TIMER[1]>=0 DO M51
G1 X25.742 Y9.623 F3000
ID=1 WHEN $AC_TIMER[1]>=0 DO M50
G1 X33.876 Y9.6230 F600
G1 X33.924 Y8.6101
G1 X27.105 Y8.6100
G1 X28.157 Y7.5980
G1 X33.924 Y7.5989
G1 X33.924 Y6.5851
G1 X28.975 Y6.5855
G1 X29.601 Y5.5727
G1 X33.924 Y5.5723
G1 X33.924 Y4.5595
G1 X30.108 Y4.5594
G1 X30.505 Y3.5465
G1 X33.924 Y3.5463
G1 X33.924 Y2.5335
G1 X30.773 Y2.5332
G1 X30.974 Y1.5203
G1 X33.924 Y1.5209
G1 X33.924 Y0.5071
G1 X31.048 Y0.5073
G1 X31.065 Y-0.5057
G1 X33.924 Y-0.5053
G1 X33.924 Y-1.5185
G1 X30.960 Y-1.5187
G1 X30.791 Y-2.5318
G1 X33.968 Y-2.5313
G1 X34.028 Y-3.5447
G1 X30.491 Y-3.5442
G1 X30.112 Y-4.5577
G1 X34.126 Y-4.5574
G1 X34.306 Y-5.5707
G1 X29.609 Y-5.5700
G1 X28.957 Y-6.5838
G1 X34.486 Y-6.5832
G1 X34.777 Y-7.5963
G1 X28.151 Y-7.5962
G1 X27.125 Y-8.6087
G1 X35.083 Y-8.6087
G1 X35.459 Y-9.6214
G1 X25.758 Y-9.6212
ID=1 WHEN $AC_TIMER[1]>=0 DO M51
G1 X23.689 Y-10.634 F3000
ID=1 WHEN $AC_TIMER[1]>=0 DO M50
G1 X35.899 Y-10.6344 F600
ID=1 WHEN $AC_TIMER[1]>=0 DO M51
G1 X32.914 Y-11.647 F3000
ID=1 WHEN $AC_TIMER[1]>=0 DO M50
G1 X-32.914 Y-11.6471 F600
G1 X-31.914 Y-12.6603
G1 X31.914 Y-12.6600
ID=1 WHEN $AC_TIMER[1]>=0 DO M51
G1 X31.230 Y-15.699 F3000
ID=1 WHEN $AC_TIMER[1]>=0 DO M50
G1 X30.564 Y-15.6996 F600
ID=1 WHEN $AC_TIMER[1]>=0 DO M51
G1 X27.986 Y-14.686 F3000
ID=1 WHEN $AC_TIMER[1]>=0 DO M50
G1 X31.196 Y-14.6860 F600
G1 X31.395 Y-13.6738
G1 X22.288 Y-13.6736
ID=1 WHEN $AC_TIMER[1]>=0 DO M51
G1 X16.313 Y-10.634 F3000
ID=1 WHEN $AC_TIMER[1]>=0 DO M50
G1 X-16.282 Y-10.6342 F600
ID=1 WHEN $AC_TIMER[1]>=0 DO M51
G1 X-22.288 Y-13.673 F3000
ID=1 WHEN $AC_TIMER[1]>=0 DO M50
G1 X-31.395 Y-13.6739 F600
ID=1 WHEN $AC_TIMER[1]>=0 DO M51
G1 X-30.564 Y-15.699 F3000
ID=1 WHEN $AC_TIMER[1]>=0 DO M50
G1 X-31.230 Y-15.6996 F600
G1 X-31.196 Y-14.6862
G1 X-27.986 Y-14.6862
ID=1 WHEN $AC_TIMER[1]>=0 DO M51
G1 X-23.718 Y-10.634 F3000
ID=1 WHEN $AC_TIMER[1]>=0 DO M50
G1 X-35.899 Y-10.6346 F600
G1 X-35.459 Y-9.6211
G1 X-25.723 Y-9.6211
G1 X-27.124 Y-8.6088
G1 X-35.083 Y-8.6083
G1 X-34.777 Y-7.5962
G1 X-28.137 Y-7.5960
G1 X-28.931 Y-6.5837
G1 X-34.486 Y-6.5834
G1 X-34.306 Y-5.5708
G1 X-29.612 Y-5.5707
G1 X-30.084 Y-4.5575
G1 X-34.126 Y-4.5575
G1 X-34.028 Y-3.5441
G1 X-30.488 Y-3.5448
G1 X-30.759 Y-2.5312
G1 X-33.968 Y-2.5316
G1 X-33.924 Y-1.5185
G1 X-30.948 Y-1.5181
G1 X-31.037 Y-0.5050
G1 X-33.924 Y-0.5053
G1 X-33.924 Y0.5076
G1 X-31.037 Y0.5079
G1 X-30.948 Y1.5208
G1 X-33.924 Y1.5203
G1 X-33.924 Y2.5336
G1 X-30.759 Y2.5338
G1 X-30.488 Y3.5461
G1 X-33.924 Y3.5469
G1 X-33.924 Y4.5592
G1 X-30.084 Y4.5593
G1 X-29.612 Y5.5721
G1 X-33.924 Y5.5729
G1 X-33.924 Y6.5851
G1 X-28.931 Y6.5855
G1 X-28.137 Y7.5981
G1 X-33.924 Y7.5989
G1 X-33.924 Y8.6101
G1 X-27.124 Y8.6101
G1 X-25.723 Y9.6238
G1 X-33.876 Y9.6236
G1 X-33.822 Y10.6368
G1 X-23.718 Y10.63634
ID=1 WHEN $AC_TIMER[1]>=0 DO M51
G1 X-32.086 Y11.649 F3000
ID=1 WHEN $AC_TIMER[1]>=0 DO M50
G1 X-33.670 Y11.6497 F600
ID=1 WHEN $AC_TIMER[1]>=0 DO M51
G1 X22.986 Y14.688 F3000
ID=1 WHEN $AC_TIMER[1]>=0 DO M50
G1 X26.196 Y14.6880 F600
G1 X26.230 Y15.7016
G1 X25.564 Y15.7012
ID=1 WHEN $AC_TIMER[1]>=0 DO M51
G1 X23.735 Y10.636 F3000
ID=1 WHEN $AC_TIMER[1]>=0 DO M50
G1 X33.822 Y10.6363 F600
G1 X33.670 Y11.6496
G1 X32.086 Y11.6493
ID=1 WHEN $AC_TIMER[1]>=0 DO M51
ID=1 WHEN $AC_TIMER[1]>=0 DO M51
G1 Z1.500 F3000

ID=1 WHEN $AC_TIMER[1]>=0 DO M50
G1 X37.419 Y-12.528 F3000
ID=1 WHEN $AC_TIMER[1]>=0 DO M50
G1 X37.889 Y-13.2680 F600
G1 X38.146 Y-13.7972
G1 X38.307 Y-14.3614
G1 X38.360 Y-14.7588
G1 X38.366 Y-15.0537
G1 X38.325 Y-15.5313
G1 X38.246 Y-15.9028
G1 X38.044 Y-16.4428
G1 X37.753 Y-16.9407
G1 X37.382 Y-17.3816
G1 X36.941 Y-17.7525
G1 X36.637 Y-17.9421
G1 X36.202 Y-18.1447
G1 X35.903 Y-18.2455
G1 X35.638 Y-18.3052
G1 X35.336 Y-18.3517
G1 X34.991 Y-18.3673
G1 X34.759 Y-18.3599
G1 X34.362 Y-18.3063
G1 X33.798 Y-18.1455
G1 X33.269 Y-17.8887
G1 X32.529 Y-17.4187
ID=1 WHEN $AC_TIMER[1]>=0 DO M51
G1 X27.529 Y17.420 F3000
ID=1 WHEN $AC_TIMER[1]>=0 DO M50
G1 X28.269 Y17.8910 F600
G1 X28.627 Y18.0773
G1 X28.899 Y18.1834
G1 X29.362 Y18.3070
G1 X29.704 Y18.3574
G1 X30.262 Y18.3593
G1 X30.813 Y18.2703
G1 X31.342 Y18.0923
G1 X31.834 Y17.8283
G1 X32.276 Y17.4874
G1 X32.656 Y17.0776
G1 X32.947 Y16.6396
G1 X33.188 Y16.1034
G1 X33.309 Y15.6391
G1 X33.397 Y14.7508
ID=1 WHEN $AC_TIMER[1]>=0 DO M51
G1 X-33.397 Y14.750 F3000
ID=1 WHEN $AC_TIMER[1]>=0 DO M50
G1 X-33.309 Y15.6398 F600
G1 X-33.188 Y16.1034
G1 X-32.947 Y16.6392
G1 X-32.656 Y17.0772
G1 X-32.276 Y17.4874
G1 X-31.834 Y17.8285
G1 X-31.342 Y18.0925
G1 X-30.813 Y18.2705
G1 X-30.262 Y18.3595
G1 X-29.704 Y18.3574
G1 X-29.362 Y18.3078
G1 X-28.899 Y18.1834
G1 X-28.627 Y18.0775
G1 X-28.269 Y17.8919
G1 X-27.529 Y17.4208
ID=1 WHEN $AC_TIMER[1]>=0 DO M51
G1 X-32.529 Y-17.418 F3000
ID=1 WHEN $AC_TIMER[1]>=0 DO M50
G1 X-33.269 Y-17.8880 F600
G1 X-33.798 Y-18.1452
G1 X-34.362 Y-18.3064
G1 X-34.759 Y-18.3598
G1 X-35.054 Y-18.3658
G1 X-35.532 Y-18.3244
G1 X-35.903 Y-18.2458
G1 X-36.443 Y-18.0437
G1 X-36.941 Y-17.7526
G1 X-37.382 Y-17.3815
G1 X-37.753 Y-16.9404
G1 X-38.044 Y-16.4424
G1 X-38.246 Y-15.9023
G1 X-38.325 Y-15.5317
G1 X-38.366 Y-15.0533
G1 X-38.360 Y-14.7583
G1 X-38.307 Y-14.3617
G1 X-38.146 Y-13.7979
G1 X-37.889 Y-13.2682
G1 X-37.419 Y-12.5281
ID=1 WHEN $AC_TIMER[1]>=0 DO M51
G1 X-37.218 Y-11.966 F3000
ID=1 WHEN $AC_TIMER[1]>=0 DO M50
G1 X-36.866 Y-12.2904 F600
G1 X-36.651 Y-12.1394
G1 X-36.129 Y-11.8966
G1 X-35.573 Y-11.7478
G1 X-35.000 Y-11.6979
G1 X-34.427 Y-11.7471
G1 X-33.871 Y-11.8963
G1 X-33.349 Y-12.1395
G1 X-32.877 Y-12.4706
G1 X-32.470 Y-12.8778
G1 X-32.140 Y-13.3480
G1 X-31.897 Y-13.8702
G1 X-31.748 Y-14.4263
G1 X-31.698 Y-14.9995
G1 X-31.748 Y-15.5727
G1 X-31.897 Y-16.1289
G1 X-32.140 Y-16.6501
G1 X-32.291 Y-16.8651
G1 X-31.966 Y-17.2174
G1 X-31.014 Y-16.6631
G1 X-28.808 Y-15.7045
G1 X-26.504 Y-15.0109
G1 X-24.135 Y-14.5893
G1 X-21.750 Y-14.4494
G1 X21.750 Y-14.4491
G1 X24.135 Y-14.5892
G1 X26.504 Y-15.0106
G1 X28.808 Y-15.7040
G1 X31.014 Y-16.6634
G1 X31.966 Y-17.2172
G1 X32.291 Y-16.8654
G1 X32.140 Y-16.6505
G1 X31.897 Y-16.1286
G1 X31.748 Y-15.5728
G1 X31.698 Y-14.9990
G1 X31.748 Y-14.4262
G1 X31.897 Y-13.8703
G1 X32.140 Y-13.3485
G1 X32.470 Y-12.8777
G1 X32.877 Y-12.4709
G1 X33.349 Y-12.1391
G1 X33.871 Y-11.8962
G1 X34.427 Y-11.7474
G1 X35.000 Y-11.6976
G1 X35.573 Y-11.7478
G1 X36.129 Y-11.8969
G1 X36.651 Y-12.1391
G1 X36.866 Y-12.2901
G1 X37.218 Y-11.9664
G1 X36.664 Y-11.0131
G1 X35.705 Y-8.8075
G1 X35.010 Y-6.5039
G1 X34.590 Y-4.1343
G1 X34.450 Y-1.7494
G1 X34.450 Y8.7414
G1 X34.340 Y10.8117
G1 X34.015 Y12.8436
G1 X33.647 Y14.2001
G1 X33.191 Y14.1996
G1 X33.103 Y13.8729
G1 X32.860 Y13.3501
G1 X32.530 Y12.8783
G1 X32.123 Y12.4715
G1 X31.651 Y12.1416
G1 X31.129 Y11.8988
G1 X30.573 Y11.7490
G1 X30.000 Y11.6992
G1 X29.427 Y11.7493
G1 X28.871 Y11.8985
G1 X28.349 Y12.1417
G1 X27.877 Y12.4719
G1 X27.470 Y12.8780
G1 X27.140 Y13.3502
G1 X26.897 Y13.8724
G1 X26.748 Y14.4286
G1 X26.698 Y15.0018
G1 X26.748 Y15.5749
G1 X26.897 Y16.1301
G1 X27.140 Y16.6523
G1 X27.291 Y16.8673
G1 X26.966 Y17.2196
G1 X26.014 Y16.6653
G1 X23.808 Y15.7067
G1 X21.504 Y15.0111
G1 X19.135 Y14.59185
G1 X16.750 Y14.45166
G1 X-16.750 Y14.45195
G1 X-19.135 Y14.59175
G1 X-21.504 Y15.01169
G1 X-23.808 Y15.70663
G1 X-26.014 Y16.66557
G1 X-26.966 Y17.21995
G1 X-27.291 Y16.86757
G1 X-27.140 Y16.65298
G1 X-26.897 Y16.13040
G1 X-26.748 Y15.57481
G1 X-26.698 Y15.00123
G1 X-26.748 Y14.42865
G1 X-26.897 Y13.87207
G1 X-27.140 Y13.35048
G1 X-27.470 Y12.87890
G1 X-27.877 Y12.47132
G1 X-28.349 Y12.14174
G1 X-28.871 Y11.89815
G1 X-29.427 Y11.74957
G1 X-30.000 Y11.69999
G1 X-30.573 Y11.74941
G1 X-31.129 Y11.89883
G1 X-31.651 Y12.14124
G1 X-32.123 Y12.47166
G1 X-32.530 Y12.87808
G1 X-32.860 Y13.35050
G1 X-33.103 Y13.87291
G1 X-33.191 Y14.19975
G1 X-33.647 Y14.20080
G1 X-34.015 Y12.84354
G1 X-34.340 Y10.81104
G1 X-34.450 Y8.74156
G1 X-34.450 Y-1.74916
G1 X-34.590 Y-4.13497
G1 X-35.010 Y-6.50391
G1 X-35.705 Y-8.80785
G1 X-36.690 Y-11.05841
ID=1 WHEN $AC_TIMER[1]>=0 DO M51
G1 X9.500 Y0.972 F3000
ID=1 WHEN $AC_TIMER[1]>=0 DO M50
G1 X9.462 Y0.1388 F600
G1 X9.462 Y-0.5051
G1 X9.629 Y-1.9276
G1 X9.712 Y-2.3199
G1 X10.136 Y-3.7444
G1 X10.417 Y-4.3709
G1 X10.964 Y-5.4473
G1 X11.743 Y-6.5604
G1 X12.025 Y-6.9042
G1 X12.970 Y-7.8665
G1 X13.785 Y-8.5235
G1 X14.149 Y-8.7717
G1 X15.308 Y-9.4496
G1 X16.639 Y-9.9959
G1 X16.961 Y-10.0994
G1 X18.252 Y-10.4041
G1 X18.906 Y-10.4742
G1 X19.994 Y-10.5504
G1 X21.222 Y-10.4773
G1 X21.853 Y-10.3733
G1 X22.917 Y-10.1394
G1 X24.153 Y-9.6959
G1 X24.555 Y-9.5112
G1 X25.721 Y-8.8653
G1 X26.759 Y-8.0979
G1 X27.092 Y-7.8064
G1 X28.041 Y-6.8318
G1 X28.725 Y-5.9053
G1 X29.088 Y-5.3577
G1 X29.726 Y-4.0784
G1 X29.874 Y-3.7068
G1 X30.283 Y-2.3635
G1 X30.436 Y-1.4041
G1 X30.538 Y-0.5276
G1 X30.513 Y0.7273
G1 X30.465 Y1.3318
G1 X30.184 Y2.7516
G1 X30.058 Y3.1718
G1 X29.536 Y4.5152
G1 X29.329 Y4.9098
G1 X28.570 Y6.1567
G1 X27.643 Y7.2673
G1 X27.398 Y7.5205
G1 X26.380 Y8.4056
G1 X25.421 Y9.0395
G1 X24.896 Y9.3450
G1 X23.686 Y9.8864
G1 X23.178 Y10.0513
G1 X21.985 Y10.3638
G1 X20.659 Y10.5304
G1 X19.947 Y10.5363
G1 X18.834 Y10.4889
G1 X17.558 Y10.2617
G1 X17.130 Y10.1517
G1 X15.898 Y9.7215
G1 X15.499 Y9.5339
G1 X14.333 Y8.9009
G1 X13.389 Y8.2246
G1 X12.582 Y7.4830
G1 X12.097 Y6.9880
G1 X11.198 Y5.8125
G1 X10.842 Y5.2037
G1 X10.373 Y4.3190
G1 X9.887 Y2.9969
G1 X9.749 Y2.4570
G1 X9.667 Y2.0077
ID=1 WHEN $AC_TIMER[1]>=0 DO M51
G1 X-10.084 Y-3.608 F3000
ID=1 WHEN $AC_TIMER[1]>=0 DO M50
G1 X-9.608 Y-1.8316 F600
G1 X-9.448 Y0.0012
G1 X-9.608 Y1.8337
G1 X-10.084 Y3.6103
G1 X-10.862 Y5.2779
G1 X-11.917 Y6.7845
G1 X-13.217 Y8.0840
G1 X-14.724 Y9.1396
G1 X-16.391 Y9.9172
G1 X-18.168 Y10.3938
G1 X-20.000 Y10.5533
G1 X-21.832 Y10.3939
G1 X-23.609 Y9.9175
G1 X-25.276 Y9.1391
G1 X-26.783 Y8.0846
G1 X-28.083 Y6.7842
G1 X-29.138 Y5.2778
G1 X-29.916 Y3.6104
G1 X-30.392 Y1.8330
G1 X-30.552 Y0.0015
G1 X-30.392 Y-1.8311
G1 X-29.916 Y-3.6087
G1 X-29.138 Y-5.2753
G1 X-28.083 Y-6.7828
G1 X-26.783 Y-8.0824
G1 X-25.276 Y-9.1370
G1 X-23.609 Y-9.9156
G1 X-21.832 Y-10.3911
G1 X-20.000 Y-10.5517
G1 X-18.168 Y-10.3913
G1 X-16.391 Y-9.9159
G1 X-14.724 Y-9.1375
G1 X-13.217 Y-8.0820
G1 X-11.917 Y-6.7826
G1 X-10.862 Y-5.2752
G1 X-10.528 Y-4.5605
ID=1 WHEN $AC_TIMER[1]>=0 DO M51
G1 X-9.553 Y-13.923 F3000
ID=1 WHEN $AC_TIMER[1]>=0 DO M50
G1 X-9.553 Y-4.1219 F600
G1 X-10.559 Y-5.9818
G1 X-10.559 Y-13.9234
G1 X-11.565 Y-13.9235
G1 X-11.565 Y-7.2973
G1 X-12.570 Y-8.3039
G1 X-12.570 Y-13.9235
G1 X-13.576 Y-13.9236
G1 X-13.576 Y-9.0415
G1 X-14.582 Y-9.6828
G1 X-14.582 Y-13.9237
G1 X-15.587 Y-13.9239
G1 X-15.587 Y-10.1515
G1 X-16.593 Y-10.5246
G1 X-16.593 Y-13.9235
G1 X-17.598 Y-13.9237
G1 X-17.598 Y-10.7933
G1 X-18.604 Y-10.9589
G1 X-18.604 Y-13.9238
G1 X-19.610 Y-13.9230
G1 X-19.610 Y-11.0461
G1 X-20.615 Y-11.0264
G1 X-20.615 Y-13.9234
G1 X-21.621 Y-13.9235
G1 X-21.621 Y-10.9383
G1 X-22.626 Y-10.7330
G1 X-22.626 Y-13.9731
G1 X-23.632 Y-14.0325
G1 X-23.632 Y-10.4642
G1 X-24.638 Y-10.0467
G1 X-24.638 Y-14.1398
G1 X-25.643 Y-14.3180
G1 X-25.643 Y-9.5778
G1 X-26.649 Y-8.8845
G1 X-26.649 Y-14.4965
G1 X-27.655 Y-14.7948
G1 X-27.655 Y-8.0787
G1 X-28.660 Y-7.0724
G1 X-28.660 Y-15.0973
G1 X-29.666 Y-15.4771
G1 X-29.666 Y-5.6601
ID=1 WHEN $AC_TIMER[1]>=0 DO M51
G1 X-30.671 Y-3.639 F3000
ID=1 WHEN $AC_TIMER[1]>=0 DO M50
G1 X-30.671 Y-15.9143 F600
ID=1 WHEN $AC_TIMER[1]>=0 DO M51
G1 X-35.700 Y-11.229 F3000
ID=1 WHEN $AC_TIMER[1]>=0 DO M50
G1 X-35.700 Y-10.5636 F600
ID=1 WHEN $AC_TIMER[1]>=0 DO M51
G1 X-34.694 Y-8.009 F3000
ID=1 WHEN $AC_TIMER[1]>=0 DO M50
G1 X-34.694 Y-11.1956 F600
G1 X-33.688 Y-11.3900
G1 X-33.688 Y-2.5343
ID=1 WHEN $AC_TIMER[1]>=0 DO M51
G1 X-30.671 Y3.641 F3000
ID=1 WHEN $AC_TIMER[1]>=0 DO M50
G1 X-30.671 Y11.2280 F600
G1 X-31.677 Y11.5428
G1 X-31.677 Y-12.8716
G1 X-32.683 Y-11.8982
G1 X-32.683 Y12.1646
ID=1 WHEN $AC_TIMER[1]>=0 DO M51
G1 X-29.666 Y5.662 F3000
ID=1 WHEN $AC_TIMER[1]>=0 DO M50
G1 X-29.666 Y11.1999 F600
G1 X-28.660 Y11.3999
G1 X-28.660 Y7.0741
G1 X-27.655 Y8.0807
G1 X-27.655 Y11.9201
G1 X-26.649 Y12.9137
G1 X-26.649 Y8.8867
G1 X-25.643 Y9.5794
G1 X-25.643 Y15.9031
G1 X-24.638 Y15.4661
G1 X-24.638 Y10.0487
G1 X-23.632 Y10.4662
G1 X-23.632 Y15.0908
G1 X-22.626 Y14.7873
G1 X-22.626 Y10.7357
G1 X-21.621 Y10.9404
G1 X-21.621 Y14.4932
G1 X-20.615 Y14.3154
G1 X-20.615 Y11.0281
G1 X-19.610 Y11.0484
G1 X-19.610 Y14.1369
G1 X-18.604 Y14.0328
G1 X-18.604 Y10.9601
G1 X-17.598 Y10.7956
G1 X-17.598 Y13.9732
G1 X-16.593 Y13.9252
G1 X-16.593 Y10.5261
G1 X-15.587 Y10.1532
G1 X-15.587 Y13.9258
G1 X-14.582 Y13.9250
G1 X-14.582 Y9.6849
G1 X-13.576 Y9.0432
G1 X-13.576 Y13.9251
G1 X-12.570 Y13.9252
G1 X-12.570 Y8.3058
G1 X-11.565 Y7.2994
G1 X-11.565 Y13.9252
G1 X-10.559 Y13.9253
G1 X-10.559 Y5.9839
G1 X-9.553 Y4.1238
G1 X-9.553 Y13.9257
G1 X-8.548 Y13.9258
G1 X-8.548 Y-13.92385
G1 X-7.542 Y-13.92346
G1 X-7.542 Y13.92593
G1 X-6.537 Y13.92554
G1 X-6.537 Y-13.92301
G1 X-5.531 Y-13.92362
G1 X-5.531 Y13.92509
G1 X-4.525 Y13.92570
G1 X-4.525 Y-13.92317
G1 X-3.520 Y-13.92378
G1 X-3.520 Y13.92525
G1 X-2.514 Y13.92586
G1 X-2.514 Y-13.92332
G1 X-1.508 Y-13.92394
G1 X-1.508 Y13.92540
G1 X-0.503 Y13.92502
G1 X-0.503 Y-13.92348
G1 X0.503 Y-13.92310
G1 X0.503 Y13.92556
G1 X1.508 Y13.92518
G1 X1.508 Y-13.92364
G1 X2.514 Y-13.92325
G1 X2.514 Y13.92572
G1 X3.520 Y13.92533
G1 X3.520 Y-13.92380
G1 X4.525 Y-13.92341
G1 X4.525 Y13.92588
G1 X5.531 Y13.92549
G1 X5.531 Y-13.92396
G1 X6.537 Y-13.92357
G1 X6.537 Y13.92504
G1 X7.542 Y13.92565
G1 X7.542 Y-13.92312
G1 X8.548 Y-13.92373
G1 X8.548 Y13.92519
ID=1 WHEN $AC_TIMER[1]>=0 DO M51
G1 X9.553 Y4.178 F3000
ID=1 WHEN $AC_TIMER[1]>=0 DO M50
G1 X9.553 Y13.9259 F600
G1 X10.559 Y13.9250
G1 X10.559 Y6.0354
G1 X11.565 Y7.3243
G1 X11.565 Y13.9256
G1 X12.570 Y13.9257
G1 X12.570 Y8.2935
G1 X13.576 Y9.0732
G1 X13.576 Y13.9253
G1 X14.582 Y13.9254
G1 X14.582 Y9.6743
G1 X15.587 Y10.1882
G1 X15.587 Y13.9255
G1 X16.593 Y13.9256
G1 X16.593 Y10.5396
G1 X17.598 Y10.8074
G1 X17.598 Y13.9737
G1 X18.604 Y14.0321
G1 X18.604 Y10.9864
G1 X19.610 Y11.0489
G1 X19.610 Y14.1366
G1 X20.615 Y14.3158
G1 X20.615 Y11.0561
G1 X21.621 Y10.9418
G1 X21.621 Y14.4938
G1 X22.626 Y14.7875
G1 X22.626 Y10.7490
G1 X23.632 Y10.4725
G1 X23.632 Y15.0907
G1 X24.638 Y15.4666
G1 X24.638 Y10.0653
G1 X25.643 Y9.5659
G1 X25.643 Y15.9035
ID=1 WHEN $AC_TIMER[1]>=0 DO M51
G1 X26.649 Y12.913 F3000
ID=1 WHEN $AC_TIMER[1]>=0 DO M50
G1 X26.649 Y8.9174 F600
G1 X27.655 Y8.0903
G1 X27.655 Y11.9202
G1 X28.660 Y11.3993
G1 X28.660 Y7.0361
G1 X29.666 Y5.6437
G1 X29.666 Y11.1991
G1 X30.671 Y11.2286
G1 X30.671 Y3.5692
ID=1 WHEN $AC_TIMER[1]>=0 DO M51
G1 X33.688 Y-2.534 F3000
ID=1 WHEN $AC_TIMER[1]>=0 DO M50
G1 X33.688 Y-11.3905 F600
ID=1 WHEN $AC_TIMER[1]>=0 DO M51
G1 X35.700 Y-10.563 F3000
ID=1 WHEN $AC_TIMER[1]>=0 DO M50
G1 X35.700 Y-11.2296 F600
G1 X34.694 Y-11.1951
G1 X34.694 Y-8.0098
ID=1 WHEN $AC_TIMER[1]>=0 DO M51
G1 X30.671 Y-3.617 F3000
ID=1 WHEN $AC_TIMER[1]>=0 DO M50
G1 X30.671 Y-15.9146 F600
G1 X29.666 Y-15.4776
G1 X29.666 Y-5.6792
G1 X28.660 Y-7.0787
G1 X28.660 Y-15.0978
G1 X27.655 Y-14.7943
G1 X27.655 Y-8.1118
G1 X26.649 Y-8.9053
G1 X26.649 Y-14.4967
G1 X25.643 Y-14.3188
G1 X25.643 Y-9.5568
G1 X24.638 Y-10.0828
G1 X24.638 Y-14.1390
G1 X23.632 Y-14.0321
G1 X23.632 Y-10.4606
G1 X22.626 Y-10.7493
G1 X22.626 Y-13.9735
G1 X21.621 Y-13.9235
G1 X21.621 Y-10.9492
G1 X20.615 Y-11.0413
G1 X20.615 Y-13.9232
G1 X19.610 Y-13.9233
G1 X19.610 Y-11.0476
G1 X18.604 Y-10.9737
G1 X18.604 Y-13.9234
G1 X17.598 Y-13.9235
G1 X17.598 Y-10.7987
G1 X16.593 Y-10.5484
G1 X16.593 Y-13.9234
G1 X15.587 Y-13.9236
G1 X15.587 Y-10.1574
G1 X14.582 Y-9.6815
G1 X14.582 Y-13.9232
G1 X13.576 Y-13.9233
G1 X13.576 Y-9.0802
G1 X12.570 Y-8.3040
G1 X12.570 Y-13.9234
G1 X11.565 Y-13.9235
G1 X11.565 Y-7.3132
G1 X10.559 Y-6.0073
G1 X10.559 Y-13.9237
G1 X9.553 Y-13.9238
G1 X9.553 Y-4.16073
ID=1 WHEN $AC_TIMER[1]>=0 DO M51
G1 X31.677 Y11.542 F3000
ID=1 WHEN $AC_TIMER[1]>=0 DO M50
G1 X31.677 Y-12.8719 F600
G1 X32.683 Y-11.8985
G1 X32.683 Y12.1649
ID=1 WHEN $AC_TIMER[1]>=0 DO M51
ID=1 WHEN $AC_TIMER[1]>=0 DO M51
G1 Z2.000 F3000

ID=1 WHEN $AC_TIMER[1]>=0 DO M50
G1 X37.419 Y-12.528 F3000
ID=1 WHEN $AC_TIMER[1]>=0 DO M50
G1 X37.889 Y-13.2680 F600
G1 X38.146 Y-13.7972
G1 X38.307 Y-14.3614
G1 X38.360 Y-14.7588
G1 X38.366 Y-15.0538
G1 X38.325 Y-15.5314
G1 X38.246 Y-15.9029
G1 X38.044 Y-16.4428
G1 X37.753 Y-16.9407
G1 X37.382 Y-17.3816
G1 X36.941 Y-17.7525
G1 X36.443 Y-18.0434
G1 X35.903 Y-18.2453
G1 X35.532 Y-18.3247
G1 X35.054 Y-18.3654
G1 X34.759 Y-18.3593
G1 X34.362 Y-18.3067
G1 X33.798 Y-18.1459
G1 X33.269 Y-17.8882
G1 X32.529 Y-17.4181
ID=1 WHEN $AC_TIMER[1]>=0 DO M51
G1 X27.529 Y17.420 F3000
ID=1 WHEN $AC_TIMER[1]>=0 DO M50
G1 X28.269 Y17.8919 F600
G1 X28.627 Y18.0773
G1 X28.899 Y18.1834
G1 X29.362 Y18.3070
G1 X29.704 Y18.3574
G1 X30.262 Y18.3593
G1 X30.813 Y18.2703
G1 X31.342 Y18.0923
G1 X31.834 Y17.8283
G1 X32.276 Y17.4874
G1 X32.656 Y17.0776
G1 X32.947 Y16.6396
G1 X33.188 Y16.1035
G1 X33.309 Y15.6391
G1 X33.397 Y14.7508
ID=1 WHEN $AC_TIMER[1]>=0 DO M51
G1 X-33.397 Y14.750 F3000
ID=1 WHEN $AC_TIMER[1]>=0 DO M50
G1 X-33.309 Y15.6398 F600
G1 X-33.188 Y16.1034
G1 X-32.947 Y16.6392
G1 X-32.656 Y17.0772
G1 X-32.276 Y17.4874
G1 X-31.834 Y17.8285
G1 X-31.342 Y18.0925
G1 X-30.813 Y18.2705
G1 X-30.262 Y18.3595
G1 X-29.704 Y18.3574
G1 X-29.362 Y18.3078
G1 X-28.899 Y18.1834
G1 X-28.627 Y18.0775
G1 X-28.269 Y17.8919
G1 X-27.529 Y17.4208
ID=1 WHEN $AC_TIMER[1]>=0 DO M51
G1 X-32.529 Y-17.418 F3000
ID=1 WHEN $AC_TIMER[1]>=0 DO M50
G1 X-33.269 Y-17.8880 F600
G1 X-33.798 Y-18.1452
G1 X-34.362 Y-18.3064
G1 X-34.759 Y-18.3598
G1 X-35.054 Y-18.3657
G1 X-35.532 Y-18.3244
G1 X-35.903 Y-18.2458
G1 X-36.443 Y-18.0437
G1 X-36.941 Y-17.7526
G1 X-37.382 Y-17.3815
G1 X-37.753 Y-16.9404
G1 X-38.044 Y-16.4424
G1 X-38.246 Y-15.9023
G1 X-38.325 Y-15.5317
G1 X-38.366 Y-15.0533
G1 X-38.360 Y-14.7583
G1 X-38.307 Y-14.3617
G1 X-38.146 Y-13.7979
G1 X-37.889 Y-13.2682
G1 X-37.419 Y-12.5281
ID=1 WHEN $AC_TIMER[1]>=0 DO M51
G1 X-37.218 Y-11.966 F3000
ID=1 WHEN $AC_TIMER[1]>=0 DO M50
G1 X-36.866 Y-12.2904 F600
G1 X-36.651 Y-12.1394
G1 X-36.129 Y-11.8966
G1 X-35.573 Y-11.7478
G1 X-35.000 Y-11.6979
G1 X-34.427 Y-11.7471
G1 X-33.871 Y-11.8963
G1 X-33.349 Y-12.1395
G1 X-32.877 Y-12.4706
G1 X-32.470 Y-12.8778
G1 X-32.140 Y-13.3480
G1 X-31.897 Y-13.8702
G1 X-31.748 Y-14.4263
G1 X-31.698 Y-14.9995
G1 X-31.748 Y-15.5727
G1 X-31.897 Y-16.1289
G1 X-32.140 Y-16.6501
G1 X-32.291 Y-16.8651
G1 X-31.966 Y-17.2174
G1 X-31.014 Y-16.6631
G1 X-28.808 Y-15.7045
G1 X-26.504 Y-15.0109
G1 X-24.135 Y-14.5893
G1 X-21.750 Y-14.4494
G1 X21.750 Y-14.4491
G1 X24.135 Y-14.5892
G1 X26.504 Y-15.0106
G1 X28.808 Y-15.7040
G1 X31.014 Y-16.6634
G1 X31.966 Y-17.2172
G1 X32.291 Y-16.8654
G1 X32.140 Y-16.6504
G1 X31.897 Y-16.1286
G1 X31.748 Y-15.5728
G1 X31.698 Y-14.9990
G1 X31.748 Y-14.4262
G1 X31.897 Y-13.8703
G1 X32.140 Y-13.3485
G1 X32.470 Y-12.8777
G1 X32.877 Y-12.4709
G1 X33.349 Y-12.1391
G1 X33.871 Y-11.8962
G1 X34.427 Y-11.7474
G1 X35.000 Y-11.6976
G1 X35.573 Y-11.7478
G1 X36.129 Y-11.8969
G1 X36.651 Y-12.1391
G1 X36.866 Y-12.2901
G1 X37.218 Y-11.9664
G1 X36.664 Y-11.0131
G1 X35.705 Y-8.8075
G1 X35.010 Y-6.5039
G1 X34.590 Y-4.1343
G1 X34.450 Y-1.7494
G1 X34.450 Y8.7414
G1 X34.340 Y10.8116
G1 X34.015 Y12.8436
G1 X33.647 Y14.2001
G1 X33.191 Y14.1995
G1 X33.103 Y13.8729
G1 X32.860 Y13.3501
G1 X32.530 Y12.8783
G1 X32.123 Y12.4714
G1 X31.651 Y12.1416
G1 X31.129 Y11.8988
G1 X30.573 Y11.7490
G1 X30.000 Y11.6992
G1 X29.427 Y11.7493
G1 X28.871 Y11.8985
G1 X28.349 Y12.1417
G1 X27.877 Y12.4719
G1 X27.470 Y12.8780
G1 X27.140 Y13.3502
G1 X26.897 Y13.8724
G1 X26.748 Y14.4286
G1 X26.698 Y15.0018
G1 X26.748 Y15.5749
G1 X26.897 Y16.1301
G1 X27.140 Y16.6523
G1 X27.291 Y16.8673
G1 X26.966 Y17.2196
G1 X26.014 Y16.6653
G1 X23.808 Y15.7067
G1 X21.504 Y15.0111
G1 X19.135 Y14.59185
G1 X16.750 Y14.45166
G1 X-16.750 Y14.45194
G1 X-19.135 Y14.59175
G1 X-21.504 Y15.01169
G1 X-23.808 Y15.70663
G1 X-26.014 Y16.66557
G1 X-26.966 Y17.21995
G1 X-27.291 Y16.86757
G1 X-27.140 Y16.65298
G1 X-26.897 Y16.13039
G1 X-26.748 Y15.57481
G1 X-26.698 Y15.00123
G1 X-26.748 Y14.42865
G1 X-26.897 Y13.87207
G1 X-27.140 Y13.35048
G1 X-27.470 Y12.87890
G1 X-27.877 Y12.47132
G1 X-28.349 Y12.14174
G1 X-28.871 Y11.89815
G1 X-29.427 Y11.74957
G1 X-30.000 Y11.69999
G1 X-30.573 Y11.74941
G1 X-31.129 Y11.89882
G1 X-31.651 Y12.14124
G1 X-32.123 Y12.47166
G1 X-32.530 Y12.87808
G1 X-32.860 Y13.35050
G1 X-33.103 Y13.87291
G1 X-33.191 Y14.19975
G1 X-33.647 Y14.20080
G1 X-34.015 Y12.84354
G1 X-34.340 Y10.81104
G1 X-34.450 Y8.74156
G1 X-34.450 Y-1.74916
G1 X-34.590 Y-4.13497
G1 X-35.010 Y-6.50391
G1 X-35.705 Y-8.80785
G1 X-36.690 Y-11.05841
ID=1 WHEN $AC_TIMER[1]>=0 DO M51
G1 X9.502 Y1.027 F3000
ID=1 WHEN $AC_TIMER[1]>=0 DO M50
G1 X9.459 Y-0.4443 F600
G1 X9.641 Y-1.9934
G1 X9.695 Y-2.2463
G1 X10.150 Y-3.7829
G1 X10.961 Y-5.4439
G1 X11.803 Y-6.6365
G1 X11.983 Y-6.8554
G1 X12.995 Y-7.8895
G1 X13.822 Y-8.5509
G1 X14.051 Y-8.7071
G1 X15.287 Y-9.4396
G1 X16.667 Y-10.0064
G1 X16.876 Y-10.0734
G1 X18.259 Y-10.4063
G1 X19.994 Y-10.5501
G1 X21.291 Y-10.4705
G1 X22.896 Y-10.1451
G1 X24.217 Y-9.6682
G1 X24.473 Y-9.5515
G1 X25.719 Y-8.8666
G1 X26.821 Y-8.0450
G1 X27.034 Y-7.8607
G1 X28.056 Y-6.8147
G1 X29.065 Y-5.3983
G1 X29.628 Y-4.2756
G1 X29.839 Y-3.8021
G1 X30.289 Y-2.3387
G1 X30.537 Y-0.5557
G1 X30.507 Y0.7727
G1 X30.474 Y1.2631
G1 X30.171 Y2.8018
G1 X30.090 Y3.0717
G1 X29.528 Y4.5337
G1 X29.395 Y4.7864
G1 X28.578 Y6.1464
G1 X27.609 Y7.3059
G1 X27.450 Y7.4681
G1 X26.360 Y8.4200
G1 X25.366 Y9.0691
G1 X24.942 Y9.3213
G1 X23.646 Y9.9012
G1 X23.266 Y10.0212
G1 X22.015 Y10.3580
G1 X20.604 Y10.5330
G1 X20.353 Y10.5427
G1 X18.826 Y10.4874
G1 X17.470 Y10.2405
G1 X17.198 Y10.1716
G1 X15.884 Y9.7162
G1 X14.378 Y8.9283
G1 X13.398 Y8.2325
G1 X12.576 Y7.4724
G1 X12.149 Y7.0472
G1 X11.204 Y5.8249
G1 X10.384 Y4.3437
G1 X9.861 Y2.9121
G1 X9.760 Y2.4941
G1 X9.684 Y2.0618
ID=1 WHEN $AC_TIMER[1]>=0 DO M51
G1 X-9.608 Y-1.831 F3000
ID=1 WHEN $AC_TIMER[1]>=0 DO M50
G1 X-9.448 Y0.0016 F600
G1 X-9.608 Y1.8332
G1 X-9.790 Y2.5119
G1 X-10.084 Y3.6107
G1 X-10.862 Y5.2773
G1 X-11.917 Y6.7849
G1 X-13.217 Y8.0845
G1 X-14.724 Y9.1390
G1 X-16.391 Y9.9176
G1 X-18.168 Y10.3932
G1 X-20.000 Y10.5538
G1 X-21.832 Y10.3933
G1 X-23.609 Y9.9179
G1 X-25.276 Y9.1395
G1 X-26.783 Y8.0841
G1 X-28.083 Y6.7846
G1 X-29.138 Y5.2772
G1 X-29.916 Y3.6108
G1 X-30.392 Y1.8334
G1 X-30.552 Y0.0010
G1 X-30.392 Y-1.8315
G1 X-29.916 Y-3.6081
G1 X-29.138 Y-5.2757
G1 X-28.083 Y-6.7823
G1 X-26.783 Y-8.0828
G1 X-25.276 Y-9.1374
G1 X-23.609 Y-9.9150
G1 X-21.832 Y-10.3916
G1 X-20.000 Y-10.5511
G1 X-18.168 Y-10.3917
G1 X-16.391 Y-9.9153
G1 X-14.724 Y-9.1379
G1 X-13.217 Y-8.0825
G1 X-11.917 Y-6.7820
G1 X-10.862 Y-5.2756
G1 X-10.084 Y-3.6082
G1 X-9.880 Y-2.8465
ID=1 WHEN $AC_TIMER[1]>=0 DO M51
G1 X-14.277 Y-9.621 F3000
ID=1 WHEN $AC_TIMER[1]>=0 DO M50
G1 X14.277 Y-9.6210 F600
G1 X12.874 Y-8.6090
G1 X-12.876 Y-8.6094
G1 X-11.863 Y-7.5962
G1 X11.853 Y-7.5964
G1 X11.055 Y-6.5838
G1 X-11.069 Y-6.5833
G1 X-10.388 Y-5.5705
G1 X10.404 Y-5.5704
G1 X9.909 Y-4.5579
G1 X-9.916 Y-4.55758
G1 X-9.512 Y-3.54414
G1 X9.518 Y-3.54442
G1 X9.218 Y-2.53160
G1 X-9.241 Y-2.53176
G1 X-9.052 Y-1.51811
G1 X9.054 Y-1.51846
G1 X8.934 Y-0.50507
G1 X-8.963 Y-0.50582
G1 X-8.963 Y0.50794
G1 X8.960 Y0.50751
G1 X9.050 Y1.52091
G1 X-9.052 Y1.52099
G1 X-9.241 Y2.53334
G1 X9.228 Y2.53323
G1 X9.514 Y3.54611
G1 X-9.512 Y3.54607
G1 X-9.916 Y4.55963
G1 X9.883 Y4.55990
G1 X10.409 Y5.57204
G1 X-10.388 Y5.57240
G1 X-11.069 Y6.58512
G1 X11.048 Y6.58520
G1 X11.832 Y7.59812
G1 X-11.863 Y7.59897
G1 X-12.876 Y8.61056
G1 X12.892 Y8.61099
G1 X14.231 Y9.62388
G1 X-14.277 Y9.62369
ID=1 WHEN $AC_TIMER[1]>=0 DO M51
G1 X-16.282 Y10.636 F3000
ID=1 WHEN $AC_TIMER[1]>=0 DO M50
G1 X16.322 Y10.6369 F600
ID=1 WHEN $AC_TIMER[1]>=0 DO M51
G1 X17.288 Y13.675 F3000
ID=1 WHEN $AC_TIMER[1]>=0 DO M50
G1 X26.395 Y13.6759 F600
G1 X26.914 Y12.6622
G1 X-26.914 Y12.6620
ID=1 WHEN $AC_TIMER[1]>=0 DO M51
G1 X-26.395 Y13.675 F3000
ID=1 WHEN $AC_TIMER[1]>=0 DO M50
G1 X-17.288 Y13.6759 F600
ID=1 WHEN $AC_TIMER[1]>=0 DO M51
G1 X-22.986 Y14.688 F3000
ID=1 WHEN $AC_TIMER[1]>=0 DO M50
G1 X-26.196 Y14.6880 F600
G1 X-26.230 Y15.7016
G1 X-25.564 Y15.7012
ID=1 WHEN $AC_TIMER[1]>=0 DO M51
G1 X-27.914 Y11.649 F3000
ID=1 WHEN $AC_TIMER[1]>=0 DO M50
G1 X27.914 Y11.6492 F600
ID=1 WHEN $AC_TIMER[1]>=0 DO M51
G1 X25.726 Y9.623 F3000
ID=1 WHEN $AC_TIMER[1]>=0 DO M50
G1 X33.876 Y9.6238 F600
G1 X33.924 Y8.6109
G1 X27.097 Y8.6109
G1 X28.140 Y7.5981
G1 X33.924 Y7.5983
G1 X33.924 Y6.5856
G1 X28.977 Y6.5851
G1 X29.586 Y5.5729
G1 X33.924 Y5.5720
G1 X33.924 Y4.5592
G1 X30.103 Y4.5597
G1 X30.492 Y3.5466
G1 X33.924 Y3.5467
G1 X33.924 Y2.5339
G1 X30.766 Y2.5338
G1 X30.965 Y1.5207
G1 X33.924 Y1.5205
G1 X33.924 Y0.5077
G1 X31.039 Y0.5076
G1 X31.062 Y-0.5050
G1 X33.924 Y-0.5057
G1 X33.924 Y-1.5180
G1 X30.937 Y-1.5184
G1 X30.794 Y-2.5318
G1 X33.968 Y-2.5310
G1 X34.028 Y-3.5445
G1 X30.482 Y-3.5442
G1 X30.107 Y-4.5578
G1 X34.126 Y-4.5573
G1 X34.306 Y-5.5706
G1 X29.603 Y-5.5701
G1 X28.934 Y-6.5832
G1 X34.486 Y-6.5833
G1 X34.777 Y-7.5964
G1 X28.146 Y-7.5960
G1 X27.130 Y-8.6090
G1 X35.083 Y-8.6090
G1 X35.459 Y-9.6216
G1 X25.757 Y-9.6219
ID=1 WHEN $AC_TIMER[1]>=0 DO M51
G1 X23.670 Y-10.634 F3000
ID=1 WHEN $AC_TIMER[1]>=0 DO M50
G1 X35.899 Y-10.6343 F600
ID=1 WHEN $AC_TIMER[1]>=0 DO M51
G1 X32.914 Y-11.647 F3000
ID=1 WHEN $AC_TIMER[1]>=0 DO M50
G1 X-32.914 Y-11.6471 F600
G1 X-31.914 Y-12.6603
G1 X31.914 Y-12.6600
ID=1 WHEN $AC_TIMER[1]>=0 DO M51
G1 X31.230 Y-15.699 F3000
ID=1 WHEN $AC_TIMER[1]>=0 DO M50
G1 X30.564 Y-15.6996 F600
ID=1 WHEN $AC_TIMER[1]>=0 DO M51
G1 X27.986 Y-14.686 F3000
ID=1 WHEN $AC_TIMER[1]>=0 DO M50
G1 X31.196 Y-14.6860 F600
G1 X31.395 Y-13.6738
G1 X22.288 Y-13.6736
ID=1 WHEN $AC_TIMER[1]>=0 DO M51
G1 X16.325 Y-10.634 F3000
ID=1 WHEN $AC_TIMER[1]>=0 DO M50
G1 X-16.282 Y-10.6349 F600
ID=1 WHEN $AC_TIMER[1]>=0 DO M51
G1 X-22.288 Y-13.673 F3000
ID=1 WHEN $AC_TIMER[1]>=0 DO M50
G1 X-31.395 Y-13.6739 F600
ID=1 WHEN $AC_TIMER[1]>=0 DO M51
G1 X-30.564 Y-15.699 F3000
ID=1 WHEN $AC_TIMER[1]>=0 DO M50
G1 X-31.230 Y-15.6996 F600
G1 X-31.196 Y-14.6862
G1 X-27.986 Y-14.6862
ID=1 WHEN $AC_TIMER[1]>=0 DO M51
G1 X-23.718 Y-10.634 F3000
ID=1 WHEN $AC_TIMER[1]>=0 DO M50
G1 X-35.899 Y-10.6346 F600
G1 X-35.459 Y-9.6211
G1 X-25.723 Y-9.6211
G1 X-27.124 Y-8.6098
G1 X-35.083 Y-8.6093
G1 X-34.777 Y-7.5962
G1 X-28.137 Y-7.5960
G1 X-28.931 Y-6.5837
G1 X-34.486 Y-6.5834
G1 X-34.306 Y-5.5708
G1 X-29.612 Y-5.5707
G1 X-30.084 Y-4.5575
G1 X-34.126 Y-4.5575
G1 X-34.028 Y-3.5441
G1 X-30.488 Y-3.5448
G1 X-30.759 Y-2.5312
G1 X-33.968 Y-2.5316
G1 X-33.924 Y-1.5185
G1 X-30.948 Y-1.5181
G1 X-31.037 Y-0.5050
G1 X-33.924 Y-0.5053
G1 X-33.924 Y0.5076
G1 X-31.037 Y0.5079
G1 X-30.948 Y1.5208
G1 X-33.924 Y1.5203
G1 X-33.924 Y2.5336
G1 X-30.759 Y2.5338
G1 X-30.488 Y3.5461
G1 X-33.924 Y3.5469
G1 X-33.924 Y4.5592
G1 X-30.084 Y4.5593
G1 X-29.612 Y5.5721
G1 X-33.924 Y5.5729
G1 X-33.924 Y6.5851
G1 X-28.931 Y6.5855
G1 X-28.137 Y7.5981
G1 X-33.924 Y7.5989
G1 X-33.924 Y8.6101
G1 X-27.124 Y8.6101
G1 X-25.723 Y9.6238
G1 X-33.876 Y9.6236
G1 X-33.822 Y10.6368
G1 X-23.718 Y10.63634
ID=1 WHEN $AC_TIMER[1]>=0 DO M51
G1 X-32.086 Y11.649 F3000
ID=1 WHEN $AC_TIMER[1]>=0 DO M50
G1 X-33.670 Y11.6497 F600
ID=1 WHEN $AC_TIMER[1]>=0 DO M51
G1 X22.986 Y14.688 F3000
ID=1 WHEN $AC_TIMER[1]>=0 DO M50
G1 X26.196 Y14.6880 F600
G1 X26.230 Y15.7016
G1 X25.564 Y15.7012
ID=1 WHEN $AC_TIMER[1]>=0 DO M51
G1 X23.723 Y10.636 F3000
ID=1 WHEN $AC_TIMER[1]>=0 DO M50
G1 X33.822 Y10.6369 F600
G1 X33.670 Y11.6492
G1 X32.086 Y11.6499
ID=1 WHEN $AC_TIMER[1]>=0 DO M51
ID=1 WHEN $AC_TIMER[1]>=0 DO M51
G1 Z2.500 F3000

ID=1 WHEN $AC_TIMER[1]>=0 DO M50
G1 X37.419 Y-12.528 F3000
ID=1 WHEN $AC_TIMER[1]>=0 DO M50
G1 X37.889 Y-13.2680 F600
G1 X38.146 Y-13.7972
G1 X38.307 Y-14.3614
G1 X38.360 Y-14.7588
G1 X38.366 Y-15.0537
G1 X38.352 Y-15.3350
G1 X38.305 Y-15.6443
G1 X38.246 Y-15.9022
G1 X38.064 Y-16.3931
G1 X37.751 Y-16.9436
G1 X37.382 Y-17.3816
G1 X36.941 Y-17.7525
G1 X36.443 Y-18.0434
G1 X35.903 Y-18.2453
G1 X35.501 Y-18.3305
G1 X35.048 Y-18.3667
G1 X34.812 Y-18.3615
G1 X34.410 Y-18.3109
G1 X34.186 Y-18.2663
G1 X33.798 Y-18.1451
G1 X33.269 Y-17.8883
G1 X32.529 Y-17.4183
ID=1 WHEN $AC_TIMER[1]>=0 DO M51
G1 X27.529 Y17.420 F3000
ID=1 WHEN $AC_TIMER[1]>=0 DO M50
G1 X28.269 Y17.8919 F600
G1 X28.627 Y18.0773
G1 X28.899 Y18.1834
G1 X29.362 Y18.3070
G1 X29.704 Y18.3574
G1 X30.262 Y18.3593
G1 X30.813 Y18.2703
G1 X31.342 Y18.0923
G1 X31.834 Y17.8283
G1 X32.276 Y17.4874
G1 X32.656 Y17.0776
G1 X32.947 Y16.6396
G1 X33.188 Y16.1034
G1 X33.299 Y15.6780
G1 X33.399 Y14.7506
ID=1 WHEN $AC_TIMER[1]>=0 DO M51
G1 X-33.397 Y14.750 F3000
ID=1 WHEN $AC_TIMER[1]>=0 DO M50
G1 X-33.309 Y15.6398 F600
G1 X-33.188 Y16.1034
G1 X-32.947 Y16.6392
G1 X-32.656 Y17.0772
G1 X-32.276 Y17.4874
G1 X-31.833 Y17.8274
G1 X-31.342 Y18.0924
G1 X-30.813 Y18.2704
G1 X-30.262 Y18.3593
G1 X-29.704 Y18.3573
G1 X-29.362 Y18.3077
G1 X-28.899 Y18.1833
G1 X-28.627 Y18.0774
G1 X-28.269 Y17.8917
G1 X-27.529 Y17.4206
ID=1 WHEN $AC_TIMER[1]>=0 DO M51
G1 X-32.529 Y-17.418 F3000
ID=1 WHEN $AC_TIMER[1]>=0 DO M50
G1 X-33.269 Y-17.8880 F600
G1 X-33.798 Y-18.1452
G1 X-34.362 Y-18.3064
G1 X-34.759 Y-18.3598
G1 X-35.054 Y-18.3658
G1 X-35.532 Y-18.3244
G1 X-35.903 Y-18.2458
G1 X-36.443 Y-18.0437
G1 X-36.941 Y-17.7526
G1 X-37.382 Y-17.3815
G1 X-37.753 Y-16.9405
G1 X-38.044 Y-16.4424
G1 X-38.246 Y-15.9023
G1 X-38.325 Y-15.5317
G1 X-38.366 Y-15.0533
G1 X-38.360 Y-14.7583
G1 X-38.307 Y-14.3617
G1 X-38.146 Y-13.7979
G1 X-37.889 Y-13.2682
G1 X-37.419 Y-12.5278
ID=1 WHEN $AC_TIMER[1]>=0 DO M51
G1 X-33.647 Y14.200 F3000
ID=1 WHEN $AC_TIMER[1]>=0 DO M50
G1 X-34.015 Y12.8435 F600
G1 X-34.340 Y10.8114
G1 X-34.450 Y8.7417
G1 X-34.450 Y-1.7497
G1 X-34.590 Y-4.1347
G1 X-35.010 Y-6.5031
G1 X-35.705 Y-8.8075
G1 X-36.664 Y-11.0130
G1 X-37.219 Y-11.9661
G1 X-36.861 Y-12.2907
G1 X-36.654 Y-12.1419
G1 X-36.129 Y-11.8967
G1 X-35.573 Y-11.7478
G1 X-35.000 Y-11.6970
G1 X-34.427 Y-11.7472
G1 X-33.871 Y-11.8964
G1 X-33.349 Y-12.1396
G1 X-32.877 Y-12.4707
G1 X-32.470 Y-12.8779
G1 X-32.140 Y-13.3481
G1 X-31.897 Y-13.8703
G1 X-31.748 Y-14.4264
G1 X-31.698 Y-14.9996
G1 X-31.748 Y-15.5728
G1 X-31.897 Y-16.1280
G1 X-32.140 Y-16.6502
G1 X-32.291 Y-16.8652
G1 X-31.966 Y-17.2175
G1 X-31.014 Y-16.6632
G1 X-28.808 Y-15.7046
G1 X-26.504 Y-15.0100
G1 X-24.135 Y-14.5894
G1 X-21.750 Y-14.4495
G1 X21.750 Y-14.4492
G1 X24.135 Y-14.5893
G1 X26.504 Y-15.0107
G1 X28.808 Y-15.7041
G1 X31.014 Y-16.6635
G1 X31.966 Y-17.2173
G1 X32.291 Y-16.8655
G1 X32.140 Y-16.6505
G1 X31.897 Y-16.1287
G1 X31.759 Y-15.6153
G1 X31.698 Y-15.0031
G1 X31.748 Y-14.4269
G1 X31.897 Y-13.8701
G1 X32.140 Y-13.3482
G1 X32.470 Y-12.8774
G1 X32.877 Y-12.4706
G1 X33.349 Y-12.1398
G1 X33.871 Y-11.8969
G1 X34.427 Y-11.7471
G1 X35.000 Y-11.6973
G1 X35.573 Y-11.7475
G1 X36.129 Y-11.8966
G1 X36.651 Y-12.1398
G1 X36.866 Y-12.2908
G1 X37.218 Y-11.9661
G1 X36.664 Y-11.0139
G1 X35.705 Y-8.8073
G1 X35.010 Y-6.5037
G1 X34.590 Y-4.1341
G1 X34.450 Y-1.7491
G1 X34.450 Y8.7412
G1 X34.340 Y10.8114
G1 X34.015 Y12.8433
G1 X33.647 Y14.2008
G1 X33.191 Y14.1993
G1 X33.103 Y13.8726
G1 X32.860 Y13.3508
G1 X32.530 Y12.8780
G1 X32.123 Y12.4712
G1 X31.651 Y12.1413
G1 X31.129 Y11.8985
G1 X30.573 Y11.74927
G1 X30.000 Y11.69969
G1 X29.470 Y11.74504
G1 X28.874 Y11.89622
G1 X28.349 Y12.14190
G1 X27.877 Y12.47132
G1 X27.470 Y12.87874
G1 X27.140 Y13.35015
G1 X26.915 Y13.83251
G1 X26.748 Y14.42469
G1 X26.698 Y15.00137
G1 X26.748 Y15.57479
G1 X26.897 Y16.13020
G1 X27.140 Y16.65262
G1 X27.291 Y16.86702
G1 X26.966 Y17.21965
G1 X26.014 Y16.66503
G1 X23.808 Y15.70697
G1 X21.504 Y15.01191
G1 X19.135 Y14.59185
G1 X16.750 Y14.45165
G1 X-16.750 Y14.45194
G1 X-19.135 Y14.59175
G1 X-21.504 Y15.01169
G1 X-23.808 Y15.70663
G1 X-26.014 Y16.66557
G1 X-26.966 Y17.21994
G1 X-27.291 Y16.86757
G1 X-27.140 Y16.65297
G1 X-26.897 Y16.13039
G1 X-26.748 Y15.57481
G1 X-26.698 Y15.00122
G1 X-26.748 Y14.42864
G1 X-26.897 Y13.87206
G1 X-27.140 Y13.35048
G1 X-27.470 Y12.87889
G1 X-27.877 Y12.47131
G1 X-28.349 Y12.14173
G1 X-28.871 Y11.89815
G1 X-29.427 Y11.74957
G1 X-30.000 Y11.69998
G1 X-30.530 Y11.74534
G1 X-31.126 Y11.89652
G1 X-31.651 Y12.14120
G1 X-32.123 Y12.47162
G1 X-32.530 Y12.87803
G1 X-32.860 Y13.35045
G1 X-32.996 Y13.64102
ID=1 WHEN $AC_TIMER[1]>=0 DO M51
G1 X-33.148 Y11.978 F3000
ID=1 WHEN $AC_TIMER[1]>=0 DO M50
G1 X-33.352 Y10.70647 F600
G1 X-33.457 Y8.71545
G1 X-33.457 Y-1.77825
G1 X-33.602 Y-4.25118
G1 X-34.043 Y-6.73430
G1 X-34.771 Y-9.14941
G1 X-35.429 Y-10.66333
G1 X-34.254 Y-10.76620
G1 X-33.530 Y-10.96082
G1 X-32.851 Y-11.27643
G1 X-32.237 Y-11.70605
G1 X-31.707 Y-12.23666
G1 X-31.277 Y-12.85028
G1 X-30.961 Y-13.52989
G1 X-30.767 Y-14.25351
G1 X-30.664 Y-15.42838
G1 X-29.150 Y-14.77029
G1 X-26.735 Y-14.04241
G1 X-24.251 Y-13.60152
G1 X-21.779 Y-13.45646
G1 X21.779 Y-13.45602
G1 X24.251 Y-13.60196
G1 X26.735 Y-14.04207
G1 X29.150 Y-14.77019
G1 X30.664 Y-15.42810
G1 X30.767 Y-14.25397
G1 X30.961 Y-13.52959
G1 X31.277 Y-12.85021
G1 X31.707 Y-12.23682
G1 X32.237 Y-11.70643
G1 X32.851 Y-11.27605
G1 X33.530 Y-10.96066
G1 X34.254 Y-10.76628
G1 X35.429 Y-10.66315
G1 X34.771 Y-9.14907
G1 X34.043 Y-6.73418
G1 X33.602 Y-4.25130
G1 X33.457 Y-1.77823
G1 X33.457 Y8.71503
G1 X33.352 Y10.70602
G1 X33.148 Y11.97846
G1 X32.149 Y11.27809
G1 X31.470 Y10.96270
G1 X30.746 Y10.76831
G1 X30.000 Y10.70293
G1 X29.304 Y10.76301
G1 X28.539 Y10.95739
G1 X27.851 Y11.27874
G1 X27.237 Y11.70835
G1 X26.707 Y12.23897
G1 X26.277 Y12.85258
G1 X25.982 Y13.48566
G1 X25.768 Y14.24404
G1 X25.664 Y15.43065
G1 X24.150 Y14.77256
G1 X21.735 Y14.04468
G1 X19.251 Y13.60379
G1 X16.779 Y13.45873
G1 X-16.779 Y13.45810
G1 X-19.251 Y13.60303
G1 X-21.735 Y14.04415
G1 X-24.150 Y14.77226
G1 X-25.664 Y15.43017
G1 X-25.767 Y14.25405
G1 X-25.961 Y13.53166
G1 X-26.277 Y12.85228
G1 X-26.707 Y12.23889
G1 X-27.237 Y11.70851
G1 X-27.851 Y11.27812
G1 X-28.530 Y10.96274
G1 X-29.254 Y10.76835
G1 X-30.000 Y10.70297
G1 X-30.696 Y10.76305
G1 X-31.461 Y10.95743
G1 X-32.149 Y11.27877
G1 X-32.288 Y11.37567
ID=1 WHEN $AC_TIMER[1]>=0 DO M51
G1 X9.506 Y1.102 F3000
ID=1 WHEN $AC_TIMER[1]>=0 DO M50
G1 X9.456 Y-0.3908 F600
G1 X9.656 Y-2.0791
G1 X10.160 Y-3.8101
G1 X10.960 Y-5.4425
G1 X11.876 Y-6.7319
G1 X13.070 Y-7.9539
G1 X13.938 Y-8.6339
G1 X15.267 Y-9.4297
G1 X16.770 Y-10.0438
G1 X18.260 Y-10.4063
G1 X19.995 Y-10.5510
G1 X21.351 Y-10.4635
G1 X22.881 Y-10.1501
G1 X24.372 Y-9.6014
G1 X25.719 Y-8.8667
G1 X26.901 Y-7.9800
G1 X28.066 Y-6.8025
G1 X29.047 Y-5.4292
G1 X29.777 Y-3.9669
G1 X30.294 Y-2.3195
G1 X30.536 Y-0.5763
G1 X30.484 Y1.1890
G1 X30.131 Y2.9480
G1 X29.477 Y4.6362
G1 X28.585 Y6.1364
G1 X27.562 Y7.3588
G1 X26.341 Y8.4359
G1 X24.993 Y9.2941
G1 X23.605 Y9.9178
G1 X22.044 Y10.3524
G1 X20.524 Y10.5391
G1 X18.817 Y10.4861
G1 X17.281 Y10.1952
G1 X15.786 Y9.6711
G1 X14.423 Y8.9571
G1 X13.406 Y8.2384
G1 X12.204 Y7.1109
G1 X11.209 Y5.8357
G1 X10.394 Y4.3673
G1 X9.833 Y2.8190
G1 X9.702 Y2.1331
ID=1 WHEN $AC_TIMER[1]>=0 DO M51
G1 X8.517 Y1.212 F3000
ID=1 WHEN $AC_TIMER[1]>=0 DO M50
G1 X8.461 Y-0.4326 F600
G1 X8.680 Y-2.2777
G1 X9.231 Y-4.1708
G1 X10.104 Y-5.9519
G1 X11.112 Y-7.3694
G1 X12.407 Y-8.6942
G1 X13.375 Y-9.4529
G1 X14.822 Y-10.3203
G1 X16.463 Y-10.9905
G1 X18.100 Y-11.3893
G1 X19.986 Y-11.5461
G1 X21.484 Y-11.4491
G1 X23.154 Y-11.1073
G1 X24.783 Y-10.5074
G1 X26.257 Y-9.7042
G1 X27.555 Y-8.7304
G1 X28.825 Y-7.4465
G1 X29.901 Y-5.9416
G1 X30.701 Y-4.3387
G1 X31.265 Y-2.5386
G1 X31.531 Y-0.6308
G1 X31.474 Y1.3021
G1 X31.087 Y3.2270
G1 X30.372 Y5.0723
G1 X29.398 Y6.7128
G1 X28.275 Y8.0531
G1 X26.940 Y9.2302
G1 X25.466 Y10.1704
G1 X23.951 Y10.8502
G1 X22.238 Y11.3297
G1 X20.569 Y11.5340
G1 X18.709 Y11.4769
G1 X17.023 Y11.1571
G1 X15.390 Y10.5841
G1 X13.903 Y9.8063
G1 X12.777 Y9.0092
G1 X11.469 Y7.7829
G1 X10.378 Y6.3851
G1 X9.488 Y4.7806
G1 X8.872 Y3.0836
G1 X8.713 Y2.2436
ID=1 WHEN $AC_TIMER[1]>=0 DO M51
G1 X-9.608 Y-1.831 F3000
ID=1 WHEN $AC_TIMER[1]>=0 DO M50
G1 X-9.448 Y0.0016 F600
G1 X-9.608 Y1.8332
G1 X-9.837 Y2.6888
G1 X-10.084 Y3.6107
G1 X-10.862 Y5.2773
G1 X-11.917 Y6.7849
G1 X-13.217 Y8.0845
G1 X-14.724 Y9.1390
G1 X-16.391 Y9.9176
G1 X-18.168 Y10.3932
G1 X-20.000 Y10.5538
G1 X-21.832 Y10.3933
G1 X-23.609 Y9.9179
G1 X-25.276 Y9.1395
G1 X-26.783 Y8.0841
G1 X-28.083 Y6.7846
G1 X-29.138 Y5.2772
G1 X-29.916 Y3.6108
G1 X-30.392 Y1.8334
G1 X-30.552 Y0.0010
G1 X-30.392 Y-1.8315
G1 X-29.916 Y-3.6081
G1 X-29.138 Y-5.2757
G1 X-28.083 Y-6.7823
G1 X-26.783 Y-8.0828
G1 X-25.276 Y-9.1374
G1 X-23.609 Y-9.9150
G1 X-21.832 Y-10.3916
G1 X-20.000 Y-10.5511
G1 X-18.168 Y-10.3917
G1 X-16.391 Y-9.9153
G1 X-14.724 Y-9.1379
G1 X-13.217 Y-8.0825
G1 X-11.917 Y-6.7820
G1 X-10.862 Y-5.2756
G1 X-10.084 Y-3.6082
G1 X-9.880 Y-2.8465
ID=1 WHEN $AC_TIMER[1]>=0 DO M51
G1 X-8.627 Y-2.004 F3000
ID=1 WHEN $AC_TIMER[1]>=0 DO M50
G1 X-8.451 Y0.0010 F600
G1 X-8.627 Y2.0066
G1 X-8.878 Y2.9452
G1 X-9.148 Y3.9511
G1 X-9.999 Y5.7756
G1 X-11.153 Y7.4242
G1 X-12.577 Y8.8487
G1 X-14.226 Y10.0023
G1 X-16.050 Y10.8538
G1 X-17.995 Y11.3744
G1 X-20.000 Y11.5509
G1 X-22.005 Y11.3745
G1 X-23.950 Y10.8530
G1 X-25.774 Y10.0026
G1 X-27.423 Y8.8481
G1 X-28.847 Y7.4247
G1 X-30.001 Y5.7752
G1 X-30.852 Y3.9518
G1 X-31.373 Y2.0063
G1 X-31.549 Y0.0019
G1 X-31.373 Y-2.0044
G1 X-30.852 Y-3.9499
G1 X-30.001 Y-5.7735
G1 X-28.847 Y-7.4220
G1 X-27.423 Y-8.8466
G1 X-25.774 Y-10.0001
G1 X-23.950 Y-10.8517
G1 X-22.005 Y-11.3722
G1 X-20.000 Y-11.5488
G1 X-17.995 Y-11.3723
G1 X-16.050 Y-10.8519
G1 X-14.226 Y-10.0004
G1 X-12.577 Y-8.8460
G1 X-11.153 Y-7.4225
G1 X-9.999 Y-5.7731
G1 X-9.148 Y-3.9496
G1 X-8.899 Y-3.0199
ID=1 WHEN $AC_TIMER[1]>=0 DO M51
G1 X-7.992 Y-2.520 F3000
ID=1 WHEN $AC_TIMER[1]>=0 DO M50
G1 X-7.992 Y-12.91060 F600
G1 X-8.992 Y-12.91084
G1 X-8.992 Y-5.26660
G1 X-9.992 Y-6.90327
G1 X-9.992 Y-12.91013
G1 X-10.992 Y-12.91036
G1 X-10.992 Y-8.12912
G1 X-11.993 Y-9.12944
G1 X-11.993 Y-12.91097
G1 X-12.993 Y-12.91020
G1 X-12.993 Y-9.84545
G1 X-13.993 Y-10.50352
G1 X-13.993 Y-12.91056
G1 X-14.993 Y-12.91079
G1 X-14.993 Y-10.97008
G1 X-15.993 Y-11.39129
G1 X-15.993 Y-12.06137
ID=1 WHEN $AC_TIMER[1]>=0 DO M51
G1 X-7.992 Y2.522 F3000
ID=1 WHEN $AC_TIMER[1]>=0 DO M50
G1 X-7.992 Y12.9122 F600
G1 X-6.992 Y12.9125
G1 X-6.992 Y-12.9100
G1 X-5.991 Y-12.9103
G1 X-5.991 Y12.9127
G1 X-4.991 Y12.9120
G1 X-4.991 Y-12.9105
G1 X-3.991 Y-12.9108
G1 X-3.991 Y12.9123
G1 X-2.991 Y12.9126
G1 X-2.991 Y-12.91000
G1 X-1.991 Y-12.91023
G1 X-1.991 Y12.91248
G1 X-0.990 Y12.91271
G1 X-0.990 Y-12.91095
G1 X0.010 Y-12.91019
G1 X0.010 Y12.91243
G1 X1.010 Y12.91266
G1 X1.010 Y-12.91091
G1 X2.010 Y-12.91014
G1 X2.010 Y12.91238
G1 X3.010 Y12.91262
G1 X3.010 Y-12.91086
G1 X4.010 Y-12.91009
G1 X4.010 Y12.91234
G1 X5.011 Y12.91257
G1 X5.011 Y-12.91081
G1 X6.011 Y-12.91005
G1 X6.011 Y12.91229
G1 X7.011 Y12.91252
G1 X7.011 Y-12.91077
ID=1 WHEN $AC_TIMER[1]>=0 DO M51
G1 X15.013 Y-10.990 F3000
ID=1 WHEN $AC_TIMER[1]>=0 DO M50
G1 X15.013 Y-12.9106 F600
G1 X14.012 Y-12.9109
G1 X14.012 Y-10.4982
G1 X13.012 Y-9.8981
G1 X13.012 Y-12.9106
G1 X12.012 Y-12.9109
G1 X12.012 Y-9.1347
G1 X11.012 Y-8.1480
G1 X11.012 Y-12.9104
G1 X10.012 Y-12.9107
G1 X10.012 Y-6.9455
G1 X9.011 Y-5.2952
G1 X9.011 Y-12.9103
G1 X8.011 Y-12.9106
G1 X8.011 Y-2.6319
ID=1 WHEN $AC_TIMER[1]>=0 DO M51
G1 X8.011 Y2.667 F3000
ID=1 WHEN $AC_TIMER[1]>=0 DO M50
G1 X8.011 Y12.9129 F600
G1 X9.011 Y12.9122
G1 X9.011 Y5.3215
G1 X10.012 Y6.9560
G1 X10.012 Y12.9125
G1 X11.012 Y12.9129
G1 X11.012 Y8.1854
G1 X12.012 Y9.1234
G1 X12.012 Y12.9121
G1 X13.012 Y12.9124
G1 X13.012 Y9.8879
G1 X14.012 Y10.4950
G1 X14.012 Y12.9123
G1 X15.013 Y12.9126
G1 X15.013 Y11.0191
G1 X16.013 Y11.3782
G1 X16.013 Y12.1580
ID=1 WHEN $AC_TIMER[1]>=0 DO M51
G1 X-8.992 Y5.268 F3000
ID=1 WHEN $AC_TIMER[1]>=0 DO M50
G1 X-8.992 Y12.9126 F600
G1 X-9.992 Y12.9120
G1 X-9.992 Y6.9055
G1 X-10.992 Y8.1315
G1 X-10.992 Y12.9122
G1 X-11.993 Y12.9125
G1 X-11.993 Y9.1318
G1 X-12.993 Y9.8475
G1 X-12.993 Y12.9120
G1 X-13.993 Y12.9123
G1 X-13.993 Y10.5057
G1 X-14.993 Y10.9716
G1 X-14.993 Y12.9125
G1 X-15.993 Y12.1351
G1 X-15.993 Y11.3939
ID=1 WHEN $AC_TIMER[1]>=0 DO M51
G1 X16.789 Y12.295 F3000
ID=1 WHEN $AC_TIMER[1]>=0 DO M50
G1 X18.552 Y12.5134 F600
G1 X19.408 Y12.5566
G1 X20.798 Y12.7000
ID=1 WHEN $AC_TIMER[1]>=0 DO M51
G1 X21.599 Y12.671 F3000
ID=1 WHEN $AC_TIMER[1]>=0 DO M50
G1 X21.599 Y13.4816 F600
G1 X22.600 Y13.7426
G1 X22.600 Y11.7850
G1 X23.601 Y11.5055
G1 X23.601 Y14.0440
G1 X24.603 Y14.3696
G1 X24.603 Y11.1626
G1 X25.604 Y12.6753
G1 X25.604 Y10.7137
G1 X26.605 Y11.4727
G1 X26.605 Y10.1236
G1 X27.607 Y10.7814
G1 X27.607 Y9.4433
G1 X28.608 Y8.5608
G1 X28.608 Y10.3885
G1 X29.609 Y10.2072
G1 X29.609 Y7.4443
G1 X30.611 Y5.9859
G1 X30.611 Y10.2274
G1 X31.612 Y10.4452
G1 X31.612 Y3.8544
G1 X32.614 Y3.7892
G1 X32.614 Y9.3692
ID=1 WHEN $AC_TIMER[1]>=0 DO M51
G1 X32.284 Y3.226 F3000
ID=1 WHEN $AC_TIMER[1]>=0 DO M50
G1 X32.465 Y1.3735 F600
G1 X32.494 Y-0.6441
G1 X32.416 Y-1.8243
G1 X32.376 Y-2.8480
ID=1 WHEN $AC_TIMER[1]>=0 DO M51
G1 X32.096 Y-3.372 F3000
ID=1 WHEN $AC_TIMER[1]>=0 DO M50
G1 X32.096 Y-11.0976 F600
G1 X31.050 Y-12.0374
G1 X31.050 Y-5.1863
ID=1 WHEN $AC_TIMER[1]>=0 DO M51
G1 X30.003 Y-6.917 F3000
ID=1 WHEN $AC_TIMER[1]>=0 DO M50
G1 X30.003 Y-14.2179 F600
G1 X28.957 Y-14.1508
G1 X28.957 Y-8.1862
G1 X27.911 Y-9.1950
G1 X27.911 Y-13.8342
G1 X26.864 Y-13.5263
G1 X26.864 Y-9.9800
G1 X25.818 Y-10.5830
G1 X25.818 Y-13.3415
G1 X24.772 Y-13.1550
G1 X24.772 Y-11.0920
G1 X23.726 Y-11.4772
G1 X23.726 Y-12.3732
ID=1 WHEN $AC_TIMER[1]>=0 DO M51
G1 X34.188 Y-9.576 F3000
ID=1 WHEN $AC_TIMER[1]>=0 DO M50
G1 X34.188 Y-10.2428 F600
G1 X33.142 Y-10.5297
G1 X33.142 Y-6.0738
ID=1 WHEN $AC_TIMER[1]>=0 DO M51
G1 X22.919 Y-12.350 F3000
ID=1 WHEN $AC_TIMER[1]>=0 DO M50
G1 X21.582 Y-12.4518 F600
G1 X19.943 Y-12.5016
G1 X17.975 Y-12.4192
G1 X16.718 Y-12.2721
ID=1 WHEN $AC_TIMER[1]>=0 DO M51
G1 X-16.758 Y-12.270 F3000
ID=1 WHEN $AC_TIMER[1]>=0 DO M50
G1 X-17.860 Y-12.4101 F600
G1 X-19.960 Y-12.5025
G1 X-22.141 Y-12.4207
G1 X-22.842 Y-12.3539
ID=1 WHEN $AC_TIMER[1]>=0 DO M51
G1 X-23.635 Y-11.491 F3000
ID=1 WHEN $AC_TIMER[1]>=0 DO M50
G1 X-23.635 Y-12.3041 F600
G1 X-24.690 Y-13.1403
G1 X-24.690 Y-11.1177
G1 X-25.746 Y-10.6250
G1 X-25.746 Y-13.3286
G1 X-26.801 Y-13.5158
G1 X-26.801 Y-9.9897
G1 X-27.856 Y-9.2505
G1 X-27.856 Y-13.8180
G1 X-28.912 Y-14.1368
G1 X-28.912 Y-8.2256
G1 X-29.967 Y-6.9617
G1 X-29.967 Y-14.3524
ID=1 WHEN $AC_TIMER[1]>=0 DO M51
G1 X-31.022 Y-12.076 F3000
ID=1 WHEN $AC_TIMER[1]>=0 DO M50
G1 X-31.022 Y-5.2352 F600
G1 X-32.078 Y-3.3435
G1 X-32.078 Y-11.1102
G1 X-33.133 Y-10.5348
G1 X-33.133 Y-6.0228
ID=1 WHEN $AC_TIMER[1]>=0 DO M51
G1 X-34.188 Y-9.576 F3000
ID=1 WHEN $AC_TIMER[1]>=0 DO M50
G1 X-34.188 Y-10.2421 F600
ID=1 WHEN $AC_TIMER[1]>=0 DO M51
G1 X-32.354 Y-2.841 F3000
ID=1 WHEN $AC_TIMER[1]>=0 DO M50
G1 X-32.421 Y-2.1402 F600
G1 X-32.503 Y0.0413
G1 X-32.411 Y2.1417
G1 X-32.270 Y3.2439
ID=1 WHEN $AC_TIMER[1]>=0 DO M51
G1 X-32.614 Y9.369 F3000
ID=1 WHEN $AC_TIMER[1]>=0 DO M50
G1 X-32.614 Y3.8213 F600
G1 X-31.613 Y3.9705
G1 X-31.613 Y10.4445
G1 X-30.613 Y10.2275
G1 X-30.613 Y6.0406
G1 X-29.613 Y7.4681
G1 X-29.613 Y10.2078
G1 X-28.613 Y10.3843
G1 X-28.613 Y8.5255
G1 X-27.613 Y9.4232
G1 X-27.613 Y10.7780
G1 X-26.613 Y11.4653
G1 X-26.613 Y10.1236
G1 X-25.613 Y10.6895
G1 X-25.613 Y12.6626
G1 X-24.613 Y14.3734
G1 X-24.613 Y11.1558
G1 X-23.613 Y11.4989
G1 X-23.613 Y14.0482
G1 X-22.612 Y13.7462
G1 X-22.612 Y11.7667
G1 X-21.612 Y12.4150
G1 X-21.612 Y13.4848
ID=1 WHEN $AC_TIMER[1]>=0 DO M51
G1 X-20.790 Y12.671 F3000
ID=1 WHEN $AC_TIMER[1]>=0 DO M50
G1 X-20.052 Y12.6391 F600
G1 X-19.342 Y12.5512
G1 X-17.858 Y12.4430
G1 X-16.758 Y12.2706
ID=1 WHEN $AC_TIMER[1]>=0 DO M51
ID=1 WHEN $AC_TIMER[1]>=0 DO M51
G1 Z3.000 F3000

ID=1 WHEN $AC_TIMER[1]>=0 DO M50
G1 X-30.656 Y-0.045 F3000
ID=1 WHEN $AC_TIMER[1]>=0 DO M50
G1 X-30.504 Y-1.8089 F600
G1 X-30.053 Y-3.5123
G1 X-29.973 Y-3.7567
G1 X-29.225 Y-5.3480
G1 X-28.220 Y-6.7924
G1 X-26.847 Y-8.1802
G1 X-25.309 Y-9.2644
G1 X-23.644 Y-10.0435
G1 X-21.770 Y-10.5372
G1 X-19.961 Y-10.6988
G1 X-18.127 Y-10.5392
G1 X-16.278 Y-10.0392
G1 X-14.561 Y-9.2316
G1 X-13.121 Y-8.2267
G1 X-11.871 Y-6.9841
G1 X-11.738 Y-6.8348
G1 X-10.695 Y-5.3485
G1 X-9.923 Y-3.7018
G1 X-9.417 Y-1.8115
G1 X-9.261 Y0.0018
G1 X-9.416 Y1.8108
G1 X-9.924 Y3.7061
G1 X-10.695 Y5.3502
G1 X-11.506 Y6.5179
G1 X-11.826 Y6.9411
G1 X-13.167 Y8.2612
G1 X-14.611 Y9.2666
G1 X-15.897 Y9.8703
G1 X-16.386 Y10.0785
G1 X-18.150 Y10.5445
G1 X-19.953 Y10.7005
G1 X-21.769 Y10.5454
G1 X-23.717 Y10.0149
G1 X-25.309 Y9.2663
G1 X-26.753 Y8.2616
G1 X-28.141 Y6.8884
G1 X-29.225 Y5.3506
G1 X-30.004 Y3.6857
G1 X-30.504 Y1.8112
G1 X-30.656 Y-0.0458
ID=1 WHEN $AC_TIMER[1]>=0 DO M51
G1 X9.283 Y-0.384 F3000
ID=1 WHEN $AC_TIMER[1]>=0 DO M50
G1 X9.425 Y-1.8071 F600
G1 X9.464 Y-2.0106
G1 X9.928 Y-3.7030
G1 X10.029 Y-3.9490
G1 X10.700 Y-5.3468
G1 X10.821 Y-5.5429
G1 X11.763 Y-6.8655
G1 X12.821 Y-7.9464
G1 X13.124 Y-8.2202
G1 X13.708 Y-8.6561
G1 X14.619 Y-9.2509
G1 X15.275 Y-9.5948
G1 X16.388 Y-10.0721
G1 X16.749 Y-10.1885
G1 X18.149 Y-10.5418
G1 X19.959 Y-10.6985
G1 X21.312 Y-10.5950
G1 X21.792 Y-10.5301
G1 X22.806 Y-10.2931
G1 X23.639 Y-10.0324
G1 X24.336 Y-9.7418
G1 X25.304 Y-9.2552
G1 X25.747 Y-8.9772
G1 X26.795 Y-8.2227
G1 X26.973 Y-8.0630
G1 X28.209 Y-6.8070
G1 X29.155 Y-5.4568
G1 X29.847 Y-4.0508
G1 X30.031 Y-3.5695
G1 X30.361 Y-2.4331
G1 X30.472 Y-1.9146
G1 X30.613 Y-0.7303
G1 X30.640 Y0.0016
G1 X30.579 Y1.1307
G1 X30.489 Y1.8075
G1 X30.222 Y2.9453
G1 X29.979 Y3.7008
G1 X29.573 Y4.6474
G1 X29.210 Y5.3416
G1 X28.599 Y6.2789
G1 X28.176 Y6.8316
G1 X27.549 Y7.5081
G1 X26.791 Y8.2181
G1 X26.420 Y8.5099
G1 X25.306 Y9.2617
G1 X25.040 Y9.4040
G1 X23.681 Y10.0233
G1 X23.533 Y10.0800
G1 X22.163 Y10.4584
G1 X21.877 Y10.5184
G1 X20.599 Y10.6609
G1 X19.960 Y10.6839
G1 X18.796 Y10.6175
G1 X18.153 Y10.5339
G1 X17.193 Y10.3118
G1 X16.259 Y10.0266
G1 X15.819 Y9.8488
G1 X14.615 Y9.2590
G1 X14.324 Y9.0803
G1 X13.339 Y8.3911
G1 X13.125 Y8.2239
G1 X12.163 Y7.2958
G1 X11.743 Y6.8317
G1 X11.094 Y5.9535
G1 X10.706 Y5.3449
G1 X10.237 Y4.4183
G1 X9.937 Y3.6984
G1 X9.644 Y2.7658
G1 X9.432 Y1.8113
G1 X9.335 Y1.0752
G1 X9.269 Y0.0010
G1 X9.283 Y-0.3844
ID=1 WHEN $AC_TIMER[1]>=0 DO M51
ID=1 WHEN $AC_TIMER[1]>=0 DO M51
G1 Z3.500 F3000

ID=1 WHEN $AC_TIMER[1]>=0 DO M50
G1 X9.197 Y-0.299 F3000
ID=1 WHEN $AC_TIMER[1]>=0 DO M50
G1 X9.330 Y-1.7334 F600
G1 X9.398 Y-2.1069
G1 X9.793 Y-3.5091
G1 X9.964 Y-3.9908
G1 X10.619 Y-5.3474
G1 X10.718 Y-5.5087
G1 X11.405 Y-6.4969
G1 X11.883 Y-7.0929
G1 X12.651 Y-7.8571
G1 X13.116 Y-8.2811
G1 X13.634 Y-8.6638
G1 X14.536 Y-9.2560
G1 X15.264 Y-9.6288
G1 X15.790 Y-9.8633
G1 X16.700 Y-10.2027
G1 X18.149 Y-10.5543
G1 X19.878 Y-10.6980
G1 X21.232 Y-10.5970
G1 X21.616 Y-10.5472
G1 X22.699 Y-10.3054
G1 X23.652 Y-9.9981
G1 X24.202 Y-9.7673
G1 X25.225 Y-9.2570
G1 X25.881 Y-8.8315
G1 X26.658 Y-8.2719
G1 X27.102 Y-7.8767
G1 X27.895 Y-7.0640
G1 X28.188 Y-6.7347
G1 X29.097 Y-5.4238
G1 X29.768 Y-4.0596
G1 X30.006 Y-3.4082
G1 X30.265 Y-2.5136
G1 X30.371 Y-2.0596
G1 X30.427 Y-1.7323
G1 X30.521 Y-0.8761
G1 X30.567 Y0.0019
G1 X30.497 Y1.1829
G1 X30.424 Y1.7346
G1 X30.159 Y2.9183
G1 X29.878 Y3.7729
G1 X29.573 Y4.4834
G1 X29.135 Y5.3446
G1 X28.482 Y6.3357
G1 X28.146 Y6.7753
G1 X27.522 Y7.4682
G1 X26.655 Y8.2689
G1 X26.280 Y8.5569
G1 X25.227 Y9.2622
G1 X23.658 Y10.0095
G1 X22.649 Y10.3114
G1 X21.992 Y10.4788
G1 X21.613 Y10.5438
G1 X20.697 Y10.6463
G1 X19.880 Y10.6914
G1 X18.571 Y10.6055
G1 X18.150 Y10.5481
G1 X17.705 Y10.4595
G1 X17.102 Y10.3178
G1 X16.472 Y10.1251
G1 X15.759 Y9.8603
G1 X14.534 Y9.2618
G1 X14.299 Y9.1166
G1 X13.103 Y8.2728
G1 X12.139 Y7.3651
G1 X11.866 Y7.0657
G1 X11.437 Y6.5374
G1 X10.819 Y5.6593
G1 X10.624 Y5.3459
G1 X10.298 Y4.7098
G1 X10.094 Y4.2836
G1 X9.883 Y3.7727
G1 X9.588 Y2.8487
G1 X9.334 Y1.7154
G1 X9.258 Y1.1376
G1 X9.188 Y0.0076
G1 X9.197 Y-0.2995
ID=1 WHEN $AC_TIMER[1]>=0 DO M51
G1 X-30.576 Y-0.045 F3000
ID=1 WHEN $AC_TIMER[1]>=0 DO M50
G1 X-30.436 Y-1.7341 F600
G1 X-30.346 Y-2.1724
G1 X-30.030 Y-3.3506
G1 X-29.860 Y-3.8406
G1 X-29.146 Y-5.3489
G1 X-28.196 Y-6.7223
G1 X-27.889 Y-7.0812
G1 X-26.995 Y-7.9765
G1 X-26.603 Y-8.3155
G1 X-25.230 Y-9.2658
G1 X-23.656 Y-10.0080
G1 X-23.231 Y-10.1493
G1 X-22.053 Y-10.4655
G1 X-21.615 Y-10.5558
G1 X-19.882 Y-10.6987
G1 X-18.143 Y-10.5549
G1 X-16.469 Y-10.1320
G1 X-15.763 Y-9.8491
G1 X-14.531 Y-9.2650
G1 X-13.157 Y-8.3153
G1 X-12.817 Y-8.0133
G1 X-11.911 Y-7.1224
G1 X-11.390 Y-6.4718
G1 X-10.615 Y-5.3487
G1 X-9.871 Y-3.7759
G1 X-9.578 Y-2.7839
G1 X-9.322 Y-1.7111
G1 X-9.181 Y0.0012
G1 X-9.324 Y1.7364
G1 X-9.578 Y2.7613
G1 X-9.878 Y3.7934
G1 X-10.615 Y5.3518
G1 X-11.406 Y6.4983
G1 X-11.904 Y7.1150
G1 X-12.773 Y7.9713
G1 X-13.157 Y8.3178
G1 X-14.531 Y9.2674
G1 X-15.790 Y9.8649
G1 X-16.506 Y10.1459
G1 X-18.168 Y10.5609
G1 X-19.880 Y10.7000
G1 X-21.615 Y10.5572
G1 X-22.053 Y10.4675
G1 X-23.231 Y10.1518
G1 X-23.717 Y9.9831
G1 X-25.230 Y9.2661
G1 X-26.603 Y8.3174
G1 X-26.962 Y8.0103
G1 X-27.857 Y7.1167
G1 X-28.196 Y6.7246
G1 X-29.146 Y5.3509
G1 X-29.889 Y3.7771
G1 X-30.030 Y3.3524
G1 X-30.346 Y2.1747
G1 X-30.436 Y1.7342
G1 X-30.576 Y-0.0459
ID=1 WHEN $AC_TIMER[1]>=0 DO M51
ID=1 WHEN $AC_TIMER[1]>=0 DO M51
G1 Z4.000 F3000

ID=1 WHEN $AC_TIMER[1]>=0 DO M50
G1 X-30.496 Y-0.053 F3000
ID=1 WHEN $AC_TIMER[1]>=0 DO M50
G1 X-30.371 Y-1.6371 F600
G1 X-30.229 Y-2.3430
G1 X-29.993 Y-3.2207
G1 X-29.774 Y-3.8660
G1 X-29.036 Y-5.3943
G1 X-28.138 Y-6.7002
G1 X-27.686 Y-7.2169
G1 X-27.044 Y-7.8585
G1 X-26.504 Y-8.3354
G1 X-25.150 Y-9.2658
G1 X-23.668 Y-9.9722
G1 X-22.985 Y-10.2021
G1 X-22.107 Y-10.4377
G1 X-21.438 Y-10.5701
G1 X-19.804 Y-10.6982
G1 X-18.160 Y-10.5696
G1 X-17.496 Y-10.4250
G1 X-16.580 Y-10.1920
G1 X-15.754 Y-9.8885
G1 X-14.413 Y-9.2409
G1 X-13.097 Y-8.3352
G1 X-12.249 Y-7.5513
G1 X-11.915 Y-7.2164
G1 X-11.474 Y-6.6953
G1 X-10.535 Y-5.3493
G1 X-9.827 Y-3.8667
G1 X-9.497 Y-2.7844
G1 X-9.227 Y-1.6145
G1 X-9.101 Y0.0018
G1 X-9.230 Y1.6392
G1 X-9.479 Y2.7432
G1 X-9.836 Y3.8893
G1 X-10.535 Y5.3510
G1 X-11.323 Y6.5025
G1 X-11.941 Y7.2454
G1 X-13.118 Y8.3539
G1 X-13.320 Y8.4957
G1 X-14.447 Y9.2652
G1 X-15.709 Y9.8708
G1 X-16.616 Y10.2047
G1 X-18.186 Y10.5748
G1 X-19.800 Y10.7001
G1 X-21.438 Y10.5725
G1 X-22.107 Y10.4399
G1 X-22.985 Y10.2045
G1 X-23.668 Y9.9744
G1 X-25.150 Y9.2668
G1 X-25.730 Y8.8748
G1 X-26.504 Y8.3373
G1 X-27.017 Y7.8876
G1 X-27.660 Y7.2452
G1 X-28.136 Y6.7041
G1 X-29.066 Y5.3505
G1 X-29.774 Y3.8689
G1 X-30.003 Y3.1858
G1 X-30.238 Y2.3085
G1 X-30.371 Y1.6398
G1 X-30.496 Y-0.0531
ID=1 WHEN $AC_TIMER[1]>=0 DO M51
G1 X9.113 Y-0.224 F3000
ID=1 WHEN $AC_TIMER[1]>=0 DO M50
G1 X9.234 Y-1.6360 F600
G1 X9.362 Y-2.3062
G1 X9.477 Y-2.7423
G1 X9.862 Y-3.9493
G1 X10.537 Y-5.3488
G1 X10.616 Y-5.4743
G1 X11.432 Y-6.6429
G1 X11.942 Y-7.2431
G1 X12.231 Y-7.5364
G1 X13.119 Y-8.3497
G1 X13.871 Y-8.8847
G1 X14.554 Y-9.3126
G1 X15.709 Y-9.8690
G1 X16.616 Y-10.2039
G1 X17.532 Y-10.4424
G1 X18.186 Y-10.5736
G1 X19.797 Y-10.6986
G1 X21.152 Y-10.6013
G1 X21.440 Y-10.5640
G1 X22.592 Y-10.3160
G1 X23.667 Y-9.9635
G1 X24.070 Y-9.7964
G1 X24.530 Y-9.5767
G1 X25.143 Y-9.2625
G1 X25.341 Y-9.1407
G1 X26.502 Y-8.3338
G1 X27.117 Y-7.7917
G1 X27.683 Y-7.2131
G1 X28.136 Y-6.7034
G1 X28.983 Y-5.4760
G1 X29.064 Y-5.3478
G1 X29.714 Y-4.0040
G1 X29.988 Y-3.2180
G1 X30.169 Y-2.5947
G1 X30.322 Y-1.8828
G1 X30.435 Y-0.9767
G1 X30.490 Y0.0010
G1 X30.415 Y1.2307
G1 X30.363 Y1.6370
G1 X30.092 Y2.8886
G1 X29.766 Y3.8657
G1 X29.542 Y4.3845
G1 X29.232 Y5.0203
G1 X29.058 Y5.3462
G1 X28.796 Y5.7581
G1 X28.408 Y6.3337
G1 X28.131 Y6.6966
G1 X27.366 Y7.5519
G1 X27.013 Y7.8829
G1 X26.300 Y8.4876
G1 X25.148 Y9.2639
G1 X23.668 Y9.9741
G1 X22.609 Y10.3073
G1 X22.107 Y10.4363
G1 X21.188 Y10.5946
G1 X19.800 Y10.6939
G1 X18.453 Y10.6047
G1 X18.165 Y10.5650
G1 X17.448 Y10.4235
G1 X17.012 Y10.3192
G1 X16.581 Y10.1882
G1 X15.699 Y9.8723
G1 X14.453 Y9.2621
G1 X14.274 Y9.1526
G1 X13.098 Y8.3354
G1 X12.118 Y7.4323
G1 X11.473 Y6.6945
G1 X11.095 Y6.1930
G1 X10.705 Y5.6140
G1 X10.543 Y5.3513
G1 X10.302 Y4.8818
G1 X10.016 Y4.2928
G1 X9.835 Y3.8656
G1 X9.481 Y2.7897
G1 X9.236 Y1.6146
G1 X9.183 Y1.1982
G1 X9.107 Y0.0015
G1 X9.113 Y-0.2247
ID=1 WHEN $AC_TIMER[1]>=0 DO M51
ID=1 WHEN $AC_TIMER[1]>=0 DO M51
G1 Z4.500 F3000

ID=1 WHEN $AC_TIMER[1]>=0 DO M50
G1 X-30.420 Y0.001 F3000
ID=1 WHEN $AC_TIMER[1]>=0 DO M50
G1 X-30.301 Y-1.5700 F600
G1 X-30.115 Y-2.5017
G1 X-30.032 Y-2.8105
G1 X-29.657 Y-3.9610
G1 X-28.986 Y-5.3491
G1 X-28.121 Y-6.6221
G1 X-27.462 Y-7.3729
G1 X-27.084 Y-7.7502
G1 X-26.344 Y-8.3910
G1 X-25.112 Y-9.2372
G1 X-23.679 Y-9.9370
G1 X-22.738 Y-10.2554
G1 X-22.222 Y-10.3946
G1 X-21.291 Y-10.5793
G1 X-19.725 Y-10.6988
G1 X-18.178 Y-10.5843
G1 X-16.690 Y-10.2521
G1 X-15.764 Y-9.9319
G1 X-14.333 Y-9.2403
G1 X-13.097 Y-8.3995
G1 X-12.163 Y-7.5560
G1 X-11.969 Y-7.3633
G1 X-11.328 Y-6.6221
G1 X-10.482 Y-5.3913
G1 X-9.783 Y-3.9581
G1 X-9.483 Y-3.0415
G1 X-9.348 Y-2.5388
G1 X-9.134 Y-1.5316
G1 X-9.021 Y0.0015
G1 X-9.135 Y1.5423
G1 X-9.391 Y2.7222
G1 X-9.786 Y3.9677
G1 X-10.455 Y5.3510
G1 X-11.238 Y6.5077
G1 X-11.987 Y7.3815
G1 X-13.104 Y8.4062
G1 X-13.547 Y8.7139
G1 X-14.369 Y9.2661
G1 X-15.628 Y9.8768
G1 X-16.713 Y10.2595
G1 X-18.150 Y10.5806
G1 X-19.721 Y10.7005
G1 X-21.291 Y10.5815
G1 X-22.222 Y10.3952
G1 X-22.738 Y10.2575
G1 X-23.679 Y9.9399
G1 X-25.070 Y9.2676
G1 X-26.348 Y8.3984
G1 X-27.094 Y7.7437
G1 X-27.472 Y7.3650
G1 X-28.116 Y6.6213
G1 X-28.433 Y6.1746
G1 X-28.985 Y5.3535
G1 X-29.658 Y3.9602
G1 X-29.977 Y3.0195
G1 X-30.115 Y2.5038
G1 X-30.301 Y1.5715
G1 X-30.420 Y0.0015
ID=1 WHEN $AC_TIMER[1]>=0 DO M51
G1 X9.029 Y-0.159 F3000
ID=1 WHEN $AC_TIMER[1]>=0 DO M50
G1 X9.138 Y-1.5390 F600
G1 X9.325 Y-2.5019
G1 X9.797 Y-3.9907
G1 X10.513 Y-5.4401
G1 X11.293 Y-6.5767
G1 X12.146 Y-7.5414
G1 X13.119 Y-8.4099
G1 X13.545 Y-8.7151
G1 X14.407 Y-9.2809
G1 X15.628 Y-9.8755
G1 X16.726 Y-10.2636
G1 X17.269 Y-10.4031
G1 X18.180 Y-10.5858
G1 X19.716 Y-10.6987
G1 X21.263 Y-10.5820
G1 X22.486 Y-10.3281
G1 X23.677 Y-9.9327
G1 X23.944 Y-9.8182
G1 X25.068 Y-9.2606
G1 X25.232 Y-9.1605
G1 X26.343 Y-8.3984
G1 X27.157 Y-7.6807
G1 X28.118 Y-6.6260
G1 X28.930 Y-5.4374
G1 X29.632 Y-4.0176
G1 X30.069 Y-2.6866
G1 X30.274 Y-1.7050
G1 X30.345 Y-1.1264
G1 X30.413 Y0.0014
G1 X30.333 Y1.2782
G1 X30.301 Y1.5419
G1 X30.048 Y2.7701
G1 X29.650 Y3.9566
G1 X29.511 Y4.2849
G1 X29.109 Y5.1088
G1 X28.802 Y5.6293
G1 X28.116 Y6.6218
G1 X27.273 Y7.5703
G1 X26.240 Y8.4775
G1 X25.069 Y9.2657
G1 X23.679 Y9.9393
G1 X22.330 Y10.3694
G1 X21.260 Y10.5813
G1 X20.812 Y10.6282
G1 X19.721 Y10.6968
G1 X18.336 Y10.6035
G1 X17.191 Y10.3872
G1 X16.691 Y10.2515
G1 X15.639 Y9.8845
G1 X14.372 Y9.2648
G1 X13.245 Y8.5073
G1 X12.362 Y7.7478
G1 X12.030 Y7.4300
G1 X11.328 Y6.6184
G1 X11.138 Y6.3727
G1 X10.567 Y5.5244
G1 X10.306 Y5.0543
G1 X9.788 Y3.9577
G1 X9.414 Y2.8280
G1 X9.139 Y1.5330
G1 X9.106 Y1.2601
G1 X9.025 Y0.0018
G1 X9.029 Y-0.1593
ID=1 WHEN $AC_TIMER[1]>=0 DO M51
ID=1 WHEN $AC_TIMER[1]>=0 DO M51
G1 Z5.000 F3000

ID=1 WHEN $AC_TIMER[1]>=0 DO M50
G1 X-30.340 Y0.001 F3000
ID=1 WHEN $AC_TIMER[1]>=0 DO M50
G1 X-30.233 Y-1.4898 F600
G1 X-29.955 Y-2.8113
G1 X-29.542 Y-4.0516
G1 X-28.880 Y-5.3891
G1 X-28.128 Y-6.5096
G1 X-27.231 Y-7.5277
G1 X-26.190 Y-8.4561
G1 X-25.030 Y-9.2391
G1 X-23.693 Y-9.9003
G1 X-22.317 Y-10.3547
G1 X-21.125 Y-10.5925
G1 X-19.647 Y-10.6986
G1 X-18.151 Y-10.5912
G1 X-16.829 Y-10.3146
G1 X-15.587 Y-9.8981
G1 X-14.253 Y-9.2409
G1 X-13.131 Y-8.4878
G1 X-12.048 Y-7.5284
G1 X-11.183 Y-6.5485
G1 X-10.401 Y-5.3885
G1 X-9.739 Y-4.0506
G1 X-9.312 Y-2.7675
G1 X-9.048 Y-1.4837
G1 X-8.941 Y0.0015
G1 X-9.049 Y1.4913
G1 X-9.312 Y2.7694
G1 X-9.739 Y4.0524
G1 X-10.401 Y5.3918
G1 X-11.155 Y6.5134
G1 X-12.012 Y7.4989
G1 X-13.098 Y8.4640
G1 X-13.218 Y8.5499
G1 X-14.290 Y9.2660
G1 X-15.548 Y9.8846
G1 X-16.782 Y10.3081
G1 X-18.151 Y10.5937
G1 X-19.641 Y10.7006
G1 X-21.130 Y10.5934
G1 X-22.452 Y10.3158
G1 X-23.693 Y9.9022
G1 X-25.029 Y9.2423
G1 X-26.191 Y8.4595
G1 X-27.133 Y7.6278
G1 X-28.072 Y6.5833
G1 X-28.188 Y6.4245
G1 X-28.906 Y5.3515
G1 X-29.542 Y4.0534
G1 X-29.996 Y2.6788
G1 X-30.234 Y1.4856
G1 X-30.340 Y0.0014
ID=1 WHEN $AC_TIMER[1]>=0 DO M51
G1 X8.945 Y-0.083 F3000
ID=1 WHEN $AC_TIMER[1]>=0 DO M50
G1 X9.041 Y-1.4434 F600
G1 X9.283 Y-2.6667
G1 X9.739 Y-4.0523
G1 X10.410 Y-5.4035
G1 X11.156 Y-6.5081
G1 X12.090 Y-7.5734
G1 X13.217 Y-8.5491
G1 X14.291 Y-9.2632
G1 X15.524 Y-9.8703
G1 X16.784 Y-10.3008
G1 X18.166 Y-10.5949
G1 X19.634 Y-10.6985
G1 X21.085 Y-10.5999
G1 X22.378 Y-10.3373
G1 X23.693 Y-9.8992
G1 X25.073 Y-9.2110
G1 X26.150 Y-8.4868
G1 X27.186 Y-7.5741
G1 X28.095 Y-6.5472
G1 X28.871 Y-5.4035
G1 X29.543 Y-4.0492
G1 X29.969 Y-2.7691
G1 X30.238 Y-1.4408
G1 X30.338 Y0.0017
G1 X30.240 Y1.4428
G1 X29.955 Y2.8310
G1 X29.517 Y4.1056
G1 X28.904 Y5.3497
G1 X28.176 Y6.4449
G1 X27.178 Y7.5873
G1 X26.191 Y8.4591
G1 X25.127 Y9.1762
G1 X24.924 Y9.3014
G1 X23.692 Y9.9023
G1 X22.409 Y10.3313
G1 X21.083 Y10.6002
G1 X19.641 Y10.6993
G1 X18.198 Y10.6013
G1 X16.872 Y10.3344
G1 X15.579 Y9.8979
G1 X14.225 Y9.2251
G1 X13.090 Y8.4595
G1 X12.081 Y7.5648
G1 X11.140 Y6.4926
G1 X10.429 Y5.4347
G1 X9.740 Y4.0500
G1 X9.323 Y2.8196
G1 X9.041 Y1.4428
G1 X8.945 Y-0.0834
ID=1 WHEN $AC_TIMER[1]>=0 DO M51
ID=1 WHEN $AC_TIMER[1]>=0 DO M51
G1 Z5.500 F3000

ID=1 WHEN $AC_TIMER[1]>=0 DO M50
G1 X-30.252 Y-0.045 F3000
ID=1 WHEN $AC_TIMER[1]>=0 DO M50
G1 X-30.163 Y-1.3966 F600
G1 X-29.900 Y-2.7242
G1 X-29.440 Y-4.0939
G1 X-28.796 Y-5.3876
G1 X-28.044 Y-6.5122
G1 X-27.121 Y-7.5659
G1 X-26.031 Y-8.5136
G1 X-24.905 Y-9.2652
G1 X-23.650 Y-9.8849
G1 X-22.280 Y-10.3436
G1 X-20.952 Y-10.6072
G1 X-19.555 Y-10.6989
G1 X-18.114 Y-10.5996
G1 X-16.786 Y-10.3342
G1 X-15.461 Y-9.8849
G1 X-14.167 Y-9.2406
G1 X-13.042 Y-8.4872
G1 X-11.990 Y-7.5659
G1 X-11.041 Y-6.4756
G1 X-10.290 Y-5.3492
G1 X-9.671 Y-4.0939
G1 X-9.211 Y-2.7246
G1 X-8.948 Y-1.3962
G1 X-8.856 Y0.0010
G1 X-8.948 Y1.3977
G1 X-9.211 Y2.7253
G1 X-9.671 Y4.0950
G1 X-10.290 Y5.3517
G1 X-11.041 Y6.4773
G1 X-11.990 Y7.5660
G1 X-13.042 Y8.4897
G1 X-14.167 Y9.2423
G1 X-15.461 Y9.8860
G1 X-16.786 Y10.3367
G1 X-18.114 Y10.6003
G1 X-19.555 Y10.7000
G1 X-20.952 Y10.6098
G1 X-22.280 Y10.3453
G1 X-23.650 Y9.8860
G1 X-24.905 Y9.2678
G1 X-26.031 Y8.5154
G1 X-27.121 Y7.5660
G1 X-28.044 Y6.5148
G1 X-28.796 Y5.3894
G1 X-29.440 Y4.0950
G1 X-29.890 Y2.7708
G1 X-30.155 Y1.4424
G1 X-30.252 Y-0.0459
ID=1 WHEN $AC_TIMER[1]>=0 DO M51
G1 X8.856 Y0.001 F3000
ID=1 WHEN $AC_TIMER[1]>=0 DO M50
G1 X8.956 Y-1.4416 F600
G1 X9.221 Y-2.7683
G1 X9.671 Y-4.0930
G1 X10.290 Y-5.3498
G1 X11.041 Y-6.4754
G1 X11.990 Y-7.5650
G1 X13.042 Y-8.4878
G1 X14.167 Y-9.2404
G1 X15.461 Y-9.8840
G1 X16.786 Y-10.3348
G1 X18.114 Y-10.5994
G1 X19.555 Y-10.6981
G1 X20.952 Y-10.6078
G1 X22.280 Y-10.3434
G1 X23.650 Y-9.8841
G1 X24.905 Y-9.2658
G1 X26.031 Y-8.5134
G1 X27.121 Y-7.5651
G1 X28.044 Y-6.5128
G1 X28.796 Y-5.3874
G1 X29.440 Y-4.0931
G1 X29.900 Y-2.7247
G1 X30.163 Y-1.3963
G1 X30.255 Y0.0011
G1 X30.155 Y1.4427
G1 X29.890 Y2.7703
G1 X29.440 Y4.0951
G1 X28.796 Y5.3897
G1 X28.044 Y6.5144
G1 X27.121 Y7.5661
G1 X26.069 Y8.4898
G1 X24.943 Y9.2425
G1 X23.648 Y9.8818
G1 X22.280 Y10.3453
G1 X20.952 Y10.6099
G1 X19.555 Y10.7006
G1 X18.114 Y10.6003
G1 X16.786 Y10.3369
G1 X15.461 Y9.8866
G1 X14.167 Y9.2423
G1 X13.042 Y8.4899
G1 X11.990 Y7.5666
G1 X11.041 Y6.4773
G1 X10.290 Y5.3519
G1 X9.671 Y4.0956
G1 X9.221 Y2.7704
G1 X8.956 Y1.4420
G1 X8.856 Y0.0017
ID=1 WHEN $AC_TIMER[1]>=0 DO M51
ID=1 WHEN $AC_TIMER[1]>=0 DO M51
G1 Z6.000 F3000

ID=1 WHEN $AC_TIMER[1]>=0 DO M50
G1 X-30.162 Y-0.045 F3000
ID=1 WHEN $AC_TIMER[1]>=0 DO M50
G1 X-30.073 Y-1.3966 F600
G1 X-29.809 Y-2.7242
G1 X-29.350 Y-4.0939
G1 X-28.706 Y-5.3876
G1 X-27.953 Y-6.5122
G1 X-27.031 Y-7.5659
G1 X-25.941 Y-8.5136
G1 X-24.815 Y-9.2652
G1 X-23.560 Y-9.8849
G1 X-22.189 Y-10.3436
G1 X-20.862 Y-10.6072
G1 X-19.465 Y-10.6989
G1 X-18.024 Y-10.5996
G1 X-16.696 Y-10.3342
G1 X-15.371 Y-9.8849
G1 X-14.077 Y-9.2406
G1 X-12.952 Y-8.4872
G1 X-11.900 Y-7.5659
G1 X-10.951 Y-6.4756
G1 X-10.199 Y-5.3492
G1 X-9.580 Y-4.0939
G1 X-9.121 Y-2.7246
G1 X-8.857 Y-1.3962
G1 X-8.766 Y0.0010
G1 X-8.857 Y1.3977
G1 X-9.121 Y2.7253
G1 X-9.580 Y4.0950
G1 X-10.199 Y5.3517
G1 X-10.951 Y6.4773
G1 X-11.900 Y7.5660
G1 X-12.952 Y8.4897
G1 X-14.077 Y9.2423
G1 X-15.371 Y9.8860
G1 X-16.696 Y10.3368
G1 X-18.024 Y10.6003
G1 X-19.465 Y10.7000
G1 X-20.862 Y10.6098
G1 X-22.189 Y10.3453
G1 X-23.560 Y9.8860
G1 X-24.815 Y9.2678
G1 X-25.941 Y8.5154
G1 X-27.031 Y7.5660
G1 X-27.953 Y6.5148
G1 X-28.706 Y5.3894
G1 X-29.350 Y4.0950
G1 X-29.800 Y2.7708
G1 X-30.065 Y1.4424
G1 X-30.162 Y-0.0459
ID=1 WHEN $AC_TIMER[1]>=0 DO M51
G1 X8.768 Y-0.045 F3000
ID=1 WHEN $AC_TIMER[1]>=0 DO M50
G1 X8.857 Y-1.3966 F600
G1 X9.121 Y-2.7242
G1 X9.580 Y-4.0939
G1 X10.199 Y-5.3496
G1 X10.951 Y-6.4752
G1 X11.900 Y-7.5659
G1 X12.952 Y-8.4877
G1 X14.077 Y-9.2403
G1 X15.371 Y-9.8849
G1 X16.696 Y-10.3347
G1 X18.024 Y-10.5993
G1 X19.465 Y-10.6980
G1 X20.862 Y-10.6077
G1 X22.189 Y-10.3433
G1 X23.560 Y-9.8840
G1 X24.815 Y-9.2657
G1 X25.941 Y-8.5133
G1 X27.031 Y-7.5650
G1 X27.953 Y-6.5127
G1 X28.706 Y-5.3873
G1 X29.350 Y-4.0930
G1 X29.800 Y-2.7687
G1 X30.065 Y-1.4413
G1 X30.164 Y0.0010
G1 X30.065 Y1.4426
G1 X29.800 Y2.7702
G1 X29.350 Y4.0950
G1 X28.706 Y5.3896
G1 X27.953 Y6.5142
G1 X27.031 Y7.5660
G1 X25.941 Y8.5157
G1 X24.815 Y9.2672
G1 X23.560 Y9.8860
G1 X22.189 Y10.3457
G1 X20.862 Y10.6093
G1 X19.465 Y10.7000
G1 X18.024 Y10.6007
G1 X16.696 Y10.3363
G1 X15.371 Y9.8860
G1 X14.077 Y9.2427
G1 X12.952 Y8.4893
G1 X11.900 Y7.5660
G1 X10.951 Y6.4777
G1 X10.199 Y5.3513
G1 X9.580 Y4.0950
G1 X9.130 Y2.7708
G1 X8.866 Y1.4424
G1 X8.768 Y-0.0459
ID=1 WHEN $AC_TIMER[1]>=0 DO M51
ID=1 WHEN $AC_TIMER[1]>=0 DO M51
G1 Z6.500 F3000

ID=1 WHEN $AC_TIMER[1]>=0 DO M50
G1 X-30.072 Y-0.045 F3000
ID=1 WHEN $AC_TIMER[1]>=0 DO M50
G1 X-29.982 Y-1.3966 F600
G1 X-29.719 Y-2.7242
G1 X-29.260 Y-4.0939
G1 X-28.616 Y-5.3876
G1 X-27.863 Y-6.5122
G1 X-26.940 Y-7.5659
G1 X-25.850 Y-8.5136
G1 X-24.724 Y-9.2652
G1 X-23.469 Y-9.8849
G1 X-22.099 Y-10.3436
G1 X-20.771 Y-10.6072
G1 X-19.375 Y-10.6989
G1 X-17.933 Y-10.5996
G1 X-16.606 Y-10.3342
G1 X-15.280 Y-9.8849
G1 X-13.987 Y-9.2406
G1 X-12.861 Y-8.4872
G1 X-11.809 Y-7.5659
G1 X-10.860 Y-6.4756
G1 X-10.109 Y-5.3492
G1 X-9.490 Y-4.0939
G1 X-9.030 Y-2.7246
G1 X-8.767 Y-1.3962
G1 X-8.675 Y0.0010
G1 X-8.767 Y1.3977
G1 X-9.030 Y2.7253
G1 X-9.490 Y4.0950
G1 X-10.109 Y5.3517
G1 X-10.860 Y6.4773
G1 X-11.809 Y7.5660
G1 X-12.861 Y8.4897
G1 X-13.987 Y9.2423
G1 X-15.280 Y9.8860
G1 X-16.606 Y10.3368
G1 X-17.933 Y10.6003
G1 X-19.375 Y10.7000
G1 X-20.771 Y10.6098
G1 X-22.099 Y10.3453
G1 X-23.469 Y9.8860
G1 X-24.724 Y9.2678
