; generated by Slic3r 1.2.9 on 2016-11-30 at 15:21:48

; external perimeters extrusion width = 0.50mm
; perimeters extrusion width = 0.85mm
; infill extrusion width = 1.34mm
; solid infill extrusion width = 0.85mm
; top infill extrusion width = 0.85mm

;general configurations
G64						;turn off delay due to reading of comments
M55						;home mirror
G4F4					;necessary delay for positioning of the mirror

;process-start
M56					;set canal 1 as laser-source
G4F4					;necessary delay for positioning of the mirror
M0
H=1500
G55

;POWDER START
G4F15
G90 ; use absolute coordinates
M82 ; use absolute distances for extrusion
G1 Z0.150 F100.000
G4F30
G1 X23.057 Y21.524 F100.000
M50
G1 X22.488 Y21.4065 F3500.000
G1 X21.939 Y21.2428
G1 X21.406 Y21.0341
G1 X20.877 Y20.7749
G1 X20.400 Y20.4908
G1 X19.934 Y20.1571
G1 X19.497 Y19.7874
G1 X19.093 Y19.3827
G1 X18.723 Y18.9460
G1 X18.390 Y18.4803
G1 X18.097 Y17.9886
G1 X17.846 Y17.4749
G1 X17.638 Y16.9402
G1 X17.474 Y16.3926
G1 X17.355 Y15.8153
G1 X17.286 Y15.2632
G1 X17.262 Y14.6925
G1 X17.286 Y14.1208
G1 X17.360 Y13.5355
G1 X17.474 Y12.9914
G1 X17.638 Y12.4437
G1 X17.846 Y11.9090
G1 X18.097 Y11.3954
G1 X18.400 Y10.8901
G1 X18.723 Y10.4380
G1 X19.093 Y10.0013
G1 X19.497 Y9.5966
G1 X19.934 Y9.2269
G1 X20.415 Y8.8856
G1 X20.892 Y8.6005
G1 X21.406 Y8.3498
G1 X21.939 Y8.1411
G1 X22.488 Y7.9775
G1 X23.048 Y7.8608
G1 X23.616 Y7.7891
G1 X24.205 Y7.7668
G1 X24.760 Y7.7897
G1 X25.328 Y7.8600 F3500.000
G1 X25.888 Y7.9773
G1 X26.437 Y8.1416
G1 X26.970 Y8.3499
G1 X27.485 Y8.6003
G1 X27.976 Y8.8936
G1 X28.442 Y9.2269
G1 X28.879 Y9.5962
G1 X29.284 Y10.0015
G1 X29.654 Y10.4388
G1 X29.986 Y10.9031
G1 X30.279 Y11.3954
G1 X30.531 Y11.9097
G1 X30.739 Y12.4430
G1 X30.906 Y13.0088
G1 X31.020 Y13.5527
G1 X31.091 Y14.1200
G1 X31.114 Y14.6923
G1 X31.091 Y15.2636
G1 X31.020 Y15.8329
G1 X30.902 Y16.3922
G1 X30.739 Y16.9405
G1 X30.531 Y17.4748
G1 X30.279 Y17.9882
G1 X29.986 Y18.4805
G1 X29.654 Y18.9468
G1 X29.284 Y19.3821
G1 X28.879 Y19.7874
G1 X28.442 Y20.1577
G1 X27.976 Y20.4900
G1 X27.485 Y20.7833
G1 X26.970 Y21.0346
G1 X26.437 Y21.2420
G1 X25.888 Y21.4063
G1 X25.328 Y21.5236
G1 X24.760 Y21.5949
G1 X24.188 Y21.6172
G1 X23.616 Y21.5945
G1 X23.131 Y21.5337
G1 X22.075 Y21.216 F4000.000
M50
G1 X17.663 Y16.8058 F3500.000
G1 X17.592 Y16.5660
G1 X22.313 Y21.2881
G1 X22.550 Y21.3563
G1 X17.523 Y16.3302
G1 X17.480 Y16.1187
G1 X22.762 Y21.4017
G1 X22.975 Y21.4452
G1 X17.436 Y15.9073
G1 X17.400 Y15.7035
G1 X23.177 Y21.4802
G1 X23.369 Y21.5040
G1 X17.376 Y15.5114
G1 X17.352 Y15.3192
G1 X23.560 Y21.5282
G1 X23.743 Y21.5438
G1 X17.337 Y15.1379
G1 X17.330 Y14.9623
G1 X23.918 Y21.5508
G1 X24.093 Y21.5572
G1 X17.322 Y14.7872
G1 X17.320 Y14.6165
G1 X24.264 Y21.5606
G1 X24.425 Y21.5547
G1 X17.326 Y14.4554
G1 X17.333 Y14.2944
G1 X24.586 Y21.5476
G1 X24.747 Y21.5406
G1 X17.340 Y14.1333
G1 X17.356 Y13.9821
G1 X24.898 Y21.5246
G1 X25.047 Y21.5054
G1 X17.375 Y13.8335
G1 X17.394 Y13.6843
G1 X25.197 Y21.4870
G1 X25.345 Y21.4688
G1 X17.413 Y13.5351
G1 X17.441 Y13.3967
G1 X25.484 Y21.4390
G1 X25.623 Y21.4106
G1 X17.470 Y13.2578
G1 X17.499 Y13.1183
G1 X25.761 Y21.3814
G1 X25.900 Y21.3510
G1 X17.529 Y12.9809
G1 X17.567 Y12.8513
G1 X26.029 Y21.3135
G1 X26.158 Y21.2749
G1 X17.606 Y12.7223
G1 X17.644 Y12.5927
G1 X26.287 Y21.2364
G1 X26.417 Y21.1978
G1 X17.683 Y12.4637
G1 X17.728 Y12.3410
G1 X26.539 Y21.1515
G1 X26.659 Y21.1048
G1 X17.775 Y12.2210
G1 X17.823 Y12.1003
G1 X26.780 Y21.0571
G1 X26.900 Y21.0104
G1 X17.870 Y11.9798
G1 X17.921 Y11.8620
G1 X27.017 Y20.9598
G1 X27.130 Y20.9040
G1 X17.976 Y11.7509
G1 X18.031 Y11.6370
G1 X27.243 Y20.8499
G1 X27.355 Y20.7941
G1 X18.086 Y11.5240
G1 X18.141 Y11.4122
G1 X27.468 Y20.7392
G1 X27.573 Y20.6773
G1 X18.203 Y11.3078
G1 X18.266 Y11.2028
G1 X27.678 Y20.6149
G1 X27.784 Y20.5510
G1 X18.329 Y11.0975
G1 X18.392 Y10.9926
G1 X27.889 Y20.4896
G1 X27.991 Y20.4247
G1 X18.456 Y10.8891
G1 X18.526 Y10.7911
G1 X28.089 Y20.3545
G1 X28.187 Y20.2845
G1 X18.596 Y10.6939
G1 X18.666 Y10.5959
G1 X28.285 Y20.2143
G1 X28.383 Y20.1443
G1 X18.736 Y10.4977
G1 X18.810 Y10.4047
G1 X28.476 Y20.0708
G1 X28.567 Y19.9938
G1 X18.887 Y10.3133
G1 X18.964 Y10.2223
G1 X28.658 Y19.9164
G1 X28.742 Y19.8334
G1 X19.047 Y10.1385
G1 X19.131 Y10.0544
G1 X28.826 Y19.7495
G1 X28.910 Y19.6655
G1 X19.215 Y9.9706
G1 X19.299 Y9.8866
G1 X28.994 Y19.5817
G1 X29.078 Y19.4977
G1 X19.383 Y9.8027
G1 X19.467 Y9.7187
G1 X29.161 Y19.4138
G1 X29.245 Y19.3298
G1 X19.550 Y9.6349
G1 X19.634 Y9.5519
G1 X29.329 Y19.2450
G1 X29.413 Y19.1610
G1 X19.719 Y9.4670
G1 X19.810 Y9.3900
G1 X29.489 Y19.0706
G1 X29.566 Y18.9796
G1 X19.900 Y9.3136
G1 X19.994 Y9.2396
G1 X29.641 Y18.8860
G1 X29.711 Y18.7880
G1 X20.092 Y9.1694
G1 X20.190 Y9.1004
G1 X29.780 Y18.6908
G1 X29.850 Y18.5928
G1 X20.288 Y9.0302
G1 X20.386 Y8.9602
G1 X29.920 Y18.4956
G1 X29.985 Y18.3927
G1 X20.488 Y8.8947
G1 X20.593 Y8.8328
G1 X30.048 Y18.2874
G1 X30.111 Y18.1824
G1 X20.698 Y8.7695
G1 X20.803 Y8.7076
G1 X30.173 Y18.0771
G1 X30.236 Y17.9712
G1 X20.908 Y8.6442
G1 X21.021 Y8.5893
G1 X30.291 Y17.8593
G1 X30.346 Y17.7464
G1 X21.134 Y8.5343
G1 X21.246 Y8.4795
G1 X30.401 Y17.6333
G1 X30.456 Y17.5215
G1 X21.359 Y8.4243
G1 X21.476 Y8.3735
G1 X30.507 Y17.4040
G1 X30.554 Y17.2832
G1 X21.597 Y8.3261
G1 X21.717 Y8.2793
G1 X30.601 Y17.1635
G1 X30.648 Y17.0428
G1 X21.838 Y8.2324
G1 X21.960 Y8.1867
G1 X30.694 Y16.9206
G1 X30.732 Y16.7910
G1 X22.089 Y8.1476
G1 X22.218 Y8.1090
G1 X30.771 Y16.6614
G1 X30.809 Y16.5328
G1 X22.348 Y8.0700
G1 X22.477 Y8.0324
G1 X30.848 Y16.4034
G1 X30.877 Y16.2650
G1 X22.615 Y8.0020
G1 X22.754 Y7.9736
G1 X30.906 Y16.1268
G1 X30.935 Y15.9874
G1 X22.892 Y7.9447
G1 X23.031 Y7.9152
G1 X30.965 Y15.8496
G1 X30.984 Y15.7004
G1 X23.180 Y7.8962
G1 X23.329 Y7.8780
G1 X31.002 Y15.5511
G1 X31.021 Y15.4029
G1 X23.478 Y7.8593
G1 X23.630 Y7.8432
G1 X31.037 Y15.2508
G1 X31.044 Y15.0899
G1 X23.791 Y7.8370
G1 X23.953 Y7.8301
G1 X31.050 Y14.9288
G1 X31.057 Y14.7678
G1 X24.114 Y7.8249
G1 X24.283 Y7.8262
G1 X31.054 Y14.5962
G1 X31.047 Y14.4216
G1 X24.458 Y7.8331
G1 X24.633 Y7.8405
G1 X31.040 Y14.2466
G1 X31.025 Y14.0642
G1 X24.816 Y7.8552
G1 X25.008 Y7.8790
G1 X31.001 Y13.8724
G1 X30.977 Y13.6812
G1 X25.199 Y7.9039
G1 X25.402 Y7.9381
G1 X30.942 Y13.4783
G1 X30.898 Y13.2667
G1 X25.614 Y7.9828
G1 X25.826 Y8.0273
G1 X30.853 Y13.0542
G1 X30.783 Y12.8164
G1 X26.063 Y8.0955
G1 X26.302 Y8.1677
G1 X30.713 Y12.5788
G1 X30.619 Y12.316 F4000.000
M50
G1 X26.564 Y8.2611 F3500.000
G1 X26.839 Y8.368 F4000.000
M50
G1 X30.511 Y12.0418 F3500.000
G1 X30.365 Y11.727 F4000.000
M50
G1 X27.153 Y8.5151 F3500.000
G1 X27.497 Y8.691 F4000.000
M50
G1 X30.189 Y11.3830 F3500.000
G1 X29.940 Y10.966 F4000.000
M50
G1 X27.914 Y8.9401 F3500.000
G1 X28.615 Y9.473 F4000.000
M50
G1 X29.406 Y10.2653 F3500.000
G1 X21.812 Y21.122 F4000.000
M50
G1 X17.758 Y17.0676 F3500.000
G1 X17.865 Y17.343 F4000.000
M50
G1 X21.537 Y21.0153 F3500.000
G1 X21.222 Y20.867 F4000.000
M50
G1 X18.011 Y17.6566 F3500.000
G1 X18.188 Y18.000 F4000.000
M50
G1 X20.879 Y20.6924 F3500.000
G1 X20.462 Y20.443 F4000.000
M50
G1 X18.437 Y18.4175 F3500.000
G1 X18.971 Y19.119 F4000.000
M50
G1 X19.761 Y19.9096 F3500.000
G1 Z0.300 F4000.000
G4F30
G1 X21.927 Y21.052 F4000.000
M50
G1 X21.476 Y20.8760 F3500.000
G1 X20.974 Y20.6315
G1 X20.495 Y20.3459
G1 X20.041 Y20.0213
G1 X19.615 Y19.6607
G1 X19.220 Y19.2651
G1 X18.859 Y18.8395
G1 X18.535 Y18.3859
G1 X18.249 Y17.9063
G1 X18.004 Y17.4047
G1 X17.801 Y16.8841
G1 X17.642 Y16.3504
G1 X17.521 Y15.7539
G1 X17.458 Y15.2493
G1 X17.435 Y14.6927
G1 X17.458 Y14.1341
G1 X17.527 Y13.5805
G1 X17.642 Y13.0349
G1 X17.801 Y12.4993
G1 X18.004 Y11.9798
G1 X18.249 Y11.4782
G1 X18.535 Y10.9986
G1 X18.859 Y10.5440
G1 X19.220 Y10.1184
G1 X19.615 Y9.7238
G1 X20.041 Y9.3632
G1 X20.495 Y9.0386
G1 X20.974 Y8.7530
G1 X21.476 Y8.5074
G1 X21.996 Y8.3058
G1 X22.531 Y8.1452
G1 X23.077 Y8.0316
G1 X23.629 Y7.9629
G1 X24.290 Y7.9435
G1 X24.746 Y7.9628
G1 X25.300 Y8.0312 F3500.000
G1 X25.846 Y8.1456
G1 X26.381 Y8.3050
G1 X26.901 Y8.5074
G1 X27.402 Y8.7538
G1 X27.882 Y9.0383
G1 X28.336 Y9.3637
G1 X28.762 Y9.7231
G1 X29.157 Y10.1185
G1 X29.517 Y10.5449
G1 X29.842 Y10.9983
G1 X30.127 Y11.4787
G1 X30.372 Y11.9791
G1 X30.575 Y12.4995
G1 X30.735 Y13.0349
G1 X30.849 Y13.5803
G1 X30.918 Y14.1347
G1 X30.941 Y14.6921
G1 X30.918 Y15.2495
G1 X30.849 Y15.8039
G1 X30.735 Y16.3494
G1 X30.575 Y16.8848
G1 X30.372 Y17.4042
G1 X30.127 Y17.9066
G1 X29.842 Y18.3850
G1 X29.517 Y18.8394
G1 X29.157 Y19.2658
G1 X28.762 Y19.6602
G1 X28.336 Y20.0216
G1 X27.882 Y20.3450
G1 X27.402 Y20.6314
G1 X26.901 Y20.8768
G1 X26.381 Y21.0792
G1 X25.846 Y21.2386
G1 X25.300 Y21.3520
G1 X24.746 Y21.4214
G1 X24.188 Y21.4449
G1 X23.631 Y21.4213
G1 X23.077 Y21.3527
G1 X22.531 Y21.2381
G1 X21.996 Y21.0794
G1 X27.996 Y19.547 F4000.000
M50
G1 X29.044 Y18.5002 F3500.000
G1 X30.338 Y15.968 F4000.000
M50
G1 X25.465 Y20.8418 F3500.000
G1 X24.053 Y21.0150
G1 X30.512 Y14.5573
G1 X30.411 Y13.4194
G1 X22.916 Y20.9151
G1 X21.940 Y20.6537
G1 X30.150 Y12.4431
G1 X29.769 Y11.5863
G1 X21.083 Y20.2739
G1 X20.331 Y19.7872
G1 X29.284 Y10.8347
G1 X28.694 Y10.1864
G1 X19.683 Y19.1972
G1 X19.093 Y18.5499
G1 X28.046 Y9.5964
G1 X27.294 Y9.1106
G1 X18.607 Y17.7972
G1 X18.227 Y16.9404
G1 X26.437 Y8.7308
G1 X25.461 Y8.4685
G1 X17.968 Y15.9615
G1 X17.865 Y14.8261
G1 X24.317 Y8.3757
G1 X22.911 Y8.5425
G1 X18.039 Y13.4153
G1 X19.332 Y10.883 F4000.000
M50
G1 X20.380 Y9.8362 F3500.000
G1 Z0.450 F4000.000
G4F30
G1 X17.960 Y17.298 F4000.000
M50
G1 X17.800 Y16.8869 F3500.000
G1 X17.623 Y16.2678
G1 X17.525 Y15.8038
G1 X17.456 Y15.2493
G1 X17.433 Y14.6927
G1 X17.456 Y14.1341
G1 X17.525 Y13.5814
G1 X17.664 Y12.9523
G1 X17.799 Y12.4984
G1 X18.002 Y11.9788
G1 X18.247 Y11.4781
G1 X18.582 Y10.9280
G1 X18.858 Y10.5430
G1 X19.218 Y10.1174
G1 X19.613 Y9.7229
G1 X20.039 Y9.3613
G1 X20.494 Y9.0377
G1 X20.973 Y8.7511
G1 X21.475 Y8.5066
G1 X21.995 Y8.3030
G1 X22.530 Y8.1434
G1 X23.076 Y8.0298
G1 X23.629 Y7.9601
G1 X24.273 Y7.9400
G1 X24.746 Y7.9601
G1 X25.300 Y8.0295 F3500.000
G1 X25.846 Y8.1439
G1 X26.382 Y8.3033
G1 X26.902 Y8.5068
G1 X27.403 Y8.7512
G1 X27.883 Y9.0376
G1 X28.337 Y9.3610
G1 X28.763 Y9.7225
G1 X29.158 Y10.1179
G1 X29.519 Y10.5433
G1 X29.843 Y10.9977
G1 X30.129 Y11.4772
G1 X30.374 Y11.9786
G1 X30.577 Y12.4980
G1 X30.736 Y13.0323
G1 X30.862 Y13.6632
G1 X30.920 Y14.1342
G1 X30.943 Y14.6927
G1 X30.920 Y15.2491
G1 X30.851 Y15.8035
G1 X30.737 Y16.3488
G1 X30.547 Y16.9637
G1 X30.374 Y17.4058
G1 X30.129 Y17.9072
G1 X29.843 Y18.3866
G1 X29.519 Y18.8410
G1 X29.158 Y19.2675
G1 X28.763 Y19.6619
G1 X28.337 Y20.0223
G1 X27.883 Y20.3477
G1 X27.403 Y20.6321
G1 X26.902 Y20.8786
G1 X26.382 Y21.0800
G1 X25.846 Y21.2404
G1 X25.300 Y21.3548
G1 X24.746 Y21.4233
G1 X24.188 Y21.4467
G1 X23.630 Y21.4231
G1 X23.076 Y21.3545
G1 X22.531 Y21.2408
G1 X21.916 Y21.0507
G1 X21.475 Y20.8788
G1 X20.973 Y20.6322
G1 X20.494 Y20.3476
G1 X20.039 Y20.0220
G1 X19.613 Y19.6615
G1 X19.219 Y19.2678
G1 X18.809 Y18.7727
G1 X18.533 Y18.3867
G1 X18.247 Y17.9071
G1 X17.988 Y17.3685
G1 X19.339 Y18.507 F4000.000
M50
G1 X20.380 Y19.5473 F3500.000
G1 X22.911 Y20.841 F4000.000
M50
G1 X18.040 Y15.9695 F3500.000
G1 X17.865 Y14.5579
G1 X24.323 Y21.0152
G1 X25.461 Y20.9153
G1 X17.965 Y13.4190
G1 X18.227 Y12.4436
G1 X26.437 Y20.6530
G1 X27.294 Y20.2732
G1 X18.607 Y11.5868
G1 X19.094 Y10.8350
G1 X28.046 Y19.7873
G1 X28.694 Y19.1971
G1 X19.683 Y10.1868
G1 X20.331 Y9.5965
G1 X29.284 Y18.5490
G1 X29.769 Y17.7973
G1 X21.083 Y9.1109
G1 X21.940 Y8.7301
G1 X30.150 Y16.9404
G1 X30.411 Y15.9641
G1 X22.916 Y8.4688
G1 X24.057 Y8.3725
G1 X30.512 Y14.8268
G1 X30.338 Y13.4150
G1 X25.465 Y8.5427
G1 X27.996 Y9.836 F4000.000
M50
G1 X29.044 Y10.8832 F3500.000
G1 Z0.600 F4000.000
G4F30
G1 X26.531 Y21.024 F4000.000
M50
G1 X25.847 Y21.2423 F3500.000
G1 X25.300 Y21.3567
G1 X24.746 Y21.4251
G1 X24.188 Y21.4496
G1 X23.632 Y21.4269
G1 X22.960 Y21.3322
G1 X22.530 Y21.2429
G1 X21.994 Y21.0823
G1 X21.474 Y20.8798
G1 X20.972 Y20.6342
G1 X20.493 Y20.3486
G1 X20.038 Y20.0241
G1 X19.612 Y19.6635
G1 X19.217 Y19.2680
G1 X18.856 Y18.8424
G1 X18.532 Y18.3878
G1 X18.247 Y17.9091
G1 X17.957 Y17.2964
G1 X17.797 Y16.8861
G1 X17.638 Y16.3506
G1 X17.523 Y15.8040
G1 X17.454 Y15.2504
G1 X17.431 Y14.6929
G1 X17.454 Y14.1351
G1 X17.548 Y13.4645
G1 X17.638 Y13.0332
G1 X17.797 Y12.4986
G1 X18.000 Y11.9771
G1 X18.246 Y11.4765
G1 X18.532 Y10.9969
G1 X18.856 Y10.5414
G1 X19.217 Y10.1158
G1 X19.612 Y9.7203
G1 X20.037 Y9.3605
G1 X20.594 Y8.9748
G1 X20.972 Y8.7495
G1 X21.474 Y8.5040
G1 X21.994 Y8.3014
G1 X22.530 Y8.1419
G1 X23.076 Y8.0273
G1 X23.629 Y7.9586
G1 X24.306 Y7.9399
G1 X24.746 Y7.9586
G1 X25.300 Y8.0270 F3500.000
G1 X25.847 Y8.1415
G1 X26.382 Y8.3019
G1 X26.901 Y8.5032
G1 X27.506 Y8.8095
G1 X27.884 Y9.0352
G1 X28.339 Y9.3596
G1 X28.765 Y9.7201
G1 X29.160 Y10.1155
G1 X29.520 Y10.5410
G1 X29.845 Y10.9964
G1 X30.131 Y11.4768
G1 X30.375 Y11.9761
G1 X30.613 Y12.6114
G1 X30.739 Y13.0331
G1 X30.853 Y13.5796
G1 X30.922 Y14.1340
G1 X30.945 Y14.6924
G1 X30.922 Y15.2509
G1 X30.853 Y15.8043
G1 X30.739 Y16.3508
G1 X30.579 Y16.8862
G1 X30.376 Y17.4066
G1 X30.131 Y17.9081
G1 X29.845 Y18.3875
G1 X29.520 Y18.8420
G1 X29.160 Y19.2684
G1 X28.765 Y19.6638
G1 X28.339 Y20.0243
G1 X27.884 Y20.3487
G1 X27.404 Y20.6342
G1 X26.903 Y20.8796
G1 X26.601 Y20.9977
G1 X27.996 Y19.547 F4000.000
M50
G1 X29.044 Y18.5002 F3500.000
G1 X30.338 Y15.968 F4000.000
M50
G1 X25.465 Y20.8418 F3500.000
G1 X24.053 Y21.0150
G1 X30.512 Y14.5573
G1 X30.415 Y13.4169
G1 X22.914 Y20.9171
G1 X21.940 Y20.6535
G1 X30.148 Y12.4453
G1 X29.769 Y11.5867
G1 X21.083 Y20.2733
G1 X20.331 Y19.7875
G1 X29.284 Y10.8340
G1 X28.694 Y10.1868
G1 X19.683 Y19.1975
G1 X19.093 Y18.5492
G1 X28.046 Y9.5967
G1 X27.291 Y9.1131
G1 X18.607 Y17.7971
G1 X18.227 Y16.9402
G1 X26.437 Y8.7306
G1 X25.461 Y8.4683
G1 X17.968 Y15.9613
G1 X17.865 Y14.8269
G1 X24.317 Y8.3755
G1 X22.911 Y8.5423
G1 X18.039 Y13.4151
G1 X19.332 Y10.883 F4000.000
M50
G1 X20.380 Y9.8362 F3500.000
G1 Z0.750 F4000.000
G4F30
G1 X17.669 Y12.923 F4000.000
M50
G1 X17.795 Y12.4971 F3500.000
G1 X17.998 Y11.9765
G1 X18.244 Y11.4750
G1 X18.529 Y10.9972
G1 X18.953 Y10.4240
G1 X19.215 Y10.1143
G1 X19.609 Y9.7206
G1 X20.160 Y9.2693
G1 X20.491 Y9.0337
G1 X20.971 Y8.7471
G1 X21.473 Y8.5026
G1 X21.994 Y8.2990
G1 X22.529 Y8.1395
G1 X23.076 Y8.0250
G1 X23.628 Y7.9562
G1 X24.340 Y7.9399
G1 X24.746 Y7.9563
G1 X25.301 Y8.0257 F3500.000
G1 X25.848 Y8.1392
G1 X26.383 Y8.2997
G1 X26.903 Y8.5021
G1 X27.405 Y8.7476
G1 X27.885 Y9.0330
G1 X28.340 Y9.3585
G1 X28.766 Y9.7199
G1 X29.161 Y10.1144
G1 X29.522 Y10.5409
G1 X29.847 Y10.9953
G1 X30.133 Y11.4758
G1 X30.378 Y11.9762
G1 X30.581 Y12.4977
G1 X30.741 Y13.0321
G1 X30.855 Y13.5796
G1 X30.924 Y14.1331
G1 X30.947 Y14.6925
G1 X30.924 Y15.2500
G1 X30.855 Y15.8044
G1 X30.741 Y16.3519
G1 X30.581 Y16.8863
G1 X30.378 Y17.4078
G1 X30.133 Y17.9083
G1 X29.847 Y18.3887
G1 X29.522 Y18.8432
G1 X29.161 Y19.2696
G1 X28.766 Y19.6641
G1 X28.340 Y20.0255
G1 X27.885 Y20.3500
G1 X27.405 Y20.6365
G1 X26.903 Y20.8819
G1 X26.383 Y21.0844
G1 X25.848 Y21.2448
G1 X25.301 Y21.3583
G1 X24.746 Y21.4287
G1 X24.188 Y21.4512
G1 X23.630 Y21.4287
G1 X23.076 Y21.3581
G1 X22.529 Y21.2446
G1 X21.994 Y21.0840
G1 X21.473 Y20.8815
G1 X20.971 Y20.6369
G1 X20.491 Y20.3504
G1 X20.037 Y20.0259
G1 X19.610 Y19.6643
G1 X19.215 Y19.2698
G1 X18.854 Y18.8432
G1 X18.530 Y18.3887
G1 X18.244 Y17.9081
G1 X17.998 Y17.4076
G1 X17.796 Y16.8888
G1 X17.605 Y16.2026
G1 X17.521 Y15.8049
G1 X17.452 Y15.2504
G1 X17.429 Y14.6928
G1 X17.452 Y14.1361
G1 X17.553 Y13.4308
G1 X17.647 Y12.9941
G1 Z0.900 F4000.000
G4F30
G1 X29.550 Y10.576 F4000.000
M50
G1 X29.848 Y10.9949 F3500.000
G1 X30.135 Y11.4744
G1 X30.380 Y11.9769
G1 X30.583 Y12.4964
G1 X30.743 Y13.0328
G1 X30.857 Y13.5793
G1 X30.926 Y14.1338
G1 X30.949 Y14.6923
G1 X30.926 Y15.2507
G1 X30.857 Y15.8042
G1 X30.743 Y16.3494
G1 X30.515 Y17.0606
G1 X30.380 Y17.4076
G1 X30.135 Y17.9090
G1 X29.848 Y18.3905
G1 X29.524 Y18.8440
G1 X29.163 Y19.2715
G1 X28.767 Y19.6669
G1 X28.341 Y20.0274
G1 X27.886 Y20.3529
G1 X27.406 Y20.6384
G1 X26.904 Y20.8838
G1 X26.384 Y21.0863
G1 X25.848 Y21.2468
G1 X25.301 Y21.3603
G1 X24.747 Y21.4307
G1 X24.188 Y21.4532
G1 X23.630 Y21.4307
G1 X23.075 Y21.3602
G1 X22.531 Y21.2464
G1 X21.820 Y21.0195
G1 X21.472 Y20.8835
G1 X20.970 Y20.6380
G1 X20.490 Y20.3525
G1 X20.035 Y20.0270
G1 X19.609 Y19.6664
G1 X19.214 Y19.2719
G1 X18.854 Y18.8461
G1 X18.433 Y18.2303
G1 X18.242 Y17.9093
G1 X17.997 Y17.4078
G1 X17.793 Y16.8872
G1 X17.634 Y16.3517
G1 X17.519 Y15.8042
G1 X17.450 Y15.2507
G1 X17.427 Y14.6921
G1 X17.450 Y14.1336
G1 X17.519 Y13.5818
G1 X17.687 Y12.8540
G1 X17.793 Y12.4960
G1 X17.997 Y11.9764
G1 X18.242 Y11.4749
G1 X18.528 Y10.9944
G1 X18.853 Y10.5399
G1 X19.214 Y10.1123
G1 X19.609 Y9.7178
G1 X20.035 Y9.3563
G1 X20.490 Y9.0318
G1 X20.970 Y8.7452
G1 X21.472 Y8.5007
G1 X21.993 Y8.2972
G1 X22.528 Y8.1377
G1 X23.075 Y8.0231
G1 X23.627 Y7.9544
G1 X24.374 Y7.9385
G1 X24.747 Y7.9535
G1 X25.301 Y8.0230 F3500.000
G1 X25.848 Y8.1375
G1 X26.384 Y8.2979
G1 X26.904 Y8.5004
G1 X27.406 Y8.7459
G1 X27.886 Y9.0314
G1 X28.341 Y9.3568
G1 X28.767 Y9.7173
G1 X29.163 Y10.1128
G1 X29.505 Y10.5163
G1 Z1.050 F4000.000
G4F30
G1 X19.539 Y19.599 F4000.000
M50
G1 X19.212 Y19.2729 F3500.000
G1 X18.851 Y18.8464
G1 X18.526 Y18.3919
G1 X18.240 Y17.9104
G1 X17.995 Y17.4089
G1 X17.792 Y16.8884
G1 X17.632 Y16.3528
G1 X17.517 Y15.8053
G1 X17.448 Y15.2508
G1 X17.425 Y14.6923
G1 X17.448 Y14.1338
G1 X17.517 Y13.5783
G1 X17.632 Y13.0318
G1 X17.792 Y12.4963
G1 X17.995 Y11.9758
G1 X18.240 Y11.4733
G1 X18.526 Y10.9928
G1 X18.851 Y10.5372
G1 X19.212 Y10.1117
G1 X19.608 Y9.7162
G1 X20.034 Y9.3547
G1 X20.489 Y9.0302
G1 X20.969 Y8.7437
G1 X21.472 Y8.4982
G1 X21.992 Y8.2957
G1 X22.528 Y8.1352
G1 X23.075 Y8.0217
G1 X23.630 Y7.9512
G1 X24.188 Y7.9286
G1 X24.400 Y7.9377
G1 X24.747 Y7.9511 F3500.000
G1 X25.301 Y8.0216
G1 X25.849 Y8.1351
G1 X26.384 Y8.2956
G1 X26.905 Y8.4981
G1 X27.407 Y8.7436
G1 X27.887 Y9.0301
G1 X28.342 Y9.3546
G1 X28.769 Y9.7161
G1 X29.164 Y10.1116
G1 X29.525 Y10.5370
G1 X29.850 Y10.9925
G1 X30.136 Y11.4730
G1 X30.382 Y11.9755
G1 X30.585 Y12.4960
G1 X30.745 Y13.0315
G1 X30.859 Y13.5780
G1 X30.928 Y14.1335
G1 X30.951 Y14.6920
G1 X30.928 Y15.2505
G1 X30.859 Y15.8050
G1 X30.745 Y16.3525
G1 X30.585 Y16.8889
G1 X30.382 Y17.4084
G1 X30.136 Y17.9109
G1 X29.850 Y18.3914
G1 X29.525 Y18.8469
G1 X29.164 Y19.2724
G1 X28.769 Y19.6679
G1 X28.342 Y20.0294
G1 X27.887 Y20.3539
G1 X27.413 Y20.6366
G1 X26.905 Y20.8859
G1 X26.384 Y21.0883
G1 X25.849 Y21.2488
G1 X25.301 Y21.3623
G1 X24.747 Y21.4328
G1 X24.188 Y21.4553
G1 X23.630 Y21.4328
G1 X23.075 Y21.3623
G1 X22.528 Y21.2488
G1 X21.992 Y21.0883
G1 X21.472 Y20.8858
G1 X20.969 Y20.6403
G1 X20.489 Y20.3537
G1 X20.034 Y20.0292
G1 X19.592 Y19.6529
G1 Z1.200 F4000.000
G4F30
G1 X19.786 Y9.562 F4000.000
M50
G1 X20.033 Y9.3532 F3500.000
G1 X20.488 Y9.0287
G1 X20.968 Y8.7422
G1 X21.471 Y8.4967
G1 X21.992 Y8.2932
G1 X22.527 Y8.1337
G1 X23.075 Y8.0192
G1 X23.630 Y7.9497
G1 X24.188 Y7.9262
G1 X24.435 Y7.9367
G1 X24.747 Y7.9497 F3500.000
G1 X25.302 Y8.0192
G1 X25.849 Y8.1337
G1 X26.385 Y8.2932
G1 X26.906 Y8.4968
G1 X27.408 Y8.7423
G1 X27.889 Y9.0288
G1 X28.344 Y9.3533
G1 X28.770 Y9.7148
G1 X29.166 Y10.1103
G1 X29.527 Y10.5368
G1 X29.852 Y10.9913
G1 X30.138 Y11.4728
G1 X30.384 Y11.9743
G1 X30.587 Y12.4958
G1 X30.747 Y13.0313
G1 X30.861 Y13.5789
G1 X30.930 Y14.1334
G1 X30.954 Y14.6929
G1 X30.930 Y15.2504
G1 X30.861 Y15.8059
G1 X30.747 Y16.3524
G1 X30.587 Y16.8889
G1 X30.384 Y17.4094
G1 X30.138 Y17.9119
G1 X29.852 Y18.3924
G1 X29.527 Y18.8479
G1 X29.166 Y19.2744
G1 X28.770 Y19.6690
G1 X28.344 Y20.0305
G1 X27.889 Y20.3550
G1 X27.408 Y20.6415
G1 X26.906 Y20.8870
G1 X26.385 Y21.0905
G1 X25.849 Y21.2500
G1 X25.302 Y21.3655
G1 X24.747 Y21.4340
G1 X24.188 Y21.4575
G1 X23.630 Y21.4340
G1 X23.075 Y21.3655
G1 X22.527 Y21.2500
G1 X21.992 Y21.0906
G1 X21.471 Y20.8871
G1 X20.968 Y20.6416
G1 X20.488 Y20.3551
G1 X20.033 Y20.0306
G1 X19.606 Y19.6691
G1 X19.211 Y19.2746
G1 X18.850 Y18.8471
G1 X18.525 Y18.3926
G1 X18.210 Y17.8646
G1 X17.993 Y17.4097
G1 X17.790 Y16.8882
G1 X17.630 Y16.3527
G1 X17.515 Y15.8052
G1 X17.446 Y15.2507
G1 X17.423 Y14.6922
G1 X17.446 Y14.1337
G1 X17.515 Y13.5782
G1 X17.630 Y13.0317
G1 X17.790 Y12.4952
G1 X17.993 Y11.9747
G1 X18.238 Y11.4722
G1 X18.525 Y10.9918
G1 X18.850 Y10.5363
G1 X19.211 Y10.1108
G1 X19.729 Y9.6111
G1 Z1.350 F4000.000
G4F30
G1 X19.567 Y19.632 F4000.000
M50
G1 X19.209 Y19.2752 F3500.000
G1 X18.848 Y18.8487
G1 X18.523 Y18.3932
G1 X18.237 Y17.9127
G1 X17.991 Y17.4103
G1 X17.788 Y16.8898
G1 X17.628 Y16.3533
G1 X17.513 Y15.8058
G1 X17.444 Y15.2504
G1 X17.421 Y14.6929
G1 X17.444 Y14.1334
G1 X17.513 Y13.5789
G1 X17.628 Y13.0305
G1 X17.788 Y12.4940
G1 X17.991 Y11.9735
G1 X18.237 Y11.4710
G1 X18.523 Y10.9906
G1 X18.848 Y10.5351
G1 X19.209 Y10.1086
G1 X19.605 Y9.7131
G1 X20.032 Y9.3517
G1 X20.487 Y9.0262
G1 X20.967 Y8.7407
G1 X21.470 Y8.4942
G1 X21.991 Y8.2918
G1 X22.527 Y8.1313
G1 X23.074 Y8.0168
G1 X23.629 Y7.9473
G1 X24.188 Y7.9249
G1 X24.469 Y7.9368
G1 X24.747 Y7.9474 F3500.000
G1 X25.302 Y8.0169
G1 X25.850 Y8.1314
G1 X26.386 Y8.2910
G1 X26.907 Y8.4945
G1 X27.409 Y8.7400
G1 X27.890 Y9.0265
G1 X28.345 Y9.3511
G1 X28.772 Y9.7136
G1 X29.167 Y10.1081
G1 X29.529 Y10.5356
G1 X29.854 Y10.9902
G1 X30.140 Y11.4717
G1 X30.386 Y11.9732
G1 X30.589 Y12.4947
G1 X30.749 Y13.0303
G1 X30.863 Y13.5788
G1 X30.932 Y14.1333
G1 X30.956 Y14.6928
G1 X30.932 Y15.2504
G1 X30.863 Y15.8059
G1 X30.749 Y16.3534
G1 X30.589 Y16.8899
G1 X30.386 Y17.4105
G1 X30.140 Y17.9120
G1 X29.854 Y18.3935
G1 X29.529 Y18.8480
G1 X29.167 Y19.2756
G1 X28.772 Y19.6701
G1 X28.345 Y20.0326
G1 X27.890 Y20.3571
G1 X27.409 Y20.6437
G1 X26.907 Y20.8892
G1 X26.386 Y21.0927
G1 X25.850 Y21.2522
G1 X25.302 Y21.3678
G1 X25.023 Y21.4017
G1 X24.747 Y21.4363
G1 X24.188 Y21.4598
G1 X23.629 Y21.4363
G1 X23.074 Y21.3679
G1 X22.527 Y21.2524
G1 X21.991 Y21.0929
G1 X21.470 Y20.8894
G1 X20.967 Y20.6430
G1 X20.487 Y20.3575
G1 X20.032 Y20.0320
G1 X19.621 Y19.6845
G1 Z1.500 F4000.000
G4F30
G1 X23.696 Y21.441 F4000.000
M50
G1 X23.074 Y21.3691 F3500.000
G1 X22.526 Y21.2547
G1 X21.990 Y21.0942
G1 X21.469 Y20.8917
G1 X20.966 Y20.6453
G1 X20.486 Y20.3598
G1 X20.030 Y20.0344
G1 X19.603 Y19.6729
G1 X19.208 Y19.2764
G1 X18.846 Y18.8490
G1 X18.521 Y18.3945
G1 X18.235 Y17.9131
G1 X17.989 Y17.4116
G1 X17.786 Y16.8902
G1 X17.626 Y16.3537
G1 X17.511 Y15.8062
G1 X17.472 Y15.4935
G1 X17.442 Y15.2518
G1 X17.419 Y14.6923
G1 X17.442 Y14.1339
G1 X17.511 Y13.5774
G1 X17.626 Y13.0309
G1 X17.786 Y12.4945
G1 X17.989 Y11.9720
G1 X18.235 Y11.4706
G1 X18.521 Y10.9891
G1 X18.704 Y10.7334
G1 X18.846 Y10.5347
G1 X19.208 Y10.1072
G1 X19.603 Y9.7117
G1 X20.030 Y9.3503
G1 X20.486 Y9.0248
G1 X20.756 Y8.8631
G1 X20.966 Y8.7384
G1 X21.469 Y8.4929
G1 X21.990 Y8.2895
G1 X22.526 Y8.1290
G1 X23.074 Y8.0145
G1 X23.629 Y7.9451
G1 X24.188 Y7.9226
G1 X24.503 Y7.9359
G1 X24.747 Y7.9452 F3500.000
G1 X25.302 Y8.0147
G1 X25.850 Y8.1292
G1 X26.386 Y8.2898
G1 X26.907 Y8.4923
G1 X27.410 Y8.7389
G1 X27.891 Y9.0244
G1 X28.346 Y9.3500
G1 X28.773 Y9.7115
G1 X29.169 Y10.1070
G1 X29.530 Y10.5346
G1 X29.855 Y10.9891
G1 X30.142 Y11.4707
G1 X30.387 Y11.9722
G1 X30.591 Y12.4947
G1 X30.751 Y13.0303
G1 X30.865 Y13.5778
G1 X30.935 Y14.1334
G1 X30.958 Y14.6929
G1 X30.935 Y15.2515
G1 X30.865 Y15.8060
G1 X30.751 Y16.3535
G1 X30.591 Y16.8901
G1 X30.387 Y17.4116
G1 X30.142 Y17.9132
G1 X29.855 Y18.3947
G1 X29.530 Y18.8492
G1 X29.327 Y19.0905
G1 X29.169 Y19.2768
G1 X28.773 Y19.6723
G1 X28.346 Y20.0349
G1 X27.891 Y20.3594
G1 X27.410 Y20.6450
G1 X26.907 Y20.8915
G1 X26.386 Y21.0940
G1 X25.850 Y21.2546
G1 X25.302 Y21.3691
G1 X24.747 Y21.4387
G1 X24.188 Y21.4612
G1 X23.770 Y21.4447
G1 Z1.650 F4000.000
G4F30
G1 X24.689 Y7.941 F4000.000
M50
G1 X25.303 Y8.0124 F3500.000
G1 X25.851 Y8.1279
G1 X26.387 Y8.2875
G1 X26.908 Y8.4900
G1 X27.411 Y8.7366
G1 X27.892 Y9.0232
G1 X28.347 Y9.3487
G1 X28.614 Y9.5744
G1 X28.774 Y9.7103
G1 X29.170 Y10.1058
G1 X29.532 Y10.5324
G1 X29.857 Y10.9889
G1 X30.144 Y11.4695
G1 X30.389 Y11.9711
G1 X30.593 Y12.4936
G1 X30.753 Y13.0292
G1 X30.867 Y13.5777
G1 X30.937 Y14.1323
G1 X30.960 Y14.6929
G1 X30.937 Y15.2514
G1 X30.867 Y15.8060
G1 X30.753 Y16.3545
G1 X30.593 Y16.8901
G1 X30.466 Y17.2168
G1 X30.389 Y17.4127
G1 X30.144 Y17.9142
G1 X29.857 Y18.3958
G1 X29.532 Y18.8513
G1 X29.170 Y19.2789
G1 X28.774 Y19.6734
G1 X28.347 Y20.0350
G1 X27.892 Y20.3606
G1 X27.411 Y20.6471
G1 X26.908 Y20.8937
G1 X26.387 Y21.0962
G1 X25.851 Y21.2568
G1 X25.303 Y21.3714
G1 X24.956 Y21.4140
G1 X24.747 Y21.4409
G1 X24.188 Y21.4635
G1 X23.629 Y21.4400
G1 X23.074 Y21.3716
G1 X22.526 Y21.2562
G1 X21.990 Y21.0967
G1 X21.468 Y20.8933
G1 X20.965 Y20.6478
G1 X20.485 Y20.3604
G1 X20.029 Y20.0359
G1 X19.763 Y19.8096
G1 X19.602 Y19.6735
G1 X19.206 Y19.2781
G1 X18.845 Y18.8516
G1 X18.519 Y18.3952
G1 X18.341 Y18.0959
G1 X18.233 Y17.9147
G1 X17.987 Y17.4123
G1 X17.784 Y16.8909
G1 X17.624 Y16.3544
G1 X17.509 Y15.8060
G1 X17.466 Y15.4597
G1 X17.440 Y15.2515
G1 X17.417 Y14.6921
G1 X17.440 Y14.1327
G1 X17.509 Y13.5772
G1 X17.624 Y13.0298
G1 X17.784 Y12.4933
G1 X17.987 Y11.9719
G1 X18.233 Y11.4694
G1 X18.519 Y10.9880
G1 X18.845 Y10.5326
G1 X19.206 Y10.1051
G1 X19.602 Y9.7107
G1 X20.029 Y9.3482
G1 X20.485 Y9.0238
G1 X20.785 Y8.8445
G1 X20.965 Y8.7364
G1 X21.468 Y8.4909
G1 X21.990 Y8.2875
G1 X22.526 Y8.1270
G1 X23.074 Y8.0126
G1 X23.629 Y7.9432
G1 X24.188 Y7.9207
G1 X24.537 Y7.9354
G1 X24.614 Y7.9380 F3500.000
G1 Z1.800 F4000.000
G4F30
G1 X29.641 Y10.682 F4000.000
M50
G1 X30.147 Y11.4700 F3500.000
G1 X30.391 Y11.9713
G1 X30.595 Y12.4929
G1 X30.755 Y13.0294
G1 X30.869 Y13.5770
G1 X30.916 Y13.9503
G1 X30.962 Y14.6944
G1 X30.939 Y15.2517
G1 X30.869 Y15.8063
G1 X30.755 Y16.3549
G1 X30.595 Y16.8914
G1 X30.391 Y17.4120
G1 X30.145 Y17.9156
G1 X29.859 Y18.3962
G1 X29.534 Y18.8527
G1 X29.172 Y19.2793
G1 X28.776 Y19.6759
G1 X28.349 Y20.0375
G1 X27.893 Y20.3620
G1 X27.412 Y20.6496
G1 X26.909 Y20.8952
G1 X26.388 Y21.0988
G1 X25.851 Y21.2583
G1 X25.303 Y21.3739
G1 X24.930 Y21.4192
G1 X24.186 Y21.4653
G1 X23.629 Y21.4426
G1 X23.073 Y21.3732
G1 X22.525 Y21.2587
G1 X21.989 Y21.0983
G1 X21.467 Y20.8959
G1 X20.964 Y20.6495
G1 X20.483 Y20.3620
G1 X20.028 Y20.0376
G1 X19.741 Y19.7949
G1 X19.203 Y19.2770
G1 X18.843 Y18.8523
G1 X18.518 Y18.3969
G1 X18.231 Y17.9155
G1 X18.066 Y17.5788
G1 X17.781 Y16.8888
G1 X17.622 Y16.3541
G1 X17.507 Y15.8067
G1 X17.461 Y15.4330
G1 X17.415 Y14.6891
G1 X17.438 Y14.1324
G1 X17.507 Y13.5770
G1 X17.622 Y13.0295
G1 X17.782 Y12.4921
G1 X17.985 Y11.9717
G1 X18.231 Y11.4683
G1 X18.518 Y10.9878
G1 X18.843 Y10.5314
G1 X19.205 Y10.1040
G1 X19.601 Y9.7086
G1 X20.028 Y9.3461
G1 X20.334 Y9.1285
G1 X20.967 Y8.7335
G1 X21.467 Y8.4898
G1 X21.989 Y8.2854
G1 X22.525 Y8.1250
G1 X23.073 Y8.0106
G1 X23.629 Y7.9411
G1 X24.188 Y7.9187
G1 X24.564 Y7.9340
G1 X25.306 Y8.0111 F3500.000
G1 X25.851 Y8.1254
G1 X26.388 Y8.2850
G1 X26.909 Y8.4895
G1 X27.412 Y8.7341
G1 X27.893 Y9.0217
G1 X28.349 Y9.3463
G1 X28.635 Y9.5896
G1 X29.173 Y10.1066
G1 X29.597 Y10.6218
G1 Z1.950 F4000.000
G4F30
G1 X18.193 Y11.541 F4000.000
M50
G1 X18.516 Y10.9868 F3500.000
G1 X18.841 Y10.5304
G1 X19.203 Y10.1030
G1 X19.599 Y9.7076
G1 X20.027 Y9.3452
G1 X20.482 Y9.0198
G1 X20.834 Y8.8094
G1 X21.469 Y8.4861
G1 X21.988 Y8.2835
G1 X22.525 Y8.1231
G1 X23.073 Y8.0087
G1 X23.629 Y7.9393
G1 X24.188 Y7.9169
G1 X24.598 Y7.9335
G1 X25.306 Y8.0092 F3500.000
G1 X25.852 Y8.1236
G1 X26.388 Y8.2832
G1 X26.910 Y8.4878
G1 X27.413 Y8.7334
G1 X27.894 Y9.0190
G1 X28.350 Y9.3456
G1 X28.663 Y9.6092
G1 X29.175 Y10.1049
G1 X29.535 Y10.5303
G1 X29.861 Y10.9869
G1 X30.147 Y11.4675
G1 X30.393 Y11.9701
G1 X30.597 Y12.4917
G1 X30.757 Y13.0283
G1 X30.871 Y13.5769
G1 X30.941 Y14.1325
G1 X30.964 Y14.6921
G1 X30.941 Y15.2516
G1 X30.871 Y15.8072
G1 X30.757 Y16.3558
G1 X30.597 Y16.8924
G1 X30.393 Y17.4130
G1 X30.147 Y17.9166
G1 X29.861 Y18.3972
G1 X29.535 Y18.8538
G1 X29.173 Y19.2814
G1 X28.777 Y19.6760
G1 X28.350 Y20.0386
G1 X27.894 Y20.3642
G1 X27.413 Y20.6508
G1 X26.910 Y20.8964
G1 X26.388 Y21.1009
G1 X25.852 Y21.2605
G1 X25.303 Y21.3751
G1 X24.748 Y21.4447
G1 X24.338 Y21.4614
G1 X23.627 Y21.4441
G1 X23.073 Y21.3755
G1 X22.525 Y21.2601
G1 X21.988 Y21.1006
G1 X21.467 Y20.8962
G1 X20.963 Y20.6508
G1 X20.482 Y20.3644
G1 X20.027 Y20.0380
G1 X19.714 Y19.7747
G1 X19.202 Y19.2794
G1 X18.841 Y18.8538
G1 X18.516 Y18.3973
G1 X18.229 Y17.9169
G1 X18.049 Y17.5486
G1 X17.779 Y16.8893
G1 X17.620 Y16.3557
G1 X17.505 Y15.8073
G1 X17.454 Y15.4009
G1 X17.413 Y14.6896
G1 X17.436 Y14.1320
G1 X17.505 Y13.5766
G1 X17.620 Y13.0282
G1 X17.780 Y12.4918
G1 X17.983 Y11.9704
G1 X18.160 Y11.6093
G1 Z2.100 F4000.000
G4F30
G1 X24.759 Y7.946 F4000.000
M50
G1 X25.306 Y8.0076 F3500.000
G1 X25.852 Y8.1211
G1 X26.389 Y8.2817
G1 X26.911 Y8.4853
G1 X27.414 Y8.7319
G1 X27.895 Y9.0185
G1 X28.256 Y9.2755
G1 X28.780 Y9.7069
G1 X29.175 Y10.1013
G1 X29.537 Y10.5299
G1 X29.862 Y10.9855
G1 X30.149 Y11.4661
G1 X30.344 Y11.8642
G1 X30.599 Y12.4935
G1 X30.759 Y13.0289
G1 X30.873 Y13.5765
G1 X30.943 Y14.1321
G1 X30.966 Y14.6928
G1 X30.943 Y15.2514
G1 X30.873 Y15.8070
G1 X30.759 Y16.3556
G1 X30.599 Y16.8922
G1 X30.395 Y17.4148
G1 X30.149 Y17.9174
G1 X29.862 Y18.3990
G1 X29.605 Y18.7601
G1 X29.174 Y19.2834
G1 X28.779 Y19.6788
G1 X28.351 Y20.0404
G1 X27.895 Y20.3660
G1 X27.414 Y20.6527
G1 X27.016 Y20.8477
G1 X26.387 Y21.1020
G1 X25.852 Y21.2624
G1 X25.304 Y21.3771
G1 X24.748 Y21.4467
G1 X24.188 Y21.4693
G1 X23.629 Y21.4469
G1 X23.073 Y21.3775
G1 X22.524 Y21.2621
G1 X21.988 Y21.1027
G1 X21.466 Y20.8983
G1 X20.962 Y20.6529
G1 X20.481 Y20.3665
G1 X20.025 Y20.0402
G1 X19.687 Y19.7532
G1 X19.201 Y19.2815
G1 X18.840 Y18.8549
G1 X18.514 Y18.3996
G1 X18.273 Y17.9934
G1 X17.981 Y17.4139
G1 X17.778 Y16.8924
G1 X17.618 Y16.3550
G1 X17.503 Y15.8076
G1 X17.434 Y15.2512
G1 X17.415 Y14.8082
G1 X17.434 Y14.1305
G1 X17.503 Y13.5760
G1 X17.618 Y13.0286
G1 X17.778 Y12.4912
G1 X17.981 Y11.9698
G1 X18.227 Y11.4664
G1 X18.514 Y10.9840
G1 X18.840 Y10.5296
G1 X19.202 Y10.1013
G1 X19.598 Y9.7059
G1 X20.025 Y9.3435
G1 X20.386 Y9.0855
G1 X20.964 Y8.7308
G1 X21.466 Y8.4853
G1 X21.988 Y8.2819
G1 X22.524 Y8.1215
G1 X23.073 Y8.0061
G1 X23.629 Y7.9377
G1 X24.188 Y7.9143
G1 X24.631 Y7.9324
G1 X24.684 Y7.9386 F3500.000
G1 Z2.250 F4000.000
G4F30
G1 X18.138 Y11.645 F4000.000
M50
G1 X18.513 Y10.9834 F3500.000
G1 X18.838 Y10.5271
G1 X19.200 Y10.1007
G1 X19.596 Y9.7043
G1 X20.024 Y9.3410
G1 X20.413 Y9.0643
G1 X20.963 Y8.7283
G1 X21.465 Y8.4838
G1 X21.987 Y8.2794
G1 X22.524 Y8.1191
G1 X23.072 Y8.0047
G1 X23.628 Y7.9353
G1 X24.188 Y7.9129
G1 X24.665 Y7.9323
G1 X25.305 Y8.0053 F3500.000
G1 X25.853 Y8.1198
G1 X26.390 Y8.2794
G1 X26.912 Y8.4830
G1 X27.415 Y8.7297
G1 X27.896 Y9.0163
G1 X28.352 Y9.3419
G1 X28.717 Y9.6503
G1 X29.177 Y10.1013
G1 X29.538 Y10.5278
G1 X29.864 Y10.9834
G1 X30.108 Y11.3938
G1 X30.397 Y11.9698
G1 X30.601 Y12.4903
G1 X30.761 Y13.0279
G1 X30.876 Y13.5765
G1 X30.935 Y14.0499
G1 X30.968 Y14.6939
G1 X30.945 Y15.2514
G1 X30.876 Y15.8070
G1 X30.761 Y16.3566
G1 X30.601 Y16.8933
G1 X30.397 Y17.4159
G1 X30.151 Y17.9185
G1 X29.864 Y18.4001
G1 X29.538 Y18.8568
G1 X29.230 Y19.2202
G1 X28.779 Y19.6801
G1 X28.352 Y20.0426
G1 X27.896 Y20.3672
G1 X27.415 Y20.6549
G1 X26.912 Y20.9005
G1 X26.390 Y21.1041
G1 X25.853 Y21.2647
G1 X25.304 Y21.3794
G1 X24.830 Y21.4388
G1 X24.187 Y21.4717
G1 X23.628 Y21.4482
G1 X23.072 Y21.3799
G1 X22.524 Y21.2645
G1 X21.987 Y21.1041
G1 X21.465 Y20.9007
G1 X20.961 Y20.6544
G1 X20.480 Y20.3670
G1 X20.024 Y20.0426
G1 X19.660 Y19.7330
G1 X19.199 Y19.2820
G1 X18.838 Y18.8565
G1 X18.513 Y18.4001
G1 X18.226 Y17.9187
G1 X17.980 Y17.4153
G1 X17.776 Y16.8930
G1 X17.616 Y16.3566
G1 X17.501 Y15.8072
G1 X17.442 Y15.3346
G1 X17.409 Y14.6906
G1 X17.432 Y14.1321
G1 X17.501 Y13.5767
G1 X17.616 Y13.0273
G1 X17.776 Y12.4900
G1 X17.980 Y11.9686
G1 X18.105 Y11.7129
G1 Z2.400 F4000.000
G4F30
G1 X17.902 Y17.215 F4000.000
M50
G1 X17.774 Y16.8934 F3500.000
G1 X17.614 Y16.3560
G1 X17.499 Y15.8087
G1 X17.436 Y15.3014
G1 X17.407 Y14.6910
G1 X17.430 Y14.1316
G1 X17.499 Y13.5752
G1 X17.614 Y13.0279
G1 X17.774 Y12.4895
G1 X17.978 Y11.9671
G1 X18.224 Y11.4648
G1 X18.511 Y10.9824
G1 X18.836 Y10.5261
G1 X19.199 Y10.0987
G1 X19.595 Y9.7024
G1 X20.023 Y9.3400
G1 X20.479 Y9.0146
G1 X20.918 Y8.7524
G1 X21.465 Y8.4810
G1 X21.986 Y8.2776
G1 X22.523 Y8.1172
G1 X23.072 Y8.0029
G1 X23.628 Y7.9335
G1 X24.188 Y7.9101
G1 X24.699 Y7.9319
G1 X25.305 Y8.0025 F3500.000
G1 X25.853 Y8.1171
G1 X26.390 Y8.2777
G1 X26.912 Y8.4813
G1 X27.416 Y8.7270
G1 X27.898 Y9.0146
G1 X28.354 Y9.3403
G1 X28.744 Y9.6700
G1 X29.178 Y10.0996
G1 X29.540 Y10.5262
G1 X29.866 Y10.9828
G1 X30.127 Y11.4216
G1 X30.399 Y11.9682
G1 X30.603 Y12.4897
G1 X30.763 Y13.0274
G1 X30.878 Y13.5750
G1 X30.947 Y14.1317
G1 X30.968 Y14.6424
G1 X30.947 Y15.2520
G1 X30.878 Y15.8086
G1 X30.763 Y16.3562
G1 X30.603 Y16.8949
G1 X30.399 Y17.4165
G1 X30.153 Y17.9192
G1 X29.866 Y18.4018
G1 X29.540 Y18.8575
G1 X29.210 Y19.2472
G1 X28.781 Y19.6828
G1 X28.354 Y20.0434
G1 X27.898 Y20.3690
G1 X27.458 Y20.6318
G1 X26.912 Y20.9024
G1 X26.390 Y21.1069
G1 X25.853 Y21.2666
G1 X25.305 Y21.3812
G1 X24.797 Y21.4440
G1 X24.187 Y21.4736
G1 X23.628 Y21.4501
G1 X23.072 Y21.3818
G1 X22.523 Y21.2664
G1 X21.986 Y21.1061
G1 X21.464 Y20.9027
G1 X20.960 Y20.6563
G1 X20.479 Y20.3690
G1 X20.023 Y20.0436
G1 X19.633 Y19.7134
G1 X19.198 Y19.2840
G1 X18.836 Y18.8575
G1 X18.511 Y18.4012
G1 X18.224 Y17.9198
G1 X17.930 Y17.2853
G1 Z2.550 F4000.000
G4F30
G1 X25.086 Y21.409 F4000.000
M50
G1 X24.748 Y21.4528 F3500.000
G1 X24.188 Y21.4755
G1 X23.628 Y21.4521
G1 X23.072 Y21.3838
G1 X22.523 Y21.2684
G1 X21.986 Y21.1081
G1 X21.463 Y20.9048
G1 X20.960 Y20.6584
G1 X20.478 Y20.3711
G1 X20.022 Y20.0457
G1 X19.594 Y19.6834
G1 X19.197 Y19.2861
G1 X18.835 Y18.8587
G1 X18.509 Y18.4024
G1 X18.222 Y17.9200
G1 X17.976 Y17.4177
G1 X17.772 Y16.8944
G1 X17.612 Y16.3570
G1 X17.497 Y15.8087
G1 X17.428 Y15.2524
G1 X17.404 Y14.6920
G1 X17.428 Y14.1317
G1 X17.497 Y13.5753
G1 X17.612 Y13.0260
G1 X17.772 Y12.4897
G1 X17.976 Y11.9663
G1 X18.215 Y11.4774
G1 X18.509 Y10.9817
G1 X18.835 Y10.5253
G1 X19.197 Y10.0970
G1 X19.594 Y9.7006
G1 X20.022 Y9.3383
G1 X20.478 Y9.0129
G1 X20.946 Y8.7330
G1 X21.463 Y8.4793
G1 X21.986 Y8.2759
G1 X22.523 Y8.1156
G1 X23.072 Y8.0002
G1 X23.628 Y7.9319
G1 X24.188 Y7.9085
G1 X24.733 Y7.9306
G1 X25.305 Y8.0009 F3500.000
G1 X25.854 Y8.1155
G1 X26.391 Y8.2752
G1 X26.913 Y8.4798
G1 X27.417 Y8.7255
G1 X27.899 Y9.0122
G1 X28.355 Y9.3388
G1 X28.771 Y9.6909
G1 X29.179 Y10.0972
G1 X29.542 Y10.5258
G1 X29.867 Y10.9815
G1 X30.154 Y11.4631
G1 X30.394 Y11.9522
G1 X30.605 Y12.4895
G1 X30.765 Y13.0261
G1 X30.880 Y13.5758
G1 X30.949 Y14.1314
G1 X30.972 Y14.6921
G1 X30.949 Y15.2527
G1 X30.880 Y15.8084
G1 X30.765 Y16.3571
G1 X30.605 Y16.8947
G1 X30.401 Y17.4174
G1 X30.154 Y17.9200
G1 X29.867 Y18.4027
G1 X29.542 Y18.8584
G1 X29.179 Y19.2860
G1 X28.783 Y19.6837
G1 X28.355 Y20.0453
G1 X27.899 Y20.3710
G1 X27.417 Y20.6587
G1 X26.913 Y20.9043
G1 X26.391 Y21.1080
G1 X25.854 Y21.2687
G1 X25.161 Y21.4007
G1 Z2.700 F4000.000
G4F30
G1 X19.371 Y19.466 F4000.000
M50
G1 X19.194 Y19.2899 F3500.000
G1 X18.832 Y18.8615
G1 X18.496 Y18.3891
G1 X18.218 Y17.9220
G1 X17.972 Y17.4187
G1 X17.768 Y16.8963
G1 X17.608 Y16.3580
G1 X17.491 Y15.7915
G1 X17.423 Y15.2524
G1 X17.400 Y14.6921
G1 X17.423 Y14.1318
G1 X17.496 Y13.5573
G1 X17.608 Y13.0252
G1 X17.768 Y12.4879
G1 X17.972 Y11.9656
G1 X18.218 Y11.4613
G1 X18.505 Y10.9790
G1 X18.831 Y10.5227
G1 X19.194 Y10.0944
G1 X19.591 Y9.6971
G1 X20.019 Y9.3358
G1 X20.476 Y9.0095
G1 X20.957 Y8.7222
G1 X21.462 Y8.4758
G1 X21.984 Y8.2715
G1 X22.522 Y8.1112
G1 X23.071 Y7.9969
G1 X23.627 Y7.9276
G1 X24.206 Y7.9041
G1 X24.749 Y7.9270
G1 X25.306 Y7.9967 F3500.000
G1 X25.855 Y8.1114
G1 X26.392 Y8.2711
G1 X26.915 Y8.4758
G1 X27.419 Y8.7225
G1 X27.901 Y9.0092
G1 X28.358 Y9.3359
G1 X28.786 Y9.6976
G1 X29.182 Y10.0943
G1 X29.545 Y10.5220
G1 X29.871 Y10.9797
G1 X30.158 Y11.4614
G1 X30.405 Y11.9651
G1 X30.608 Y12.4877
G1 X30.772 Y13.0432
G1 X30.884 Y13.5741
G1 X30.953 Y14.1318
G1 X30.976 Y14.6925
G1 X30.953 Y15.2522
G1 X30.880 Y15.8267
G1 X30.769 Y16.3586
G1 X30.609 Y16.8963
G1 X30.405 Y17.4180
G1 X30.158 Y17.9227
G1 X29.871 Y18.4044
G1 X29.545 Y18.8611
G1 X29.182 Y19.2898
G1 X28.786 Y19.6865
G1 X28.358 Y20.0482
G1 X27.901 Y20.3749
G1 X27.419 Y20.6616
G1 X26.915 Y20.9083
G1 X26.393 Y21.1129
G1 X25.837 Y21.2764
G1 X25.306 Y21.3873
G1 X24.749 Y21.4560
G1 X24.188 Y21.4807
G1 X23.628 Y21.4564
G1 X23.053 Y21.3839
G1 X22.522 Y21.2728
G1 X21.984 Y21.1125
G1 X21.462 Y20.9082
G1 X20.957 Y20.6619
G1 X20.476 Y20.3746
G1 X20.019 Y20.0483
G1 X19.591 Y19.6860
G1 X19.424 Y19.5194
G1 Z2.850 F4000.000
G4F30
G1 X29.130 Y10.033 F4000.000
M50
G1 X29.550 Y10.5187 F3500.000
G1 X29.876 Y10.9754
G1 X30.164 Y11.4582
G1 X30.410 Y11.9629
G1 X30.614 Y12.4856
G1 X30.785 Y13.0756
G1 X30.890 Y13.5731
G1 X30.959 Y14.1309
G1 X30.983 Y14.6926
G1 X30.959 Y15.2523
G1 X30.879 Y15.8613
G1 X30.775 Y16.3599
G1 X30.614 Y16.8986
G1 X30.410 Y17.4214
G1 X30.164 Y17.9251
G1 X29.876 Y18.4088
G1 X29.550 Y18.8645
G1 X29.150 Y19.3305
G1 X28.790 Y19.6901
G1 X28.361 Y20.0538
G1 X27.904 Y20.3796
G1 X27.422 Y20.6673
G1 X26.917 Y20.9141
G1 X26.394 Y21.1188
G1 X25.856 Y21.2785
G1 X25.307 Y21.3933
G1 X24.749 Y21.4630
G1 X24.188 Y21.4868
G1 X23.628 Y21.4634
G1 X23.019 Y21.3825
G1 X22.520 Y21.2780
G1 X21.982 Y21.1188
G1 X21.459 Y20.9145
G1 X20.955 Y20.6672
G1 X20.472 Y20.3790
G1 X20.016 Y20.0547
G1 X19.550 Y19.6537
G1 X19.190 Y19.2932
G1 X18.827 Y18.8650
G1 X18.500 Y18.4087
G1 X18.213 Y17.9255
G1 X17.966 Y17.4212
G1 X17.762 Y16.8989
G1 X17.602 Y16.3597
G1 X17.487 Y15.8104
G1 X17.417 Y15.2532
G1 X17.394 Y14.6929
G1 X17.417 Y14.1316
G1 X17.497 Y13.5226
G1 X17.602 Y13.0242
G1 X17.762 Y12.4859
G1 X17.966 Y11.9626
G1 X18.213 Y11.4584
G1 X18.500 Y10.9751
G1 X18.827 Y10.5189
G1 X19.190 Y10.0906
G1 X19.587 Y9.6934
G1 X20.015 Y9.3301
G1 X20.472 Y9.0049
G1 X20.955 Y8.7166
G1 X21.459 Y8.4694
G1 X21.982 Y8.2651
G1 X22.520 Y8.1059
G1 X23.070 Y7.9906
G1 X23.626 Y7.9213
G1 X24.241 Y7.8993
G1 X24.749 Y7.9208
G1 X25.307 Y7.9906 F3500.000
G1 X25.856 Y8.1053
G1 X26.394 Y8.2651
G1 X26.917 Y8.4698
G1 X27.422 Y8.7166
G1 X27.904 Y9.0043
G1 X28.361 Y9.3300
G1 X28.790 Y9.6938
G1 X29.077 Y9.9801
G1 Z3.000 F4000.000
G4F30
G1 X17.855 Y12.232 F4000.000
M50
G1 X17.961 Y11.9600 F3500.000
G1 X18.207 Y11.4566
G1 X18.545 Y10.9021
G1 X18.822 Y10.5153
G1 X19.185 Y10.0861
G1 X19.582 Y9.6889
G1 X20.011 Y9.3257
G1 X20.469 Y8.9985
G1 X20.952 Y8.7113
G1 X21.457 Y8.4641
G1 X21.980 Y8.2609
G1 X22.519 Y8.0997
G1 X23.069 Y7.9845
G1 X23.626 Y7.9142
G1 X24.228 Y7.8930
G1 X24.750 Y7.9149
G1 X25.308 Y7.9847 F3500.000
G1 X25.858 Y8.0995
G1 X26.396 Y8.2603
G1 X26.920 Y8.4641
G1 X27.425 Y8.7119
G1 X27.908 Y8.9987
G1 X28.365 Y9.3255
G1 X28.794 Y9.6882
G1 X29.192 Y10.0860
G1 X29.555 Y10.5158
G1 X29.881 Y10.9726
G1 X30.169 Y11.4554
G1 X30.416 Y11.9602
G1 X30.620 Y12.4829
G1 X30.798 Y13.1074
G1 X30.896 Y13.5726
G1 X30.966 Y14.1304
G1 X30.989 Y14.6922
G1 X30.966 Y15.2530
G1 X30.896 Y15.8107
G1 X30.756 Y16.4442
G1 X30.620 Y16.9004
G1 X30.416 Y17.4232
G1 X30.169 Y17.9289
G1 X29.881 Y18.4117
G1 X29.555 Y18.8685
G1 X29.192 Y19.2973
G1 X28.794 Y19.6951
G1 X28.365 Y20.0589
G1 X27.908 Y20.3857
G1 X27.425 Y20.6725
G1 X26.920 Y20.9193
G1 X26.398 Y21.1230
G1 X25.773 Y21.3025
G1 X25.308 Y21.3997
G1 X24.750 Y21.4695
G1 X24.188 Y21.4923
G1 X23.627 Y21.4691
G1 X23.069 Y21.3999
G1 X22.519 Y21.2847
G1 X21.980 Y21.1245
G1 X21.457 Y20.9193
G1 X20.952 Y20.6721
G1 X20.469 Y20.3859
G1 X20.011 Y20.0587
G1 X19.583 Y19.6963
G1 X19.129 Y19.2318
G1 X18.822 Y18.8680
G1 X18.495 Y18.4118
G1 X18.207 Y17.9286
G1 X17.961 Y17.4234
G1 X17.756 Y16.9002
G1 X17.596 Y16.3610
G1 X17.481 Y15.8118
G1 X17.411 Y15.2536
G1 X17.388 Y14.6924
G1 X17.411 Y14.1311
G1 X17.498 Y13.4876
G1 X17.596 Y13.0228
G1 X17.827 Y12.3019
G1 Z3.150 F4000.000
G4F30
G1 X19.450 Y19.571 F4000.000
M50
G1 X19.180 Y19.3028 F3500.000
G1 X18.817 Y18.8726
G1 X18.490 Y18.4145
G1 X18.202 Y17.9313
G1 X17.955 Y17.4262
G1 X17.751 Y16.9038
G1 X17.565 Y16.2448
G1 X17.474 Y15.8127
G1 X17.405 Y15.2545
G1 X17.382 Y14.6924
G1 X17.405 Y14.1310
G1 X17.499 Y13.4530
G1 X17.590 Y13.0219
G1 X17.750 Y12.4817
G1 X17.955 Y11.9576
G1 X18.202 Y11.4524
G1 X18.490 Y10.9693
G1 X18.817 Y10.5111
G1 X19.180 Y10.0810
G1 X19.578 Y9.6848
G1 X20.008 Y9.3207
G1 X20.465 Y8.9935
G1 X20.949 Y8.7054
G1 X21.454 Y8.4582
G1 X21.978 Y8.2541
G1 X22.517 Y8.0939
G1 X23.068 Y7.9788
G1 X23.624 Y7.9084
G1 X24.309 Y7.8904
G1 X24.750 Y7.9083
G1 X25.309 Y7.9781 F3500.000
G1 X25.859 Y8.0930
G1 X26.398 Y8.2548
G1 X26.922 Y8.4587
G1 X27.428 Y8.7055
G1 X27.911 Y8.9934
G1 X28.369 Y9.3202
G1 X28.798 Y9.6840
G1 X29.196 Y10.0819
G1 X29.560 Y10.5117
G1 X29.887 Y10.9696
G1 X30.175 Y11.4524
G1 X30.422 Y11.9573
G1 X30.626 Y12.4811
G1 X30.787 Y13.0210
G1 X30.902 Y13.5718
G1 X30.972 Y14.1297
G1 X30.995 Y14.6925
G1 X30.972 Y15.2544
G1 X30.902 Y15.8122
G1 X30.787 Y16.3621
G1 X30.626 Y16.9029
G1 X30.422 Y17.4268
G1 X30.175 Y17.9316
G1 X29.887 Y18.4145
G1 X29.561 Y18.8711
G1 X29.111 Y19.3871
G1 X28.798 Y19.6990
G1 X28.369 Y20.0638
G1 X27.911 Y20.3907
G1 X27.428 Y20.6785
G1 X26.922 Y20.9254
G1 X26.398 Y21.1292
G1 X25.859 Y21.2901
G1 X25.309 Y21.4059
G1 X24.750 Y21.4758
G1 X24.188 Y21.4986
G1 X23.626 Y21.4754
G1 X23.068 Y21.4053
G1 X22.517 Y21.2901
G1 X21.978 Y21.1290
G1 X21.454 Y20.9258
G1 X20.950 Y20.6795
G1 X20.367 Y20.3205
G1 X20.008 Y20.0633
G1 X19.503 Y19.6248
G1 Z3.300 F4000.000
G4F30
G1 X18.706 Y10.655 F4000.000
M50
G1 X19.176 Y10.0779 F3500.000
G1 X19.574 Y9.6798
G1 X20.004 Y9.3157
G1 X20.462 Y8.9886
G1 X20.946 Y8.7005
G1 X21.452 Y8.4524
G1 X21.976 Y8.2483
G1 X22.516 Y8.0872
G1 X23.067 Y7.9721
G1 X23.623 Y7.9028
G1 X24.344 Y7.8853
G1 X24.751 Y7.9028
G1 X25.310 Y7.9727 F3500.000
G1 X25.861 Y8.0875
G1 X26.400 Y8.2484
G1 X26.925 Y8.4523
G1 X27.431 Y8.7002
G1 X27.913 Y8.9879
G1 X28.491 Y9.4164
G1 X28.802 Y9.6799
G1 X29.201 Y10.0778
G1 X29.565 Y10.5077
G1 X29.892 Y10.9656
G1 X30.180 Y11.4495
G1 X30.427 Y11.9554
G1 X30.631 Y12.4771
G1 X30.825 Y13.1716
G1 X30.908 Y13.5700
G1 X30.978 Y14.1299
G1 X31.001 Y14.6928
G1 X30.978 Y15.2547
G1 X30.908 Y15.8114
G1 X30.748 Y16.5139
G1 X30.632 Y16.9044
G1 X30.427 Y17.4283
G1 X30.180 Y17.9342
G1 X29.892 Y18.4181
G1 X29.565 Y18.8760
G1 X29.201 Y19.3069
G1 X28.802 Y19.7048
G1 X28.373 Y20.0687
G1 X27.915 Y20.3956
G1 X27.431 Y20.6835
G1 X26.925 Y20.9314
G1 X26.400 Y21.1353
G1 X25.861 Y21.2962
G1 X25.310 Y21.4111
G1 X24.751 Y21.4810
G1 X24.188 Y21.5049
G1 X23.628 Y21.4816
G1 X22.915 Y21.3801
G1 X22.516 Y21.2965
G1 X21.976 Y21.1354
G1 X21.452 Y20.9313
G1 X20.946 Y20.6832
G1 X20.462 Y20.3951
G1 X20.005 Y20.0698
G1 X19.464 Y19.5943
G1 X19.176 Y19.3068
G1 X18.812 Y18.8767
G1 X18.485 Y18.4186
G1 X18.197 Y17.9345
G1 X17.950 Y17.4302
G1 X17.700 Y16.7557
G1 X17.584 Y16.3641
G1 X17.468 Y15.8130
G1 X17.399 Y15.2549
G1 X17.375 Y14.6928
G1 X17.399 Y14.1297
G1 X17.468 Y13.5706
G1 X17.584 Y13.0195
G1 X17.745 Y12.4794
G1 X17.949 Y11.9553
G1 X18.196 Y11.4510
G1 X18.663 Y10.7164
G1 Z3.450 F4000.000
G4F30
G1 X23.555 Y7.904 F4000.000
M50
G1 X24.378 Y7.8807 F3500.000
G1 X24.751 Y7.8968
G1 X25.311 Y7.9658 F3500.000
G1 X25.862 Y8.0817
G1 X26.402 Y8.2427
G1 X26.927 Y8.4476
G1 X27.434 Y8.6946
G1 X27.918 Y8.9835
G1 X28.377 Y9.3105
G1 X28.807 Y9.6754
G1 X29.205 Y10.0734
G1 X29.569 Y10.5033
G1 X29.897 Y10.9623
G1 X30.185 Y11.4462
G1 X30.433 Y11.9522
G1 X30.638 Y12.4771
G1 X30.799 Y13.0181
G1 X30.914 Y13.5690
G1 X30.984 Y14.1280
G1 X31.007 Y14.6929
G1 X30.984 Y15.2559
G1 X30.915 Y15.8116
G1 X30.745 Y16.5476
G1 X30.638 Y16.9067
G1 X30.433 Y17.4316
G1 X30.185 Y17.9376
G1 X29.897 Y18.4215
G1 X29.569 Y18.8805
G1 X29.207 Y19.3082
G1 X28.662 Y19.8312
G1 X28.377 Y20.0733
G1 X27.918 Y20.4002
G1 X27.434 Y20.6892
G1 X26.927 Y20.9361
G1 X26.402 Y21.1411
G1 X25.865 Y21.3018
G1 X25.122 Y21.4418
G1 X24.751 Y21.4879
G1 X24.188 Y21.5118
G1 X23.625 Y21.4878
G1 X23.066 Y21.4187
G1 X22.514 Y21.3027
G1 X21.974 Y21.1416
G1 X21.451 Y20.9373
G1 X20.780 Y20.5923
G1 X20.459 Y20.4004
G1 X20.000 Y20.0734
G1 X19.570 Y19.7083
G1 X19.171 Y19.3103
G1 X18.807 Y18.8802
G1 X18.480 Y18.4212
G1 X18.191 Y17.9371
G1 X17.944 Y17.4311
G1 X17.739 Y16.9060
G1 X17.578 Y16.3660
G1 X17.462 Y15.8149
G1 X17.392 Y15.2559
G1 X17.369 Y14.6928
G1 X17.392 Y14.1288
G1 X17.462 Y13.5697
G1 X17.578 Y13.0186
G1 X17.739 Y12.4776
G1 X17.944 Y11.9525
G1 X18.191 Y11.4465
G1 X18.480 Y10.9624
G1 X18.807 Y10.5034
G1 X19.171 Y10.0733
G1 X19.570 Y9.6753
G1 X20.000 Y9.3102
G1 X20.459 Y8.9832
G1 X20.943 Y8.6941
G1 X21.449 Y8.4471
G1 X21.974 Y8.2420
G1 X22.514 Y8.0810
G1 X23.066 Y7.9659
G1 X23.481 Y7.9144
G1 Z3.600 F4000.000
G4F30
G1 X29.504 Y10.417 F4000.000
M50
G1 X29.902 Y10.9587 F3500.000
G1 X30.191 Y11.4437
G1 X30.439 Y11.9507
G1 X30.644 Y12.4757
G1 X30.805 Y13.0167
G1 X30.920 Y13.5687
G1 X30.990 Y14.1287
G1 X31.014 Y14.6927
G1 X30.990 Y15.2557
G1 X30.920 Y15.8157
G1 X30.805 Y16.3677
G1 X30.644 Y16.9087
G1 X30.439 Y17.4337
G1 X30.191 Y17.9407
G1 X29.902 Y18.4257
G1 X29.574 Y18.8847
G1 X29.210 Y19.3147
G1 X28.811 Y19.7137
G1 X28.380 Y20.0787
G1 X27.921 Y20.4057
G1 X27.437 Y20.6947
G1 X26.930 Y20.9427
G1 X26.404 Y21.1477
G1 X25.864 Y21.3087
G1 X25.652 Y21.3522
G1 X25.312 Y21.4247
G1 X24.752 Y21.4937
G1 X24.188 Y21.5177
G1 X23.625 Y21.4937
G1 X23.065 Y21.4247
G1 X22.513 Y21.3087
G1 X21.972 Y21.1477
G1 X21.447 Y20.9427
G1 X20.940 Y20.6947
G1 X20.455 Y20.4057
G1 X19.996 Y20.0787
G1 X19.566 Y19.7137
G1 X19.167 Y19.3147
G1 X18.802 Y18.8847
G1 X18.474 Y18.4257
G1 X18.186 Y17.9407
G1 X17.938 Y17.4337
G1 X17.733 Y16.9087
G1 X17.572 Y16.3677
G1 X17.456 Y15.8157
G1 X17.386 Y15.2557
G1 X17.363 Y14.6927
G1 X17.386 Y14.1287
G1 X17.456 Y13.5687
G1 X17.572 Y13.0167
G1 X17.733 Y12.4757
G1 X17.938 Y11.9507
G1 X18.186 Y11.4437
G1 X18.474 Y10.9587
G1 X18.802 Y10.4997
G1 X19.167 Y10.0697
G1 X19.566 Y9.6707
G1 X19.996 Y9.3057
G1 X20.455 Y8.9787
G1 X20.940 Y8.6897
G1 X21.447 Y8.4417
G1 X21.972 Y8.2367
G1 X22.513 Y8.0757
G1 X23.065 Y7.9597
G1 X23.625 Y7.8907
G1 X24.188 Y7.8667
G1 X24.457 Y7.8774
G1 X24.752 Y7.8907 F3500.000
G1 X25.312 Y7.9597
G1 X25.864 Y8.0757
G1 X26.404 Y8.2367
G1 X26.930 Y8.4417
G1 X27.437 Y8.6897
G1 X27.921 Y8.9787
G1 X28.380 Y9.3057
G1 X28.811 Y9.6707
G1 X29.210 Y10.0697
G1 X29.456 Y10.3606
G1 Z3.750 F4000.000
G4F30
G1 X26.652 Y21.057 F4000.000
M50
G1 X26.406 Y21.1532 F3500.000
G1 X25.865 Y21.3142
G1 X25.313 Y21.4303
G1 X24.752 Y21.5003
G1 X24.188 Y21.5234
G1 X23.624 Y21.5004
G1 X23.064 Y21.4305
G1 X22.511 Y21.3145
G1 X21.970 Y21.1536
G1 X21.444 Y20.9486
G1 X20.937 Y20.7007
G1 X20.452 Y20.4117
G1 X19.992 Y20.0838
G1 X19.561 Y19.7188
G1 X19.162 Y19.3189
G1 X18.797 Y18.8889
G1 X18.469 Y18.4280
G1 X18.180 Y17.9430
G1 X17.932 Y17.4361
G1 X17.727 Y16.9102
G1 X17.566 Y16.3692
G1 X17.450 Y15.8163
G1 X17.380 Y15.2563
G1 X17.357 Y14.6924
G1 X17.380 Y14.1274
G1 X17.450 Y13.5675
G1 X17.566 Y13.0145
G1 X17.727 Y12.4736
G1 X17.932 Y11.9476
G1 X18.180 Y11.4407
G1 X18.469 Y10.9557
G1 X18.797 Y10.4968
G1 X19.162 Y10.0658
G1 X19.561 Y9.6659
G1 X19.992 Y9.3019
G1 X20.452 Y8.9720
G1 X20.937 Y8.6830
G1 X21.444 Y8.4351
G1 X21.970 Y8.2301
G1 X22.511 Y8.0692
G1 X23.064 Y7.9532
G1 X23.624 Y7.8833
G1 X24.188 Y7.8603
G1 X24.440 Y7.8703
G1 X24.752 Y7.8834 F3500.000
G1 X25.313 Y7.9534
G1 X25.865 Y8.0695
G1 X26.406 Y8.2305
G1 X26.932 Y8.4356
G1 X27.440 Y8.6836
G1 X27.925 Y8.9727
G1 X28.384 Y9.3017
G1 X28.815 Y9.6658
G1 X29.214 Y10.0658
G1 X29.579 Y10.4969
G1 X29.907 Y10.9559
G1 X30.196 Y11.4400
G1 X30.444 Y11.9470
G1 X30.650 Y12.4731
G1 X30.811 Y13.0151
G1 X30.927 Y13.5672
G1 X30.996 Y14.1273
G1 X31.020 Y14.6923
G1 X30.996 Y15.2564
G1 X30.927 Y15.8164
G1 X30.811 Y16.3695
G1 X30.650 Y16.9105
G1 X30.444 Y17.4366
G1 X30.196 Y17.9436
G1 X29.907 Y18.4287
G1 X29.579 Y18.8887
G1 X29.214 Y19.3188
G1 X28.815 Y19.7188
G1 X28.384 Y20.0839
G1 X27.925 Y20.4119
G1 X27.440 Y20.7000
G1 X26.932 Y20.9480
G1 X26.722 Y21.0304
G1 Z3.900 F4000.000
G4F30
G1 X28.613 Y19.897 F4000.000
M50
G1 X28.388 Y20.0872 F3500.000
G1 X27.928 Y20.4163
G1 X27.443 Y20.7054
G1 X26.935 Y20.9535
G1 X26.408 Y21.1597
G1 X25.867 Y21.3208
G1 X25.314 Y21.4369
G1 X24.753 Y21.5060
G1 X24.188 Y21.5291
G1 X23.624 Y21.5062
G1 X23.063 Y21.4363
G1 X22.510 Y21.3204
G1 X21.968 Y21.1595
G1 X21.442 Y20.9536
G1 X20.934 Y20.7057
G1 X20.448 Y20.4168
G1 X20.215 Y20.2492
G1 X19.988 Y20.0879
G1 X19.557 Y19.7220
G1 X19.158 Y19.3231
G1 X18.792 Y18.8912
G1 X18.464 Y18.4313
G1 X18.175 Y17.9464
G1 X17.927 Y17.4385
G1 X17.721 Y16.9126
G1 X17.560 Y16.3707
G1 X17.444 Y15.8178
G1 X17.374 Y15.2569
G1 X17.351 Y14.6920
G1 X17.374 Y14.1271
G1 X17.444 Y13.5662
G1 X17.560 Y13.0133
G1 X17.721 Y12.4714
G1 X17.927 Y11.9455
G1 X18.175 Y11.4376
G1 X18.464 Y10.9527
G1 X18.792 Y10.4928
G1 X19.158 Y10.0609
G1 X19.557 Y9.6610
G1 X19.988 Y9.2961
G1 X20.448 Y8.9672
G1 X20.934 Y8.6783
G1 X21.442 Y8.4304
G1 X21.968 Y8.2245
G1 X22.510 Y8.0636
G1 X23.063 Y7.9477
G1 X23.624 Y7.8778
G1 X24.188 Y7.8549
G1 X24.474 Y7.8664
G1 X24.753 Y7.8770 F3500.000
G1 X25.314 Y7.9471
G1 X25.867 Y8.0632
G1 X26.408 Y8.2243
G1 X26.935 Y8.4304
G1 X27.443 Y8.6786
G1 X27.928 Y8.9677
G1 X28.388 Y9.2968
G1 X28.819 Y9.6619
G1 X29.219 Y10.0600
G1 X29.584 Y10.4921
G1 X29.751 Y10.7255
G1 X29.913 Y10.9522
G1 X30.202 Y11.4373
G1 X30.450 Y11.9454
G1 X30.655 Y12.4715
G1 X30.817 Y13.0136
G1 X30.933 Y13.5667
G1 X31.003 Y14.1278
G1 X31.026 Y14.6929
G1 X31.003 Y15.2560
G1 X30.933 Y15.8171
G1 X30.817 Y16.3702
G1 X30.655 Y16.9123
G1 X30.450 Y17.4384
G1 X30.202 Y17.9465
G1 X29.913 Y18.4316
G1 X29.584 Y18.8917
G1 X29.219 Y19.3238
G1 X28.670 Y19.8493
G1 Z4.050 F4000.000
G4F30
G1 X26.527 Y8.264 F4000.000
M50
G1 X26.937 Y8.4247 F3500.000
G1 X27.446 Y8.6739
G1 X27.931 Y8.9620
G1 X28.392 Y9.2912
G1 X28.823 Y9.6563
G1 X29.223 Y10.0565
G1 X29.589 Y10.4887
G1 X29.918 Y10.9488
G1 X30.207 Y11.4340
G1 X30.456 Y11.9421
G1 X30.661 Y12.4693
G1 X30.823 Y13.0114
G1 X30.939 Y13.5656
G1 X31.009 Y14.1267
G1 X31.032 Y14.6929
G1 X31.009 Y15.2570
G1 X30.939 Y15.8182
G1 X30.823 Y16.3723
G1 X30.661 Y16.9145
G1 X30.456 Y17.4416
G1 X30.207 Y17.9498
G1 X29.918 Y18.4359
G1 X29.589 Y18.8951
G1 X29.223 Y19.3273
G1 X28.823 Y19.7274
G1 X28.578 Y19.9343
G1 X28.392 Y20.0926
G1 X27.931 Y20.4217
G1 X27.446 Y20.7119
G1 X26.937 Y20.9590
G1 X26.410 Y21.1652
G1 X25.868 Y21.3263
G1 X25.315 Y21.4425
G1 X24.753 Y21.5126
G1 X24.188 Y21.5358
G1 X23.623 Y21.5129
G1 X23.062 Y21.4421
G1 X22.508 Y21.3262
G1 X21.966 Y21.1654
G1 X21.439 Y20.9595
G1 X20.931 Y20.7117
G1 X20.445 Y20.4219
G1 X19.985 Y20.0920
G1 X19.553 Y19.7272
G1 X19.153 Y19.3273
G1 X18.787 Y18.8955
G1 X18.459 Y18.4356
G1 X18.169 Y17.9498
G1 X17.921 Y17.4419
G1 X17.715 Y16.9141
G1 X17.554 Y16.3722
G1 X17.438 Y15.8184
G1 X17.398 Y15.4993
G1 X17.368 Y15.2575
G1 X17.344 Y14.6927
G1 X17.368 Y14.1268
G1 X17.438 Y13.5650
G1 X17.554 Y13.0111
G1 X17.715 Y12.4693
G1 X17.921 Y11.9425
G1 X18.169 Y11.4346
G1 X18.459 Y10.9488
G1 X18.787 Y10.4889
G1 X19.153 Y10.0561
G1 X19.553 Y9.6562
G1 X19.985 Y9.2914
G1 X20.445 Y8.9625
G1 X20.721 Y8.7984
G1 X20.931 Y8.6737
G1 X21.439 Y8.4248
G1 X21.966 Y8.2180
G1 X22.508 Y8.0571
G1 X23.062 Y7.9413
G1 X23.623 Y7.8714
G1 X24.188 Y7.8486
G1 X24.509 Y7.8615
G1 X24.753 Y7.8717 F3500.000
G1 X25.315 Y7.9419
G1 X25.868 Y8.0571
G1 X26.457 Y8.2372
G1 Z4.200 F4000.000
G4F30
G1 X20.662 Y8.826 F4000.000
M50
G1 X20.928 Y8.6678 F3500.000
G1 X21.437 Y8.4180
G1 X21.964 Y8.2132
G1 X22.507 Y8.0514
G1 X23.061 Y7.9356
G1 X23.623 Y7.8658
G1 X24.188 Y7.8410
G1 X24.544 Y7.8563
G1 X24.754 Y7.8652 F3500.000
G1 X25.316 Y7.9354
G1 X25.870 Y8.0516
G1 X26.412 Y8.2138
G1 X26.940 Y8.4180
G1 X27.449 Y8.6672
G1 X27.935 Y8.9574
G1 X28.396 Y9.2866
G1 X28.828 Y9.6528
G1 X29.228 Y10.0520
G1 X29.594 Y10.4842
G1 X29.923 Y10.9454
G1 X30.213 Y11.4316
G1 X30.369 Y11.7510
G1 X30.461 Y11.9408
G1 X30.667 Y12.4671
G1 X30.829 Y13.0103
G1 X30.945 Y13.5645
G1 X31.015 Y14.1267
G1 X31.038 Y14.6929
G1 X31.015 Y15.2571
G1 X30.945 Y15.8193
G1 X30.829 Y16.3735
G1 X30.667 Y16.9167
G1 X30.461 Y17.4439
G1 X30.213 Y17.9521
G1 X29.923 Y18.4383
G1 X29.594 Y18.8995
G1 X29.228 Y19.3317
G1 X28.828 Y19.7319
G1 X28.396 Y20.0971
G1 X27.935 Y20.4263
G1 X27.449 Y20.7165
G1 X26.940 Y20.9657
G1 X26.412 Y21.1709
G1 X25.870 Y21.3321
G1 X25.316 Y21.4483
G1 X24.754 Y21.5185
G1 X24.188 Y21.5427
G1 X23.623 Y21.5189
G1 X23.061 Y21.4481
G1 X22.507 Y21.3323
G1 X21.964 Y21.1706
G1 X21.437 Y20.9658
G1 X20.928 Y20.7160
G1 X20.442 Y20.4262
G1 X19.981 Y20.0974
G1 X19.549 Y19.7316
G1 X19.149 Y19.3318
G1 X18.918 Y19.0591
G1 X18.783 Y18.8990
G1 X18.454 Y18.4382
G1 X18.164 Y17.9524
G1 X17.915 Y17.4436
G1 X17.709 Y16.9168
G1 X17.548 Y16.3730
G1 X17.432 Y15.8192
G1 X17.362 Y15.2574
G1 X17.338 Y14.6926
G1 X17.362 Y14.1268
G1 X17.432 Y13.5640
G1 X17.548 Y13.0102
G1 X17.709 Y12.4674
G1 X17.915 Y11.9406
G1 X18.164 Y11.4318
G1 X18.454 Y10.9450
G1 X18.783 Y10.4842
G1 X19.149 Y10.0524
G1 X19.549 Y9.6526
G1 X19.981 Y9.2869
G1 X20.597 Y8.8640
G1 Z4.350 F4000.000
G4F30
G1 X28.288 Y9.202 F4000.000
M50
G1 X28.832 Y9.6478 F3500.000
G1 X29.233 Y10.0480
G1 X29.599 Y10.4803
G1 X29.928 Y10.9425
G1 X30.218 Y11.4288
G1 X30.386 Y11.7728
G1 X30.674 Y12.4685
G1 X30.835 Y13.0085
G1 X30.951 Y13.5638
G1 X31.021 Y14.1250
G1 X31.045 Y14.6923
G1 X31.021 Y15.2585
G1 X30.951 Y15.8208
G1 X30.835 Y16.3750
G1 X30.673 Y16.9183
G1 X30.467 Y17.4465
G1 X30.218 Y17.9558
G1 X29.928 Y18.4421
G1 X29.599 Y18.9033
G1 X29.233 Y19.3356
G1 X28.832 Y19.7368
G1 X28.399 Y20.1021
G1 X27.938 Y20.4313
G1 X27.451 Y20.7216
G1 X26.942 Y20.9708
G1 X26.414 Y21.1761
G1 X25.871 Y21.3383
G1 X25.317 Y21.4546
G1 X24.754 Y21.5249
G1 X24.188 Y21.5481
G1 X23.622 Y21.5244
G1 X23.060 Y21.4546
G1 X22.505 Y21.3389
G1 X21.962 Y21.1761
G1 X21.434 Y20.9704
G1 X20.925 Y20.7216
G1 X20.438 Y20.4319
G1 X19.977 Y20.1021
G1 X19.545 Y19.7364
G1 X19.144 Y19.3357
G1 X18.778 Y18.9039
G1 X18.448 Y18.4422
G1 X18.252 Y18.1132
G1 X17.909 Y17.4439
G1 X17.703 Y16.9189
G1 X17.542 Y16.3751
G1 X17.426 Y15.8204
G1 X17.378 Y15.4404
G1 X17.332 Y14.6891
G1 X17.355 Y14.1251
G1 X17.426 Y13.5634
G1 X17.542 Y13.0086
G1 X17.703 Y12.4659
G1 X17.909 Y11.9371
G1 X18.158 Y11.4284
G1 X18.448 Y10.9426
G1 X18.778 Y10.4809
G1 X19.025 Y10.1889
G1 X19.547 Y9.6466
G1 X19.977 Y9.2816
G1 X20.438 Y8.9529
G1 X20.925 Y8.6621
G1 X21.434 Y8.4134
G1 X21.962 Y8.2076
G1 X22.505 Y8.0459
G1 X23.060 Y7.9291
G1 X23.622 Y7.8594
G1 X24.188 Y7.8356
G1 X24.622 Y7.8538
G1 X25.319 Y7.9293 F3500.000
G1 X25.871 Y8.0454
G1 X26.414 Y8.2076
G1 X26.942 Y8.4139
G1 X27.451 Y8.6621
G1 X27.938 Y8.9524
G1 X28.227 Y9.1586
G1 Z4.500 F4000.000
G4F30
G1 X17.586 Y16.546 F4000.000
M50
G1 X17.419 Y15.8219 F3500.000
G1 X17.368 Y15.4073
G1 X17.326 Y14.6896
G1 X17.349 Y14.1257
G1 X17.419 Y13.5620
G1 X17.536 Y13.0073
G1 X17.698 Y12.4636
G1 X17.904 Y11.9359
G1 X18.153 Y11.4253
G1 X18.443 Y10.9386
G1 X18.773 Y10.4779
G1 X19.043 Y10.1583
G1 X19.542 Y9.6416
G1 X19.973 Y9.2767
G1 X20.435 Y8.9470
G1 X20.922 Y8.6564
G1 X21.297 Y8.4738
G1 X21.962 Y8.2001
G1 X22.504 Y8.0392
G1 X23.059 Y7.9235
G1 X23.622 Y7.8538
G1 X24.188 Y7.8291
G1 X24.605 Y7.8466
G1 X25.320 Y7.9239 F3500.000
G1 X25.873 Y8.0390
G1 X26.416 Y8.2013
G1 X26.945 Y8.4076
G1 X27.454 Y8.6569
G1 X27.942 Y8.9472
G1 X28.403 Y9.2765
G1 X28.836 Y9.6438
G1 X29.237 Y10.0442
G1 X29.604 Y10.4775
G1 X29.846 Y10.8169
G1 X30.225 Y11.4272
G1 X30.473 Y11.9353
G1 X30.679 Y12.4636
G1 X30.841 Y13.0079
G1 X30.957 Y13.5623
G1 X31.027 Y14.1256
G1 X31.045 Y14.5420
G1 X31.027 Y15.2603
G1 X30.957 Y15.8214
G1 X30.841 Y16.3767
G1 X30.679 Y16.9200
G1 X30.473 Y17.4483
G1 X30.224 Y17.9587
G1 X29.933 Y18.4450
G1 X29.691 Y18.7854
G1 X29.236 Y19.3417
G1 X28.836 Y19.7408
G1 X28.403 Y20.1071
G1 X27.942 Y20.4374
G1 X27.454 Y20.7278
G1 X26.945 Y20.9761
G1 X26.416 Y21.1824
G1 X25.873 Y21.3447
G1 X25.318 Y21.4600
G1 X24.755 Y21.5313
G1 X24.188 Y21.5546
G1 X23.622 Y21.5319
G1 X23.059 Y21.4602
G1 X22.504 Y21.3445
G1 X22.104 Y21.2259
G1 X21.430 Y20.9753
G1 X20.922 Y20.7274
G1 X20.435 Y20.4377
G1 X19.973 Y20.1070
G1 X19.540 Y19.7403
G1 X19.139 Y19.3396
G1 X18.870 Y19.0210
G1 X18.442 Y18.4434
G1 X18.153 Y17.9585
G1 X17.904 Y17.4488
G1 X17.698 Y16.9201
G1 X17.608 Y16.6184
G1 Z4.650 F4000.000
G4F30
G1 X23.721 Y21.541 F4000.000
M50
G1 X23.058 Y21.4673 F3500.000
G1 X22.502 Y21.3507
G1 X21.958 Y21.1880
G1 X21.429 Y20.9824
G1 X20.919 Y20.7327
G1 X20.431 Y20.4421
G1 X19.969 Y20.1124
G1 X19.536 Y19.7458
G1 X19.135 Y19.3442
G1 X18.843 Y18.9990
G1 X18.437 Y18.4470
G1 X18.147 Y17.9612
G1 X17.898 Y17.4515
G1 X17.692 Y16.9229
G1 X17.530 Y16.3783
G1 X17.413 Y15.8226
G1 X17.364 Y15.4299
G1 X17.320 Y14.6895
G1 X17.343 Y14.1246
G1 X17.413 Y13.5610
G1 X17.530 Y13.0054
G1 X17.692 Y12.4617
G1 X17.898 Y11.9321
G1 X18.097 Y11.5279
G1 X18.439 Y10.9339
G1 X18.768 Y10.4731
G1 X19.135 Y10.0405
G1 X19.536 Y9.6388
G1 X19.969 Y9.2712
G1 X20.431 Y8.9415
G1 X20.919 Y8.6519
G1 X21.325 Y8.4527
G1 X21.960 Y8.1957
G1 X22.502 Y8.0339
G1 X23.058 Y7.9173
G1 X23.621 Y7.8466
G1 X24.188 Y7.8230
G1 X24.640 Y7.8428
G1 X25.320 Y7.9178 F3500.000
G1 X25.874 Y8.0330
G1 X26.419 Y8.1954
G1 X26.947 Y8.4017
G1 X27.457 Y8.6511
G1 X27.945 Y8.9414
G1 X28.407 Y9.2718
G1 X28.840 Y9.6382
G1 X29.242 Y10.0405
G1 X29.609 Y10.4739
G1 X29.938 Y10.9352
G1 X30.229 Y11.4226
G1 X30.478 Y11.9329
G1 X30.685 Y12.4613
G1 X30.847 Y13.0057
G1 X30.963 Y13.5610
G1 X31.033 Y14.1244
G1 X31.057 Y14.6927
G1 X31.033 Y15.2591
G1 X30.963 Y15.8224
G1 X30.847 Y16.3788
G1 X30.685 Y16.9221
G1 X30.521 Y17.3430
G1 X30.228 Y17.9620
G1 X29.938 Y18.4482
G1 X29.609 Y18.9105
G1 X29.242 Y19.3449
G1 X28.840 Y19.7453
G1 X28.495 Y20.0371
G1 X27.944 Y20.4431
G1 X27.457 Y20.7323
G1 X26.947 Y20.9826
G1 X26.419 Y21.1880
G1 X25.874 Y21.3504
G1 X25.319 Y21.4677
G1 X24.755 Y21.5371
G1 X24.188 Y21.5604
G1 X23.796 Y21.5444
G1 Z4.800 F4000.000
G4F30
G1 X29.139 Y19.455 F4000.000
M50
G1 X28.844 Y19.7503 F3500.000
G1 X28.411 Y20.1177
G1 X27.948 Y20.4471
G1 X27.460 Y20.7385
G1 X27.024 Y20.9518
G1 X26.419 Y21.1944
G1 X25.876 Y21.3567
G1 X25.320 Y21.4731
G1 X24.837 Y21.5334
G1 X24.187 Y21.5660
G1 X23.621 Y21.5433
G1 X23.057 Y21.4737
G1 X22.501 Y21.3561
G1 X21.956 Y21.1945
G1 X21.427 Y20.9879
G1 X20.916 Y20.7384
G1 X20.428 Y20.4478
G1 X19.966 Y20.1172
G1 X19.532 Y19.7506
G1 X19.130 Y19.3480
G1 X18.816 Y18.9772
G1 X18.432 Y18.4519
G1 X18.142 Y17.9642
G1 X17.892 Y17.4536
G1 X17.686 Y16.9240
G1 X17.524 Y16.3794
G1 X17.407 Y15.8238
G1 X17.347 Y15.3411
G1 X17.313 Y14.6907
G1 X17.337 Y14.1240
G1 X17.407 Y13.5604
G1 X17.524 Y13.0048
G1 X17.686 Y12.4592
G1 X17.892 Y11.9306
G1 X18.142 Y11.4190
G1 X18.433 Y10.9314
G1 X18.763 Y10.4699
G1 X19.130 Y10.0353
G1 X19.532 Y9.6347
G1 X19.966 Y9.2661
G1 X20.428 Y8.9365
G1 X20.870 Y8.6735
G1 X21.427 Y8.3954
G1 X21.956 Y8.1897
G1 X22.501 Y8.0271
G1 X23.057 Y7.9105
G1 X23.621 Y7.8409
G1 X24.188 Y7.8173
G1 X24.674 Y7.8376
G1 X25.321 Y7.9112 F3500.000
G1 X25.876 Y8.0275
G1 X26.421 Y8.1899
G1 X26.950 Y8.3963
G1 X27.460 Y8.6457
G1 X27.948 Y8.9361
G1 X28.411 Y9.2665
G1 X28.844 Y9.6340
G1 X29.246 Y10.0354
G1 X29.613 Y10.4698
G1 X29.944 Y10.9312
G1 X30.235 Y11.4196
G1 X30.448 Y11.8568
G1 X30.691 Y12.4605
G1 X30.853 Y13.0048
G1 X30.969 Y13.5602
G1 X31.040 Y14.1246
G1 X31.063 Y14.6920
G1 X31.040 Y15.2594
G1 X30.969 Y15.8238
G1 X30.853 Y16.3792
G1 X30.691 Y16.9246
G1 X30.484 Y17.4530
G1 X30.271 Y17.8903
G1 X29.943 Y18.4530
G1 X29.613 Y18.9142
G1 X29.192 Y19.4023
G1 Z4.950 F4000.000
G4F30
G1 X27.732 Y8.800 F4000.000
M50
G1 X27.952 Y8.9314 F3500.000
G1 X28.415 Y9.2619
G1 X28.849 Y9.6293
G1 X29.251 Y10.0318
G1 X29.618 Y10.4653
G1 X29.949 Y10.9287
G1 X30.240 Y11.4172
G1 X30.469 Y11.8848
G1 X30.697 Y12.4582
G1 X30.859 Y13.0025
G1 X30.975 Y13.5590
G1 X31.046 Y14.1234
G1 X31.067 Y14.6431
G1 X31.046 Y15.2614
G1 X30.975 Y15.8248
G1 X30.859 Y16.3813
G1 X30.696 Y16.9267
G1 X30.507 Y17.4114
G1 X30.240 Y17.9677
G1 X29.949 Y18.4551
G1 X29.618 Y18.9185
G1 X29.251 Y19.3520
G1 X28.849 Y19.7545
G1 X28.451 Y20.0901
G1 X27.951 Y20.4534
G1 X27.463 Y20.7438
G1 X26.952 Y20.9933
G1 X26.423 Y21.2007
G1 X25.877 Y21.3622
G1 X25.321 Y21.4796
G1 X24.756 Y21.5491
G1 X24.236 Y21.5718
G1 X23.619 Y21.5491
G1 X23.056 Y21.4795
G1 X22.499 Y21.3629
G1 X21.954 Y21.2004
G1 X21.424 Y20.9938
G1 X20.913 Y20.7433
G1 X20.425 Y20.4527
G1 X19.962 Y20.1222
G1 X19.528 Y19.7547
G1 X19.126 Y19.3521
G1 X18.789 Y18.9558
G1 X18.427 Y18.4541
G1 X18.137 Y17.9675
G1 X17.887 Y17.4569
G1 X17.680 Y16.9264
G1 X17.518 Y16.3819
G1 X17.401 Y15.8243
G1 X17.337 Y15.3080
G1 X17.307 Y14.6913
G1 X17.331 Y14.1237
G1 X17.401 Y13.5591
G1 X17.518 Y13.0026
G1 X17.680 Y12.4570
G1 X17.869 Y11.9727
G1 X18.137 Y11.4160
G1 X18.428 Y10.9284
G1 X18.758 Y10.4659
G1 X19.126 Y10.0313
G1 X19.528 Y9.6298
G1 X19.962 Y9.2612
G1 X20.425 Y8.9317
G1 X20.913 Y8.6402
G1 X21.424 Y8.3906
G1 X21.954 Y8.1831
G1 X22.499 Y8.0215
G1 X23.056 Y7.9040
G1 X23.620 Y7.8344
G1 X24.188 Y7.8109
G1 X24.708 Y7.8326
G1 X25.322 Y7.9049 F3500.000
G1 X25.877 Y8.0213
G1 X26.423 Y8.1837
G1 X26.952 Y8.3902
G1 X27.463 Y8.6406
G1 X27.667 Y8.7612
G1 Z5.100 F4000.000
G4F30
G1 X30.566 Y12.108 F4000.000
M50
G1 X30.702 Y12.4550 F3500.000
G1 X30.865 Y13.0015
G1 X30.982 Y13.5580
G1 X31.052 Y14.1235
G1 X31.075 Y14.6776
G1 X31.052 Y15.2616
G1 X30.982 Y15.8251
G1 X30.865 Y16.3826
G1 X30.702 Y16.9281
G1 X30.495 Y17.4586
G1 X30.245 Y17.9691
G1 X29.954 Y18.4586
G1 X29.632 Y18.9107
G1 X29.255 Y19.3566
G1 X28.853 Y19.7591
G1 X28.418 Y20.1276
G1 X27.955 Y20.4571
G1 X27.466 Y20.7497
G1 X26.968 Y20.9927
G1 X26.424 Y21.2067
G1 X25.879 Y21.3682
G1 X25.336 Y21.4822
G1 X24.757 Y21.5552
G1 X24.188 Y21.5797
G1 X23.620 Y21.5552
G1 X23.055 Y21.4857
G1 X22.498 Y21.3682
G1 X21.952 Y21.2067
G1 X21.422 Y20.9992
G1 X20.910 Y20.7497
G1 X20.421 Y20.4573
G1 X19.958 Y20.1278
G1 X19.524 Y19.7593
G1 X19.121 Y19.3568
G1 X18.753 Y18.9223
G1 X18.422 Y18.4588
G1 X18.131 Y17.9693
G1 X17.881 Y17.4588
G1 X17.674 Y16.9283
G1 X17.516 Y16.3964
G1 X17.395 Y15.8254
G1 X17.325 Y15.2608
G1 X17.301 Y14.6924
G1 X17.325 Y14.1239
G1 X17.395 Y13.5584
G1 X17.512 Y13.0019
G1 X17.674 Y12.4554
G1 X17.881 Y11.9259
G1 X18.131 Y11.4144
G1 X18.422 Y10.9259
G1 X18.753 Y10.4614
G1 X19.121 Y10.0279
G1 X19.524 Y9.6244
G1 X19.958 Y9.2570
G1 X20.421 Y8.9265
G1 X20.910 Y8.6340
G1 X21.409 Y8.3910
G1 X21.952 Y8.1770
G1 X22.498 Y8.0155
G1 X23.055 Y7.8980
G1 X23.620 Y7.8285
G1 X24.188 Y7.8040
G1 X24.743 Y7.8271
G1 X25.322 Y7.8981 F3500.000
G1 X25.879 Y8.0155
G1 X26.425 Y8.1770
G1 X26.955 Y8.3846
G1 X27.466 Y8.6341
G1 X27.955 Y8.9266
G1 X28.418 Y9.2571
G1 X28.853 Y9.6246
G1 X29.255 Y10.0271
G1 X29.623 Y10.4616
G1 X29.954 Y10.9251
G1 X30.245 Y11.4146
G1 X30.539 Y12.0382
G1 Z5.250 F4000.000
G4F30
G1 X31.027 Y13.853 F4000.000
M50
G1 X31.061 Y14.1229 F3500.000
G1 X31.084 Y14.6925
G1 X31.061 Y15.2610
G1 X30.990 Y15.8276
G1 X30.873 Y16.3842
G1 X30.710 Y16.9318
G1 X30.503 Y17.4624
G1 X30.253 Y17.9749
G1 X29.961 Y18.4635
G1 X29.630 Y18.9271
G1 X29.248 Y19.3767
G1 X28.859 Y19.7652
G1 X28.424 Y20.1338
G1 X27.960 Y20.4644
G1 X27.470 Y20.7560
G1 X26.958 Y21.0076
G1 X26.428 Y21.2141
G1 X25.861 Y21.3807
G1 X25.323 Y21.4933
G1 X24.758 Y21.5649
G1 X24.188 Y21.5875
G1 X23.619 Y21.5640
G1 X23.053 Y21.4936
G1 X22.496 Y21.3762
G1 X21.931 Y21.2067
G1 X21.418 Y21.0073
G1 X20.906 Y20.7569
G1 X20.417 Y20.4645
G1 X19.953 Y20.1331
G1 X19.518 Y19.7657
G1 X19.115 Y19.3622
G1 X18.747 Y18.9278
G1 X18.415 Y18.4634
G1 X18.124 Y17.9740
G1 X17.873 Y17.4626
G1 X17.666 Y16.9311
G1 X17.504 Y16.3857
G1 X17.384 Y15.8073
G1 X17.316 Y15.2619
G1 X17.292 Y14.6924
G1 X17.316 Y14.1220
G1 X17.387 Y13.5576
G1 X17.503 Y12.9992
G1 X17.666 Y12.4528
G1 X17.873 Y11.9223
G1 X18.124 Y11.4099
G1 X18.415 Y10.9205
G1 X18.747 Y10.4561
G1 X19.115 Y10.0217
G1 X19.518 Y9.6182
G1 X19.953 Y9.2508
G1 X20.417 Y8.9194
G1 X20.906 Y8.6270
G1 X21.418 Y8.3775
G1 X21.949 Y8.1691
G1 X22.495 Y8.0077
G1 X23.053 Y7.8903
G1 X23.618 Y7.8198
G1 X24.208 Y7.7974
G1 X24.758 Y7.8190
G1 X25.323 Y7.8906 F3500.000
G1 X25.881 Y8.0072
G1 X26.427 Y8.1698
G1 X26.958 Y8.3773
G1 X27.470 Y8.6279
G1 X27.960 Y8.9195
G1 X28.424 Y9.2501
G1 X28.859 Y9.6186
G1 X29.262 Y10.0212
G1 X29.630 Y10.4568
G1 X29.961 Y10.9204
G1 X30.253 Y11.4090
G1 X30.503 Y11.9225
G1 X30.710 Y12.4521
G1 X30.873 Y12.9997
G1 X30.990 Y13.5573
G1 X31.018 Y13.7795
G1 Z5.400 F4000.000
G4F30
G1 X30.751 Y16.829 F4000.000
M50
G1 X30.513 Y17.4665 F3500.000
G1 X30.262 Y17.9782
G1 X29.970 Y18.4698
G1 X29.639 Y18.9334
G1 X29.230 Y19.4086
G1 X28.866 Y19.7738
G1 X28.430 Y20.1415
G1 X27.966 Y20.4731
G1 X27.475 Y20.7658
G1 X26.962 Y21.0164
G1 X26.431 Y21.2231
G1 X25.884 Y21.3867
G1 X25.270 Y21.5109
G1 X24.759 Y21.5741
G1 X24.188 Y21.5988
G1 X23.618 Y21.5744
G1 X23.052 Y21.5031
G1 X22.493 Y21.3867
G1 X21.946 Y21.2234
G1 X21.414 Y21.0161
G1 X20.901 Y20.7657
G1 X20.411 Y20.4734
G1 X19.947 Y20.1420
G1 X19.472 Y19.7342
G1 X19.107 Y19.3694
G1 X18.738 Y18.9330
G1 X18.407 Y18.4697
G1 X18.114 Y17.9784
G1 X17.864 Y17.4660
G1 X17.657 Y16.9356
G1 X17.482 Y16.3338
G1 X17.376 Y15.8280
G1 X17.306 Y15.2627
G1 X17.282 Y14.6923
G1 X17.306 Y14.1210
G1 X17.376 Y13.5557
G1 X17.493 Y12.9963
G1 X17.656 Y12.4490
G1 X17.864 Y11.9176
G1 X18.114 Y11.4053
G1 X18.406 Y10.9159
G1 X18.774 Y10.4081
G1 X19.107 Y10.0143
G1 X19.511 Y9.6119
G1 X19.946 Y9.2425
G1 X20.458 Y8.8827
G1 X20.901 Y8.6189
G1 X21.414 Y8.3676
G1 X21.946 Y8.1603
G1 X22.493 Y7.9979
G1 X23.052 Y7.8806
G1 X23.617 Y7.8092
G1 X24.243 Y7.7884
G1 X24.759 Y7.8096
G1 X25.325 Y7.8802 F3500.000
G1 X25.884 Y7.9979
G1 X26.431 Y8.1605
G1 X26.962 Y8.3672
G1 X27.475 Y8.6189
G1 X27.966 Y8.9105
G1 X28.430 Y9.2422
G1 X28.866 Y9.6119
G1 X29.269 Y10.0145
G1 X29.638 Y10.4502
G1 X29.970 Y10.9149
G1 X30.262 Y11.4055
G1 X30.513 Y11.9172
G1 X30.720 Y12.4498
G1 X30.883 Y12.9954
G1 X31.007 Y13.6106
G1 X31.071 Y14.1218
G1 X31.094 Y14.6925
G1 X31.071 Y15.2621
G1 X31.000 Y15.8288
G1 X30.883 Y16.3875
G1 X30.773 Y16.7578
G1 Z5.550 F4000.000
G4F30
G1 X31.014 Y15.799 F4000.000
M50
G1 X30.893 Y16.3887 F3500.000
G1 X30.697 Y17.0215
G1 X30.522 Y17.4703
G1 X30.271 Y17.9830
G1 X29.979 Y18.4748
G1 X29.646 Y18.9405
G1 X29.277 Y19.3763
G1 X28.873 Y19.7800
G1 X28.436 Y20.1508
G1 X27.971 Y20.4825
G1 X27.480 Y20.7743
G1 X26.967 Y21.0250
G1 X26.434 Y21.2338
G1 X25.886 Y21.3965
G1 X25.327 Y21.5143
G1 X24.759 Y21.5840
G1 X24.188 Y21.6088
G1 X23.617 Y21.5845
G1 X23.050 Y21.5142
G1 X22.490 Y21.3960
G1 X21.942 Y21.2337
G1 X21.410 Y21.0255
G1 X20.896 Y20.7742
G1 X20.406 Y20.4829
G1 X19.871 Y20.0917
G1 X19.504 Y19.7805
G1 X19.100 Y19.3762
G1 X18.730 Y18.9400
G1 X18.398 Y18.4747
G1 X18.106 Y17.9853
G1 X17.821 Y17.3861
G1 X17.647 Y16.9379
G1 X17.483 Y16.3897
G1 X17.366 Y15.8304
G1 X17.295 Y15.2632
G1 X17.272 Y14.6929
G1 X17.295 Y14.1207
G1 X17.366 Y13.5543
G1 X17.509 Y12.9071
G1 X17.647 Y12.4469
G1 X17.854 Y11.9136
G1 X18.105 Y11.4004
G1 X18.398 Y10.9091
G1 X18.730 Y10.4439
G1 X19.100 Y10.0076
G1 X19.504 Y9.6034
G1 X19.939 Y9.2340
G1 X20.483 Y8.8558
G1 X20.896 Y8.6096
G1 X21.410 Y8.3583
G1 X21.942 Y8.1501
G1 X22.490 Y7.9878
G1 X23.050 Y7.8696
G1 X23.616 Y7.7992
G1 X24.279 Y7.7790
G1 X24.759 Y7.7998
G1 X25.327 Y7.8696 F3500.000
G1 X25.886 Y7.9873
G1 X26.434 Y8.1501
G1 X26.967 Y8.3588
G1 X27.480 Y8.6096
G1 X27.971 Y8.9013
G1 X28.436 Y9.2331
G1 X28.873 Y9.6038
G1 X29.277 Y10.0076
G1 X29.646 Y10.4433
G1 X29.979 Y10.9090
G1 X30.270 Y11.3987
G1 X30.555 Y11.9975
G1 X30.730 Y12.4463
G1 X30.893 Y12.9940
G1 X31.010 Y13.5538
G1 X31.081 Y14.1205
G1 X31.105 Y14.6923
G1 X31.081 Y15.2630
G1 X31.023 Y15.7253
G1 Z5.700 F4000.000
G4F30
G1 X23.749 Y7.785 F4000.000
M50
G1 X24.314 Y7.7701 F3500.000
G1 X24.760 Y7.7884
G1 X25.328 Y7.8593 F3500.000
G1 X25.889 Y7.9771
G1 X26.437 Y8.1409
G1 X26.971 Y8.3488
G1 X27.485 Y8.6006
G1 X27.977 Y8.8934
G1 X28.443 Y9.2253
G1 X28.880 Y9.5951
G1 X29.284 Y10.0009
G1 X29.654 Y10.4378
G1 X29.987 Y10.9036
G1 X30.280 Y11.3954
G1 X30.532 Y11.9093
G1 X30.740 Y12.4421
G1 X30.903 Y12.9919
G1 X31.021 Y13.5518
G1 X31.091 Y14.1206
G1 X31.115 Y14.6924
G1 X31.091 Y15.2643
G1 X31.021 Y15.8321
G1 X30.903 Y16.3929
G1 X30.740 Y16.9418
G1 X30.532 Y17.4746
G1 X30.280 Y17.9884
G1 X29.987 Y18.4803
G1 X29.654 Y18.9461
G1 X29.284 Y19.3839
G1 X28.880 Y19.7888
G1 X28.443 Y20.1586
G1 X27.977 Y20.4904
G1 X27.485 Y20.7833
G1 X26.971 Y21.0351
G1 X26.437 Y21.2439
G1 X25.889 Y21.4068
G1 X25.328 Y21.5246
G1 X24.760 Y21.5954
G1 X24.188 Y21.6183
G1 X23.616 Y21.5951
G1 X23.048 Y21.5249
G1 X22.488 Y21.4068
G1 X21.939 Y21.2436
G1 X21.406 Y21.0354
G1 X20.891 Y20.7833
G1 X20.400 Y20.4901
G1 X19.935 Y20.1597
G1 X19.408 Y19.6992
G1 X19.092 Y19.3836
G1 X18.722 Y18.9464
G1 X18.389 Y18.4802
G1 X18.096 Y17.9881
G1 X17.845 Y17.4749
G1 X17.637 Y16.9417
G1 X17.474 Y16.3944
G1 X17.340 Y15.7078
G1 X17.285 Y15.2642
G1 X17.261 Y14.6920
G1 X17.285 Y14.1209
G1 X17.356 Y13.5517
G1 X17.473 Y12.9915
G1 X17.637 Y12.4424
G1 X17.845 Y11.9092
G1 X18.096 Y11.3950
G1 X18.389 Y10.9039
G1 X18.722 Y10.4377
G1 X19.092 Y10.0005
G1 X19.497 Y9.5954
G1 X19.934 Y9.2252
G1 X20.400 Y8.8930
G1 X20.891 Y8.6009
G1 X21.406 Y8.3487
G1 X21.939 Y8.1405
G1 X22.488 Y7.9774
G1 X23.048 Y7.8592
G1 X23.674 Y7.7878
G1 Z5.850 F4000.000
G4F30
G1 X18.484 Y10.758 F4000.000
M50
G1 X18.803 Y10.3254 F3500.000
G1 X19.084 Y9.9936
G1 X19.490 Y9.5885
G1 X19.927 Y9.2175
G1 X20.394 Y8.8844
G1 X20.887 Y8.5903
G1 X21.402 Y8.3392
G1 X21.936 Y8.1301
G1 X22.485 Y7.9670
G1 X23.046 Y7.8490
G1 X23.613 Y7.7787
G1 X24.349 Y7.7617
G1 X24.761 Y7.7787
G1 X25.330 Y7.8496 F3500.000
G1 X25.891 Y7.9675
G1 X26.441 Y8.1304
G1 X26.975 Y8.3393
G1 X27.490 Y8.5903
G1 X27.983 Y8.8842
G1 X28.449 Y9.2171
G1 X28.887 Y9.5880
G1 X29.292 Y9.9939
G1 X29.663 Y10.4319
G1 X29.996 Y10.8978
G1 X30.289 Y11.3907
G1 X30.541 Y11.9056
G1 X30.750 Y12.4395
G1 X30.913 Y12.9894
G1 X31.031 Y13.5504
G1 X31.102 Y14.1193
G1 X31.125 Y14.6922
G1 X31.102 Y15.2641
G1 X31.031 Y15.8318
G1 X30.867 Y16.5499
G1 X30.750 Y16.9448
G1 X30.541 Y17.4788
G1 X30.289 Y17.9937
G1 X29.996 Y18.4866
G1 X29.664 Y18.9513
G1 X29.178 Y19.5044
G1 X28.887 Y19.7953
G1 X28.449 Y20.1662
G1 X27.983 Y20.4991
G1 X27.490 Y20.7931
G1 X26.975 Y21.0440
G1 X26.441 Y21.2539
G1 X25.893 Y21.4166
G1 X25.170 Y21.5547
G1 X24.761 Y21.6056
G1 X24.188 Y21.6295
G1 X23.618 Y21.6052
G1 X22.889 Y21.5013
G1 X22.485 Y21.4162
G1 X21.936 Y21.2531
G1 X21.402 Y21.0441
G1 X20.887 Y20.7930
G1 X20.394 Y20.4999
G1 X19.929 Y20.1676
G1 X19.376 Y19.6827
G1 X19.084 Y19.3906
G1 X18.714 Y18.9525
G1 X18.381 Y18.4865
G1 X18.087 Y17.9934
G1 X17.835 Y17.4783
G1 X17.628 Y16.9460
G1 X17.430 Y16.2371
G1 X17.346 Y15.8330
G1 X17.275 Y15.2649
G1 X17.251 Y14.6928
G1 X17.275 Y14.1215
G1 X17.379 Y13.3926
G1 X17.463 Y12.9895
G1 X17.627 Y12.4395
G1 X17.835 Y11.9054
G1 X18.087 Y11.3903
G1 X18.439 Y10.8189
G1 Z6.000 F4000.000
G4F30
G1 X24.890 Y7.784 F4000.000
M50
G1 X25.332 Y7.8392 F3500.000
G1 X25.894 Y7.9572
G1 X26.444 Y8.1202
G1 X26.979 Y8.3292
G1 X27.495 Y8.5812
G1 X27.988 Y8.8752
G1 X28.455 Y9.2092
G1 X28.894 Y9.5802
G1 X29.300 Y9.9862
G1 X29.671 Y10.4242
G1 X30.004 Y10.8922
G1 X30.298 Y11.3852
G1 X30.551 Y11.9012
G1 X30.759 Y12.4362
G1 X30.923 Y12.9862
G1 X31.041 Y13.5482
G1 X31.112 Y14.1182
G1 X31.136 Y14.6922
G1 X31.112 Y15.2630
G1 X31.001 Y16.0277
G1 X30.923 Y16.3972
G1 X30.759 Y16.9472
G1 X30.551 Y17.4822
G1 X30.298 Y17.9982
G1 X30.004 Y18.4912
G1 X29.672 Y18.9579
G1 X29.161 Y19.5366
G1 X28.894 Y19.8032
G1 X28.455 Y20.1742
G1 X27.988 Y20.5082
G1 X27.495 Y20.8022
G1 X26.979 Y21.0542
G1 X26.446 Y21.2620
G1 X25.761 Y21.4546
G1 X25.332 Y21.5441
G1 X24.762 Y21.6151
G1 X24.188 Y21.6391
G1 X23.615 Y21.6151
G1 X23.047 Y21.5459
G1 X22.295 Y21.3706
G1 X21.932 Y21.2631
G1 X21.397 Y21.0541
G1 X20.882 Y20.8021
G1 X20.388 Y20.5081
G1 X19.923 Y20.1769
G1 X19.344 Y19.6646
G1 X19.077 Y19.3971
G1 X18.706 Y18.9591
G1 X18.372 Y18.4911
G1 X18.078 Y17.9981
G1 X17.826 Y17.4821
G1 X17.618 Y16.9508
G1 X17.413 Y16.2055
G1 X17.336 Y15.8350
G1 X17.264 Y15.2650
G1 X17.241 Y14.6920
G1 X17.264 Y14.1208
G1 X17.376 Y13.3565
G1 X17.453 Y12.9860
G1 X17.617 Y12.4360
G1 X17.826 Y11.9010
G1 X18.078 Y11.3850
G1 X18.371 Y10.8948
G1 X18.833 Y10.2755
G1 X19.077 Y9.9860
G1 X19.483 Y9.5800
G1 X19.921 Y9.2090
G1 X20.388 Y8.8750
G1 X20.882 Y8.5810
G1 X21.397 Y8.3290
G1 X21.932 Y8.1200
G1 X22.483 Y7.9570
G1 X23.045 Y7.8390
G1 X23.612 Y7.7687
G1 X24.384 Y7.7524
G1 X24.762 Y7.7680
G1 X24.816 Y7.7743 F3500.000
G1 Z6.150 F4000.000
G4F30
G1 X20.737 Y20.727 F4000.000
M50
G1 X20.383 Y20.5169 F3500.000
G1 X19.915 Y20.1820
G1 X19.476 Y19.8111
G1 X19.069 Y19.4042
G1 X18.698 Y18.9653
G1 X18.363 Y18.4974
G1 X18.069 Y18.0035
G1 X17.816 Y17.4865
G1 X17.607 Y16.9516
G1 X17.443 Y16.4007
G1 X17.325 Y15.8378
G1 X17.254 Y15.2669
G1 X17.230 Y14.6920
G1 X17.254 Y14.1171
G1 X17.325 Y13.5462
G1 X17.443 Y12.9832
G1 X17.607 Y12.4323
G1 X17.816 Y11.8974
G1 X18.069 Y11.3805
G1 X18.363 Y10.8866
G1 X18.698 Y10.4187
G1 X19.069 Y9.9798
G1 X19.476 Y9.5729
G1 X19.915 Y9.2010
G1 X20.383 Y8.8670
G1 X20.877 Y8.5721
G1 X21.393 Y8.3202
G1 X21.929 Y8.1113
G1 X22.480 Y7.9474
G1 X23.043 Y7.8295
G1 X23.614 Y7.7576
G1 X24.188 Y7.7347
G1 X24.412 Y7.7439
G1 X24.763 Y7.7577 F3500.000
G1 X25.333 Y7.8298
G1 X25.896 Y7.9479
G1 X26.447 Y8.1110
G1 X26.983 Y8.3201
G1 X27.500 Y8.5722
G1 X27.994 Y8.8673
G1 X28.462 Y9.2014
G1 X28.901 Y9.5724
G1 X29.307 Y9.9795
G1 X29.679 Y10.4186
G1 X30.013 Y10.8867
G1 X30.307 Y11.3808
G1 X30.560 Y11.8979
G1 X30.769 Y12.4320
G1 X30.933 Y12.9831
G1 X31.051 Y13.5462
G1 X31.122 Y14.1172
G1 X31.146 Y14.6923
G1 X31.122 Y15.2664
G1 X31.051 Y15.8375
G1 X30.933 Y16.4006
G1 X30.769 Y16.9517
G1 X30.560 Y17.4868
G1 X30.307 Y18.0039
G1 X30.013 Y18.4979
G1 X29.679 Y18.9650
G1 X29.307 Y19.4041
G1 X28.901 Y19.8112
G1 X28.462 Y20.1823
G1 X27.994 Y20.5164
G1 X27.500 Y20.8115
G1 X26.983 Y21.0636
G1 X26.447 Y21.2726
G1 X25.896 Y21.4367
G1 X25.333 Y21.5548
G1 X24.763 Y21.6269
G1 X24.188 Y21.6490
G1 X23.614 Y21.6261
G1 X23.043 Y21.5542
G1 X22.480 Y21.4363
G1 X21.929 Y21.2724
G1 X21.393 Y21.0634
G1 X20.801 Y20.7662
G1 Z6.300 F4000.000
G4F30
G1 X31.065 Y15.809 F4000.000
M50
G1 X30.943 Y16.4021 F3500.000
G1 X30.779 Y16.9543
G1 X30.570 Y17.4915
G1 X30.317 Y18.0086
G1 X30.022 Y18.5038
G1 X29.687 Y18.9710
G1 X29.315 Y19.4112
G1 X28.908 Y19.8183
G1 X28.468 Y20.1905
G1 X27.999 Y20.5257
G1 X27.505 Y20.8208
G1 X26.987 Y21.0730
G1 X26.451 Y21.2822
G1 X25.899 Y21.4464
G1 X25.335 Y21.5655
G1 X24.764 Y21.6367
G1 X24.188 Y21.6609
G1 X23.613 Y21.6361
G1 X23.041 Y21.5652
G1 X22.478 Y21.4464
G1 X21.926 Y21.2826
G1 X21.389 Y21.0737
G1 X20.872 Y20.8209
G1 X20.377 Y20.5251
G1 X19.908 Y20.1903
G1 X19.469 Y19.8184
G1 X19.062 Y19.4116
G1 X18.689 Y18.9718
G1 X18.355 Y18.5030
G1 X18.060 Y18.0081
G1 X17.807 Y17.4913
G1 X17.598 Y16.9545
G1 X17.433 Y16.4026
G1 X17.315 Y15.8388
G1 X17.244 Y15.2670
G1 X17.220 Y14.6922
G1 X17.244 Y14.1163
G1 X17.315 Y13.5455
G1 X17.433 Y12.9817
G1 X17.598 Y12.4299
G1 X17.807 Y11.8920
G1 X18.060 Y11.3752
G1 X18.355 Y10.8804
G1 X18.689 Y10.4126
G1 X19.062 Y9.9727
G1 X19.469 Y9.5659
G1 X19.908 Y9.1931
G1 X20.377 Y8.8582
G1 X20.872 Y8.5634
G1 X21.389 Y8.3106
G1 X21.926 Y8.1018
G1 X22.478 Y7.9379
G1 X23.041 Y7.8181
G1 X23.613 Y7.7473
G1 X24.188 Y7.7235
G1 X24.448 Y7.7343
G1 X24.764 Y7.7476 F3500.000
G1 X25.335 Y7.8188
G1 X25.899 Y7.9370
G1 X26.451 Y8.1011
G1 X26.987 Y8.3103
G1 X27.505 Y8.5635
G1 X27.999 Y8.8587
G1 X28.468 Y9.1938
G1 X28.908 Y9.5650
G1 X29.315 Y9.9722
G1 X29.687 Y10.4124
G1 X30.022 Y10.8805
G1 X30.317 Y11.3757
G1 X30.570 Y11.8929
G1 X30.779 Y12.4290
G1 X30.943 Y12.9812
G1 X31.061 Y13.5454
G1 X31.133 Y14.1166
G1 X31.156 Y14.6927
G1 X31.133 Y15.2679
G1 X31.074 Y15.7347
G1 Z6.450 F4000.000
G4F30
G1 X18.512 Y18.741 F4000.000
M50
G1 X18.346 Y18.5084 F3500.000
G1 X18.051 Y18.0137
G1 X17.798 Y17.4959
G1 X17.588 Y16.9572
G1 X17.423 Y16.4054
G1 X17.305 Y15.8407
G1 X17.234 Y15.2680
G1 X17.210 Y14.6922
G1 X17.234 Y14.1155
G1 X17.305 Y13.5437
G1 X17.423 Y12.9780
G1 X17.588 Y12.4262
G1 X17.798 Y11.8885
G1 X18.051 Y11.3708
G1 X18.346 Y10.8750
G1 X18.681 Y10.4053
G1 X19.054 Y9.9655
G1 X19.462 Y9.5578
G1 X19.902 Y9.1850
G1 X20.371 Y8.8493
G1 X20.867 Y8.5546
G1 X21.385 Y8.3018
G1 X21.922 Y8.0911
G1 X22.475 Y7.9273
G1 X23.040 Y7.8086
G1 X23.612 Y7.7378
G1 X24.188 Y7.7131
G1 X24.484 Y7.7255
G1 X24.765 Y7.7374 F3500.000
G1 X25.337 Y7.8086
G1 X25.901 Y7.9279
G1 X26.454 Y8.0911
G1 X26.991 Y8.3014
G1 X27.510 Y8.5546
G1 X28.005 Y8.8499
G1 X28.475 Y9.1852
G1 X28.915 Y9.5574
G1 X29.323 Y9.9657
G1 X29.695 Y10.4059
G1 X30.030 Y10.8752
G1 X30.326 Y11.3705
G1 X30.579 Y11.8887
G1 X30.789 Y12.4260
G1 X30.953 Y12.9782
G1 X31.072 Y13.5435
G1 X31.143 Y14.1157
G1 X31.167 Y14.6920
G1 X31.143 Y15.2683
G1 X31.072 Y15.8405
G1 X30.953 Y16.4058
G1 X30.789 Y16.9570
G1 X30.579 Y17.4953
G1 X30.326 Y18.0135
G1 X30.030 Y18.5088
G1 X29.695 Y18.9781
G1 X29.323 Y19.4183
G1 X28.915 Y19.8266
G1 X28.475 Y20.1998
G1 X28.005 Y20.5341
G1 X27.510 Y20.8293
G1 X27.244 Y20.9597
G1 X26.991 Y21.0826
G1 X26.454 Y21.2929
G1 X25.901 Y21.4561
G1 X25.337 Y21.5754
G1 X24.765 Y21.6466
G1 X24.188 Y21.6709
G1 X23.612 Y21.6461
G1 X23.040 Y21.5754
G1 X22.475 Y21.4567
G1 X21.922 Y21.2929
G1 X21.385 Y21.0822
G1 X20.867 Y20.8294
G1 X20.371 Y20.5347
G1 X19.902 Y20.1990
G1 X19.462 Y19.8262
G1 X19.054 Y19.4185
G1 X18.681 Y18.9787
G1 X18.556 Y18.8021
G1 Z6.600 F4000.000
G4F30
G1 X17.224 Y14.112 F4000.000
M50
G1 X17.295 Y13.5411 F3500.000
G1 X17.413 Y12.9764
G1 X17.578 Y12.4228
G1 X17.788 Y11.8841
G1 X18.042 Y11.3655
G1 X18.337 Y10.8698
G1 X18.673 Y10.3992
G1 X19.046 Y9.9585
G1 X19.455 Y9.5508
G1 X19.896 Y9.1762
G1 X20.366 Y8.8415
G1 X20.650 Y8.6714
G1 X20.862 Y8.5459
G1 X21.381 Y8.2912
G1 X21.919 Y8.0815
G1 X22.473 Y7.9179
G1 X23.038 Y7.7982
G1 X23.611 Y7.7276
G1 X24.188 Y7.7039
G1 X24.519 Y7.7168
G1 X24.765 Y7.7273 F3500.000
G1 X25.339 Y7.7986
G1 X25.904 Y7.9179
G1 X26.458 Y8.0813
G1 X26.996 Y8.2916
G1 X27.515 Y8.5450
G1 X28.011 Y8.8413
G1 X28.481 Y9.1767
G1 X28.922 Y9.5500
G1 X29.330 Y9.9583
G1 X29.703 Y10.3997
G1 X30.039 Y10.8690
G1 X30.335 Y11.3654
G1 X30.480 Y11.6633
G1 X30.588 Y11.8847
G1 X30.798 Y12.4221
G1 X30.963 Y12.9764
G1 X31.082 Y13.5417
G1 X31.153 Y14.1141
G1 X31.177 Y14.6924
G1 X31.153 Y15.2698
G1 X31.082 Y15.8421
G1 X30.963 Y16.4075
G1 X30.798 Y16.9618
G1 X30.588 Y17.4991
G1 X30.335 Y18.0185
G1 X30.039 Y18.5148
G1 X29.703 Y18.9842
G1 X29.330 Y19.4255
G1 X28.922 Y19.8338
G1 X28.481 Y20.2072
G1 X28.011 Y20.5425
G1 X27.515 Y20.8389
G1 X26.996 Y21.0922
G1 X26.458 Y21.3026
G1 X25.904 Y21.4679
G1 X25.339 Y21.5852
G1 X24.765 Y21.6576
G1 X24.434 Y21.6705
G1 X24.188 Y21.6809
G1 X23.611 Y21.6573
G1 X23.038 Y21.5856
G1 X22.473 Y21.4670
G1 X21.919 Y21.3023
G1 X21.381 Y21.0926
G1 X20.862 Y20.8380
G1 X20.366 Y20.5423
G1 X19.896 Y20.2077
G1 X19.455 Y19.8330
G1 X19.046 Y19.4254
G1 X18.673 Y18.9847
G1 X18.337 Y18.5140
G1 X18.042 Y18.0184
G1 X17.788 Y17.4997
G1 X17.578 Y16.9611
G1 X17.413 Y16.4074
G1 X17.295 Y15.8428
G1 X17.223 Y15.2691
G1 X17.199 Y14.6924
G1 X17.220 Y14.1876
G1 Z6.750 F4000.000
G4F30
G1 X28.253 Y20.382 F4000.000
M50
G1 X28.016 Y20.5519 F3500.000
G1 X27.519 Y20.8473
G1 X27.000 Y21.1017
G1 X26.461 Y21.3112
G1 X25.906 Y21.4776
G1 X25.340 Y21.5950
G1 X24.766 Y21.6675
G1 X24.188 Y21.6919
G1 X23.610 Y21.6673
G1 X23.036 Y21.5957
G1 X22.470 Y21.4772
G1 X21.916 Y21.3116
G1 X21.377 Y21.1010
G1 X20.857 Y20.8474
G1 X20.360 Y20.5519
G1 X19.889 Y20.2153
G1 X19.448 Y19.8417
G1 X19.039 Y19.4322
G1 X18.665 Y18.9916
G1 X18.329 Y18.5200
G1 X18.033 Y18.0234
G1 X17.779 Y17.5039
G1 X17.568 Y16.9643
G1 X17.403 Y16.4107
G1 X17.285 Y15.8441
G1 X17.213 Y15.2706
G1 X17.189 Y14.6920
G1 X17.213 Y14.1144
G1 X17.285 Y13.5399
G1 X17.403 Y12.9733
G1 X17.568 Y12.4197
G1 X17.779 Y11.8801
G1 X18.033 Y11.3606
G1 X18.329 Y10.8630
G1 X18.665 Y10.3934
G1 X19.039 Y9.9518
G1 X19.448 Y9.5423
G1 X19.889 Y9.1687
G1 X20.360 Y8.8321
G1 X20.857 Y8.5366
G1 X21.377 Y8.2820
G1 X21.916 Y8.0724
G1 X22.470 Y7.9078
G1 X23.036 Y7.7883
G1 X23.610 Y7.7167
G1 X24.188 Y7.6921
G1 X24.555 Y7.7086
G1 X24.766 Y7.7165 F3500.000
G1 X25.340 Y7.7880
G1 X25.906 Y7.9074
G1 X26.461 Y8.0728
G1 X27.000 Y8.2823
G1 X27.520 Y8.5367
G1 X28.016 Y8.8321
G1 X28.487 Y9.1685
G1 X28.929 Y9.5420
G1 X29.338 Y9.9514
G1 X29.712 Y10.3938
G1 X30.048 Y10.8632
G1 X30.344 Y11.3607
G1 X30.598 Y11.8801
G1 X30.808 Y12.4195
G1 X30.973 Y12.9730
G1 X31.092 Y13.5404
G1 X31.164 Y14.1148
G1 X31.187 Y14.6922
G1 X31.164 Y15.2707
G1 X31.092 Y15.8441
G1 X30.973 Y16.4105
G1 X30.808 Y16.9649
G1 X30.598 Y17.5034
G1 X30.344 Y18.0238
G1 X30.048 Y18.5202
G1 X29.712 Y18.9917
G1 X29.338 Y19.4321
G1 X28.929 Y19.8415
G1 X28.487 Y20.2159
G1 X28.314 Y20.3380
G1 Z6.900 F4000.000
G4F30
G1 X23.911 Y7.693 F4000.000
M50
G1 X24.188 Y7.6826 F3500.000
G1 X24.583 Y7.6988
G1 X25.344 Y7.7788 F3500.000
G1 X25.909 Y7.8961
G1 X26.464 Y8.0626
G1 X27.004 Y8.2721
G1 X27.524 Y8.5276
G1 X28.022 Y8.8231
G1 X28.494 Y9.1606
G1 X28.936 Y9.5341
G1 X29.345 Y9.9446
G1 X29.720 Y10.3862
G1 X30.056 Y10.8587
G1 X30.353 Y11.3552
G1 X30.526 Y11.7104
G1 X30.819 Y12.4184
G1 X30.983 Y12.9717
G1 X31.102 Y13.5382
G1 X31.174 Y14.1137
G1 X31.198 Y14.6922
G1 X31.174 Y15.2707
G1 X31.102 Y15.8452
G1 X30.983 Y16.4127
G1 X30.818 Y16.9682
G1 X30.607 Y17.5078
G1 X30.353 Y18.0283
G1 X30.056 Y18.5258
G1 X29.720 Y18.9973
G1 X29.345 Y19.4398
G1 X28.936 Y19.8493
G1 X28.494 Y20.2238
G1 X28.022 Y20.5603
G1 X27.524 Y20.8569
G1 X27.004 Y21.1114
G1 X26.464 Y21.3219
G1 X25.909 Y21.4874
G1 X25.342 Y21.6059
G1 X24.950 Y21.6541
G1 X24.186 Y21.7011
G1 X23.609 Y21.6774
G1 X23.035 Y21.6059
G1 X22.468 Y21.4874
G1 X21.912 Y21.3219
G1 X21.373 Y21.1114
G1 X20.852 Y20.8560
G1 X20.354 Y20.5605
G1 X19.883 Y20.2230
G1 X19.441 Y19.8495
G1 X19.031 Y19.4390
G1 X18.657 Y18.9975
G1 X18.320 Y18.5250
G1 X18.118 Y18.1862
G1 X17.768 Y17.5052
G1 X17.559 Y16.9685
G1 X17.393 Y16.4120
G1 X17.274 Y15.8455
G1 X17.203 Y15.2701
G1 X17.186 Y14.8763
G1 X17.203 Y14.1103
G1 X17.274 Y13.5385
G1 X17.393 Y12.9711
G1 X17.559 Y12.4166
G1 X17.769 Y11.8761
G1 X17.943 Y11.5213
G1 X18.322 Y10.8563
G1 X18.657 Y10.3866
G1 X19.031 Y9.9441
G1 X19.441 Y9.5346
G1 X19.883 Y9.1601
G1 X20.354 Y8.8236
G1 X20.694 Y8.6218
G1 X21.375 Y8.2728
G1 X21.912 Y8.0621
G1 X22.468 Y7.8966
G1 X23.035 Y7.7781
G1 X23.609 Y7.7066
G1 X23.836 Y7.6971
G1 Z7.050 F4000.000
G4F30
G1 X20.622 Y8.652 F4000.000
M50
G1 X21.370 Y8.2628 F3500.000
G1 X21.909 Y8.0522
G1 X22.465 Y7.8868
G1 X23.033 Y7.7674
G1 X23.609 Y7.6960
G1 X24.188 Y7.6726
G1 X24.618 Y7.6893
G1 X25.346 Y7.7689 F3500.000
G1 X25.912 Y7.8863
G1 X26.468 Y8.0529
G1 X27.008 Y8.2635
G1 X27.529 Y8.5181
G1 X28.028 Y8.8157
G1 X28.500 Y9.1523
G1 X28.828 Y9.4300
G1 X29.354 Y9.9397
G1 X29.728 Y10.3801
G1 X30.065 Y10.8527
G1 X30.362 Y11.3503
G1 X30.617 Y11.8729
G1 X30.828 Y12.4124
G1 X30.993 Y12.9680
G1 X31.112 Y13.5366
G1 X31.184 Y14.1122
G1 X31.208 Y14.6928
G1 X31.184 Y15.2714
G1 X31.112 Y15.8470
G1 X30.993 Y16.4156
G1 X30.828 Y16.9712
G1 X30.617 Y17.5118
G1 X30.362 Y18.0334
G1 X30.065 Y18.5310
G1 X29.815 Y18.8817
G1 X29.351 Y19.4474
G1 X28.943 Y19.8568
G1 X28.500 Y20.2314
G1 X28.028 Y20.5680
G1 X27.529 Y20.8656
G1 X27.008 Y21.1202
G1 X26.468 Y21.3317
G1 X25.912 Y21.4973
G1 X25.344 Y21.6169
G1 X24.768 Y21.6875
G1 X24.188 Y21.7111
G1 X23.609 Y21.6877
G1 X23.033 Y21.6163
G1 X22.465 Y21.4979
G1 X21.909 Y21.3315
G1 X21.368 Y21.1201
G1 X20.982 Y20.9318
G1 X20.347 Y20.5675
G1 X19.877 Y20.2319
G1 X19.434 Y19.8565
G1 X19.024 Y19.4461
G1 X18.649 Y19.0037
G1 X18.311 Y18.5313
G1 X18.014 Y18.0339
G1 X17.760 Y17.5115
G1 X17.549 Y16.9710
G1 X17.383 Y16.4156
G1 X17.264 Y15.8472
G1 X17.192 Y15.2718
G1 X17.175 Y14.8415
G1 X17.193 Y14.1102
G1 X17.264 Y13.5366
G1 X17.383 Y12.9682
G1 X17.549 Y12.4128
G1 X17.760 Y11.8724
G1 X18.014 Y11.3500
G1 X18.311 Y10.8526
G1 X18.649 Y10.3802
G1 X19.024 Y9.9378
G1 X19.434 Y9.5274
G1 X19.877 Y9.1520
G1 X20.349 Y8.8156
G1 X20.557 Y8.6916
G1 Z7.200 F4000.000
G4F30
G1 X20.062 Y9.007 F4000.000
M50
G1 X20.343 Y8.8062 F3500.000
G1 X20.743 Y8.5685
G1 X21.366 Y8.2537
G1 X21.906 Y8.0423
G1 X22.462 Y7.8769
G1 X23.031 Y7.7576
G1 X23.608 Y7.6853
G1 X24.188 Y7.6610
G1 X24.653 Y7.6812
G1 X25.347 Y7.7585 F3500.000
G1 X25.914 Y7.8760
G1 X26.471 Y8.0427
G1 X27.012 Y8.2534
G1 X27.534 Y8.5090
G1 X28.033 Y8.8067
G1 X28.506 Y9.1444
G1 X28.950 Y9.5191
G1 X29.361 Y9.9308
G1 X29.736 Y10.3734
G1 X30.074 Y10.8461
G1 X30.371 Y11.3468
G1 X30.576 Y11.7640
G1 X30.838 Y12.4103
G1 X31.003 Y12.9668
G1 X31.123 Y13.5345
G1 X31.194 Y14.1112
G1 X31.218 Y14.6929
G1 X31.194 Y15.2726
G1 X31.123 Y15.8492
G1 X31.003 Y16.4179
G1 X30.871 Y16.8641
G1 X30.626 Y17.5174
G1 X30.371 Y18.0389
G1 X30.074 Y18.5376
G1 X29.736 Y19.0103
G1 X29.361 Y19.4530
G1 X28.950 Y19.8647
G1 X28.506 Y20.2393
G1 X28.033 Y20.5770
G1 X27.534 Y20.8747
G1 X27.012 Y21.1304
G1 X26.471 Y21.3411
G1 X26.025 Y21.4743
G1 X25.344 Y21.6266
G1 X24.769 Y21.6981
G1 X24.188 Y21.7228
G1 X23.608 Y21.6984
G1 X23.031 Y21.6261
G1 X22.462 Y21.5078
G1 X21.906 Y21.3415
G1 X21.364 Y21.1302
G1 X20.842 Y20.8748
G1 X20.343 Y20.5775
G1 X19.870 Y20.2392
G1 X19.427 Y19.8649
G1 X19.016 Y19.4536
G1 X18.640 Y19.0103
G1 X18.303 Y18.5379
G1 X18.105 Y18.2053
G1 X17.750 Y17.5162
G1 X17.539 Y16.9749
G1 X17.373 Y16.4176
G1 X17.254 Y15.8493
G1 X17.196 Y15.3875
G1 X17.158 Y14.6908
G1 X17.182 Y14.1113
G1 X17.254 Y13.5340
G1 X17.373 Y12.9667
G1 X17.539 Y12.4094
G1 X17.750 Y11.8680
G1 X17.955 Y11.4492
G1 X18.304 Y10.8455
G1 X18.640 Y10.3730
G1 X19.016 Y9.9307
G1 X19.427 Y9.5194
G1 X20.001 Y9.0500
G1 Z7.350 F4000.000
G4F30
G1 X18.209 Y18.400 F4000.000
M50
G1 X17.996 Y18.0423 F3500.000
G1 X17.776 Y17.5930
G1 X17.529 Y16.9769
G1 X17.363 Y16.4206
G1 X17.244 Y15.8503
G1 X17.172 Y15.2731
G1 X17.151 Y14.7738
G1 X17.172 Y14.1097
G1 X17.244 Y13.5334
G1 X17.363 Y12.9631
G1 X17.529 Y12.4059
G1 X17.741 Y11.8637
G1 X17.947 Y11.4413
G1 X18.295 Y10.8393
G1 X18.632 Y10.3679
G1 X19.008 Y9.9237
G1 X19.420 Y9.5125
G1 X19.864 Y9.1362
G1 X20.337 Y8.7970
G1 X20.837 Y8.5008
G1 X21.360 Y8.2445
G1 X21.902 Y8.0323
G1 X22.460 Y7.8661
G1 X23.029 Y7.7478
G1 X23.607 Y7.6756
G1 X24.188 Y7.6514
G1 X24.689 Y7.6721
G1 X25.348 Y7.7470 F3500.000
G1 X25.917 Y7.8666
G1 X26.474 Y8.0324
G1 X27.016 Y8.2442
G1 X27.539 Y8.5009
G1 X28.039 Y8.7977
G1 X28.513 Y9.1365
G1 X28.957 Y9.5122
G1 X29.368 Y9.9230
G1 X29.744 Y10.3678
G1 X30.035 Y10.7755
G1 X30.381 Y11.3424
G1 X30.636 Y11.8630
G1 X30.847 Y12.4058
G1 X31.013 Y12.9636
G1 X31.133 Y13.5333
G1 X31.205 Y14.1101
G1 X31.229 Y14.6929
G1 X31.205 Y15.2736
G1 X31.133 Y15.8504
G1 X31.013 Y16.4202
G1 X30.870 Y16.9009
G1 X30.635 Y17.5218
G1 X30.380 Y18.0425
G1 X30.082 Y18.5422
G1 X29.744 Y19.0160
G1 X29.368 Y19.4608
G1 X28.957 Y19.8715
G1 X28.575 Y20.1952
G1 X28.038 Y20.5862
G1 X27.539 Y20.8838
G1 X27.016 Y21.1396
G1 X26.474 Y21.3513
G1 X25.917 Y21.5171
G1 X25.347 Y21.6369
G1 X24.770 Y21.7086
G1 X24.188 Y21.7324
G1 X23.607 Y21.7082
G1 X23.029 Y21.6369
G1 X22.460 Y21.5177
G1 X21.902 Y21.3515
G1 X21.360 Y21.1392
G1 X20.837 Y20.8830
G1 X20.337 Y20.5868
G1 X19.864 Y20.2485
G1 X19.420 Y19.8713
G1 X19.008 Y19.4601
G1 X18.632 Y19.0168
G1 X18.248 Y18.4646
G1 Z7.500 F4000.000
G4F30
G1 X18.110 Y11.133 F4000.000
M50
G1 X18.286 Y10.8344 F3500.000
G1 X18.624 Y10.3612
G1 X19.001 Y9.9161
G1 X19.413 Y9.5049
G1 X19.858 Y9.1278
G1 X20.332 Y8.7896
G1 X20.832 Y8.4905
G1 X21.356 Y8.2353
G1 X21.899 Y8.0232
G1 X22.457 Y7.8560
G1 X23.028 Y7.7379
G1 X23.606 Y7.6657
G1 X24.188 Y7.6416
G1 X24.724 Y7.6638
G1 X25.350 Y7.7373 F3500.000
G1 X25.919 Y7.8561
G1 X26.478 Y8.0230
G1 X27.021 Y8.2358
G1 X27.544 Y8.4907
G1 X28.045 Y8.7895
G1 X28.519 Y9.1274
G1 X28.964 Y9.5042
G1 X29.376 Y9.9161
G1 X29.752 Y10.3619
G1 X30.091 Y10.8358
G1 X30.389 Y11.3366
G1 X30.645 Y11.8595
G1 X30.857 Y12.4023
G1 X31.023 Y12.9612
G1 X31.133 Y13.4854
G1 X31.215 Y14.1109
G1 X31.239 Y14.6927
G1 X31.215 Y15.2746
G1 X31.143 Y15.8524
G1 X31.023 Y16.4223
G1 X30.857 Y16.9811
G1 X30.645 Y17.5240
G1 X30.389 Y18.0478
G1 X30.091 Y18.5487
G1 X29.752 Y19.0225
G1 X29.376 Y19.4674
G1 X28.964 Y19.8792
G1 X28.519 Y20.2561
G1 X28.045 Y20.5949
G1 X27.544 Y20.8938
G1 X27.021 Y21.1496
G1 X26.478 Y21.3605
G1 X25.919 Y21.5273
G1 X25.349 Y21.6462
G1 X24.771 Y21.7180
G1 X24.188 Y21.7429
G1 X23.606 Y21.7187
G1 X23.028 Y21.6466
G1 X22.457 Y21.5274
G1 X21.899 Y21.3603
G1 X21.400 Y21.1665
G1 X20.832 Y20.8921
G1 X20.332 Y20.5948
G1 X19.858 Y20.2567
G1 X19.413 Y19.8795
G1 X19.001 Y19.4674
G1 X18.624 Y19.0222
G1 X18.286 Y18.5481
G1 X18.011 Y18.0883
G1 X17.731 Y17.5239
G1 X17.519 Y16.9816
G1 X17.353 Y16.4225
G1 X17.234 Y15.8523
G1 X17.161 Y15.2742
G1 X17.139 Y14.7384
G1 X17.162 Y14.1090
G1 X17.234 Y13.5317
G1 X17.353 Y12.9616
G1 X17.519 Y12.4024
G1 X17.731 Y11.8593
G1 X18.072 Y11.1981
G1 Z7.650 F4000.000
G4F30
G1 X19.242 Y19.722 F4000.000
M50
G1 X18.993 Y19.4749 F3500.000
G1 X18.616 Y19.0298
G1 X18.277 Y18.5548
G1 X17.978 Y18.0527
G1 X17.722 Y17.5286
G1 X17.510 Y16.9846
G1 X17.343 Y16.4255
G1 X17.223 Y15.8544
G1 X17.151 Y15.2754
G1 X17.128 Y14.7041
G1 X17.151 Y14.1083
G1 X17.223 Y13.5292
G1 X17.343 Y12.9581
G1 X17.510 Y12.3991
G1 X17.722 Y11.8550
G1 X17.978 Y11.3319
G1 X18.277 Y10.8299
G1 X18.616 Y10.3548
G1 X18.985 Y9.9195
G1 X19.406 Y9.4967
G1 X19.851 Y9.1196
G1 X20.326 Y8.7805
G1 X20.817 Y8.4882
G1 X21.352 Y8.2254
G1 X21.895 Y8.0133
G1 X22.455 Y7.8463
G1 X23.026 Y7.7272
G1 X23.605 Y7.6541
G1 X24.188 Y7.6301
G1 X24.759 Y7.6548
G1 X25.351 Y7.7270 F3500.000
G1 X25.922 Y7.8469
G1 X26.481 Y8.0138
G1 X27.025 Y8.2258
G1 X27.549 Y8.4817
G1 X28.050 Y8.7806
G1 X28.525 Y9.1196
G1 X28.961 Y9.4883
G1 X29.383 Y9.9095
G1 X29.761 Y10.3544
G1 X30.100 Y10.8293
G1 X30.392 Y11.3200
G1 X30.655 Y11.8552
G1 X30.867 Y12.3991
G1 X31.033 Y12.9581
G1 X31.151 Y13.5178
G1 X31.225 Y14.1099
G1 X31.249 Y14.6929
G1 X31.225 Y15.2758
G1 X31.153 Y15.8547
G1 X31.033 Y16.4257
G1 X30.867 Y16.9846
G1 X30.655 Y17.5285
G1 X30.398 Y18.0525
G1 X30.100 Y18.5544
G1 X29.768 Y19.0181
G1 X29.383 Y19.4743
G1 X28.971 Y19.8872
G1 X28.525 Y20.2641
G1 X28.050 Y20.6031
G1 X27.549 Y20.9020
G1 X27.025 Y21.1580
G1 X26.481 Y21.3709
G1 X25.922 Y21.5378
G1 X25.350 Y21.6568
G1 X24.771 Y21.7297
G1 X24.188 Y21.7536
G1 X23.605 Y21.7296
G1 X23.026 Y21.6565
G1 X22.455 Y21.5374
G1 X21.895 Y21.3704
G1 X21.352 Y21.1583
G1 X20.827 Y20.9023
G1 X20.326 Y20.6032
G1 X19.861 Y20.2719
G1 X19.295 Y19.7756
G1 Z7.800 F4000.000
G4F30
G1 X17.414 Y12.674 F4000.000
M50
G1 X17.497 Y12.3959 F3500.000
G1 X17.710 Y11.8509
G1 X17.967 Y11.3259
G1 X18.279 Y10.8033
G1 X18.606 Y10.3461
G1 X18.984 Y9.9001
G1 X19.397 Y9.4871
G1 X19.843 Y9.1092
G1 X20.339 Y8.7575
G1 X20.821 Y8.4703
G1 X21.347 Y8.2133
G1 X21.891 Y8.0014
G1 X22.452 Y7.8344
G1 X23.024 Y7.7144
G1 X23.604 Y7.6424
G1 X24.211 Y7.6188
G1 X24.772 Y7.6416
G1 X25.353 Y7.7146 F3500.000
G1 X25.925 Y7.8346
G1 X26.485 Y8.0017
G1 X27.030 Y8.2137
G1 X27.555 Y8.4707
G1 X28.076 Y8.7831
G1 X28.533 Y9.1099
G1 X28.979 Y9.4879
G1 X29.393 Y9.9009
G1 X29.771 Y10.3460
G1 X30.111 Y10.8220
G1 X30.410 Y11.3251
G1 X30.667 Y11.8501
G1 X30.879 Y12.3951
G1 X31.046 Y12.9552
G1 X31.166 Y13.5272
G1 X31.238 Y14.1073
G1 X31.262 Y14.6923
G1 X31.238 Y15.2764
G1 X31.166 Y15.8564
G1 X31.046 Y16.4284
G1 X30.879 Y16.9895
G1 X30.667 Y17.5335
G1 X30.410 Y18.0586
G1 X30.111 Y18.5616
G1 X29.771 Y19.0377
G1 X29.393 Y19.4837
G1 X28.979 Y19.8967
G1 X28.533 Y20.2748
G1 X28.057 Y20.6148
G1 X27.555 Y20.9139
G1 X27.030 Y21.1709
G1 X26.485 Y21.3820
G1 X25.925 Y21.5490
G1 X25.353 Y21.6690
G1 X24.772 Y21.7421
G1 X24.188 Y21.7661
G1 X23.604 Y21.7422
G1 X23.024 Y21.6692
G1 X22.452 Y21.5493
G1 X21.891 Y21.3823
G1 X21.347 Y21.1703
G1 X20.821 Y20.9134
G1 X20.319 Y20.6144
G1 X19.826 Y20.2598
G1 X19.397 Y19.8965
G1 X18.984 Y19.4836
G1 X18.606 Y19.0376
G1 X18.266 Y18.5616
G1 X17.967 Y18.0587
G1 X17.710 Y17.5337
G1 X17.497 Y16.9898
G1 X17.331 Y16.4288
G1 X17.211 Y15.8569
G1 X17.138 Y15.2769
G1 X17.114 Y14.6929
G1 X17.138 Y14.1070
G1 X17.211 Y13.5270
G1 X17.331 Y12.9551
G1 X17.393 Y12.7458
G1 Z7.950 F4000.000
G4F30
G1 X17.161 Y13.804 F4000.000
M50
G1 X17.196 Y13.5269 F3500.000
G1 X17.333 Y12.8940
G1 X17.484 Y12.3903
G1 X17.697 Y11.8444
G1 X17.954 Y11.3195
G1 X18.288 Y10.7666
G1 X18.594 Y10.3389
G1 X18.973 Y9.8901
G1 X19.387 Y9.4762
G1 X19.834 Y9.0984
G1 X20.310 Y8.7584
G1 X20.868 Y8.4316
G1 X21.341 Y8.2008
G1 X21.887 Y7.9870
G1 X22.448 Y7.8202
G1 X23.021 Y7.7003
G1 X23.602 Y7.6274
G1 X24.248 Y7.6056
G1 X24.774 Y7.6278
G1 X25.355 Y7.7000 F3500.000
G1 X25.928 Y7.8201
G1 X26.490 Y7.9873
G1 X27.036 Y8.2004
G1 X27.562 Y8.4576
G1 X28.065 Y8.7578
G1 X28.542 Y9.0989
G1 X28.989 Y9.4761
G1 X29.404 Y9.8903
G1 X29.782 Y10.3384
G1 X30.123 Y10.8146
G1 X30.423 Y11.3187
G1 X30.680 Y11.8449
G1 X30.893 Y12.3901
G1 X31.060 Y12.9512
G1 X31.180 Y13.5254
G1 X31.253 Y14.1065
G1 X31.277 Y14.6927
G1 X31.253 Y15.2779
G1 X31.180 Y15.8580
G1 X31.060 Y16.4322
G1 X30.893 Y16.9934
G1 X30.680 Y17.5395
G1 X30.423 Y18.0657
G1 X30.123 Y18.5698
G1 X29.782 Y19.0450
G1 X29.404 Y19.4932
G1 X28.989 Y19.9073
G1 X28.542 Y20.2865
G1 X28.065 Y20.6266
G1 X27.562 Y20.9268
G1 X27.036 Y21.1830
G1 X26.491 Y21.3960
G1 X25.870 Y21.5762
G1 X25.355 Y21.6844
G1 X24.774 Y21.7566
G1 X24.188 Y21.7808
G1 X23.603 Y21.7569
G1 X23.022 Y21.6840
G1 X22.391 Y21.5461
G1 X21.887 Y21.3964
G1 X21.341 Y21.1835
G1 X20.814 Y20.9267
G1 X20.312 Y20.6268
G1 X19.789 Y20.2479
G1 X19.387 Y19.9072
G1 X18.973 Y19.4933
G1 X18.594 Y19.0455
G1 X18.254 Y18.5697
G1 X17.954 Y18.0658
G1 X17.697 Y17.5390
G1 X17.484 Y16.9941
G1 X17.304 Y16.3732
G1 X17.196 Y15.8585
G1 X17.124 Y15.2776
G1 X17.100 Y14.6928
G1 X17.124 Y14.1069
G1 X17.152 Y13.8797
G1 Z8.100 F4000.000
G4F30
G1 X22.577 Y21.600 F4000.000
M50
G1 X21.882 Y21.4105 F3500.000
G1 X21.335 Y21.1968
G1 X20.808 Y20.9391
G1 X20.303 Y20.6384
G1 X19.825 Y20.2977
G1 X19.377 Y19.9180
G1 X18.962 Y19.5022
G1 X18.583 Y19.0545
G1 X18.242 Y18.5778
G1 X17.941 Y18.0721
G1 X17.683 Y17.5454
G1 X17.470 Y16.9995
G1 X17.283 Y16.3414
G1 X17.182 Y15.8612
G1 X17.109 Y15.2784
G1 X17.085 Y14.6927
G1 X17.109 Y14.1069
G1 X17.202 Y13.4288
G1 X17.302 Y12.9485
G1 X17.470 Y12.3858
G1 X17.683 Y11.8381
G1 X17.941 Y11.3122
G1 X18.298 Y10.7282
G1 X18.583 Y10.3299
G1 X18.962 Y9.8812
G1 X19.377 Y9.4665
G1 X19.825 Y9.0868
G1 X20.303 Y8.7450
G1 X20.808 Y8.4443
G1 X21.335 Y8.1876
G1 X21.882 Y7.9739
G1 X22.445 Y7.8062
G1 X23.019 Y7.6854
G1 X23.600 Y7.6136
G1 X24.284 Y7.5925
G1 X24.775 Y7.6133
G1 X25.357 Y7.6855 F3500.000
G1 X25.932 Y7.8068
G1 X26.495 Y7.9731
G1 X27.042 Y8.1874
G1 X27.569 Y8.4447
G1 X28.073 Y8.7459
G1 X28.551 Y9.0862
G1 X28.999 Y9.4665
G1 X29.414 Y9.8818
G1 X29.794 Y10.3291
G1 X30.135 Y10.8063
G1 X30.435 Y11.3105
G1 X30.728 Y11.9284
G1 X30.907 Y12.3852
G1 X31.074 Y12.9484
G1 X31.195 Y13.5227
G1 X31.267 Y14.1050
G1 X31.291 Y14.6923
G1 X31.267 Y15.2786
G1 X31.195 Y15.8618
G1 X31.074 Y16.4351
G1 X30.907 Y16.9984
G1 X30.693 Y17.5457
G1 X30.435 Y18.0720
G1 X30.135 Y18.5772
G1 X29.794 Y19.0545
G1 X29.414 Y19.5028
G1 X28.999 Y19.9181
G1 X28.551 Y20.2974
G1 X28.073 Y20.6386
G1 X27.569 Y20.9399
G1 X27.042 Y21.1962
G1 X26.496 Y21.4093
G1 X25.838 Y21.5973
G1 X25.357 Y21.6980
G1 X24.775 Y21.7703
G1 X24.188 Y21.7956
G1 X23.602 Y21.7709
G1 X23.021 Y21.6980
G1 X22.650 Y21.6166
G1 Z8.250 F4000.000
G4F30
G1 X30.760 Y11.969 F4000.000
M50
G1 X30.920 Y12.3808 F3500.000
G1 X31.088 Y12.9442
G1 X31.209 Y13.5206
G1 X31.282 Y14.1040
G1 X31.306 Y14.6924
G1 X31.282 Y15.2798
G1 X31.209 Y15.8610
G1 X31.050 Y16.5667
G1 X30.920 Y17.0030
G1 X30.706 Y17.5514
G1 X30.448 Y18.0798
G1 X30.147 Y18.5852
G1 X29.805 Y19.0636
G1 X29.425 Y19.5120
G1 X29.009 Y19.9284
G1 X28.561 Y20.3076
G1 X27.967 Y20.7183
G1 X27.576 Y20.9515
G1 X27.047 Y21.2109
G1 X26.499 Y21.4243
G1 X25.936 Y21.5917
G1 X25.360 Y21.7121
G1 X24.776 Y21.7855
G1 X24.188 Y21.8099
G1 X23.600 Y21.7853
G1 X23.017 Y21.7127
G1 X22.441 Y21.5911
G1 X21.877 Y21.4245
G1 X21.329 Y21.2109
G1 X20.802 Y20.9521
G1 X20.187 Y20.5739
G1 X19.816 Y20.3081
G1 X19.368 Y19.9285
G1 X18.952 Y19.5129
G1 X18.571 Y19.0633
G1 X18.230 Y18.5857
G1 X17.928 Y18.0791
G1 X17.670 Y17.5515
G1 X17.456 Y17.0039
G1 X17.289 Y16.4411
G1 X17.151 Y15.7318
G1 X17.095 Y15.2790
G1 X17.071 Y14.6924
G1 X17.095 Y14.1067
G1 X17.195 Y13.3904
G1 X17.288 Y12.9446
G1 X17.456 Y12.3800
G1 X17.670 Y11.8324
G1 X17.928 Y11.3048
G1 X18.230 Y10.7992
G1 X18.571 Y10.3206
G1 X18.952 Y9.8710
G1 X19.368 Y9.4554
G1 X19.816 Y9.0758
G1 X20.295 Y8.7332
G1 X20.801 Y8.4326
G1 X21.329 Y8.1730
G1 X21.877 Y7.9594
G1 X22.441 Y7.7928
G1 X23.017 Y7.6712
G1 X23.599 Y7.5984
G1 X24.321 Y7.5791
G1 X24.776 Y7.5984
G1 X25.360 Y7.6718 F3500.000
G1 X25.936 Y7.7922
G1 X26.499 Y7.9596
G1 X27.047 Y8.1730
G1 X27.576 Y8.4324
G1 X28.081 Y8.7338
G1 X28.560 Y9.0752
G1 X29.009 Y9.4556
