; This code was generated using the G Code Converter developed on the LMP

;General Config.--------------------
$ac_timer[1]=0
G91			;relative positioning
G641			;
G603			; 
M55			;home mirror
G4F4			;necessary delay for positioning of the mirror				
M0			;wait for user-input
 
;Process Start-up--------------------
M56			;set canal 1 as laser-source
G4F4			;necessary delay for positioning of the mirror
M0			;wait for user-input
;START POWDER!!!
G4F10
M0
G54			;set process starting point (machine zero)
;Laser On and Path------------------
H=2000
G90 ; use absolute coordinates
G1 Z0.000 F2000
G1 X3.380 Y-0.221 F2000
ID=1 WHEN $AC_TIMER[1]>=0 DO M50
G1 X3.425 Y0.6843 F600
G1 X3.543 Y2.0291
G1 X3.541 Y2.2002
G1 X3.688 Y3.5540
G1 X3.687 Y3.7307
G1 X3.860 Y5.0865
G1 X3.861 Y5.2674
G1 X4.056 Y6.6164
G1 X4.059 Y6.8010
G1 X4.273 Y8.1345
G1 X4.278 Y8.3224
G1 X4.508 Y9.6337
G1 X4.516 Y9.8233
G1 X4.758 Y11.1027
G1 X4.768 Y11.2944
G1 X5.021 Y12.5370
G1 X5.034 Y12.7288
G1 X5.293 Y13.9391
G1 X5.307 Y14.1312
G1 X5.569 Y15.3152
G1 X5.585 Y15.5080
G1 X5.846 Y16.6741
G1 X5.862 Y16.8691
G1 X6.119 Y18.0222
G1 X6.135 Y18.2201
G1 X6.385 Y19.3682
G1 X6.400 Y19.5698
G1 X6.674 Y20.8897
G1 X6.251 Y21.0905
G1 X5.450 Y20.1038
G1 X5.347 Y19.9219
G1 X4.592 Y18.9429
G1 X4.495 Y18.7638
G1 X3.761 Y17.7670
G1 X3.670 Y17.5916
G1 X2.956 Y16.5785
G1 X2.871 Y16.4068
G1 X2.175 Y15.3760
G1 X2.096 Y15.2089
G1 X1.415 Y14.1639
G1 X1.342 Y14.0003
G1 X0.676 Y12.9404
G1 X0.608 Y12.7822
G1 X-0.044 Y11.7088
G1 X-0.108 Y11.5556
G1 X-0.746 Y10.4660
G1 X-0.805 Y10.3209
G1 X-1.428 Y9.2149
G1 X-1.483 Y9.0748
G1 X-2.090 Y7.9513
G1 X-2.141 Y7.8164
G1 X-2.731 Y6.6742
G1 X-2.778 Y6.5456
G1 X-3.351 Y5.3834
G1 X-3.393 Y5.2593
G1 X-3.958 Y4.0538
G1 X-4.530 Y2.7324
G1 X-5.078 Y1.3929
G1 X-5.774 Y-0.4639
G1 X-6.085 Y-1.3765
G1 X-6.370 Y-2.2976
G1 X-6.624 Y-3.2243
G1 X-6.842 Y-4.1561
G1 X-7.019 Y-5.0921
G1 X-7.149 Y-6.0329
G1 X-7.230 Y-6.9760
G1 X-7.253 Y-7.9632
G1 X-7.201 Y-8.9727
G1 X-7.060 Y-9.9796
G1 X-6.816 Y-11.0261
G1 X-6.649 Y-11.5717
G1 X-6.214 Y-12.7292
G1 X-5.666 Y-13.9068
G1 X-5.027 Y-15.0526
G1 X-4.319 Y-16.1138
G1 X-3.569 Y-17.0314
G1 X-2.809 Y-17.7527
G1 X-2.083 Y-18.2236
G1 X-1.441 Y-18.4190
G1 X-0.886 Y-18.3574
G1 X-0.600 Y-18.2239 F600
G1 X-0.325 Y-18.0196
G1 X-0.020 Y-17.7218
G1 X0.284 Y-17.3521
G1 X0.581 Y-16.9262
G1 X0.867 Y-16.4554
G1 X1.137 Y-15.9567
G1 X1.631 Y-14.9043
G1 X2.205 Y-13.4388
G1 X2.641 Y-11.9794
G1 X2.942 Y-10.5762
G1 X3.133 Y-9.2117
G1 X3.240 Y-7.8685
G1 X3.285 Y-6.5326
G1 X3.297 Y-2.2547
G1 X3.328 Y-1.2700
ID=1 WHEN $AC_TIMER[1]>=0 DO M51
G1 Z0 F2000
ID=1 WHEN $AC_TIMER[1]>=0 DO M50
G1 Z0.002 X3.180 Y-0.9791 F600
G1 Z0.009 X3.260 Y0.2440
G1 Z0.010 X3.254 Y0.5112
G1 Z0.018 X3.363 Y1.7513
G1 Z0.019 X3.360 Y2.0233
G1 Z0.026 X3.495 Y3.2713
G1 Z0.028 X3.494 Y3.5485
G1 Z0.035 X3.653 Y4.7978
G1 Z0.037 X3.656 Y5.0788
G1 Z0.044 X3.835 Y6.3202
G1 Z0.046 X3.840 Y6.6042
G1 Z0.053 X4.037 Y7.8312
G1 Z0.055 X4.045 Y8.1176
G1 Z0.062 X4.256 Y9.3221
G1 Z0.063 X4.268 Y9.6081
G1 Z0.070 X4.491 Y10.7850
G1 Z0.072 X4.507 Y11.0707
G1 Z0.079 X4.739 Y12.2132
G1 Z0.080 X4.757 Y12.4966
G1 Z0.087 X4.996 Y13.6081
G1 Z0.089 X5.016 Y13.8894
G1 Z0.095 X5.257 Y14.9778
G1 Z0.097 X5.279 Y15.2599
G1 Z0.103 X5.519 Y16.3299
G1 Z0.105 X5.542 Y16.6116
G1 Z0.111 X5.778 Y17.6690
G1 Z0.113 X5.801 Y17.9533
G1 Z0.119 X6.030 Y19.0067
G1 Z0.121 X6.051 Y19.2947
G1 Z0.127 X6.270 Y20.3478
G1 Z0.128 X6.287 Y20.6051
G1 Z0.131 X5.881 Y20.7649
G1 Z0.137 X5.168 Y19.8842
G1 Z0.139 X5.020 Y19.6223
G1 Z0.146 X4.328 Y18.7261
G1 Z0.147 X4.189 Y18.4683
G1 Z0.154 X3.516 Y17.5556
G1 Z0.156 X3.385 Y17.3008
G1 Z0.162 X2.730 Y16.3713
G1 Z0.164 X2.606 Y16.1204
G1 Z0.170 X1.967 Y15.1756
G1 Z0.172 X1.852 Y14.9295
G1 Z0.179 X1.227 Y13.9699
G1 Z0.180 X1.118 Y13.7285
G1 Z0.187 X0.506 Y12.7537
G1 Z0.188 X0.404 Y12.5188
G1 Z0.195 X-0.196 Y11.5292
G1 Z0.196 X-0.292 Y11.3003
G1 Z0.203 X-0.880 Y10.2964
G1 Z0.205 X-0.970 Y10.0745
G1 Z0.211 X-1.545 Y9.0532
G1 Z0.213 X-1.629 Y8.8384
G1 Z0.220 X-2.190 Y7.7995
G1 Z0.221 X-2.268 Y7.5910
G1 Z0.228 X-2.816 Y6.5335
G1 Z0.229 X-2.888 Y6.3304
G1 Z0.236 X-3.420 Y5.2521
G1 Z0.237 X-3.487 Y5.0564
G1 Z0.244 X-4.003 Y3.9553
G1 Z0.245 X-4.065 Y3.7652
G1 Z0.252 X-4.564 Y2.6403
G1 Z0.254 X-4.621 Y2.4579
G1 Z0.261 X-5.109 Y1.2916
G1 Z0.272 X-5.797 Y-0.5700
G1 Z0.278 X-6.103 Y-1.4784
G1 Z0.283 X-6.383 Y-2.3941
G1 Z0.289 X-6.633 Y-3.3163
G1 Z0.295 X-6.848 Y-4.2460
G1 Z0.300 X-7.022 Y-5.1814
G1 Z0.306 X-7.152 Y-6.1243
G1 Z0.311 X-7.231 Y-7.0726
G1 Z0.317 X-7.255 Y-8.0984
G1 Z0.323 X-7.201 Y-9.1575
G1 Z0.329 X-7.060 Y-10.18156
G1 Z0.335 X-6.815 Y-11.24416
G1 Z0.339 X-6.648 Y-11.79668
G1 Z0.346 X-6.212 Y-12.96420
G1 Z0.354 X-5.665 Y-14.14770
G1 Z0.361 X-5.027 Y-15.29593
G1 Z0.369 X-4.321 Y-16.35327
G1 Z0.375 X-3.575 Y-17.26816
G1 Z0.381 X-2.820 Y-17.98319
G1 Z0.386 X-2.100 Y-18.44939
G1 Z0.390 X-1.465 Y-18.64096
G1 Z0.393 X-0.909 Y-18.57823
G1 Z0.395 X-0.644 Y-18.44506 F600
G1 Z0.397 X-0.388 Y-18.25546
G1 Z0.399 X-0.089 Y-17.96286
G1 Z0.402 X0.210 Y-17.59986
G1 Z0.405 X0.501 Y-17.17788
G1 Z0.408 X0.782 Y-16.71018
G1 Z0.412 X1.047 Y-16.21465
G1 Z0.418 X1.532 Y-15.16484
G1 Z0.427 X2.075 Y-13.76803
G1 Z0.436 X2.508 Y-12.30234
G1 Z0.444 X2.807 Y-10.89165
G1 Z0.452 X2.997 Y-9.51701
G1 Z0.460 X3.103 Y-8.16622
G1 Z0.468 X3.148 Y-6.82166
G1 Z0.493 X3.142 Y-2.42537
G1 Z0.500 X3.189 Y-1.26496
ID=1 WHEN $AC_TIMER[1]>=0 DO M51
G1 Z0.5 F2000
ID=1 WHEN $AC_TIMER[1]>=0 DO M50
G1 Z0.507 X3.092 Y-0.03016 F600
G1 Z0.509 X3.083 Y0.33797
G1 Z0.516 X3.183 Y1.47302
G1 Z0.518 X3.178 Y1.84620
G1 Z0.525 X3.302 Y2.98891
G1 Z0.527 X3.301 Y3.36640
G1 Z0.534 X3.446 Y4.50828
G1 Z0.536 X3.450 Y4.88999
G1 Z0.543 X3.613 Y6.02455
G1 Z0.545 X3.621 Y6.40740
G1 Z0.551 X3.801 Y7.52816
G1 Z0.554 X3.812 Y7.91105
G1 Z0.560 X4.005 Y9.01252
G1 Z0.562 X4.021 Y9.39436
G1 Z0.569 X4.225 Y10.46709
G1 Z0.571 X4.245 Y10.84676
G1 Z0.577 X4.457 Y11.88841
G1 Z0.579 X4.481 Y12.26380
G1 Z0.585 X4.698 Y13.27758
G1 Z0.588 X4.726 Y13.64874
G1 Z0.594 X4.945 Y14.63900
G1 Z0.596 X4.974 Y15.00904
G1 Z0.601 X5.193 Y15.98313
G1 Z0.604 X5.223 Y16.35318
G1 Z0.609 X5.437 Y17.31544
G1 Z0.612 X5.467 Y17.68761
G1 Z0.617 X5.675 Y18.64438
G1 Z0.619 X5.703 Y19.01982
G1 Z0.625 X5.902 Y19.97642
G1 Z0.627 X5.922 Y20.28408
G1 Z0.629 X5.516 Y20.44367
G1 Z0.635 X4.886 Y19.66598
G1 Z0.638 X4.692 Y19.32450
G1 Z0.644 X4.064 Y18.51066
G1 Z0.646 X3.882 Y18.17361
G1 Z0.652 X3.271 Y17.34395
G1 Z0.654 X3.099 Y17.00934
G1 Z0.660 X2.503 Y16.16493
G1 Z0.662 X2.341 Y15.83473
G1 Z0.668 X1.760 Y14.97464
G1 Z0.670 X1.607 Y14.65084
G1 Z0.676 X1.038 Y13.77513
G1 Z0.678 X0.894 Y13.45670
G1 Z0.684 X0.336 Y12.56643
G1 Z0.686 X0.200 Y12.25436
G1 Z0.693 X-0.348 Y11.35058
G1 Z0.695 X-0.476 Y11.04582
G1 Z0.701 X-1.014 Y10.12660
G1 Z0.703 X-1.134 Y9.82815
G1 Z0.709 X-1.662 Y8.89357
G1 Z0.711 X-1.774 Y8.60243
G1 Z0.717 X-2.291 Y7.64861
G1 Z0.719 X-2.396 Y7.36579
G1 Z0.725 X-2.900 Y6.39181
G1 Z0.727 X-2.999 Y6.11634
G1 Z0.733 X-3.490 Y5.12030
G1 Z0.735 X-3.582 Y4.85318
G1 Z0.742 X-4.059 Y3.83418
G1 Z0.743 X-4.144 Y3.57343
G1 Z0.750 X-4.607 Y2.53057
G1 Z0.751 X-4.686 Y2.27720
G1 Z0.758 X-5.133 Y1.20857
G1 Z0.760 X-5.207 Y0.96167
G1 Z0.764 X-5.501 Y0.21690
G1 Z0.775 X-6.120 Y-1.57924
G1 Z0.781 X-6.396 Y-2.49006
G1 Z0.786 X-6.642 Y-3.40984
G1 Z0.792 X-6.853 Y-4.33660
G1 Z0.797 X-7.026 Y-5.27138
G1 Z0.803 X-7.154 Y-6.21529
G1 Z0.809 X-7.234 Y-7.17271
G1 Z0.812 X-7.255 Y-7.74274
G1 Z0.818 X-7.239 Y-8.83764
G1 Z0.824 X-7.143 Y-9.85332
G1 Z0.830 X-6.950 Y-10.91836
G1 Z0.834 X-6.813 Y-11.46272
G1 Z0.837 X-6.647 Y-12.02272
G1 Z0.844 X-6.211 Y-13.20091
G1 Z0.852 X-5.664 Y-14.38874
G1 Z0.860 X-5.027 Y-15.53703
G1 Z0.867 X-4.324 Y-16.59419
G1 Z0.874 X-3.581 Y-17.50572
G1 Z0.880 X-2.830 Y-18.21525
G1 Z0.885 X-2.115 Y-18.67601
G1 Z0.889 X-1.505 Y-18.86384
G1 Z0.892 X-0.954 Y-18.80272
G1 Z0.894 X-0.684 Y-18.66306 F600
G1 Z0.895 X-0.451 Y-18.49140
G1 Z0.898 X-0.157 Y-18.20328
G1 Z0.900 X0.135 Y-17.84673
G1 Z0.903 X0.422 Y-17.42827
G1 Z0.906 X0.697 Y-16.96414
G1 Z0.910 X0.956 Y-16.47225
G1 Z0.916 X1.432 Y-15.42308
G1 Z0.925 X1.945 Y-14.09791
G1 Z0.934 X2.374 Y-12.62657
G1 Z0.942 X2.672 Y-11.20642
G1 Z0.950 X2.862 Y-9.82439
G1 Z0.958 X2.967 Y-8.46322
G1 Z0.966 X3.010 Y-7.10936
G1 Z0.974 X3.015 Y-5.74983
G1 Z0.984 X2.989 Y-4.02306
G1 Z0.990 X3.004 Y-2.96346
G1 Z0.992 X2.988 Y-2.61031
G1 Z0.999 X3.032 Y-1.51247
G1 Z1.000 X3.023 Y-1.27048
ID=1 WHEN $AC_TIMER[1]>=0 DO M51
G1 Z1 F2000
ID=1 WHEN $AC_TIMER[1]>=0 DO M50
G1 Z1.006 X2.923 Y-0.30469 F600
G1 Z1.008 X2.912 Y0.16459
G1 Z1.014 X3.003 Y1.19526
G1 Z1.017 X2.997 Y1.66953
G1 Z1.023 X3.109 Y2.70676
G1 Z1.026 X3.108 Y3.18331
G1 Z1.032 X3.240 Y4.21964
G1 Z1.035 X3.244 Y4.70036
G1 Z1.041 X3.392 Y5.72835
G1 Z1.044 X3.402 Y6.21014
G1 Z1.050 X3.565 Y7.22535
G1 Z1.053 X3.579 Y7.70510
G1 Z1.059 X3.754 Y8.70109
G1 Z1.061 X3.774 Y9.17967
G1 Z1.067 X3.958 Y10.15004
G1 Z1.070 X3.983 Y10.62331
G1 Z1.076 X4.175 Y11.56476
G1 Z1.078 X4.205 Y12.03160
G1 Z1.084 X4.401 Y12.94631
G1 Z1.087 X4.435 Y13.40779
G1 Z1.092 X4.633 Y14.30108
G1 Z1.095 X4.669 Y14.75935
G1 Z1.100 X4.866 Y15.63754
G1 Z1.102 X4.903 Y16.09475
G1 Z1.108 X5.097 Y16.96214
G1 Z1.110 X5.133 Y17.42045
G1 Z1.116 X5.320 Y18.28234
G1 Z1.118 X5.355 Y18.74493
G1 Z1.123 X5.533 Y19.60563
G1 Z1.125 X5.557 Y19.96382
G1 Z1.128 X5.151 Y20.12240
G1 Z1.133 X4.603 Y19.44651
G1 Z1.136 X4.365 Y19.02542
G1 Z1.141 X3.801 Y18.29426
G1 Z1.144 X3.576 Y17.87755
G1 Z1.150 X3.026 Y17.13161
G1 Z1.152 X2.814 Y16.71825
G1 Z1.158 X2.277 Y15.95760
G1 Z1.160 X2.077 Y15.54958
G1 Z1.166 X1.552 Y14.77428
G1 Z1.168 X1.363 Y14.37058
G1 Z1.174 X0.849 Y13.58172
G1 Z1.177 X0.670 Y13.18331
G1 Z1.182 X0.165 Y12.38095
G1 Z1.185 X-0.004 Y11.99081
G1 Z1.190 X-0.500 Y11.17201
G1 Z1.193 X-0.660 Y10.79008
G1 Z1.198 X-1.148 Y9.95692
G1 Z1.201 X-1.299 Y9.58220
G1 Z1.206 X-1.779 Y8.73279
G1 Z1.209 X-1.920 Y8.36728
G1 Z1.214 X-2.391 Y7.49772
G1 Z1.217 X-2.524 Y7.14044
G1 Z1.222 X-2.984 Y6.25083
G1 Z1.225 X-3.109 Y5.90280
G1 Z1.231 X-3.559 Y4.98925
G1 Z1.233 X-3.676 Y4.64948
G1 Z1.239 X-4.115 Y3.71309
G1 Z1.241 X-4.223 Y3.38160
G1 Z1.247 X-4.650 Y2.42047
G1 Z1.249 X-4.751 Y2.09627
G1 Z1.255 X-5.164 Y1.10851
G1 Z1.257 X-5.258 Y0.79169
G1 Z1.261 X-5.525 Y0.11762
G1 Z1.272 X-6.138 Y-1.68197
G1 Z1.278 X-6.409 Y-2.58634
G1 Z1.284 X-6.651 Y-3.50178
G1 Z1.289 X-6.859 Y-4.42532
G1 Z1.295 X-7.029 Y-5.36004
G1 Z1.300 X-7.156 Y-6.30607
G1 Z1.306 X-7.235 Y-7.26879
G1 Z1.309 X-7.258 Y-7.87119
G1 Z1.316 X-7.240 Y-9.01236
G1 Z1.322 X-7.143 Y-10.04623
G1 Z1.329 X-6.949 Y-11.12948
G1 Z1.332 X-6.812 Y-11.68040
G1 Z1.335 X-6.645 Y-12.24787
G1 Z1.343 X-6.210 Y-13.43573
G1 Z1.350 X-5.664 Y-14.62990
G1 Z1.358 X-5.028 Y-15.78025
G1 Z1.366 X-4.326 Y-16.83522
G1 Z1.372 X-3.586 Y-17.74238
G1 Z1.378 X-2.841 Y-18.44641
G1 Z1.383 X-2.134 Y-18.90141
G1 Z1.387 X-1.514 Y-19.08384
G1 Z1.390 X-1.056 Y-19.03217
G1 Z1.390 X-0.982 Y-19.01747 F600
G1 Z1.392 X-0.724 Y-18.88293
G1 Z1.393 X-0.515 Y-18.72719
G1 Z1.396 X-0.226 Y-18.44555
G1 Z1.398 X0.061 Y-18.09246
G1 Z1.401 X0.342 Y-17.67952
G1 Z1.405 X0.612 Y-17.22097
G1 Z1.408 X0.866 Y-16.73072
G1 Z1.414 X1.333 Y-15.68318
G1 Z1.422 X1.812 Y-14.43504
G1 Z1.425 X1.918 Y-14.01830
G1 Z1.431 X2.242 Y-12.94694
G1 Z1.440 X2.537 Y-11.52108
G1 Z1.448 X2.726 Y-10.13066
G1 Z1.456 X2.830 Y-8.76012
G1 Z1.464 X2.872 Y-7.39883
G1 Z1.472 X2.876 Y-6.03276
G1 Z1.483 X2.841 Y-4.20042
G1 Z1.488 X2.855 Y-3.23611
G1 Z1.491 X2.834 Y-2.78398
G1 Z1.497 X2.873 Y-1.78413
G1 Z1.500 X2.861 Y-1.25900
ID=1 WHEN $AC_TIMER[1]>=0 DO M51
G1 Z1.5 F2000
ID=1 WHEN $AC_TIMER[1]>=0 DO M50
G1 Z1.504 X2.755 Y-0.57823 F600
G1 Z1.507 X2.741 Y-0.00922
G1 Z1.513 X2.823 Y0.91752
G1 Z1.516 X2.815 Y1.49287
G1 Z1.522 X2.916 Y2.42362
G1 Z1.525 X2.915 Y3.00123
G1 Z1.531 X3.033 Y3.93001
G1 Z1.534 X3.039 Y4.51074
G1 Z1.539 X3.171 Y5.43316
G1 Z1.543 X3.183 Y6.01390
G1 Z1.548 X3.329 Y6.92256
G1 Z1.552 X3.346 Y7.50015
G1 Z1.557 X3.502 Y8.39168
G1 Z1.560 X3.527 Y8.96499
G1 Z1.566 X3.691 Y9.83200
G1 Z1.569 X3.721 Y10.39987
G1 Z1.574 X3.892 Y11.24012
G1 Z1.577 X3.928 Y11.79840
G1 Z1.582 X4.103 Y12.61504
G1 Z1.585 X4.144 Y13.16685
G1 Z1.590 X4.320 Y13.96317
G1 Z1.593 X4.364 Y14.50967
G1 Z1.598 X4.539 Y15.29195
G1 Z1.601 X4.584 Y15.83634
G1 Z1.606 X4.756 Y16.60885
G1 Z1.609 X4.799 Y17.15431
G1 Z1.614 X4.966 Y17.92032
G1 Z1.617 X5.007 Y18.47006
G1 Z1.622 X5.165 Y19.23484
G1 Z1.624 X5.192 Y19.64256
G1 Z1.627 X4.786 Y19.80115
G1 Z1.631 X4.321 Y19.22604
G1 Z1.634 X4.038 Y18.72736
G1 Z1.639 X3.537 Y18.07988
G1 Z1.642 X3.269 Y17.58250
G1 Z1.647 X2.781 Y16.92027
G1 Z1.651 X2.528 Y16.42718
G1 Z1.655 X2.051 Y15.75127
G1 Z1.659 X1.812 Y15.26344
G1 Z1.664 X1.345 Y14.57393
G1 Z1.667 X1.118 Y14.09134
G1 Z1.672 X0.660 Y13.38732
G1 Z1.675 X0.446 Y12.91193
G1 Z1.680 X-0.005 Y12.19348
G1 Z1.683 X-0.207 Y11.72626
G1 Z1.688 X-0.652 Y10.99345
G1 Z1.691 X-0.844 Y10.53434
G1 Z1.696 X-1.282 Y9.78626
G1 Z1.699 X-1.464 Y9.33726
G1 Z1.704 X-1.895 Y8.57101
G1 Z1.706 X-2.066 Y8.13114
G1 Z1.712 X-2.491 Y7.34684
G1 Z1.714 X-2.652 Y6.91510
G1 Z1.720 X-3.069 Y6.10986
G1 Z1.722 X-3.220 Y5.68727
G1 Z1.728 X-3.629 Y4.85821
G1 Z1.730 X-3.770 Y4.44679
G1 Z1.736 X-4.170 Y3.59200
G1 Z1.738 X-4.302 Y3.18978
G1 Z1.744 X-4.693 Y2.30938
G1 Z1.747 X-4.816 Y1.91536
G1 Z1.752 X-5.195 Y1.00845
G1 Z1.755 X-5.310 Y0.62271
G1 Z1.759 X-5.556 Y0.00065
G1 Z1.760 X-5.627 Y-0.25089
G1 Z1.764 X-5.864 Y-0.88339
G1 Z1.766 X-5.929 Y-1.13136
G1 Z1.770 X-6.157 Y-1.78718
G1 Z1.775 X-6.422 Y-2.68271
G1 Z1.781 X-6.660 Y-3.59381
G1 Z1.786 X-6.865 Y-4.51515
G1 Z1.792 X-7.033 Y-5.45081
G1 Z1.797 X-7.158 Y-6.39895
G1 Z1.803 X-7.237 Y-7.36072
G1 Z1.810 X-7.263 Y-8.50942
G1 Z1.817 X-7.203 Y-9.70341
G1 Z1.823 X-7.058 Y-10.78611
G1 Z1.830 X-6.811 Y-11.89917
G1 Z1.834 X-6.644 Y-12.47210
G1 Z1.841 X-6.208 Y-13.67164
G1 Z1.849 X-5.663 Y-14.87016
G1 Z1.857 X-5.028 Y-16.02255
G1 Z1.864 X-4.329 Y-17.07635
G1 Z1.871 X-3.592 Y-17.97814
G1 Z1.877 X-2.852 Y-18.67867
G1 Z1.882 X-2.151 Y-19.12606
G1 Z1.885 X-1.538 Y-19.30493
G1 Z1.888 X-1.134 Y-19.25943
G1 Z1.889 X-1.007 Y-19.23358 F600
G1 Z1.890 X-0.852 Y-19.15864
G1 Z1.892 X-0.575 Y-18.96058
G1 Z1.894 X-0.295 Y-18.68609
G1 Z1.897 X-0.013 Y-18.33946
G1 Z1.899 X0.262 Y-17.93103
G1 Z1.903 X0.527 Y-17.47506
G1 Z1.906 X0.776 Y-16.98846
G1 Z1.912 X1.226 Y-15.96026
G1 Z1.920 X1.683 Y-14.76133
G1 Z1.923 X1.816 Y-14.23730
G1 Z1.929 X2.109 Y-13.26838
G1 Z1.938 X2.402 Y-11.83600
G1 Z1.946 X2.590 Y-10.43619
G1 Z1.954 X2.693 Y-9.05827
G1 Z1.962 X2.735 Y-7.68756
G1 Z1.978 X2.719 Y-4.93016
G1 Z1.982 X2.693 Y-4.38457
G1 Z1.987 X2.705 Y-3.50902
G1 Z1.990 X2.680 Y-2.95593
G1 Z1.995 X2.715 Y-2.05707
G1 Z1.999 X2.695 Y-1.49458
G1 Z2.000 X2.711 Y-1.25080
ID=1 WHEN $AC_TIMER[1]>=0 DO M51
G1 Z2 F2000
ID=1 WHEN $AC_TIMER[1]>=0 DO M50
G1 Z2.002 X2.586 Y-0.85304 F600
G1 Z2.006 X2.570 Y-0.18311
G1 Z2.011 X2.643 Y0.63905
G1 Z2.015 X2.634 Y1.31549
G1 Z2.020 X2.723 Y2.14075
G1 Z2.024 X2.722 Y2.81942
G1 Z2.029 X2.827 Y3.64165
G1 Z2.033 X2.833 Y4.32140
G1 Z2.038 X2.950 Y5.13724
G1 Z2.042 X2.964 Y5.81592
G1 Z2.047 X3.093 Y6.61903
G1 Z2.051 X3.113 Y7.29448
G1 Z2.055 X3.251 Y8.08053
G1 Z2.059 X3.279 Y8.75057
G1 Z2.064 X3.424 Y9.51423
G1 Z2.068 X3.460 Y10.17570
G1 Z2.072 X3.610 Y10.91675
G1 Z2.076 X3.652 Y11.56648
G1 Z2.080 X3.806 Y12.28405
G1 Z2.084 X3.853 Y12.92518
G1 Z2.089 X4.008 Y13.62553
G1 Z2.092 X4.059 Y14.26026
G1 Z2.096 X4.212 Y14.94664
G1 Z2.100 X4.264 Y15.57819
G1 Z2.104 X4.415 Y16.25483
G1 Z2.108 X4.465 Y16.88743
G1 Z2.112 X4.611 Y17.55757
G1 Z2.116 X4.658 Y18.19545
G1 Z2.120 X4.797 Y18.86233
G1 Z2.123 X4.827 Y19.32158
G1 Z2.125 X4.422 Y19.47916
G1 Z2.129 X4.039 Y19.00785
G1 Z2.133 X3.711 Y18.42857
G1 Z2.137 X3.274 Y17.86377
G1 Z2.141 X2.963 Y17.28772
G1 Z2.145 X2.537 Y16.70820
G1 Z2.149 X2.242 Y16.13637
G1 Z2.153 X1.825 Y15.54422
G1 Z2.157 X1.547 Y14.97757
G1 Z2.161 X1.137 Y14.37286
G1 Z2.165 X0.874 Y13.81137
G1 Z2.169 X0.471 Y13.19319
G1 Z2.173 X0.222 Y12.63983
G1 Z2.177 X-0.175 Y12.00628
G1 Z2.181 X-0.411 Y11.46199
G1 Z2.185 X-0.804 Y10.81416
G1 Z2.189 X-1.028 Y10.27988
G1 Z2.193 X-1.417 Y9.61686
G1 Z2.196 X-1.628 Y9.09160
G1 Z2.201 X-2.012 Y8.41051
G1 Z2.204 X-2.212 Y7.89527
G1 Z2.209 X-2.591 Y7.19423
G1 Z2.212 X-2.779 Y6.69003
G1 Z2.217 X-3.153 Y5.96716
G1 Z2.220 X-3.330 Y5.47302
G1 Z2.225 X-3.698 Y4.72744
G1 Z2.228 X-3.864 Y4.24337
G1 Z2.233 X-4.226 Y3.47119
G1 Z2.236 X-4.381 Y2.99723
G1 Z2.241 X-4.735 Y2.19956
G1 Z2.244 X-4.881 Y1.73571
G1 Z2.249 X-5.226 Y0.90866
G1 Z2.252 X-5.362 Y0.45201
G1 Z2.256 X-5.587 Y-0.11695
G1 Z2.258 X-5.670 Y-0.41251
G1 Z2.261 X-5.891 Y-1.00279
G1 Z2.272 X-6.435 Y-2.78248
G1 Z2.278 X-6.669 Y-3.68599
G1 Z2.283 X-6.871 Y-4.60512
G1 Z2.289 X-7.036 Y-5.53972
G1 Z2.295 X-7.160 Y-6.48999
G1 Z2.300 X-7.239 Y-7.45507
G1 Z2.307 X-7.265 Y-8.64351
G1 Z2.315 X-7.204 Y-9.88796
G1 Z2.321 X-7.058 Y-10.98789
G1 Z2.328 X-6.810 Y-12.11709
G1 Z2.332 X-6.644 Y-12.69317
G1 Z2.336 X-6.369 Y-13.41545
G1 Z2.339 X-6.204 Y-13.91221
G1 Z2.347 X-5.662 Y-15.11159
G1 Z2.355 X-5.028 Y-16.26504
G1 Z2.362 X-4.331 Y-17.31765
G1 Z2.369 X-3.598 Y-18.21508
G1 Z2.375 X-2.862 Y-18.90911
G1 Z2.380 X-2.168 Y-19.35290
G1 Z2.384 X-1.562 Y-19.52619
G1 Z2.386 X-1.213 Y-19.48787
G1 Z2.387 X-1.039 Y-19.45130 F600
G1 Z2.388 X-0.910 Y-19.38838
G1 Z2.390 X-0.637 Y-19.19586
G1 Z2.392 X-0.363 Y-18.92777
G1 Z2.395 X-0.088 Y-18.58559
G1 Z2.398 X0.182 Y-18.18267
G1 Z2.401 X0.439 Y-17.73586
G1 Z2.407 X0.918 Y-16.72910
G1 Z2.418 X1.553 Y-15.09148
G1 Z2.421 X1.714 Y-14.45644
G1 Z2.427 X1.976 Y-13.59196
G1 Z2.435 X2.267 Y-12.15205
G1 Z2.444 X2.454 Y-10.74386
G1 Z2.452 X2.557 Y-9.35556
G1 Z2.460 X2.597 Y-7.97643
G1 Z2.477 X2.575 Y-5.20225
G1 Z2.480 X2.545 Y-4.56039
G1 Z2.485 X2.556 Y-3.78106
G1 Z2.489 X2.525 Y-3.12899
G1 Z2.494 X2.557 Y-2.32913
G1 Z2.497 X2.533 Y-1.66670
G1 Z2.500 X2.561 Y-1.24069
ID=1 WHEN $AC_TIMER[1]>=0 DO M51
G1 Z2.5 F2000
ID=1 WHEN $AC_TIMER[1]>=0 DO M50
G1 Z2.505 X2.399 Y-0.35608 F600
G1 Z2.509 X2.463 Y0.36165
G1 Z2.514 X2.453 Y1.13817
G1 Z2.518 X2.531 Y1.85795
G1 Z2.523 X2.529 Y2.63668
G1 Z2.527 X2.620 Y3.35236
G1 Z2.532 X2.627 Y4.13212
G1 Z2.536 X2.729 Y4.84140
G1 Z2.541 X2.745 Y5.61802
G1 Z2.545 X2.857 Y6.31558
G1 Z2.550 X2.880 Y7.08888
G1 Z2.554 X3.000 Y7.77045
G1 Z2.558 X3.032 Y8.53524
G1 Z2.562 X3.157 Y9.19754
G1 Z2.567 X3.198 Y9.95261
G1 Z2.571 X3.328 Y10.59145
G1 Z2.575 X3.376 Y11.33364
G1 Z2.579 X3.509 Y11.95314
G1 Z2.583 X3.562 Y12.68359
G1 Z2.587 X3.696 Y13.28696
G1 Z2.591 X3.753 Y14.01093
G1 Z2.595 X3.886 Y14.60040
G1 Z2.599 X3.944 Y15.32012
G1 Z2.603 X4.074 Y15.90189
G1 Z2.607 X4.131 Y16.62163
G1 Z2.610 X4.256 Y17.19590
G1 Z2.615 X4.310 Y17.92092
G1 Z2.618 X4.429 Y18.49189
G1 Z2.621 X4.462 Y19.00067
G1 Z2.624 X4.057 Y19.15825
G1 Z2.627 X3.756 Y18.78873
G1 Z2.631 X3.383 Y18.13085
G1 Z2.635 X3.010 Y17.64773
G1 Z2.639 X2.657 Y16.99102
G1 Z2.643 X2.292 Y16.49621
G1 Z2.647 X1.957 Y15.84564
G1 Z2.651 X1.599 Y15.33723
G1 Z2.655 X1.282 Y14.69177
G1 Z2.659 X0.930 Y14.17186
G1 Z2.663 X0.630 Y13.53247
G1 Z2.667 X0.283 Y12.99914
G1 Z2.671 X-0.002 Y12.36779
G1 Z2.675 X-0.345 Y11.82015
G1 Z2.679 X-0.615 Y11.19779
G1 Z2.683 X-0.956 Y10.63694
G1 Z2.687 X-1.212 Y10.02449
G1 Z2.691 X-1.551 Y9.44654
G1 Z2.694 X-1.793 Y8.84501
G1 Z2.698 X-2.129 Y8.24908
G1 Z2.702 X-2.358 Y7.66047
G1 Z2.706 X-2.691 Y7.04370
G1 Z2.710 X-2.907 Y6.46503
G1 Z2.714 X-3.238 Y5.82654
G1 Z2.718 X-3.441 Y5.25984
G1 Z2.722 X-3.768 Y4.59675
G1 Z2.726 X-3.959 Y4.04003
G1 Z2.730 X-4.281 Y3.35146
G1 Z2.734 X-4.460 Y2.80675
G1 Z2.738 X-4.778 Y2.08981
G1 Z2.742 X-4.945 Y1.55414
G1 Z2.746 X-5.257 Y0.80895
G1 Z2.750 X-5.413 Y0.28338
G1 Z2.753 X-5.617 Y-0.23333
G1 Z2.755 X-5.714 Y-0.57421
G1 Z2.759 X-5.915 Y-1.11149
G1 Z2.769 X-6.445 Y-2.86941
G1 Z2.772 X-6.520 Y-3.21424
G1 Z2.775 X-6.679 Y-3.78475
G1 Z2.781 X-6.877 Y-4.69524
G1 Z2.786 X-7.040 Y-5.62979
G1 Z2.792 X-7.163 Y-6.58017
G1 Z2.798 X-7.240 Y-7.55156
G1 Z2.805 X-7.268 Y-8.77876
G1 Z2.810 X-7.243 Y-9.54133
G1 Z2.813 X-7.204 Y-10.07268
G1 Z2.819 X-7.057 Y-11.18983
G1 Z2.823 X-6.948 Y-11.75422
G1 Z2.826 X-6.809 Y-12.33520
G1 Z2.830 X-6.643 Y-12.91770
G1 Z2.834 X-6.397 Y-13.56535
G1 Z2.838 X-6.203 Y-14.14742
G1 Z2.846 X-5.661 Y-15.35219
G1 Z2.853 X-5.029 Y-16.50770
G1 Z2.861 X-4.334 Y-17.55813
G1 Z2.868 X-3.604 Y-18.45219
G1 Z2.874 X-2.873 Y-19.14172
G1 Z2.878 X-2.185 Y-19.57890
G1 Z2.882 X-1.586 Y-19.74763
G1 Z2.884 X-1.291 Y-19.71449
G1 Z2.885 X-1.072 Y-19.66920 F600
G1 Z2.886 X-0.968 Y-19.61930
G1 Z2.888 X-0.700 Y-19.43031
G1 Z2.890 X-0.432 Y-19.16862
G1 Z2.893 X-0.162 Y-18.83290
G1 Z2.896 X0.102 Y-18.43349
G1 Z2.899 X0.350 Y-17.99771
G1 Z2.902 X0.595 Y-17.50346
G1 Z2.903 X0.684 Y-17.26808
G1 Z2.905 X0.825 Y-16.98344
G1 Z2.915 X1.423 Y-15.42092
G1 Z2.920 X1.612 Y-14.67684
G1 Z2.924 X1.842 Y-13.91379
G1 Z2.933 X2.132 Y-12.46737
G1 Z2.942 X2.318 Y-11.04979
G1 Z2.950 X2.420 Y-9.65211
G1 Z2.958 X2.460 Y-8.26555
G1 Z2.975 X2.432 Y-5.47733
G1 Z2.979 X2.397 Y-4.73647
G1 Z2.983 X2.406 Y-4.05436
G1 Z2.988 X2.371 Y-3.30032
G1 Z2.992 X2.399 Y-2.60145
G1 Z2.996 X2.372 Y-1.83808
G1 Z3.000 X2.411 Y-1.23085
ID=1 WHEN $AC_TIMER[1]>=0 DO M51
G1 Z3 F2000
ID=1 WHEN $AC_TIMER[1]>=0 DO M50
G1 Z3.004 X2.229 Y-0.52936 F600
G1 Z3.008 X2.282 Y0.08456
G1 Z3.013 X2.271 Y0.96117
G1 Z3.017 X2.338 Y1.57446
G1 Z3.022 X2.336 Y2.45425
G1 Z3.026 X2.414 Y3.06338
G1 Z3.031 X2.422 Y3.94316
G1 Z3.035 X2.508 Y4.54586
G1 Z3.040 X2.526 Y5.42142
G1 Z3.043 X2.621 Y6.01244
G1 Z3.049 X2.648 Y6.88359
G1 Z3.052 X2.748 Y7.45969
G1 Z3.057 X2.785 Y8.32021
G1 Z3.061 X2.891 Y8.87916
G1 Z3.066 X2.936 Y9.72883
G1 Z3.069 X3.046 Y10.26747
G1 Z3.074 X3.100 Y11.10010
G1 Z3.077 X3.211 Y11.62253
G1 Z3.082 X3.272 Y12.44231
G1 Z3.085 X3.384 Y12.94871
G1 Z3.090 X3.448 Y13.76091
G1 Z3.093 X3.559 Y14.25447
G1 Z3.098 X3.625 Y15.06236
G1 Z3.101 X3.733 Y15.54725
G1 Z3.106 X3.797 Y16.35514
G1 Z3.109 X3.901 Y16.83353
G1 Z3.113 X3.962 Y17.64570
G1 Z3.116 X4.061 Y18.12076
G1 Z3.120 X4.097 Y18.67906
G1 Z3.122 X3.692 Y18.83765
G1 Z3.124 X3.474 Y18.56991
G1 Z3.129 X3.056 Y17.83144
G1 Z3.132 X2.747 Y17.43100
G1 Z3.137 X2.350 Y16.69662
G1 Z3.140 X2.047 Y16.28453
G1 Z3.145 X1.671 Y15.55422
G1 Z3.148 X1.373 Y15.13156
G1 Z3.153 X1.017 Y14.40629
G1 Z3.156 X0.723 Y13.97116
G1 Z3.161 X0.385 Y13.25288
G1 Z3.164 X0.094 Y12.80540
G1 Z3.169 X-0.226 Y12.09507
G1 Z3.172 X-0.516 Y11.63333
G1 Z3.177 X-0.819 Y10.93390
G1 Z3.180 X-1.108 Y10.45703
G1 Z3.185 X-1.396 Y9.76941
G1 Z3.188 X-1.685 Y9.27653
G1 Z3.192 X-1.957 Y8.59973
G1 Z3.196 X-2.246 Y8.08896
G1 Z3.200 X-2.504 Y7.42499
G1 Z3.204 X-2.792 Y6.89248
G1 Z3.208 X-3.035 Y6.24035
G1 Z3.212 X-3.322 Y5.68522
G1 Z3.216 X-3.551 Y5.04497
G1 Z3.220 X-3.837 Y4.46536
G1 Z3.223 X-4.053 Y3.83799
G1 Z3.227 X-4.337 Y3.23003
G1 Z3.231 X-4.539 Y2.61458
G1 Z3.235 X-4.821 Y1.97838
G1 Z3.239 X-5.010 Y1.37487
G1 Z3.244 X-5.288 Y0.70854
G1 Z3.247 X-5.465 Y0.11407
G1 Z3.250 X-5.648 Y-0.34901
G1 Z3.253 X-5.758 Y-0.73622
G1 Z3.256 X-5.939 Y-1.22050
G1 Z3.267 X-6.458 Y-2.96541
G1 Z3.269 X-6.543 Y-3.35969
G1 Z3.272 X-6.688 Y-3.87743
G1 Z3.278 X-6.882 Y-4.78565
G1 Z3.283 X-7.043 Y-5.71814
G1 Z3.289 X-7.165 Y-6.67264
G1 Z3.295 X-7.242 Y-7.64735
G1 Z3.303 X-7.270 Y-8.91329
G1 Z3.307 X-7.244 Y-9.71774
G1 Z3.311 X-7.205 Y-10.25667
G1 Z3.317 X-7.057 Y-11.39003
G1 Z3.321 X-6.947 Y-11.96403
G1 Z3.325 X-6.808 Y-12.55356
G1 Z3.328 X-6.642 Y-13.14248
G1 Z3.332 X-6.424 Y-13.71451
G1 Z3.336 X-6.202 Y-14.38288
G1 Z3.344 X-5.660 Y-15.59305
G1 Z3.352 X-5.029 Y-16.75061
G1 Z3.359 X-4.336 Y-17.79986
G1 Z3.366 X-3.610 Y-18.68956
G1 Z3.372 X-2.883 Y-19.37258
G1 Z3.377 X-2.203 Y-19.80316
G1 Z3.381 X-1.611 Y-19.96933
G1 Z3.382 X-1.369 Y-19.94236
G1 Z3.384 X-1.105 Y-19.88735 F600
G1 Z3.384 X-1.026 Y-19.84947
G1 Z3.386 X-0.762 Y-19.66506
G1 Z3.388 X-0.501 Y-19.41070
G1 Z3.391 X-0.237 Y-19.07945
G1 Z3.394 X0.022 Y-18.68556
G1 Z3.397 X0.265 Y-18.25148
G1 Z3.400 X0.506 Y-17.75801
G1 Z3.402 X0.608 Y-17.48829
G1 Z3.403 X0.731 Y-17.24165
G1 Z3.413 X1.293 Y-15.74955
G1 Z3.418 X1.510 Y-14.89545
G1 Z3.422 X1.709 Y-14.23683
G1 Z3.431 X1.997 Y-12.78289
G1 Z3.440 X2.182 Y-11.35592
G1 Z3.448 X2.284 Y-9.95087
G1 Z3.456 X2.322 Y-8.55488
G1 Z3.473 X2.288 Y-5.75361
G1 Z3.478 X2.249 Y-4.91176
G1 Z3.482 X2.257 Y-4.32686
G1 Z3.487 X2.217 Y-3.47385
G1 Z3.490 X2.241 Y-2.87397
G1 Z3.495 X2.210 Y-2.01067
G1 Z3.500 X2.246 Y-1.23418
ID=1 WHEN $AC_TIMER[1]>=0 DO M51
G1 Z3.5 F2000
ID=1 WHEN $AC_TIMER[1]>=0 DO M50
G1 Z3.503 X2.058 Y-0.70282 F600
G1 Z3.506 X2.102 Y-0.19465
G1 Z3.512 X2.090 Y0.78434
G1 Z3.515 X2.145 Y1.29115
G1 Z3.521 X2.143 Y2.27200
G1 Z3.524 X2.207 Y2.77458
G1 Z3.530 X2.216 Y3.75437
G1 Z3.533 X2.287 Y4.24950
G1 Z3.539 X2.307 Y5.22401
G1 Z3.542 X2.385 Y5.70948
G1 Z3.548 X2.415 Y6.67748
G1 Z3.550 X2.497 Y7.14910
G1 Z3.556 X2.537 Y8.10636
G1 Z3.559 X2.624 Y8.56295
G1 Z3.565 X2.674 Y9.50422
G1 Z3.567 X2.763 Y9.94366
G1 Z3.573 X2.823 Y10.86874
G1 Z3.576 X2.914 Y11.29110
G1 Z3.581 X2.981 Y12.20120
G1 Z3.583 X3.071 Y12.61063
G1 Z3.589 X3.143 Y13.51106
G1 Z3.591 X3.232 Y13.90971
G1 Z3.597 X3.305 Y14.80478
G1 Z3.599 X3.392 Y15.19380
G1 Z3.605 X3.463 Y16.08882
G1 Z3.607 X3.547 Y16.47134
G1 Z3.612 X3.614 Y17.37065
G1 Z3.615 X3.692 Y17.74981
G1 Z3.618 X3.733 Y18.36626
G1 Z3.621 X3.278 Y18.50259
G1 Z3.628 X2.729 Y17.53383
G1 Z3.630 X2.483 Y17.21507
G1 Z3.636 X2.044 Y16.40102
G1 Z3.638 X1.802 Y16.07264
G1 Z3.644 X1.385 Y15.26359
G1 Z3.646 X1.147 Y14.92469
G1 Z3.652 X0.752 Y14.12060
G1 Z3.654 X0.515 Y13.77026
G1 Z3.659 X0.141 Y12.97309
G1 Z3.662 X-0.095 Y12.61145
G1 Z3.667 X-0.450 Y11.82214
G1 Z3.670 X-0.686 Y11.44631
G1 Z3.675 X-1.023 Y10.66980
G1 Z3.678 X-1.260 Y10.27892
G1 Z3.683 X-1.580 Y9.51313
G1 Z3.685 X-1.819 Y9.10631
G1 Z3.690 X-2.122 Y8.35424
G1 Z3.693 X-2.363 Y7.92763
G1 Z3.698 X-2.649 Y7.18829
G1 Z3.701 X-2.892 Y6.74004
G1 Z3.706 X-3.163 Y6.01445
G1 Z3.709 X-3.406 Y5.54370
G1 Z3.713 X-3.662 Y4.83089
G1 Z3.717 X-3.907 Y4.33477
G1 Z3.721 X-4.147 Y3.63375
G1 Z3.725 X-4.393 Y3.10940
G1 Z3.729 X-4.618 Y2.42221
G1 Z3.733 X-4.864 Y1.86874
G1 Z3.737 X-5.075 Y1.19340
G1 Z3.741 X-5.319 Y0.60893
G1 Z3.745 X-5.517 Y-0.05654
G1 Z3.747 X-5.679 Y-0.46549
G1 Z3.750 X-5.801 Y-0.89803
G1 Z3.753 X-5.962 Y-1.32830
G1 Z3.764 X-6.471 Y-3.06221
G1 Z3.766 X-6.567 Y-3.50494
G1 Z3.769 X-6.697 Y-3.97090
G1 Z3.775 X-6.888 Y-4.87585
G1 Z3.781 X-7.047 Y-5.80829
G1 Z3.786 X-7.167 Y-6.76391
G1 Z3.792 X-7.244 Y-7.74617
G1 Z3.797 X-7.271 Y-8.52157
G1 Z3.803 X-7.259 Y-9.58096
G1 Z3.808 X-7.205 Y-10.44365
G1 Z3.815 X-7.056 Y-11.59203
G1 Z3.819 X-6.946 Y-12.17464
G1 Z3.823 X-6.807 Y-12.77171
G1 Z3.826 X-6.640 Y-13.36606
G1 Z3.830 X-6.451 Y-13.86447
G1 Z3.834 X-6.201 Y-14.61614
G1 Z3.842 X-5.659 Y-15.83470
G1 Z3.850 X-5.030 Y-16.99332
G1 Z3.858 X-4.339 Y-18.03939
G1 Z3.865 X-3.616 Y-18.92672
G1 Z3.871 X-2.894 Y-19.60324
G1 Z3.875 X-2.220 Y-20.02921
G1 Z3.879 X-1.635 Y-20.19082
G1 Z3.880 X-1.448 Y-20.16903
G1 Z3.882 X-1.115 Y-20.10090 F600
G1 Z3.884 X-0.825 Y-19.90061
G1 Z3.886 X-0.569 Y-19.65171
G1 Z3.889 X-0.311 Y-19.32688
G1 Z3.892 X-0.058 Y-18.93650
G1 Z3.895 X0.186 Y-18.49686
G1 Z3.898 X0.412 Y-18.02644
G1 Z3.900 X0.533 Y-17.70739
G1 Z3.901 X0.633 Y-17.50619
G1 Z3.903 X0.740 Y-17.18873
G1 Z3.905 X0.833 Y-16.98542
G1 Z3.907 X0.930 Y-16.66964
G1 Z3.910 X1.164 Y-16.07455
G1 Z3.916 X1.408 Y-15.11503
G1 Z3.920 X1.576 Y-14.55886
G1 Z3.929 X1.862 Y-13.09739
G1 Z3.937 X2.047 Y-11.66104
G1 Z3.946 X2.147 Y-10.24761
G1 Z3.954 X2.184 Y-8.84320
G1 Z3.971 X2.145 Y-6.03539
G1 Z3.986 X2.063 Y-3.64532
G1 Z3.989 X2.083 Y-3.14643
G1 Z3.994 X2.048 Y-2.18120
G1 Z3.997 X2.081 Y-1.67580
G1 Z4.000 X2.071 Y-1.23850
ID=1 WHEN $AC_TIMER[1]>=0 DO M51
G1 Z4 F2000
ID=1 WHEN $AC_TIMER[1]>=0 DO M50
G1 Z4.002 X1.887 Y-0.87626 F600
G1 Z4.005 X1.922 Y-0.47271
G1 Z4.011 X1.909 Y0.60749
G1 Z4.014 X1.952 Y1.00882
G1 Z4.020 X1.950 Y2.08974
G1 Z4.023 X2.000 Y2.48576
G1 Z4.029 X2.010 Y3.56557
G1 Z4.031 X2.066 Y3.95312
G1 Z4.038 X2.088 Y5.02757
G1 Z4.040 X2.149 Y5.40650
G1 Z4.047 X2.182 Y6.47135
G1 Z4.049 X2.246 Y6.83850
G1 Z4.055 X2.290 Y7.89149
G1 Z4.057 X2.357 Y8.24473
G1 Z4.064 X2.412 Y9.28059
G1 Z4.066 X2.481 Y9.61983
G1 Z4.072 X2.547 Y10.63536
G1 Z4.074 X2.616 Y10.95965
G1 Z4.080 X2.690 Y11.96008
G1 Z4.082 X2.759 Y12.27253
G1 Z4.088 X2.838 Y13.26119
G1 Z4.090 X2.905 Y13.56394
G1 Z4.096 X2.986 Y14.54617
G1 Z4.098 X3.051 Y14.84032
G1 Z4.103 X3.130 Y15.82248
G1 Z4.105 X3.192 Y16.10913
G1 Z4.111 X3.266 Y17.09559
G1 Z4.113 X3.324 Y17.37884
G1 Z4.117 X3.365 Y17.99633
G1 Z4.120 X2.910 Y18.13266
G1 Z4.126 X2.402 Y17.23507
G1 Z4.128 X2.220 Y16.99998
G1 Z4.134 X1.737 Y16.10527
G1 Z4.136 X1.557 Y15.86160
G1 Z4.142 X1.100 Y14.97182
G1 Z4.143 X0.921 Y14.71766
G1 Z4.149 X0.487 Y13.83476
G1 Z4.151 X0.308 Y13.56922
G1 Z4.157 X-0.103 Y12.69314
G1 Z4.159 X-0.284 Y12.41635
G1 Z4.165 X-0.674 Y11.55006
G1 Z4.167 X-0.856 Y11.26014
G1 Z4.173 X-1.227 Y10.40555
G1 Z4.175 X-1.412 Y10.09965
G1 Z4.180 X-1.764 Y9.25869
G1 Z4.183 X-1.953 Y8.93595
G1 Z4.188 X-2.287 Y8.10860
G1 Z4.190 X-2.479 Y7.76616
G1 Z4.196 X-2.795 Y6.95245
G1 Z4.198 X-2.992 Y6.58947
G1 Z4.203 X-3.290 Y5.78941
G1 Z4.206 X-3.491 Y5.40203
G1 Z4.211 X-3.772 Y4.61666
G1 Z4.214 X-3.976 Y4.20203
G1 Z4.219 X-4.241 Y3.43036
G1 Z4.222 X-4.448 Y2.98862
G1 Z4.226 X-4.697 Y2.23068
G1 Z4.229 X-4.906 Y1.75895
G1 Z4.234 X-5.140 Y1.01278
G1 Z4.237 X-5.350 Y0.50817
G1 Z4.242 X-5.569 Y-0.22587
G1 Z4.244 X-5.710 Y-0.58282
G1 Z4.247 X-5.845 Y-1.06068
G1 Z4.250 X-5.986 Y-1.43795
G1 Z4.261 X-6.484 Y-3.15987
G1 Z4.264 X-6.590 Y-3.64904
G1 Z4.266 X-6.706 Y-4.06322
G1 Z4.272 X-6.894 Y-4.96591
G1 Z4.278 X-7.051 Y-5.89729
G1 Z4.283 X-7.169 Y-6.85403
G1 Z4.289 X-7.246 Y-7.84260
G1 Z4.294 X-7.273 Y-8.65038
G1 Z4.301 X-7.262 Y-9.72159
G1 Z4.306 X-7.205 Y-10.62730
G1 Z4.313 X-7.056 Y-11.79389
G1 Z4.317 X-6.945 Y-12.38409
G1 Z4.321 X-6.805 Y-12.99071
G1 Z4.324 X-6.639 Y-13.59049
G1 Z4.332 X-6.200 Y-14.85123
G1 Z4.341 X-5.659 Y-16.07519
G1 Z4.348 X-5.030 Y-17.23586
G1 Z4.356 X-4.341 Y-18.28075
G1 Z4.363 X-3.621 Y-19.16372
G1 Z4.369 X-2.904 Y-19.83574
G1 Z4.374 X-2.237 Y-20.25510
G1 Z4.377 X-1.659 Y-20.41214
G1 Z4.378 X-1.526 Y-20.39754
G1 Z4.380 X-1.158 Y-20.32191 F600
G1 Z4.382 X-0.888 Y-20.13693
G1 Z4.384 X-0.638 Y-19.89241
G1 Z4.387 X-0.385 Y-19.57203
G1 Z4.390 X-0.138 Y-19.18816
G1 Z4.393 X0.101 Y-18.75110
G1 Z4.396 X0.326 Y-18.27412
G1 Z4.399 X0.534 Y-17.77982
G1 Z4.401 X0.659 Y-17.40832
G1 Z4.403 X0.735 Y-17.24213
G1 Z4.405 X0.843 Y-16.88905
G1 Z4.408 X1.035 Y-16.40284
G1 Z4.415 X1.306 Y-15.33421
G1 Z4.417 X1.443 Y-14.88147
G1 Z4.426 X1.727 Y-13.41248
G1 Z4.435 X1.911 Y-11.96874
G1 Z4.444 X2.011 Y-10.54493
G1 Z4.452 X2.047 Y-9.13210
G1 Z4.461 X2.037 Y-7.72307
G1 Z4.469 X2.001 Y-6.30940
G1 Z4.484 X1.909 Y-3.81562
G1 Z4.487 X1.925 Y-3.41854
G1 Z4.493 X1.886 Y-2.35337
G1 Z4.496 X1.913 Y-1.94977
G1 Z4.500 X1.896 Y-1.24343
ID=1 WHEN $AC_TIMER[1]>=0 DO M51
G1 Z4.5 F2000
ID=1 WHEN $AC_TIMER[1]>=0 DO M50
G1 Z4.501 X1.716 Y-1.04931 F600
G1 Z4.503 X1.742 Y-0.75040
G1 Z4.510 X1.727 Y0.43026
G1 Z4.512 X1.759 Y0.72511
G1 Z4.519 X1.757 Y1.90708
G1 Z4.521 X1.794 Y2.19656
G1 Z4.528 X1.805 Y3.37537
G1 Z4.530 X1.845 Y3.65736
G1 Z4.537 X1.869 Y4.83075
G1 Z4.539 X1.913 Y5.10313
G1 Z4.546 X1.949 Y6.26683
G1 Z4.547 X1.994 Y6.52850
G1 Z4.554 X2.043 Y7.67623
G1 Z4.556 X2.090 Y7.92711
G1 Z4.563 X2.151 Y9.05758
G1 Z4.564 X2.199 Y9.29461
G1 Z4.571 X2.271 Y10.40360
G1 Z4.572 X2.319 Y10.62881
G1 Z4.579 X2.399 Y11.71957
G1 Z4.580 X2.447 Y11.93405
G1 Z4.587 X2.533 Y13.01194
G1 Z4.588 X2.579 Y13.21778
G1 Z4.595 X2.666 Y14.28819
G1 Z4.596 X2.710 Y14.48646
G1 Z4.602 X2.796 Y15.55576
G1 Z4.604 X2.837 Y15.74754
G1 Z4.615 X2.997 Y17.62590
G1 Z4.618 X2.542 Y17.76123
G1 Z4.624 X2.074 Y16.93681
G1 Z4.625 X1.956 Y16.78341
G1 Z4.632 X1.431 Y15.81003
G1 Z4.633 X1.312 Y15.64907
G1 Z4.639 X0.814 Y14.68055
G1 Z4.641 X0.695 Y14.51114
G1 Z4.647 X0.222 Y13.54842
G1 Z4.649 X0.100 Y13.36868
G1 Z4.655 X-0.348 Y12.41471
G1 Z4.656 X-0.473 Y12.22276
G1 Z4.663 X-0.898 Y11.27848
G1 Z4.664 X-1.027 Y11.07347
G1 Z4.670 X-1.430 Y10.14181
G1 Z4.672 X-1.564 Y9.92190
G1 Z4.678 X-1.948 Y9.00377
G1 Z4.680 X-2.087 Y8.76509
G1 Z4.685 X-2.451 Y7.86247
G1 Z4.687 X-2.596 Y7.60519
G1 Z4.693 X-2.941 Y6.71712
G1 Z4.695 X-3.092 Y6.43839
G1 Z4.701 X-3.418 Y5.56488
G1 Z4.703 X-3.575 Y5.26087
G1 Z4.708 X-3.883 Y4.40294
G1 Z4.710 X-4.046 Y4.07180
G1 Z4.716 X-4.335 Y3.22748
G1 Z4.718 X-4.504 Y2.86834
G1 Z4.724 X-4.776 Y2.03867
G1 Z4.726 X-4.949 Y1.64766
G1 Z4.731 X-5.204 Y0.83267
G1 Z4.734 X-5.381 Y0.40892
G1 Z4.739 X-5.620 Y-0.39470
G1 Z4.741 X-5.741 Y-0.69865
G1 Z4.745 X-5.889 Y-1.22284
G1 Z4.747 X-6.010 Y-1.54510
G1 Z4.757 X-6.498 Y-3.25602
G1 Z4.761 X-6.614 Y-3.79464
G1 Z4.763 X-6.715 Y-4.15605
G1 Z4.769 X-6.900 Y-5.05547
G1 Z4.774 X-7.054 Y-5.98680
G1 Z4.780 X-7.172 Y-6.94666
G1 Z4.786 X-7.248 Y-7.93854
G1 Z4.791 X-7.276 Y-8.78071
G1 Z4.798 X-7.265 Y-9.86372
G1 Z4.804 X-7.206 Y-10.81146
G1 Z4.811 X-7.055 Y-11.99525
G1 Z4.815 X-6.944 Y-12.59406
G1 Z4.819 X-6.804 Y-13.20823
G1 Z4.822 X-6.636 Y-13.82301
G1 Z4.831 X-6.200 Y-15.08363
G1 Z4.839 X-5.658 Y-16.31621
G1 Z4.847 X-5.030 Y-17.47895
G1 Z4.854 X-4.344 Y-18.52165
G1 Z4.861 X-3.627 Y-19.39925
G1 Z4.867 X-2.915 Y-20.06677
G1 Z4.872 X-2.254 Y-20.48052
G1 Z4.875 X-1.683 Y-20.63301
G1 Z4.876 X-1.605 Y-20.62458
G1 Z4.878 X-1.233 Y-20.54722 F600
G1 Z4.880 X-0.944 Y-20.36523
G1 Z4.882 X-0.707 Y-20.13348
G1 Z4.885 X-0.460 Y-19.81954
G1 Z4.888 X-0.217 Y-19.43919
G1 Z4.890 X0.015 Y-19.00672
G1 Z4.894 X0.236 Y-18.53340
G1 Z4.897 X0.442 Y-18.03149
G1 Z4.900 X0.630 Y-17.52076
G1 Z4.903 X0.756 Y-17.11085
G1 Z4.905 X0.905 Y-16.73051
G1 Z4.913 X1.204 Y-15.55376
G1 Z4.915 X1.310 Y-15.20345
G1 Z4.924 X1.593 Y-13.72795
G1 Z4.933 X1.775 Y-12.27482
G1 Z4.942 X1.874 Y-10.84264
G1 Z4.950 X1.909 Y-9.42238
G1 Z4.959 X1.898 Y-8.00584
G1 Z4.968 X1.858 Y-6.58653
G1 Z4.983 X1.755 Y-3.98906
G1 Z4.985 X1.767 Y-3.69003
G1 Z4.992 X1.725 Y-2.52593
G1 Z4.994 X1.744 Y-2.22411
G1 Z5.000 X1.721 Y-1.24773
ID=1 WHEN $AC_TIMER[1]>=0 DO M51
G1 Z5 F2000
ID=1 WHEN $AC_TIMER[1]>=0 DO M50
G1 Z5.001 X1.562 Y-1.02838 F600
G1 Z5.009 X1.546 Y0.25333
G1 Z5.010 X1.566 Y0.44269
G1 Z5.018 X1.564 Y1.72473
G1 Z5.019 X1.587 Y1.90765
G1 Z5.027 X1.599 Y3.18648
G1 Z5.028 X1.624 Y3.36189
G1 Z5.036 X1.650 Y4.63323
G1 Z5.037 X1.677 Y4.80006
G1 Z5.045 X1.716 Y6.06061
G1 Z5.046 X1.743 Y6.21781
G1 Z5.053 X1.795 Y7.46228
G1 Z5.054 X1.823 Y7.60980
G1 Z5.062 X1.889 Y8.83387
G1 Z5.063 X1.917 Y8.97070
G1 Z5.070 X1.994 Y10.17013
G1 Z5.071 X2.022 Y10.29728
G1 Z5.078 X2.109 Y11.47736
G1 Z5.079 X2.135 Y11.59907
G1 Z5.109 X2.586 Y16.60400
G1 Z5.113 X2.631 Y17.26977
G1 Z5.116 X2.179 Y17.40796
G1 Z5.130 X1.068 Y15.43778
G1 Z5.137 X0.529 Y14.38952
G1 Z5.138 X0.468 Y14.30486
G1 Z5.145 X-0.043 Y13.26233
G1 Z5.146 X-0.107 Y13.16837
G1 Z5.153 X-0.592 Y12.13551
G1 Z5.154 X-0.661 Y12.02841
G1 Z5.160 X-1.122 Y11.00615
G1 Z5.161 X-1.197 Y10.88605
G1 Z5.168 X-1.634 Y9.87731
G1 Z5.169 X-1.716 Y9.74238
G1 Z5.176 X-2.132 Y8.74808
G1 Z5.177 X-2.221 Y8.59547
G1 Z5.183 X-2.616 Y7.61658
G1 Z5.184 X-2.713 Y7.44446
G1 Z5.191 X-3.087 Y6.48102
G1 Z5.192 X-3.192 Y6.28656
G1 Z5.198 X-3.546 Y5.33958
G1 Z5.200 X-3.660 Y5.11995
G1 Z5.206 X-3.993 Y4.18746
G1 Z5.207 X-4.115 Y3.94080
G1 Z5.213 X-4.430 Y3.02484
G1 Z5.215 X-4.559 Y2.74730
G1 Z5.221 X-4.855 Y1.84689
G1 Z5.223 X-4.992 Y1.53762
G1 Z5.229 X-5.269 Y0.65180
G1 Z5.231 X-5.412 Y0.30891
G1 Z5.237 X-5.672 Y-0.56477
G1 Z5.238 X-5.771 Y-0.81573
G1 Z5.242 X-5.932 Y-1.38424
G1 Z5.244 X-6.033 Y-1.65450
G1 Z5.254 X-6.512 Y-3.35882
G1 Z5.260 X-6.722 Y-4.23936
G1 Z5.266 X-6.905 Y-5.14425
G1 Z5.271 X-7.058 Y-6.07653
G1 Z5.277 X-7.174 Y-7.03751
G1 Z5.283 X-7.249 Y-8.03148
G1 Z5.292 X-7.280 Y-9.45341
G1 Z5.298 X-7.249 Y-10.41501
G1 Z5.305 X-7.142 Y-11.58867
G1 Z5.313 X-6.942 Y-12.80959
G1 Z5.317 X-6.803 Y-13.42694
G1 Z5.320 X-6.635 Y-14.04820
G1 Z5.329 X-6.199 Y-15.31851
G1 Z5.337 X-5.657 Y-16.55744
G1 Z5.345 X-5.031 Y-17.72023
G1 Z5.353 X-4.347 Y-18.76275
G1 Z5.359 X-3.633 Y-19.63699
G1 Z5.365 X-2.925 Y-20.29800
G1 Z5.370 X-2.271 Y-20.70614
G1 Z5.374 X-1.703 Y-20.85643
G1 Z5.377 X-1.244 Y-20.76132
G1 Z5.378 X-1.013 Y-20.60688 F600
G1 Z5.380 X-0.776 Y-20.37513
G1 Z5.383 X-0.534 Y-20.06663
G1 Z5.385 X-0.297 Y-19.69179
G1 Z5.388 X-0.070 Y-19.26290
G1 Z5.395 X0.346 Y-18.29487
G1 Z5.403 X0.773 Y-17.06713
G1 Z5.412 X1.175 Y-15.53628
G1 Z5.422 X1.458 Y-14.04397
G1 Z5.431 X1.639 Y-12.58046
G1 Z5.440 X1.738 Y-11.13990
G1 Z5.448 X1.772 Y-9.71121
G1 Z5.457 X1.758 Y-8.29000
G1 Z5.482 X1.601 Y-4.17700
G1 Z5.500 X1.546 Y-1.25056
ID=1 WHEN $AC_TIMER[1]>=0 DO M51
G1 Z5.5 F2000
ID=1 WHEN $AC_TIMER[1]>=0 DO M50
G1 Z5.517 X1.371 Y1.51360 F600
G1 Z5.535 X1.430 Y4.40354
G1 Z5.544 X1.482 Y5.82331
G1 Z5.560 X1.625 Y8.57474
G1 Z5.577 X1.815 Y11.19850
G1 Z5.612 X2.270 Y16.86999
G1 Z5.615 X1.813 Y17.01051
G1 Z5.627 X0.842 Y15.25909
G1 Z5.635 X0.259 Y14.13129
G1 Z5.642 X-0.298 Y13.00267
G1 Z5.658 X-1.353 Y10.73149
G1 Z5.673 X-2.344 Y8.45393
G1 Z5.681 X-2.818 Y7.31457
G1 Z5.688 X-3.233 Y6.24506
G1 Z5.689 X-3.292 Y6.13587
G1 Z5.695 X-3.674 Y5.11442
G1 Z5.696 X-3.744 Y4.97816
G1 Z5.703 X-4.104 Y3.97312
G1 Z5.704 X-4.185 Y3.80995
G1 Z5.710 X-4.524 Y2.82033
G1 Z5.712 X-4.615 Y2.62641
G1 Z5.718 X-4.934 Y1.65426
G1 Z5.720 X-5.035 Y1.42772
G1 Z5.726 X-5.334 Y0.47006
G1 Z5.727 X-5.444 Y0.20715
G1 Z5.739 X-5.978 Y-1.55009
G1 Z5.740 X-6.057 Y-1.76297
G1 Z5.751 X-6.525 Y-3.45424
G1 Z5.756 X-6.731 Y-4.33146
G1 Z5.762 X-6.911 Y-5.23415
G1 Z5.768 X-7.061 Y-6.16537
G1 Z5.774 X-7.176 Y-7.12847
G1 Z5.780 X-7.251 Y-8.12675
G1 Z5.789 X-7.283 Y-9.58844
G1 Z5.795 X-7.250 Y-10.59191
G1 Z5.803 X-7.142 Y-11.78175
G1 Z5.810 X-6.941 Y-13.01987
G1 Z5.814 X-6.802 Y-13.64478
G1 Z5.818 X-6.633 Y-14.27352
G1 Z5.827 X-6.198 Y-15.55351
G1 Z5.835 X-5.656 Y-16.79779
G1 Z5.843 X-5.031 Y-17.96364
G1 Z5.851 X-4.349 Y-19.00398
G1 Z5.858 X-3.639 Y-19.87385
G1 Z5.864 X-2.936 Y-20.52936
G1 Z5.868 X-2.288 Y-20.93189
G1 Z5.872 X-1.740 Y-21.07466
G1 Z5.875 X-1.262 Y-20.96509
G1 Z5.876 X-1.075 Y-20.84186 F600
G1 Z5.878 X-0.844 Y-20.61648
G1 Z5.880 X-0.609 Y-20.31342
G1 Z5.883 X-0.377 Y-19.94309
G1 Z5.886 X-0.155 Y-19.51779
G1 Z5.893 X0.250 Y-18.55416
G1 Z5.900 X0.643 Y-17.39893
G1 Z5.910 X1.042 Y-15.85957
G1 Z5.919 X1.323 Y-14.35880
G1 Z5.928 X1.503 Y-12.88690
G1 Z5.937 X1.601 Y-11.43696
G1 Z5.946 X1.634 Y-10.00085
G1 Z5.955 X1.618 Y-8.57212
G1 Z5.981 X1.447 Y-4.35270
G1 Z6.000 X1.374 Y-1.25054
ID=1 WHEN $AC_TIMER[1]>=0 DO M51
G1 Z6 F2000
ID=1 WHEN $AC_TIMER[1]>=0 DO M50
G1 Z6.016 X1.208 Y1.34475 F600
G1 Z6.034 X1.261 Y4.22614
G1 Z6.042 X1.309 Y5.64159
G1 Z6.059 X1.450 Y8.38335
G1 Z6.076 X1.639 Y10.99956
G1 Z6.110 X2.097 Y16.64421
G1 Z6.113 X1.642 Y16.77954
G1 Z6.117 X1.332 Y16.23078
G1 Z6.133 X0.142 Y13.97111
G1 Z6.141 X-0.414 Y12.84340
G1 Z6.156 X-1.472 Y10.57139
G1 Z6.172 X-2.464 Y8.29382
G1 Z6.187 X-3.382 Y6.01345
G1 Z6.202 X-4.246 Y3.70175
G1 Z6.210 X-4.662 Y2.53198
G1 Z6.216 X-5.013 Y1.46296
G1 Z6.217 X-5.077 Y1.31615
G1 Z6.224 X-5.399 Y0.29067
G1 Z6.225 X-5.475 Y0.10666
G1 Z6.238 X-6.076 Y-1.85567
G1 Z6.249 X-6.538 Y-3.55004
G1 Z6.254 X-6.739 Y-4.42394
G1 Z6.260 X-6.917 Y-5.32443
G1 Z6.266 X-7.065 Y-6.25560
G1 Z6.272 X-7.178 Y-7.22082
G1 Z6.278 X-7.253 Y-8.22242
G1 Z6.287 X-7.285 Y-9.72385
G1 Z6.294 X-7.251 Y-10.76720
G1 Z6.301 X-7.142 Y-11.97322
G1 Z6.309 X-6.941 Y-13.22955
G1 Z6.313 X-6.801 Y-13.86201
G1 Z6.317 X-6.632 Y-14.49822
G1 Z6.325 X-6.196 Y-15.78990
G1 Z6.334 X-5.655 Y-17.03853
G1 Z6.342 X-5.031 Y-18.20544
G1 Z6.350 X-4.352 Y-19.24460
G1 Z6.356 X-3.645 Y-20.11011
G1 Z6.362 X-2.947 Y-20.76011
G1 Z6.367 X-2.306 Y-21.15703
G1 Z6.370 X-1.775 Y-21.29346
G1 Z6.373 X-1.317 Y-21.19438
G1 Z6.375 X-1.138 Y-21.07647 F600
G1 Z6.377 X-0.913 Y-20.85746
G1 Z6.379 X-0.684 Y-20.56084
G1 Z6.381 X-0.457 Y-20.19502
G1 Z6.384 X-0.240 Y-19.77331
G1 Z6.391 X0.155 Y-18.81507
G1 Z6.398 X0.513 Y-17.72937
G1 Z6.408 X0.909 Y-16.18250
G1 Z6.417 X1.188 Y-14.67328
G1 Z6.426 X1.368 Y-13.19299
G1 Z6.435 X1.465 Y-11.73367
G1 Z6.444 X1.496 Y-10.28914
G1 Z6.453 X1.479 Y-8.85491
G1 Z6.480 X1.294 Y-4.52421
G1 Z6.500 X1.216 Y-1.25113
ID=1 WHEN $AC_TIMER[1]>=0 DO M51
G1 Z6.5 F2000
ID=1 WHEN $AC_TIMER[1]>=0 DO M50
G1 Z6.515 X1.108 Y1.20666 F600
G1 Z6.533 X1.149 Y4.07303
G1 Z6.542 X1.191 Y5.48191
G1 Z6.558 X1.317 Y8.20652
G1 Z6.575 X1.493 Y10.80865
G1 Z6.605 X1.878 Y15.65497
G1 Z6.609 X1.922 Y16.39833
G1 Z6.612 X1.470 Y16.53348
G1 Z6.615 X1.203 Y16.06717
G1 Z6.631 X0.035 Y13.81814
G1 Z6.639 X-0.511 Y12.69582
G1 Z6.654 X-1.549 Y10.43456
G1 Z6.669 X-2.522 Y8.16779
G1 Z6.685 X-3.443 Y5.88559
G1 Z6.700 X-4.303 Y3.60662
G1 Z6.708 X-4.717 Y2.41237
G1 Z6.723 X-5.500 Y0.02855
G1 Z6.736 X-6.100 Y-1.96251
G1 Z6.747 X-6.551 Y-3.64691
G1 Z6.752 X-6.748 Y-4.51549
G1 Z6.758 X-6.923 Y-5.41478
G1 Z6.764 X-7.068 Y-6.34490
G1 Z6.770 X-7.180 Y-7.31124
G1 Z6.776 X-7.255 Y-8.32136
G1 Z6.782 X-7.286 Y-9.29910
G1 Z6.788 X-7.278 Y-10.35306
G1 Z6.796 X-7.207 Y-11.54817
G1 Z6.804 X-7.054 Y-12.80175
G1 Z6.808 X-6.941 Y-13.43496
G1 Z6.812 X-6.800 Y-14.08032
G1 Z6.816 X-6.631 Y-14.72301
G1 Z6.824 X-6.195 Y-16.02438
G1 Z6.833 X-5.654 Y-17.27936
G1 Z6.841 X-5.033 Y-18.44513
G1 Z6.848 X-4.355 Y-19.46617
G1 Z6.855 X-3.650 Y-20.32095
G1 Z6.861 X-2.956 Y-20.96340
G1 Z6.866 X-2.320 Y-21.35581
G1 Z6.869 X-1.811 Y-21.48471
G1 Z6.872 X-1.369 Y-21.39634
G1 Z6.873 X-1.191 Y-21.28027 F600
G1 Z6.875 X-0.976 Y-21.07132
G1 Z6.877 X-0.751 Y-20.77827
G1 Z6.880 X-0.529 Y-20.41611
G1 Z6.883 X-0.316 Y-19.99615
G1 Z6.886 X-0.115 Y-19.53268
G1 Z6.889 X0.072 Y-19.03968
G1 Z6.896 X0.407 Y-17.99476
G1 Z6.906 X0.799 Y-16.45711
G1 Z6.915 X1.081 Y-14.93674
G1 Z6.925 X1.264 Y-13.44431
G1 Z6.934 X1.366 Y-11.97477
G1 Z6.943 X1.403 Y-10.45363
G1 Z6.952 X1.388 Y-9.00343
G1 Z6.979 X1.211 Y-4.64289
G1 Z7.000 X1.124 Y-1.25108
ID=1 WHEN $AC_TIMER[1]>=0 DO M51
G1 Z7 F2000
ID=1 WHEN $AC_TIMER[1]>=0 DO M50
G1 Z7.014 X1.008 Y1.06795 F600
G1 Z7.032 X1.037 Y3.92352
G1 Z7.039 X1.080 Y5.09692
G1 Z7.041 X1.072 Y5.30350
G1 Z7.048 X1.128 Y6.46518
G1 Z7.049 X1.121 Y6.67484
G1 Z7.056 X1.189 Y7.80544
G1 Z7.058 X1.184 Y8.01513
G1 Z7.064 X1.263 Y9.11452
G1 Z7.066 X1.260 Y9.32317
G1 Z7.103 X1.703 Y15.34732
G1 Z7.105 X1.702 Y15.56563
G1 Z7.108 X1.745 Y16.14230
G1 Z7.111 X1.290 Y16.28271
G1 Z7.121 X0.498 Y14.80441
G1 Z7.123 X0.418 Y14.60456
G1 Z7.129 X-0.063 Y13.68447
G1 Z7.131 X-0.137 Y13.49001
G1 Z7.137 X-0.601 Y12.56291
G1 Z7.138 X-0.669 Y12.37678
G1 Z7.145 X-1.119 Y11.43981
G1 Z7.146 X-1.181 Y11.26293
G1 Z7.152 X-1.618 Y10.31429
G1 Z7.153 X-1.674 Y10.14854
G1 Z7.160 X-2.102 Y9.18742
G1 Z7.161 X-2.151 Y9.03568
G1 Z7.168 X-2.581 Y8.04077
G1 Z7.183 X-3.482 Y5.77309
G1 Z7.198 X-4.338 Y3.47342
G1 Z7.213 X-5.150 Y1.12112
G1 Z7.221 X-5.530 Y-0.06979
G1 Z7.234 X-6.123 Y-2.06934
G1 Z7.245 X-6.563 Y-3.74278
G1 Z7.250 X-6.757 Y-4.60704
G1 Z7.256 X-6.929 Y-5.50413
G1 Z7.262 X-7.072 Y-6.43420
G1 Z7.268 X-7.183 Y-7.40266
G1 Z7.274 X-7.256 Y-8.41710
G1 Z7.281 X-7.289 Y-9.42921
G1 Z7.287 X-7.279 Y-10.52189
G1 Z7.295 X-7.208 Y-11.73210
G1 Z7.303 X-7.053 Y-13.00290
G1 Z7.307 X-6.940 Y-13.64470
G1 Z7.311 X-6.799 Y-14.29649
G1 Z7.315 X-6.629 Y-14.93170
G1 Z7.323 X-6.188 Y-16.19997
G1 Z7.332 X-5.645 Y-17.42513
G1 Z7.340 X-5.023 Y-18.56958
G1 Z7.347 X-4.347 Y-19.58841
G1 Z7.354 X-3.647 Y-20.43873
G1 Z7.360 X-2.957 Y-21.07568
G1 Z7.365 X-2.327 Y-21.46361
G1 Z7.368 X-1.821 Y-21.59230
G1 Z7.370 X-1.420 Y-21.50908
G1 Z7.372 X-1.210 Y-21.38037 F600
G1 Z7.374 X-1.017 Y-21.19229
G1 Z7.376 X-0.795 Y-20.90387
G1 Z7.379 X-0.576 Y-20.54628
G1 Z7.381 X-0.366 Y-20.13194
G1 Z7.388 X0.017 Y-19.18281
G1 Z7.395 X0.347 Y-18.14152
G1 Z7.404 X0.721 Y-16.67102
G1 Z7.414 X1.002 Y-15.15062
G1 Z7.423 X1.186 Y-13.65724
G1 Z7.432 X1.288 Y-12.18678
G1 Z7.442 X1.326 Y-10.57028
G1 Z7.450 X1.314 Y-9.28270
G1 Z7.459 X1.268 Y-7.83907
G1 Z7.478 X1.128 Y-4.76235
G1 Z7.500 X1.032 Y-1.25292
ID=1 WHEN $AC_TIMER[1]>=0 DO M51
G1 Z7.5 F2000
ID=1 WHEN $AC_TIMER[1]>=0 DO M50
G1 Z7.512 X0.925 Y0.63346 F600
G1 Z7.514 X0.908 Y0.91954
G1 Z7.521 X0.925 Y2.06066
G1 Z7.522 X0.909 Y2.34784
G1 Z7.529 X0.938 Y3.46967
G1 Z7.531 X0.925 Y3.75790
G1 Z7.538 X0.965 Y4.85722
G1 Z7.540 X0.953 Y5.14547
G1 Z7.547 X1.005 Y6.22004
G1 Z7.548 X0.996 Y6.50826
G1 Z7.555 X1.059 Y7.55488
G1 Z7.557 X1.052 Y7.84100
G1 Z7.563 X1.125 Y8.85755
G1 Z7.565 X1.121 Y9.14150
G1 Z7.587 X1.368 Y12.61282
G1 Z7.588 X1.368 Y12.89888
G1 Z7.594 X1.451 Y13.83926
G1 Z7.596 X1.451 Y14.12422
G1 Z7.602 X1.529 Y15.06020
G1 Z7.604 X1.528 Y15.34841
G1 Z7.607 X1.569 Y15.89708
G1 Z7.610 X1.114 Y16.03649
G1 Z7.612 X0.956 Y15.76181
G1 Z7.614 X0.840 Y15.48771
G1 Z7.620 X0.380 Y14.64503
G1 Z7.622 X0.272 Y14.37732
G1 Z7.628 X-0.171 Y13.52953
G1 Z7.629 X-0.272 Y13.26815
G1 Z7.635 X-0.700 Y12.41239
G1 Z7.637 X-0.792 Y12.15926
G1 Z7.643 X-1.207 Y11.29370
G1 Z7.645 X-1.292 Y11.05174
G1 Z7.651 X-1.697 Y10.17455
G1 Z7.652 X-1.774 Y9.94367
G1 Z7.658 X-2.171 Y9.05304
G1 Z7.660 X-2.241 Y8.83513
G1 Z7.666 X-2.631 Y7.93129
G1 Z7.667 X-2.694 Y7.72818
G1 Z7.673 X-3.079 Y6.80639
G1 Z7.675 X-3.135 Y6.62197
G1 Z7.681 X-3.522 Y5.65881
G1 Z7.696 X-4.361 Y3.37371
G1 Z7.704 X-4.763 Y2.21676
G1 Z7.719 X-5.540 Y-0.15594
G1 Z7.733 X-6.147 Y-2.17931
G1 Z7.743 X-6.576 Y-3.83865
G1 Z7.749 X-6.766 Y-4.69958
G1 Z7.754 X-6.934 Y-5.59348
G1 Z7.760 X-7.075 Y-6.52350
G1 Z7.766 X-7.185 Y-7.49409
G1 Z7.773 X-7.258 Y-8.51063
G1 Z7.783 X-7.293 Y-10.12831
G1 Z7.790 X-7.254 Y-11.29630
G1 Z7.797 X-7.153 Y-12.44429
G1 Z7.802 X-7.048 Y-13.16757
G1 Z7.806 X-6.930 Y-13.79650
G1 Z7.810 X-6.784 Y-14.43016
G1 Z7.814 X-6.612 Y-15.05900
G1 Z7.822 X-6.172 Y-16.33044
G1 Z7.831 X-5.631 Y-17.55546
G1 Z7.839 X-5.011 Y-18.69662
G1 Z7.846 X-4.339 Y-19.71006
G1 Z7.853 X-3.643 Y-20.55592
G1 Z7.859 X-2.959 Y-21.18836
G1 Z7.864 X-2.336 Y-21.57071
G1 Z7.867 X-1.831 Y-21.69624
G1 Z7.869 X-1.422 Y-21.61259
G1 Z7.871 X-1.241 Y-21.49185 F600
G1 Z7.872 X-1.058 Y-21.31281
G1 Z7.875 X-0.838 Y-21.02801
G1 Z7.877 X-0.623 Y-20.67799
G1 Z7.880 X-0.416 Y-20.26626
G1 Z7.886 X-0.039 Y-19.32549
G1 Z7.893 X0.287 Y-18.28783
G1 Z7.902 X0.642 Y-16.88449
G1 Z7.912 X0.923 Y-15.36305
G1 Z7.921 X1.107 Y-13.87164
G1 Z7.932 X1.219 Y-12.15074
G1 Z7.940 X1.249 Y-10.93977
G1 Z7.949 X1.238 Y-9.49052
G1 Z7.958 X1.193 Y-8.04791
G1 Z7.977 X1.045 Y-4.88244
G1 Z8.000 X0.935 Y-1.25427
ID=1 WHEN $AC_TIMER[1]>=0 DO M51
G1 Z8 F2000
ID=1 WHEN $AC_TIMER[1]>=0 DO M50
G1 Z8.004 X0.826 Y-0.65356 F600
G1 Z8.010 X0.830 Y0.41233
G1 Z8.013 X0.808 Y0.78240
G1 Z8.019 X0.824 Y1.83316
G1 Z8.022 X0.804 Y2.20323
G1 Z8.028 X0.830 Y3.23676
G1 Z8.030 X0.813 Y3.60679
G1 Z8.037 X0.850 Y4.61889
G1 Z8.039 X0.835 Y4.98781
G1 Z8.045 X0.883 Y5.97529
G1 Z8.048 X0.871 Y6.34205
G1 Z8.054 X0.928 Y7.30470
G1 Z8.056 X0.920 Y7.667424
G1 Z8.062 X0.986 Y8.601995
G1 Z8.064 X0.981 Y8.960520
G1 Z8.070 X1.055 Y9.868919
G1 Z8.072 X1.053 Y10.225420
G1 Z8.078 X1.130 Y11.113681
G1 Z8.080 X1.130 Y11.467170
G1 Z8.085 X1.208 Y12.340326
G1 Z8.088 X1.208 Y12.695813
G1 Z8.093 X1.284 Y13.558896
G1 Z8.095 X1.284 Y13.914396
G1 Z8.101 X1.356 Y14.771438
G1 Z8.103 X1.354 Y15.131962
G1 Z8.106 X1.393 Y15.654649
G1 Z8.109 X0.902 Y15.774197
G1 Z8.113 X0.682 Y15.256149
G1 Z8.118 X0.261 Y14.486307
G1 Z8.121 X0.126 Y14.150849
G1 Z8.126 X-0.280 Y13.374000
G1 Z8.128 X-0.406 Y13.046469
G1 Z8.134 X-0.798 Y12.261628
G1 Z8.136 X-0.915 Y11.942015
G1 Z8.141 X-1.296 Y11.148198
G1 Z8.143 X-1.404 Y10.839497
G1 Z8.149 X-1.775 Y10.034722
G1 Z8.151 X-1.875 Y9.737922
G1 Z8.157 X-2.239 Y8.919208
G1 Z8.158 X-2.331 Y8.636298
G1 Z8.164 X-2.690 Y7.803668
G1 Z8.166 X-2.774 Y7.536633
G1 Z8.172 X-3.129 Y6.684112
G1 Z8.173 X-3.204 Y6.435941
G1 Z8.179 X-3.556 Y5.561557
G1 Z8.181 X-3.623 Y5.331238
G1 Z8.187 X-3.972 Y4.430022
G1 Z8.188 X-4.031 Y4.222542
G1 Z8.194 X-4.378 Y3.290525
G1 Z8.202 X-4.779 Y2.123192
G1 Z8.218 X-5.540 Y-0.230552
G1 Z8.231 X-6.147 Y-2.268486
G1 Z8.242 X-6.586 Y-3.933581
G1 Z8.247 X-6.775 Y-4.792756
G1 Z8.253 X-6.940 Y-5.683120
G1 Z8.259 X-7.079 Y-6.612717
G1 Z8.265 X-7.187 Y-7.585588
G1 Z8.271 X-7.260 Y-8.606774
G1 Z8.282 X-7.294 Y-10.260390
G1 Z8.289 X-7.245 Y-11.435652
G1 Z8.297 X-7.122 Y-12.662309
G1 Z8.305 X-6.909 Y-13.927316
G1 Z8.309 X-6.765 Y-14.558861
G1 Z8.313 X-6.593 Y-15.189454
G1 Z8.321 X-6.155 Y-16.461902
G1 Z8.330 X-5.617 Y-17.685289
G1 Z8.338 X-5.000 Y-18.823376
G1 Z8.345 X-4.332 Y-19.832881
G1 Z8.352 X-3.640 Y-20.672521
G1 Z8.358 X-2.961 Y-21.300015
G1 Z8.363 X-2.343 Y-21.678098
G1 Z8.366 X-1.845 Y-21.801705
G1 Z8.368 X-1.449 Y-21.720541
G1 Z8.370 X-1.266 Y-21.595098 F600
G1 Z8.371 X-1.099 Y-21.433733
G1 Z8.373 X-0.882 Y-21.154215
G1 Z8.376 X-0.670 Y-20.807070
G1 Z8.379 X-0.465 Y-20.401258
G1 Z8.385 X-0.094 Y-19.467317
G1 Z8.392 X0.226 Y-18.434914
G1 Z8.400 X0.564 Y-17.097596
G1 Z8.410 X0.843 Y-15.577449
G1 Z8.420 X1.028 Y-14.084010
G1 Z8.431 X1.145 Y-12.268788
G1 Z8.438 X1.172 Y-11.149646
G1 Z8.447 X1.162 Y-9.699833
G1 Z8.456 X1.118 Y-8.255977
G1 Z8.477 X0.962 Y-5.001853
G1 Z8.495 X0.858 Y-2.091299
G1 Z8.500 X0.851 Y-1.255170
ID=1 WHEN $AC_TIMER[1]>=0 DO M51
G1 Z8.5 F2000
ID=1 WHEN $AC_TIMER[1]>=0 DO M50
G1 Z8.503 X0.732 Y-0.783491 F600
G1 Z8.509 X0.735 Y0.190327
G1 Z8.512 X0.709 Y0.646533
G1 Z8.518 X0.723 Y1.606273
G1 Z8.521 X0.698 Y2.060469
G1 Z8.527 X0.723 Y3.003093
G1 Z8.530 X0.701 Y3.456274
G1 Z8.536 X0.735 Y4.379763
G1 Z8.538 X0.717 Y4.829923
G1 Z8.544 X0.760 Y5.730260
G1 Z8.547 X0.745 Y6.176392
G1 Z8.552 X0.798 Y7.053559
G1 Z8.555 X0.787 Y7.493656
G1 Z8.561 X0.848 Y8.344643
G1 Z8.563 X0.842 Y8.779697
G1 Z8.569 X0.909 Y9.606524
G1 Z8.571 X0.907 Y10.036544
G1 Z8.576 X0.977 Y10.844241
G1 Z8.579 X0.976 Y11.272241
G1 Z8.584 X1.047 Y12.066838
G1 Z8.587 X1.048 Y12.492832
G1 Z8.592 X1.117 Y13.276360
G1 Z8.594 X1.117 Y13.704363
G1 Z8.599 X1.182 Y14.482849
G1 Z8.602 X1.180 Y14.914878
G1 Z8.605 X1.214 Y15.374121
G1 Z8.608 X0.723 Y15.494669
G1 Z8.611 X0.524 Y15.025245
G1 Z8.616 X0.143 Y14.327829
G1 Z8.619 X-0.020 Y13.924884
G1 Z8.624 X-0.388 Y13.219466
G1 Z8.627 X-0.540 Y12.823441
G1 Z8.632 X-0.897 Y12.111036
G1 Z8.634 X-1.038 Y11.725923
G1 Z8.639 X-1.384 Y11.003546
G1 Z8.642 X-1.515 Y10.627338
G1 Z8.647 X-1.854 Y9.894007
G1 Z8.649 X-1.975 Y9.531695
G1 Z8.655 X-2.308 Y8.785430
G1 Z8.657 X-2.420 Y8.437002
G1 Z8.662 X-2.749 Y7.675826
G1 Z8.664 X-2.853 Y7.343267
G1 Z8.670 X-3.178 Y6.563204
G1 Z8.672 X-3.273 Y6.250504
G1 Z8.677 X-3.596 Y5.447582
G1 Z8.679 X-3.682 Y5.153729
G1 Z8.685 X-4.003 Y4.323979
G1 Z8.686 X-4.080 Y4.051962
G1 Z8.692 X-4.401 Y3.190415
G1 Z8.694 X-4.468 Y2.942222
G1 Z8.700 X-4.793 Y2.031009
G1 Z8.715 X-5.539 Y-0.304224
G1 Z8.729 X-6.141 Y-2.350202
G1 Z8.740 X-6.573 Y-4.006215
G1 Z8.745 X-6.764 Y-4.864388
G1 Z8.751 X-6.931 Y-5.757767
G1 Z8.757 X-7.071 Y-6.686367
G1 Z8.763 X-7.179 Y-7.657227
G1 Z8.770 X-7.250 Y-8.705604
G1 Z8.780 X-7.276 Y-10.335048
G1 Z8.787 X-7.225 Y-11.550591
G1 Z8.795 X-7.102 Y-12.783287
G1 Z8.803 X-6.889 Y-14.053331
G1 Z8.807 X-6.746 Y-14.686890
G1 Z8.812 X-6.575 Y-15.319493
G1 Z8.820 X-6.138 Y-16.592943
G1 Z8.828 X-5.602 Y-17.814316
G1 Z8.837 X-4.989 Y-18.949374
G1 Z8.844 X-4.324 Y-19.955840
G1 Z8.851 X-3.637 Y-20.790433
G1 Z8.857 X-2.962 Y-21.412877
G1 Z8.861 X-2.351 Y-21.786908
G1 Z8.865 X-1.858 Y-21.906470
G1 Z8.867 X-1.476 Y-21.828208
G1 Z8.868 X-1.290 Y-21.700794 F600
G1 Z8.870 X-1.140 Y-21.553269
G1 Z8.872 X-0.926 Y-21.279713
G1 Z8.874 X-0.716 Y-20.937525
G1 Z8.877 X-0.515 Y-20.537674
G1 Z8.884 X-0.150 Y-19.610669
G1 Z8.890 X0.166 Y-18.581230
G1 Z8.899 X0.485 Y-17.310427
G1 Z8.908 X0.764 Y-15.790277
G1 Z8.918 X0.949 Y-14.297840
G1 Z8.930 X1.070 Y-12.386287
G1 Z8.936 X1.095 Y-11.360499
G1 Z8.945 X1.086 Y-9.907698
G1 Z8.955 X1.043 Y-8.463846
G1 Z8.976 X0.879 Y-5.120347
G1 Z8.994 X0.768 Y-2.217747
G1 Z9.000 X0.760 Y-1.256497
ID=1 WHEN $AC_TIMER[1]>=0 DO M51
G1 Z9 F2000
ID=1 WHEN $AC_TIMER[1]>=0 DO M50
G1 Z9.002 X0.637 Y-0.914945 F600
G1 Z9.008 X0.640 Y-0.031141
G1 Z9.011 X0.609 Y0.509945
G1 Z9.017 X0.622 Y1.379049
G1 Z9.020 X0.593 Y1.917834
G1 Z9.026 X0.615 Y2.770828
G1 Z9.029 X0.589 Y3.305588
G1 Z9.034 X0.620 Y4.140457
G1 Z9.038 X0.598 Y4.671184
G1 Z9.043 X0.638 Y5.485910
G1 Z9.046 X0.620 Y6.010597
G1 Z9.051 X0.668 Y6.802167
G1 Z9.054 X0.655 Y7.320806
G1 Z9.059 X0.710 Y8.087209
G1 Z9.063 X0.703 Y8.598793
G1 Z9.067 X0.763 Y9.343048
G1 Z9.070 X0.760 Y9.848587
G1 Z9.075 X0.824 Y10.576720
G1 Z9.078 X0.823 Y11.076231
G1 Z9.083 X0.887 Y11.791270
G1 Z9.086 X0.888 Y12.289770
G1 Z9.090 X0.950 Y12.994742
G1 Z9.094 X0.950 Y13.494249
G1 Z9.098 X1.008 Y14.194180
G1 Z9.101 X1.006 Y14.697712
G1 Z9.104 X1.035 Y15.094512
G1 Z9.107 X0.545 Y15.213060
G1 Z9.110 X0.366 Y14.794261
G1 Z9.114 X0.024 Y14.168270
G1 Z9.118 X-0.166 Y13.697839
G1 Z9.122 X-0.497 Y13.064852
G1 Z9.125 X-0.675 Y12.601333
G1 Z9.130 X-0.995 Y11.960363
G1 Z9.133 X-1.161 Y11.507750
G1 Z9.137 X-1.473 Y10.857813
G1 Z9.140 X-1.627 Y10.416099
G1 Z9.145 X-1.932 Y9.754212
G1 Z9.148 X-2.076 Y9.326388
G1 Z9.153 X-2.376 Y8.651572
G1 Z9.155 X-2.510 Y8.238625
G1 Z9.160 X-2.808 Y7.547903
G1 Z9.163 X-2.932 Y7.151820
G1 Z9.168 X-3.227 Y6.442215
G1 Z9.170 X-3.342 Y6.064986
G1 Z9.175 X-3.636 Y5.332526
G1 Z9.177 X-3.741 Y4.975140
G1 Z9.183 X-4.035 Y4.216856
G1 Z9.185 X-4.129 Y3.881302
G1 Z9.190 X-4.424 Y3.090223
G1 Z9.192 X-4.508 Y2.779490
G1 Z9.198 X-4.803 Y1.953648
G1 Z9.200 X-4.878 Y1.667724
G1 Z9.205 X-5.178 Y0.789240
G1 Z9.221 X-5.892 Y-1.568530
G1 Z9.232 X-6.353 Y-3.242726
G1 Z9.243 X-6.749 Y-4.933920
G1 Z9.249 X-6.914 Y-5.817234
G1 Z9.255 X-7.052 Y-6.742800
G1 Z9.261 X-7.159 Y-7.708628
G1 Z9.268 X-7.232 Y-8.811385
G1 Z9.278 X-7.257 Y-10.411625
G1 Z9.286 X-7.205 Y-11.665440
G1 Z9.294 X-7.082 Y-12.903175
G1 Z9.302 X-6.870 Y-14.179255
G1 Z9.306 X-6.727 Y-14.814829
G1 Z9.310 X-6.556 Y-15.449441
G1 Z9.319 X-6.122 Y-16.723895
G1 Z9.327 X-5.588 Y-17.944252
G1 Z9.335 X-4.977 Y-19.076282
G1 Z9.343 X-4.316 Y-20.077708
G1 Z9.350 X-3.633 Y-20.907256
G1 Z9.356 X-2.964 Y-21.525650
G1 Z9.360 X-2.359 Y-21.894627
G1 Z9.363 X-1.872 Y-22.012144
G1 Z9.365 X-1.566 Y-21.948342
G1 Z9.366 X-1.490 Y-21.926891 F600
G1 Z9.367 X-1.315 Y-21.804392
G1 Z9.368 X-1.181 Y-21.674707
G1 Z9.370 X-0.969 Y-21.404115
G1 Z9.373 X-0.763 Y-21.068883
G1 Z9.376 X-0.565 Y-20.672993
G1 Z9.382 X-0.205 Y-19.753924
G1 Z9.389 X0.106 Y-18.727448
G1 Z9.397 X0.407 Y-17.524160
G1 Z9.406 X0.685 Y-16.004008
G1 Z9.416 X0.870 Y-14.507602
G1 Z9.429 X0.996 Y-12.506679
G1 Z9.435 X1.018 Y-11.570255
G1 Z9.444 X1.011 Y-10.116465
G1 Z9.453 X0.967 Y-8.670619
G1 Z9.484 X0.731 Y-3.787950
G1 Z9.500 X0.659 Y-1.262688
ID=1 WHEN $AC_TIMER[1]>=0 DO M51
G1 Z9.5 F2000
ID=1 WHEN $AC_TIMER[1]>=0 DO M50
G1 Z9.506 X0.545 Y-0.253816 F600
G1 Z9.510 X0.509 Y0.373219
G1 Z9.515 X0.520 Y1.152687
G1 Z9.519 X0.487 Y1.774061
G1 Z9.524 X0.507 Y2.537426
G1 Z9.528 X0.477 Y3.154764
G1 Z9.533 X0.505 Y3.901012
G1 Z9.537 X0.480 Y4.512306
G1 Z9.541 X0.515 Y5.240422
G1 Z9.545 X0.495 Y5.844665
G1 Z9.550 X0.537 Y6.551636
G1 Z9.554 X0.523 Y7.146819
G1 Z9.558 X0.572 Y7.831637
G1 Z9.562 X0.564 Y8.416751
G1 Z9.566 X0.618 Y9.081433
G1 Z9.570 X0.614 Y9.659492
G1 Z9.574 X0.671 Y10.307061
G1 Z9.577 X0.670 Y10.880083
G1 Z9.582 X0.727 Y11.516564
G1 Z9.585 X0.728 Y12.086570
G1 Z9.589 X0.783 Y12.713987
G1 Z9.593 X0.783 Y13.284997
G1 Z9.597 X0.834 Y13.905373
G1 Z9.600 X0.832 Y14.480409
G1 Z9.603 X0.857 Y14.814765
G1 Z9.606 X0.366 Y14.933312
G1 Z9.608 X0.208 Y14.563138
G1 Z9.612 X-0.095 Y14.009573
G1 Z9.616 X-0.312 Y13.470656
G1 Z9.620 X-0.605 Y12.909099
G1 Z9.624 X-0.809 Y12.379087
G1 Z9.628 X-1.093 Y11.810552
G1 Z9.631 X-1.284 Y11.290439
G1 Z9.635 X-1.561 Y10.712941
G1 Z9.639 X-1.739 Y10.204721
G1 Z9.643 X-2.011 Y9.615279
G1 Z9.646 X-2.177 Y9.120942
G1 Z9.651 X-2.445 Y8.517575
G1 Z9.654 X-2.600 Y8.038110
G1 Z9.658 X-2.867 Y7.420841
G1 Z9.661 X-3.011 Y6.958235
G1 Z9.665 X-3.277 Y6.320088
G1 Z9.668 X-3.410 Y5.879330
G1 Z9.673 X-3.676 Y5.218332
G1 Z9.676 X-3.800 Y4.797413
G1 Z9.680 X-4.066 Y4.109594
G1 Z9.683 X-4.179 Y3.710503
G1 Z9.688 X-4.446 Y2.990893
G1 Z9.690 X-4.549 Y2.616620
G1 Z9.696 X-4.818 Y1.861250
G1 Z9.698 X-4.910 Y1.512783
G1 Z9.703 X-5.181 Y0.716685
G1 Z9.705 X-5.262 Y0.395012
G1 Z9.711 X-5.536 Y-0.445218
G1 Z9.713 X-5.607 Y-0.737325
G1 Z9.719 X-5.885 Y-1.637939
G1 Z9.730 X-6.344 Y-3.319183
G1 Z9.741 X-6.733 Y-4.999292
G1 Z9.747 X-6.896 Y-5.878568
G1 Z9.753 X-7.034 Y-6.798099
G1 Z9.759 X-7.139 Y-7.760896
G1 Z9.766 X-7.215 Y-8.916032
G1 Z9.776 X-7.238 Y-10.488068
G1 Z9.784 X-7.185 Y-11.781155
G1 Z9.792 X-7.062 Y-13.024929
G1 Z9.801 X-6.850 Y-14.305046
G1 Z9.805 X-6.708 Y-14.943633
G1 Z9.809 X-6.538 Y-15.578255
G1 Z9.818 X-6.105 Y-16.854712
G1 Z9.826 X-5.573 Y-18.074055
G1 Z9.834 X-4.966 Y-19.202056
G1 Z9.842 X-4.308 Y-20.199443
G1 Z9.849 X-3.630 Y-21.024944
G1 Z9.854 X-2.966 Y-21.637288
G1 Z9.859 X-2.367 Y-22.002213
G1 Z9.862 X-1.886 Y-22.117685
G1 Z9.864 X-1.620 Y-22.062587
G1 Z9.864 X-1.512 Y-22.030381 F600
G1 Z9.866 X-1.340 Y-21.909861
G1 Z9.867 X-1.222 Y-21.794016
G1 Z9.869 X-1.013 Y-21.529386
G1 Z9.871 X-0.810 Y-21.198110
G1 Z9.874 X-0.615 Y-20.807182
G1 Z9.881 X-0.260 Y-19.895049
G1 Z9.887 X0.045 Y-18.874535
G1 Z9.895 X0.328 Y-17.737764
G1 Z9.905 X0.606 Y-16.218609
G1 Z9.914 X0.791 Y-14.720208
G1 Z9.928 X0.921 Y-12.624949
G1 Z9.933 X0.942 Y-11.780882
G1 Z9.942 X0.935 Y-10.326088
G1 Z9.961 X0.827 Y-7.430440
G1 Z9.983 X0.645 Y-3.910190
G1 Z10.000 X0.557 Y-1.268751
ID=1 WHEN $AC_TIMER[1]>=0 DO M51
G1 Z10 F2000
ID=1 WHEN $AC_TIMER[1]>=0 DO M50
G1 Z10.005 X0.451 Y-0.475367 F600
G1 Z10.010 X0.409 Y0.237369
G1 Z10.014 X0.419 Y0.924200
G1 Z10.019 X0.382 Y1.630164
G1 Z10.023 X0.399 Y2.304899
G1 Z10.027 X0.366 Y3.004816
G1 Z10.032 X0.390 Y3.662442
G1 Z10.036 X0.362 Y4.354304
G1 Z10.040 X0.392 Y4.995810
G1 Z10.045 X0.370 Y5.678608
G1 Z10.049 X0.407 Y6.300981
G1 Z10.053 X0.391 Y6.972706
G1 Z10.057 X0.434 Y7.574941
G1 Z10.061 X0.425 Y8.235585
G1 Z10.065 X0.472 Y8.818694
G1 Z10.069 X0.468 Y9.470272
G1 Z10.073 X0.517 Y10.039277
G1 Z10.077 X0.517 Y10.684811
G1 Z10.080 X0.567 Y11.241734
G1 Z10.084 X0.567 Y11.883246
G1 Z10.088 X0.616 Y12.431107
G1 Z10.092 X0.616 Y13.074621
G1 Z10.096 X0.661 Y13.616441
G1 Z10.100 X0.658 Y14.262981
G1 Z10.101 X0.678 Y14.534893
G1 Z10.105 X0.187 Y14.653441
G1 Z10.107 X0.050 Y14.332891
G1 Z10.110 X-0.213 Y13.850751
G1 Z10.115 X-0.459 Y13.243348
G1 Z10.118 X-0.714 Y12.754221
G1 Z10.122 X-0.943 Y12.156716
G1 Z10.126 X-1.192 Y11.660616
G1 Z10.130 X-1.407 Y11.073004
G1 Z10.133 X-1.649 Y10.567946
G1 Z10.137 X-1.850 Y9.992219
G1 Z10.141 X-2.089 Y9.475221
G1 Z10.145 X-2.277 Y8.914372
G1 Z10.148 X-2.514 Y8.383454
G1 Z10.152 X-2.689 Y7.839471
G1 Z10.156 X-2.925 Y7.292656
G1 Z10.159 X-3.090 Y6.766525
G1 Z10.163 X-3.326 Y6.199836
G1 Z10.167 X-3.479 Y5.693549
G1 Z10.171 X-3.717 Y5.103014
G1 Z10.174 X-3.858 Y4.618561
G1 Z10.178 X-4.097 Y4.001208
G1 Z10.181 X-4.228 Y3.539580
G1 Z10.186 X-4.469 Y2.891439
G1 Z10.189 X-4.589 Y2.453625
G1 Z10.193 X-4.833 Y1.768727
G1 Z10.196 X-4.941 Y1.357718
G1 Z10.201 X-5.188 Y0.632094
G1 Z10.204 X-5.286 Y0.248876
G1 Z10.209 X-5.536 Y-0.522558
G1 Z10.211 X-5.622 Y-0.876120
G1 Z10.217 X-5.878 Y-1.704205
G1 Z10.228 X-6.334 Y-3.396510
G1 Z10.239 X-6.718 Y-5.065533
G1 Z10.245 X-6.879 Y-5.938771
G1 Z10.250 X-7.014 Y-6.852256
G1 Z10.258 X-7.132 Y-7.995326
G1 Z10.264 X-7.197 Y-9.021546
G1 Z10.274 X-7.219 Y-10.564380
G1 Z10.283 X-7.165 Y-11.896739
G1 Z10.291 X-7.042 Y-13.145553
G1 Z10.299 X-6.831 Y-14.431705
G1 Z10.303 X-6.689 Y-15.071307
G1 Z10.308 X-6.519 Y-15.708938
G1 Z10.316 X-6.088 Y-16.985398
G1 Z10.325 X-5.559 Y-18.203727
G1 Z10.333 X-4.955 Y-19.329699
G1 Z10.341 X-4.301 Y-20.322046
G1 Z10.347 X-3.626 Y-21.142502
G1 Z10.353 X-2.968 Y-21.749795
G1 Z10.358 X-2.374 Y-22.109667
G1 Z10.361 X-1.899 Y-22.222094
G1 Z10.362 X-1.675 Y-22.176702
G1 Z10.363 X-1.522 Y-22.131823 F600
G1 Z10.364 X-1.459 Y-22.090349
G1 Z10.365 X-1.256 Y-21.906270
G1 Z10.368 X-1.056 Y-21.654531
G1 Z10.370 X-0.857 Y-21.329211
G1 Z10.373 X-0.665 Y-20.942243
G1 Z10.379 X-0.316 Y-20.038046
G1 Z10.386 X-0.015 Y-19.021496
G1 Z10.393 X0.250 Y-17.950240
G1 Z10.403 X0.527 Y-16.431083
G1 Z10.412 X0.713 Y-14.933686
G1 Z10.426 X0.846 Y-12.743092
G1 Z10.431 X0.865 Y-11.990381
G1 Z10.441 X0.859 Y-10.532614
G1 Z10.450 X0.817 Y-9.085779
G1 Z10.482 X0.559 Y-4.031320
G1 Z10.487 X0.545 Y-3.318328
G1 Z10.492 X0.498 Y-2.599382
G1 Z10.496 X0.492 Y-1.890365
G1 Z10.500 X0.454 Y-1.274694
ID=1 WHEN $AC_TIMER[1]>=0 DO M51
G1 Z10.5 F2000
ID=1 WHEN $AC_TIMER[1]>=0 DO M50
G1 Z10.504 X0.356 Y-0.696751 F600
G1 Z10.509 X0.310 Y0.100352
G1 Z10.513 X0.318 Y0.697547
G1 Z10.518 X0.276 Y1.487100
G1 Z10.522 X0.291 Y2.072206
G1 Z10.527 X0.254 Y2.853701
G1 Z10.530 X0.275 Y3.423707
G1 Z10.535 X0.243 Y4.196136
G1 Z10.539 X0.270 Y4.750031
G1 Z10.544 X0.245 Y5.512385
G1 Z10.547 X0.277 Y6.049160
G1 Z10.552 X0.259 Y6.799428
G1 Z10.555 X0.296 Y7.317079
G1 Z10.560 X0.286 Y8.054252
G1 Z10.563 X0.326 Y8.556789
G1 Z10.568 X0.322 Y9.282886
G1 Z10.571 X0.364 Y9.770327
G1 Z10.576 X0.364 Y10.489373
G1 Z10.579 X0.406 Y10.966737
G1 Z10.584 X0.407 Y11.680755
G1 Z10.587 X0.448 Y12.149061
G1 Z10.591 X0.448 Y12.864078
G1 Z10.594 X0.487 Y13.327343
G1 Z10.600 X0.482 Y14.274992
G1 Z10.603 X0.007 Y14.370400
G1 Z10.605 X-0.108 Y14.101450
G1 Z10.608 X-0.332 Y13.691735
G1 Z10.613 X-0.605 Y13.016845
G1 Z10.616 X-0.822 Y12.599149
G1 Z10.621 X-1.078 Y11.934151
G1 Z10.624 X-1.290 Y11.509485
G1 Z10.628 X-1.529 Y10.856373
G1 Z10.631 X-1.738 Y10.421755
G1 Z10.636 X-1.962 Y9.781522
G1 Z10.639 X-2.168 Y9.335969
G1 Z10.643 X-2.378 Y8.709607
G1 Z10.646 X-2.582 Y8.249138
G1 Z10.650 X-2.779 Y7.640637
G1 Z10.654 X-2.984 Y7.164275
G1 Z10.658 X-3.169 Y6.573621
G1 Z10.661 X-3.376 Y6.078390
G1 Z10.665 X-3.548 Y5.508574
G1 Z10.669 X-3.757 Y4.989500
G1 Z10.672 X-3.917 Y4.440514
G1 Z10.676 X-4.129 Y3.894627
G1 Z10.680 X-4.277 Y3.368462
G1 Z10.684 X-4.492 Y2.791790
G1 Z10.687 X-4.629 Y2.290436
G1 Z10.691 X-4.848 Y1.676010
G1 Z10.694 X-4.973 Y1.201457
G1 Z10.699 X-5.196 Y0.548307
G1 Z10.702 X-5.309 Y0.101545
G1 Z10.707 X-5.536 Y-0.598704
G1 Z10.709 X-5.638 Y-1.015719
G1 Z10.714 X-5.869 Y-1.763220
G1 Z10.731 X-6.522 Y-4.291548
G1 Z10.737 X-6.701 Y-5.127556
G1 Z10.742 X-6.861 Y-5.999779
G1 Z10.748 X-6.996 Y-6.910242
G1 Z10.754 X-7.100 Y-7.865988
G1 Z10.761 X-7.169 Y-8.868054
G1 Z10.770 X-7.202 Y-10.228606
G1 Z10.777 X-7.179 Y-11.400836
G1 Z10.785 X-7.093 Y-12.633511
G1 Z10.794 X-6.928 Y-13.912566
G1 Z10.802 X-6.670 Y-15.199788
G1 Z10.806 X-6.501 Y-15.838428
G1 Z10.815 X-6.071 Y-17.116892
G1 Z10.824 X-5.545 Y-18.333206
G1 Z10.832 X-4.943 Y-19.455149
G1 Z10.839 X-4.293 Y-20.444458
G1 Z10.846 X-3.623 Y-21.259867
G1 Z10.852 X-2.969 Y-21.862110
G1 Z10.856 X-2.382 Y-22.217929
G1 Z10.859 X-1.913 Y-22.327311
G1 Z10.861 X-1.730 Y-22.289625
G1 Z10.862 X-1.524 Y-22.229133 F600
G1 Z10.864 X-1.296 Y-22.026276
G1 Z10.866 X-1.100 Y-21.779488
G1 Z10.868 X-0.904 Y-21.459125
G1 Z10.871 X-0.715 Y-21.077117
G1 Z10.877 X-0.371 Y-20.181857
G1 Z10.884 X-0.075 Y-19.168269
G1 Z10.891 X0.171 Y-18.164530
G1 Z10.901 X0.448 Y-16.645370
G1 Z10.910 X0.633 Y-15.147970
G1 Z10.920 X0.742 Y-13.666398
G1 Z10.930 X0.788 Y-12.200692
G1 Z10.944 X0.762 Y-9.936593
G1 Z10.958 X0.676 Y-7.846282
G1 Z10.981 X0.473 Y-4.153254
G1 Z10.985 X0.460 Y-3.530626
G1 Z10.991 X0.408 Y-2.724296
G1 Z10.995 X0.403 Y-2.106636
G1 Z11.000 X0.354 Y-1.274491
ID=1 WHEN $AC_TIMER[1]>=0 DO M51
G1 Z11 F2000
ID=1 WHEN $AC_TIMER[1]>=0 DO M50
G1 Z11.002 X0.261 Y-0.918991 F600
G1 Z11.008 X0.210 Y-0.036190
G1 Z11.011 X0.217 Y0.470750
G1 Z11.017 X0.171 Y1.344891
G1 Z11.020 X0.183 Y1.839368
G1 Z11.026 X0.142 Y2.703442
G1 Z11.029 X0.160 Y3.184826
G1 Z11.034 X0.125 Y4.038823
G1 Z11.037 X0.147 Y4.505108
G1 Z11.043 X0.119 Y5.346016
G1 Z11.046 X0.147 Y5.798194
G1 Z11.051 X0.127 Y6.625005
G1 Z11.054 X0.158 Y7.061071
G1 Z11.059 X0.147 Y7.873775
G1 Z11.062 X0.181 Y8.293739
G1 Z11.067 X0.176 Y9.093355
G1 Z11.070 X0.211 Y9.501232
G1 Z11.075 X0.211 Y10.293789
G1 Z11.078 X0.246 Y10.691595
G1 Z11.083 X0.247 Y11.478120
G1 Z11.085 X0.281 Y11.868870
G1 Z11.090 X0.281 Y12.654391
G1 Z11.093 X0.313 Y13.038100
G1 Z11.099 X0.309 Y14.006892
G1 Z11.102 X-0.167 Y14.102300
G1 Z11.104 X-0.265 Y13.871063
G1 Z11.106 X-0.450 Y13.532774
G1 Z11.112 X-0.751 Y12.789398
G1 Z11.114 X-0.931 Y12.444132
G1 Z11.119 X-1.212 Y11.712640
G1 Z11.122 X-1.389 Y11.359410
G1 Z11.127 X-1.652 Y10.638798
G1 Z11.129 X-1.826 Y10.276620
G1 Z11.134 X-2.073 Y9.569880
G1 Z11.137 X-2.246 Y9.195771
G1 Z11.142 X-2.478 Y8.503897
G1 Z11.144 X-2.651 Y8.115877
G1 Z11.149 X-2.869 Y7.440858
G1 Z11.152 X-3.043 Y7.036950
G1 Z11.156 X-3.248 Y6.381772
G1 Z11.159 X-3.425 Y5.957999
G1 Z11.163 X-3.617 Y5.322654
G1 Z11.167 X-3.797 Y4.874042
G1 Z11.171 X-3.976 Y4.262523
G1 Z11.174 X-4.160 Y3.787101
G1 Z11.178 X-4.327 Y3.198399
G1 Z11.182 X-4.515 Y2.691196
G1 Z11.185 X-4.669 Y2.127302
G1 Z11.189 X-4.863 Y1.584347
G1 Z11.193 X-5.004 Y1.046252
G1 Z11.197 X-5.203 Y0.463577
G1 Z11.200 X-5.332 Y-0.046270
G1 Z11.204 X-5.536 Y-0.674905
G1 Z11.208 X-5.653 Y-1.154374
G1 Z11.212 X-5.863 Y-1.832353
G1 Z11.215 X-5.968 Y-2.280589
G1 Z11.218 X-6.112 Y-2.768158
G1 Z11.229 X-6.509 Y-4.362695
G1 Z11.235 X-6.686 Y-5.193662
G1 Z11.240 X-6.844 Y-6.060846
G1 Z11.246 X-6.977 Y-6.965275
G1 Z11.252 X-7.080 Y-7.916992
G1 Z11.259 X-7.150 Y-8.918045
G1 Z11.266 X-7.181 Y-9.977481
G1 Z11.274 X-7.166 Y-11.301780
G1 Z11.280 X-7.125 Y-12.123560
G1 Z11.288 X-7.002 Y-13.386472
G1 Z11.296 X-6.792 Y-14.683698
G1 Z11.301 X-6.651 Y-15.327328
G1 Z11.305 X-6.483 Y-15.968977
G1 Z11.314 X-6.055 Y-17.246445
G1 Z11.322 X-5.530 Y-18.463745
G1 Z11.331 X-4.932 Y-19.582659
G1 Z11.338 X-4.285 Y-20.566928
G1 Z11.345 X-3.620 Y-21.377291
G1 Z11.351 X-2.971 Y-21.974484
G1 Z11.355 X-2.390 Y-22.325250
G1 Z11.358 X-1.927 Y-22.432587
G1 Z11.359 X-1.785 Y-22.403606
G1 Z11.361 X-1.551 Y-22.335316 F600
G1 Z11.363 X-1.336 Y-22.145330
G1 Z11.365 X-1.144 Y-21.904493
G1 Z11.367 X-0.951 Y-21.590085
G1 Z11.370 X-0.764 Y-21.213039
G1 Z11.376 X-0.427 Y-20.324714
G1 Z11.383 X-0.136 Y-19.315089
G1 Z11.389 X0.093 Y-18.377865
G1 Z11.399 X0.368 Y-16.858705
G1 Z11.409 X0.555 Y-15.360310
G1 Z11.418 X0.664 Y-13.877748
G1 Z11.428 X0.711 Y-12.408069
G1 Z11.437 X0.707 Y-10.949316
G1 Z11.456 X0.601 Y-8.054659
G1 Z11.481 X0.387 Y-4.274240
G1 Z11.500 X0.260 Y-1.274328
ID=1 WHEN $AC_TIMER[1]>=0 DO M51
G1 Z11.5 F2000
ID=1 WHEN $AC_TIMER[1]>=0 DO M50
G1 Z11.516 X0.065 Y1.201715 F600
G1 Z11.519 X0.075 Y1.606561
G1 Z11.525 X0.030 Y2.552214
G1 Z11.528 X0.045 Y2.946978
G1 Z11.534 X0.006 Y3.879541
G1 Z11.536 X0.025 Y4.260216
G1 Z11.542 X-0.006 Y5.180680
G1 Z11.544 X0.016 Y5.547260
G1 Z11.550 X-0.005 Y6.451613
G1 Z11.553 X0.020 Y6.804096
G1 Z11.558 X0.007 Y7.691329
G1 Z11.561 X0.035 Y8.031720
G1 Z11.566 X0.030 Y8.905856
G1 Z11.569 X0.058 Y9.233169
G1 Z11.574 X0.057 Y10.097237
G1 Z11.576 X0.086 Y10.416485
G1 Z11.582 X0.087 Y11.275516
G1 Z11.584 X0.114 Y11.586711
G1 Z11.589 X0.114 Y12.444735
G1 Z11.591 X0.140 Y12.750888
G1 Z11.598 X0.135 Y13.729766
G1 Z11.601 X-0.313 Y13.842007
G1 Z11.604 X-0.569 Y13.373764
G1 Z11.610 X-0.897 Y12.562901
G1 Z11.612 X-1.039 Y12.289066
G1 Z11.618 X-1.347 Y11.489081
G1 Z11.620 X-1.487 Y11.209286
G1 Z11.625 X-1.775 Y10.421174
G1 Z11.627 X-1.914 Y10.131435
G1 Z11.633 X-2.185 Y9.357189
G1 Z11.635 X-2.324 Y9.055525
G1 Z11.640 X-2.579 Y8.297138
G1 Z11.642 X-2.719 Y7.981567
G1 Z11.647 X-2.959 Y7.241029
G1 Z11.650 X-3.102 Y6.908575
G1 Z11.655 X-3.327 Y6.188873
G1 Z11.657 X-3.474 Y5.835558
G1 Z11.662 X-3.686 Y5.136684
G1 Z11.664 X-3.837 Y4.760535
G1 Z11.669 X-4.035 Y4.084482
G1 Z11.672 X-4.192 Y3.679526
G1 Z11.676 X-4.376 Y3.027287
G1 Z11.679 X-4.538 Y2.591553
G1 Z11.684 X-4.709 Y1.964118
G1 Z11.687 X-4.877 Y1.492636
G1 Z11.691 X-5.035 Y0.891998
G1 Z11.694 X-5.210 Y0.379797
G1 Z11.698 X-5.355 Y-0.194945
G1 Z11.702 X-5.536 Y-0.750057
G1 Z11.706 X-5.669 Y-1.293980
G1 Z11.710 X-5.856 Y-1.900437
G1 Z11.727 X-6.496 Y-4.433787
G1 Z11.732 X-6.670 Y-5.259712
G1 Z11.738 X-6.826 Y-6.120858
G1 Z11.744 X-6.958 Y-7.021252
G1 Z11.750 X-7.060 Y-7.968940
G1 Z11.757 X-7.130 Y-8.967971
G1 Z11.764 X-7.162 Y-10.023390
G1 Z11.772 X-7.148 Y-11.379910
G1 Z11.778 X-7.105 Y-12.238953
G1 Z11.786 X-6.982 Y-13.507905
G1 Z11.795 X-6.772 Y-14.809166
G1 Z11.799 X-6.632 Y-15.456811
G1 Z11.804 X-6.464 Y-16.098470
G1 Z11.812 X-6.038 Y-17.377941
G1 Z11.821 X-5.516 Y-18.592226
G1 Z11.829 X-4.920 Y-19.709112
G1 Z11.837 X-4.277 Y-20.689341
G1 Z11.844 X-3.616 Y-21.494658
G1 Z11.849 X-2.973 Y-22.086800
G1 Z11.854 X-2.398 Y-22.433513
G1 Z11.857 X-1.941 Y-22.537806
G1 Z11.857 X-1.840 Y-22.517531
G1 Z11.859 X-1.578 Y-22.440445 F600
G1 Z11.861 X-1.376 Y-22.264327
G1 Z11.863 X-1.187 Y-22.029441
G1 Z11.865 X-0.997 Y-21.720989
G1 Z11.868 X-0.814 Y-21.348903
G1 Z11.874 X-0.482 Y-20.467515
G1 Z11.881 X-0.196 Y-19.462852
G1 Z11.887 X0.014 Y-18.591144
G1 Z11.897 X0.289 Y-17.072983
G1 Z11.907 X0.476 Y-15.572593
G1 Z11.916 X0.586 Y-14.089041
G1 Z11.926 X0.634 Y-12.618374
G1 Z11.936 X0.632 Y-11.157631
G1 Z11.954 X0.525 Y-8.261980
G1 Z11.980 X0.300 Y-4.396169
G1 Z11.982 X0.292 Y-3.956260
G1 Z11.989 X0.228 Y-2.975161
G1 Z11.992 X0.225 Y-2.540215
G1 Z11.998 X0.165 Y-1.565070
G1 Z12.000 X0.166 Y-1.273121
ID=1 WHEN $AC_TIMER[1]>=0 DO M51
G1 Z12 F2000
ID=1 WHEN $AC_TIMER[1]>=0 DO M50
G1 Z12.015 X-0.040 Y1.059551 F600
G1 Z12.017 X-0.032 Y1.373754
G1 Z12.024 X-0.082 Y2.402985
G1 Z12.026 X-0.070 Y2.707128
G1 Z12.033 X-0.112 Y3.721259
G1 Z12.035 X-0.098 Y4.015324
G1 Z12.041 X-0.131 Y5.014343
G1 Z12.043 X-0.114 Y5.296325
G1 Z12.050 X-0.138 Y6.278221
G1 Z12.051 X-0.118 Y6.547119
G1 Z12.058 X-0.132 Y7.510882
G1 Z12.059 X-0.111 Y7.768701
G1 Z12.066 X-0.117 Y8.716356
G1 Z12.067 X-0.095 Y8.964105
G1 Z12.073 X-0.096 Y9.901685
G1 Z12.075 X-0.074 Y10.141374
G1 Z12.081 X-0.073 Y11.072911
G1 Z12.082 X-0.053 Y11.304550
G1 Z12.089 X-0.053 Y12.234079
G1 Z12.090 X-0.034 Y12.461676
G1 Z12.097 X-0.039 Y13.469755
G1 Z12.100 X-0.486 Y13.582995
G1 Z12.102 X-0.688 Y13.214944
G1 Z12.109 X-1.043 Y12.335595
G1 Z12.110 X-1.148 Y12.134189
G1 Z12.116 X-1.481 Y11.267711
G1 Z12.118 X-1.585 Y11.058351
G1 Z12.124 X-1.898 Y10.204739
G1 Z12.125 X-2.003 Y9.986440
G1 Z12.131 X-2.297 Y9.146688
G1 Z12.133 X-2.403 Y8.916468
G1 Z12.138 X-2.679 Y8.092569
G1 Z12.140 X-2.788 Y7.847447
G1 Z12.146 X-3.048 Y7.042391
G1 Z12.148 X-3.161 Y6.780390
G1 Z12.153 X-3.406 Y5.996165
G1 Z12.155 X-3.524 Y5.714308
G1 Z12.160 X-3.755 Y4.951905
G1 Z12.162 X-3.877 Y4.645218
G1 Z12.167 X-4.094 Y3.905632
G1 Z12.170 X-4.223 Y3.572141
G1 Z12.175 X-4.425 Y2.856365
G1 Z12.177 X-4.561 Y2.491100
G1 Z12.182 X-4.749 Y1.801125
G1 Z12.185 X-4.892 Y1.400114
G1 Z12.189 X-5.067 Y0.736933
G1 Z12.192 X-5.217 Y0.295207
G1 Z12.197 X-5.378 Y-0.341810
G1 Z12.200 X-5.536 Y-0.827398
G1 Z12.204 X-5.684 Y-1.432776
G1 Z12.208 X-5.850 Y-1.968711
G1 Z12.212 X-5.984 Y-2.542853
G1 Z12.214 X-6.100 Y-2.934727
G1 Z12.225 X-6.483 Y-4.505074
G1 Z12.236 X-6.808 Y-6.181065
G1 Z12.242 X-6.939 Y-7.077425
G1 Z12.248 X-7.040 Y-8.020084
G1 Z12.255 X-7.110 Y-9.015092
G1 Z12.262 X-7.142 Y-10.069495
G1 Z12.271 X-7.129 Y-11.456236
G1 Z12.277 X-7.085 Y-12.353542
G1 Z12.285 X-6.962 Y-13.628533
G1 Z12.294 X-6.753 Y-14.935830
G1 Z12.298 X-6.613 Y-15.584489
G1 Z12.302 X-6.446 Y-16.227158
G1 Z12.311 X-6.021 Y-17.508632
G1 Z12.320 X-5.502 Y-18.722903
G1 Z12.328 X-4.909 Y-19.835760
G1 Z12.336 X-4.270 Y-20.811950
G1 Z12.342 X-3.613 Y-21.611221
G1 Z12.348 X-2.974 Y-22.199313
G1 Z12.353 X-2.406 Y-22.541972
G1 Z12.356 X-1.945 Y-22.645291
G1 Z12.358 X-1.604 Y-22.546780
G1 Z12.360 X-1.416 Y-22.383529 F600
G1 Z12.361 X-1.231 Y-22.154593
G1 Z12.364 X-1.044 Y-21.851096
G1 Z12.366 X-0.864 Y-21.483971
G1 Z12.369 X-0.694 Y-21.064146
G1 Z12.373 X-0.538 Y-20.610521
G1 Z12.379 X-0.257 Y-19.609820
G1 Z12.385 X-0.064 Y-18.804629
G1 Z12.395 X0.210 Y-17.285467
G1 Z12.405 X0.397 Y-15.785082
G1 Z12.415 X0.509 Y-14.300540
G1 Z12.424 X0.557 Y-12.827891
G1 Z12.431 X0.559 Y-11.752439
G1 Z12.443 X0.516 Y-9.915343
G1 Z12.497 X0.070 Y-1.694155
G1 Z12.500 X0.068 Y-1.278074
ID=1 WHEN $AC_TIMER[1]>=0 DO M51
G1 Z12.5 F2000
ID=1 WHEN $AC_TIMER[1]>=0 DO M50
G1 Z12.514 X-0.146 Y0.917536 F600
G1 Z12.516 X-0.140 Y1.143127
G1 Z12.532 X-0.230 Y3.548025
G1 Z12.557 X-0.271 Y7.311450
G1 Z12.596 X-0.202 Y13.246128
G1 Z12.599 X-0.678 Y13.349543
G1 Z12.616 X-1.677 Y10.927935
G1 Z12.623 X-2.021 Y9.987969
G1 Z12.624 X-2.091 Y9.840109
G1 Z12.630 X-2.408 Y8.934851
G1 Z12.631 X-2.481 Y8.776075
G1 Z12.637 X-2.780 Y7.886664
G1 Z12.639 X-2.857 Y7.713991
G1 Z12.645 X-3.138 Y6.843416
G1 Z12.646 X-3.220 Y6.653870
G1 Z12.652 X-3.485 Y5.803120
G1 Z12.653 X-3.573 Y5.593721
G1 Z12.659 X-3.823 Y4.765789
G1 Z12.661 X-3.918 Y4.531564
G1 Z12.666 X-4.153 Y3.727445
G1 Z12.668 X-4.254 Y3.465420
G1 Z12.673 X-4.475 Y2.686106
G1 Z12.675 X-4.584 Y2.391310
G1 Z12.681 X-4.789 Y1.638795
G1 Z12.683 X-4.907 Y1.308257
G1 Z12.688 X-5.098 Y0.581533
G1 Z12.690 X-5.225 Y0.211280
G1 Z12.695 X-5.401 Y-0.488339
G1 Z12.698 X-5.536 Y-0.903404
G1 Z12.703 X-5.699 Y-1.571235
G1 Z12.706 X-5.843 Y-2.036648
G1 Z12.710 X-5.992 Y-2.673244
G1 Z12.712 X-6.094 Y-3.018769
G1 Z12.723 X-6.469 Y-4.572994
G1 Z12.734 X-6.791 Y-6.245960
G1 Z12.740 X-6.920 Y-7.133259
G1 Z12.746 X-7.021 Y-8.072889
G1 Z12.753 X-7.090 Y-9.064874
G1 Z12.760 X-7.123 Y-10.116262
G1 Z12.769 X-7.111 Y-11.534223
G1 Z12.775 X-7.065 Y-12.469792
G1 Z12.784 X-6.942 Y-13.749822
G1 Z12.792 X-6.734 Y-15.061156
G1 Z12.797 X-6.594 Y-15.712829
G1 Z12.801 X-6.427 Y-16.357507
G1 Z12.810 X-6.005 Y-17.639986
G1 Z12.819 X-5.487 Y-18.851242
G1 Z12.827 X-4.898 Y-19.962070
G1 Z12.835 X-4.262 Y-20.933221
G1 Z12.841 X-3.609 Y-21.729445
G1 Z12.847 X-2.976 Y-22.311487
G1 Z12.851 X-2.414 Y-22.648093
G1 Z12.854 X-1.965 Y-22.748319
G1 Z12.857 X-1.630 Y-22.651768
G1 Z12.858 X-1.455 Y-22.502380 F600
G1 Z12.860 X-1.274 Y-22.279395
G1 Z12.862 X-1.091 Y-21.981853
G1 Z12.865 X-0.914 Y-21.618688
G1 Z12.868 X-0.747 Y-21.203829
G1 Z12.871 X-0.593 Y-20.752175
G1 Z12.878 X-0.317 Y-19.756434
G1 Z12.883 X-0.143 Y-19.018760
G1 Z12.893 X0.131 Y-17.499599
G1 Z12.903 X0.318 Y-15.998219
G1 Z12.913 X0.431 Y-14.512687
G1 Z12.923 X0.481 Y-13.038043
G1 Z12.932 X0.480 Y-11.575317
G1 Z12.942 X0.441 Y-10.121527
G1 Z12.951 X0.374 Y-8.676683
G1 Z13.000 X-0.048 Y-1.283681
ID=1 WHEN $AC_TIMER[1]>=0 DO M51
G1 Z13 F2000
ID=1 WHEN $AC_TIMER[1]>=0 DO M50
G1 Z13.014 X-0.251 Y0.755044 F600
G1 Z13.031 X-0.348 Y3.388547
G1 Z13.056 X-0.410 Y7.126799
G1 Z13.094 X-0.382 Y12.948683
G1 Z13.098 X-0.866 Y13.043143
G1 Z13.114 X-1.775 Y10.777290
G1 Z13.121 X-2.172 Y9.717234
G1 Z13.136 X-2.919 Y7.599010
G1 Z13.151 X-3.617 Y5.490604
G1 Z13.164 X-4.213 Y3.546886
G1 Z13.166 X-4.286 Y3.358302
G1 Z13.171 X-4.524 Y2.515451
G1 Z13.173 X-4.607 Y2.292124
G1 Z13.179 X-4.830 Y1.475069
G1 Z13.180 X-4.922 Y1.215002
G1 Z13.186 X-5.130 Y0.426735
G1 Z13.188 X-5.232 Y0.126957
G1 Z13.193 X-5.425 Y-0.635471
G1 Z13.196 X-5.538 Y-0.983042
G1 Z13.210 X-6.086 Y-3.092346
G1 Z13.221 X-6.456 Y-4.643540
G1 Z13.232 X-6.774 Y-6.306426
G1 Z13.238 X-6.901 Y-7.189691
G1 Z13.244 X-7.001 Y-8.124292
G1 Z13.250 X-7.070 Y-9.113254
G1 Z13.257 X-7.104 Y-10.162625
G1 Z13.267 X-7.092 Y-11.612807
G1 Z13.273 X-7.045 Y-12.584640
G1 Z13.282 X-6.922 Y-13.869709
G1 Z13.291 X-6.714 Y-15.187079
G1 Z13.295 X-6.575 Y-15.840767
G1 Z13.300 X-6.409 Y-16.487454
G1 Z13.309 X-5.988 Y-17.770936
G1 Z13.317 X-5.473 Y-18.981178
G1 Z13.326 X-4.886 Y-20.088977
G1 Z13.333 X-4.254 Y-21.056089
G1 Z13.340 X-3.606 Y-21.846267
G1 Z13.346 X-2.978 Y-22.423258
G1 Z13.350 X-2.421 Y-22.756811
G1 Z13.353 X-1.986 Y-22.852944
G1 Z13.355 X-1.656 Y-22.756357
G1 Z13.357 X-1.495 Y-22.621830 F600
G1 Z13.358 X-1.318 Y-22.404795
G1 Z13.361 X-1.138 Y-22.112208
G1 Z13.363 X-0.964 Y-21.754003
G1 Z13.366 X-0.800 Y-21.343110
G1 Z13.373 X-0.508 Y-20.413954
G1 Z13.381 X-0.221 Y-19.229505
G1 Z13.391 X0.052 Y-17.713327
G1 Z13.401 X0.239 Y-16.211953
G1 Z13.411 X0.353 Y-14.723431
G1 Z13.421 X0.404 Y-13.247799
G1 Z13.430 X0.404 Y-11.783082
G1 Z13.440 X0.365 Y-10.329299
G1 Z13.450 X0.299 Y-8.884454
G1 Z13.500 X-0.151 Y-1.288884
ID=1 WHEN $AC_TIMER[1]>=0 DO M51
G1 Z13.5 F2000
ID=1 WHEN $AC_TIMER[1]>=0 DO M50
G1 Z13.522 X-0.416 Y1.930555 F600
G1 Z13.539 X-0.506 Y4.495579
G1 Z13.563 X-0.555 Y8.125068
G1 Z13.593 X-0.548 Y12.637754
G1 Z13.596 X-1.029 Y12.732197
G1 Z13.604 X-1.452 Y11.699034
G1 Z13.614 X-1.999 Y10.282703
G1 Z13.634 X-2.987 Y7.467655
G1 Z13.648 X-3.666 Y5.370127
G1 Z13.663 X-4.312 Y3.267580
G1 Z13.678 X-4.933 Y1.138154
G1 Z13.691 X-5.449 Y-0.786136
G1 Z13.693 X-5.538 Y-1.058150
G1 Z13.708 X-6.080 Y-3.175492
G1 Z13.718 X-6.443 Y-4.714599
G1 Z13.729 X-6.756 Y-6.366404
G1 Z13.735 X-6.882 Y-7.245635
G1 Z13.741 X-6.981 Y-8.175208
G1 Z13.748 X-7.050 Y-9.161147
G1 Z13.755 X-7.084 Y-10.208502
G1 Z13.765 X-7.074 Y-11.689904
G1 Z13.772 X-7.025 Y-12.699000
G1 Z13.780 X-6.902 Y-13.990109
G1 Z13.789 X-6.695 Y-15.314515
G1 Z13.794 X-6.556 Y-15.969217
G1 Z13.798 X-6.390 Y-16.617914
G1 Z13.807 X-5.971 Y-17.901400
G1 Z13.816 X-5.458 Y-19.111627
G1 Z13.824 X-4.875 Y-20.215397
G1 Z13.832 X-4.246 Y-21.178470
G1 Z13.839 X-3.603 Y-21.963602
G1 Z13.844 X-2.980 Y-22.536542
G1 Z13.849 X-2.429 Y-22.864042
G1 Z13.851 X-2.006 Y-22.956081
G1 Z13.854 X-1.688 Y-22.863408
G1 Z13.855 X-1.532 Y-22.737814 F600
G1 Z13.857 X-1.361 Y-22.529703
G1 Z13.859 X-1.185 Y-22.242071
G1 Z13.862 X-1.014 Y-21.889827
G1 Z13.865 X-0.852 Y-21.482899
G1 Z13.871 X-0.566 Y-20.558691
G1 Z13.879 X-0.300 Y-19.443742
G1 Z13.889 X-0.027 Y-17.926566
G1 Z13.899 X0.160 Y-16.424197
G1 Z13.909 X0.275 Y-14.935685
G1 Z13.919 X0.327 Y-13.457064
G1 Z13.929 X0.328 Y-11.991358
G1 Z13.938 X0.290 Y-10.536581
G1 Z13.948 X0.223 Y-9.091737
G1 Z14.000 X-0.254 Y-1.294588
ID=1 WHEN $AC_TIMER[1]>=0 DO M51
G1 Z14 F2000
ID=1 WHEN $AC_TIMER[1]>=0 DO M50
G1 Z14.021 X-0.485 Y1.807427 F600
G1 Z14.038 X-0.570 Y4.365400
G1 Z14.054 X-0.607 Y6.809561
G1 Z14.092 X-0.600 Y12.449165
G1 Z14.095 X-1.084 Y12.542624
G1 Z14.110 X-1.884 Y10.529837
G1 Z14.125 X-2.656 Y8.411664
G1 Z14.140 X-3.373 Y6.300316
G1 Z14.147 X-3.726 Y5.213345
G1 Z14.162 X-4.343 Y3.163379
G1 Z14.176 X-4.948 Y1.046834
G1 Z14.191 X-5.534 Y-1.120595
G1 Z14.206 X-6.074 Y-3.257073
G1 Z14.217 X-6.430 Y-4.786091
G1 Z14.228 X-6.739 Y-6.427816
G1 Z14.234 X-6.863 Y-7.300014
G1 Z14.240 X-6.961 Y-8.227558
G1 Z14.246 X-7.030 Y-9.210475
G1 Z14.253 X-7.065 Y-10.254813
G1 Z14.264 X-7.055 Y-11.767435
G1 Z14.271 X-7.005 Y-12.814795
G1 Z14.279 X-6.882 Y-14.111943
G1 Z14.288 X-6.675 Y-15.440386
G1 Z14.293 X-6.537 Y-16.097102
G1 Z14.297 X-6.372 Y-16.747809
G1 Z14.306 X-5.954 Y-18.032298
G1 Z14.315 X-5.444 Y-19.240511
G1 Z14.323 X-4.863 Y-20.342253
G1 Z14.331 X-4.239 Y-21.300286
G1 Z14.338 X-3.599 Y-22.081371
G1 Z14.343 X-2.981 Y-22.648261
G1 Z14.348 X-2.442 Y-22.969669
G1 Z14.351 X-2.007 Y-23.054782
G1 Z14.353 X-1.708 Y-22.966967
G1 Z14.354 X-1.573 Y-22.858184 F600
G1 Z14.356 X-1.405 Y-22.654036
G1 Z14.358 X-1.232 Y-22.373358
G1 Z14.360 X-1.064 Y-22.024074
G1 Z14.363 X-0.905 Y-21.622112
G1 Z14.370 X-0.624 Y-20.704852
G1 Z14.377 X-0.378 Y-19.657402
G1 Z14.387 X-0.106 Y-18.140228
G1 Z14.397 X0.081 Y-16.637865
G1 Z14.407 X0.197 Y-15.146363
G1 Z14.417 X0.250 Y-13.667753
G1 Z14.427 X0.253 Y-12.200058
G1 Z14.437 X0.215 Y-10.743287
G1 Z14.446 X0.147 Y-9.298448
G1 Z14.500 X-0.333 Y-1.299716
ID=1 WHEN $AC_TIMER[1]>=0 DO M51
G1 Z14.5 F2000
ID=1 WHEN $AC_TIMER[1]>=0 DO M50
G1 Z14.529 X-0.571 Y2.990884 F600
G1 Z14.554 X-0.650 Y6.680797
G1 Z14.591 X-0.652 Y12.277103
G1 Z14.594 X-1.134 Y12.371550
G1 Z14.601 X-1.490 Y11.489227
G1 Z14.616 X-2.289 Y9.372119
G1 Z14.638 X-3.372 Y6.215552
G1 Z14.653 X-4.041 Y4.116024
G1 Z14.665 X-4.549 Y2.436352
G1 Z14.683 X-5.250 Y-0.112902
G1 Z14.698 X-5.814 Y-2.297750
G1 Z14.710 X-6.246 Y-4.089692
G1 Z14.721 X-6.578 Y-5.656943
G1 Z14.726 X-6.721 Y-6.483838
G1 Z14.732 X-6.844 Y-7.356027
G1 Z14.739 X-6.941 Y-8.279542
G1 Z14.745 X-7.010 Y-9.259443
G1 Z14.750 X-7.037 Y-9.967415
G1 Z14.759 X-7.049 Y-11.252437
G1 Z14.770 X-6.985 Y-12.932242
G1 Z14.779 X-6.862 Y-14.232411
G1 Z14.788 X-6.656 Y-15.566890
G1 Z14.792 X-6.518 Y-16.225620
G1 Z14.797 X-6.354 Y-16.876337
G1 Z14.806 X-5.938 Y-18.163830
G1 Z14.814 X-5.430 Y-19.370028
G1 Z14.823 X-4.852 Y-20.468736
G1 Z14.830 X-4.232 Y-21.415687
G1 Z14.837 X-3.597 Y-22.179663
G1 Z14.843 X-2.983 Y-22.737491
G1 Z14.847 X-2.443 Y-23.057895
G1 Z14.850 X-2.049 Y-23.141729
G1 Z14.852 X-1.725 Y-23.049090
G1 Z14.853 X-1.607 Y-22.954157 F600
G1 Z14.855 X-1.443 Y-22.757954
G1 Z14.857 X-1.273 Y-22.479243
G1 Z14.859 X-1.107 Y-22.134930
G1 Z14.862 X-0.950 Y-21.734946
G1 Z14.865 X-0.806 Y-21.295189
G1 Z14.872 X-0.548 Y-20.315310
G1 Z14.875 X-0.439 Y-19.816895
G1 Z14.886 X-0.168 Y-18.307659
G1 Z14.896 X0.024 Y-16.798341
G1 Z14.906 X0.146 Y-15.258191
G1 Z14.916 X0.202 Y-13.817317
G1 Z14.926 X0.209 Y-12.289044
G1 Z14.936 X0.176 Y-10.823343
G1 Z14.946 X0.112 Y-9.369561
G1 Z15.000 X-0.372 Y-1.302313
ID=1 WHEN $AC_TIMER[1]>=0 DO M51
G1 Z15 F2000
ID=1 WHEN $AC_TIMER[1]>=0 DO M50
G1 Z15.020 X-0.558 Y1.599724 F600
G1 Z15.037 X-0.650 Y4.133526
G1 Z15.053 X-0.694 Y6.553522
G1 Z15.090 X-0.703 Y12.097455
G1 Z15.094 X-1.185 Y12.190904
G1 Z15.099 X-1.509 Y11.384006
G1 Z15.115 X-2.301 Y9.273835
G1 Z15.130 X-3.026 Y7.177406
G1 Z15.144 X-3.705 Y5.088837
G1 Z15.159 X-4.351 Y2.991239
G1 Z15.174 X-4.967 Y0.873727
G1 Z15.197 X-5.808 Y-2.364217
G1 Z15.209 X-6.236 Y-4.166217
G1 Z15.220 X-6.562 Y-5.722382
G1 Z15.225 X-6.703 Y-6.544240
G1 Z15.231 X-6.825 Y-7.412395
G1 Z15.238 X-6.922 Y-8.331881
G1 Z15.244 X-6.990 Y-9.308758
G1 Z15.249 X-7.019 Y-10.071119
G1 Z15.261 X-7.021 Y-11.796234
G1 Z15.269 X-6.965 Y-13.045011
G1 Z15.278 X-6.842 Y-14.352234
G1 Z15.287 X-6.636 Y-15.692750
G1 Z15.292 X-6.499 Y-16.353494
G1 Z15.296 X-6.335 Y-17.006220
G1 Z15.305 X-5.933 Y-18.257445
G1 Z15.314 X-5.415 Y-19.451586
G1 Z15.322 X-4.839 Y-20.516089
G1 Z15.330 X-4.221 Y-21.447938
G1 Z15.336 X-3.589 Y-22.208884
G1 Z15.342 X-2.979 Y-22.763671
G1 Z15.346 X-2.444 Y-23.079033
G1 Z15.349 X-2.049 Y-23.163873
G1 Z15.350 X-1.811 Y-23.094609
G1 Z15.351 X-1.738 Y-23.072149 F600
G1 Z15.352 X-1.620 Y-22.976216
G1 Z15.354 X-1.455 Y-22.776032
G1 Z15.356 X-1.297 Y-22.518163
G1 Z15.358 X-1.132 Y-22.176825
G1 Z15.361 X-0.978 Y-21.786769
G1 Z15.368 X-0.699 Y-20.867517
G1 Z15.375 X-0.468 Y-19.871696
G1 Z15.384 X-0.208 Y-18.419052
G1 Z15.395 X-0.015 Y-16.914705
G1 Z15.406 X0.114 Y-15.305042
G1 Z15.415 X0.166 Y-13.940632
G1 Z15.426 X0.176 Y-12.343844
G1 Z15.435 X0.143 Y-10.881116
G1 Z15.445 X0.080 Y-9.431308
G1 Z15.500 X-0.412 Y-1.304479
ID=1 WHEN $AC_TIMER[1]>=0 DO M51
G1 Z15.5 F2000
ID=1 WHEN $AC_TIMER[1]>=0 DO M50
G1 Z15.519 X-0.594 Y1.495177 F600
G1 Z15.536 X-0.690 Y4.016893
G1 Z15.552 X-0.738 Y6.425807
G1 Z15.590 X-0.755 Y11.916370
G1 Z15.593 X-1.237 Y12.008820
G1 Z15.598 X-1.529 Y11.278341
G1 Z15.613 X-2.312 Y9.177089
G1 Z15.636 X-3.370 Y6.046290
G1 Z15.650 X-4.023 Y3.966600
G1 Z15.665 X-4.646 Y1.872944
G1 Z15.689 X-5.578 Y-1.526682
G1 Z15.703 X-6.056 Y-3.504977
G1 Z15.713 X-6.391 Y-4.999734
G1 Z15.724 X-6.686 Y-6.608218
G1 Z15.730 X-6.806 Y-7.468315
G1 Z15.736 X-6.902 Y-8.382773
G1 Z15.743 X-6.970 Y-9.355622
G1 Z15.750 X-7.007 Y-10.393910
G1 Z15.761 X-6.999 Y-12.000194
G1 Z15.769 X-6.945 Y-13.159345
G1 Z15.778 X-6.822 Y-14.473610
G1 Z15.787 X-6.617 Y-15.818162
G1 Z15.792 X-6.480 Y-16.477892
G1 Z15.796 X-6.316 Y-17.098400
G1 Z15.805 X-5.900 Y-18.332544
G1 Z15.813 X-5.395 Y-19.494439
G1 Z15.821 X-4.823 Y-20.555905
G1 Z15.829 X-4.208 Y-21.481712
G1 Z15.836 X-3.580 Y-22.238615
G1 Z15.841 X-2.975 Y-22.788359
G1 Z15.845 X-2.445 Y-23.102682
G1 Z15.848 X-2.054 Y-23.184489
G1 Z15.849 X-1.965 Y-23.158139
G1 Z15.850 X-1.748 Y-23.093733 F600
G1 Z15.851 X-1.633 Y-22.998780
G1 Z15.853 X-1.469 Y-22.799589
G1 Z15.855 X-1.320 Y-22.556588
G1 Z15.857 X-1.156 Y-22.219224
G1 Z15.860 X-1.002 Y-21.827181
G1 Z15.867 X-0.729 Y-20.926794
G1 Z15.874 X-0.498 Y-19.929978
G1 Z15.883 X-0.247 Y-18.532946
G1 Z15.895 X-0.035 Y-16.847870
G1 Z15.905 X0.081 Y-15.353391
G1 Z15.915 X0.137 Y-13.870812
G1 Z15.925 X0.143 Y-12.399144
G1 Z15.935 X0.110 Y-10.941382
G1 Z15.954 X-0.034 Y-8.055674
G1 Z16.000 X-0.451 Y-1.306151
ID=1 WHEN $AC_TIMER[1]>=0 DO M51
G1 Z16 F2000
ID=1 WHEN $AC_TIMER[1]>=0 DO M50
G1 Z16.010 X-0.567 Y0.098041 F600
G1 Z16.035 X-0.729 Y3.899758
G1 Z16.052 X-0.781 Y6.296596
G1 Z16.089 X-0.806 Y11.735783
G1 Z16.092 X-1.289 Y11.826234
G1 Z16.112 X-2.323 Y9.079841
G1 Z16.134 X-3.369 Y5.962928
G1 Z16.149 X-4.015 Y3.892157
G1 Z16.164 X-4.631 Y1.806427
G1 Z16.179 X-5.220 Y-0.314877
G1 Z16.194 X-5.786 Y-2.491670
G1 Z16.212 X-6.378 Y-5.070256
G1 Z16.223 X-6.668 Y-6.668661
G1 Z16.229 X-6.787 Y-7.524725
G1 Z16.235 X-6.882 Y-8.434153
G1 Z16.242 X-6.950 Y-9.404980
G1 Z16.249 X-6.987 Y-10.439254
G1 Z16.260 X-6.982 Y-12.015316
G1 Z16.268 X-6.925 Y-13.275172
G1 Z16.277 X-6.802 Y-14.597499
G1 Z16.282 X-6.711 Y-15.246103
G1 Z16.291 X-6.453 Y-16.531302
G1 Z16.295 X-6.290 Y-17.149789
G1 Z16.304 X-5.876 Y-18.379904
G1 Z16.313 X-5.375 Y-19.537763
G1 Z16.321 X-4.806 Y-20.593189
G1 Z16.328 X-4.195 Y-21.515953
G1 Z16.335 X-3.572 Y-22.267813
G1 Z16.340 X-2.971 Y-22.814515
G1 Z16.345 X-2.446 Y-23.124797
G1 Z16.347 X-2.061 Y-23.205563
G1 Z16.349 X-1.758 Y-23.114782
G1 Z16.350 X-1.643 Y-23.019829 F600
G1 Z16.352 X-1.511 Y-22.859285
G1 Z16.354 X-1.343 Y-22.592500
G1 Z16.356 X-1.181 Y-22.261090
G1 Z16.359 X-1.028 Y-21.873017
G1 Z16.366 X-0.757 Y-20.979578
G1 Z16.373 X-0.529 Y-19.987725
G1 Z16.382 X-0.287 Y-18.644308
G1 Z16.394 X-0.066 Y-16.890720
G1 Z16.404 X0.049 Y-15.400211
G1 Z16.414 X0.104 Y-13.921606
G1 Z16.424 X0.110 Y-12.453913
G1 Z16.434 X0.077 Y-10.999127
G1 Z16.454 X-0.066 Y-8.120366
G1 Z16.500 X-0.481 Y-1.308289
ID=1 WHEN $AC_TIMER[1]>=0 DO M51
M0
;TURN OFF POWDER!!!
M0
;End of Programm--------------------
M55				;home mirror
M30				;program end
