; generated by Slic3r 1.2.9 on 2017-05-31 at 13:46:42

; external perimeters extrusion width = 1.10mm
; perimeters extrusion width = 1.10mm
; infill extrusion width = 1.10mm
; solid infill extrusion width = 1.10mm
; top infill extrusion width = 1.10mm

H=1500
$AC_TIMER[1]=0

;General Config.--------------------
G641			;
G603			;
M55			;home mirror
G4F4			;necessary delay for positioning of the mirror				
M0			;wait for user-input

;Process Start-up-------------------
M56			;set canal 1 as laser-source
G4F4			;necessary delay for positioning of the mirror
M0			;wait for user-input
;START POWDER!!!
G4F15

M0

G54

G90 ; use absolute coordinates
G1 X0.000 Y8.821 F1980.000
ID=1 WHEN $AC_TIMER[1]>=0 DO M50
G1 X-9.450 Y8.8217 F600.000
G1 X-9.450 Y-10.2370
G1 X9.450 Y-10.2375
G1 X9.450 Y8.8218
G1 X0.450 Y8.8215 F600.000
G1 Z0.565 X-9.450 Y9.0032 F600.000
G1 Z0.691 X-9.450 Y-10.3714
G1 Z0.815 X9.450 Y-10.3718
G1 Z0.941 X9.450 Y9.00330
G1 Z1.000 X0.450 Y9.00327 F600.000
G1 Z1.064 X-9.450 Y9.18544 F600.000
G1 Z1.192 X-9.450 Y-10.50505
G1 Z1.314 X9.450 Y-10.50519
G1 Z1.442 X9.450 Y9.18580
G1 Z1.500 X0.450 Y9.18577 F600.000
G1 Z1.564 X-9.450 Y9.36794 F600.000
G1 Z1.692 X-9.450 Y-10.63973
G1 Z1.814 X9.450 Y-10.63987
G1 Z1.942 X9.450 Y9.36767
G1 Z2.000 X0.450 Y9.36764 F600.000
G1 Z2.063 X-9.450 Y9.54981 F600.000
G1 Z2.193 X-9.450 Y-10.77379
G1 Z2.313 X9.450 Y-10.77393
G1 Z2.443 X9.450 Y9.54991
G1 Z2.500 X0.450 Y9.54988 F600.000
G1 Z2.563 X-9.450 Y9.73105 F600.000
G1 Z2.693 X-9.450 Y-10.90721
G1 Z2.813 X9.450 Y-10.90736
G1 Z2.943 X9.450 Y9.73152
G1 Z3.000 X0.450 Y9.73149 F600.000
G1 Z3.062 X-9.450 Y9.91366 F600.000
G1 Z3.194 X-9.450 Y-11.04101
G1 Z3.312 X9.450 Y-11.04116
G1 Z3.444 X9.450 Y9.91351
G1 Z3.500 X0.450 Y9.91348 F600.000
G1 Z3.562 X-9.450 Y10.09565 F600.000
G1 Z3.694 X-9.450 Y-11.17519
G1 Z3.812 X9.450 Y-11.17533
G1 Z3.944 X9.450 Y10.09587
G1 Z4.000 X0.450 Y10.09584 F600.000
G1 Z4.061 X-9.450 Y10.27701 F600.000
G1 Z4.194 X-9.450 Y-11.30973
G1 Z4.311 X9.450 Y-11.30987
G1 Z4.444 X9.450 Y10.27760
G1 Z4.500 X0.450 Y10.27757 F600.000
G1 Z4.561 X-9.450 Y10.45974 F600.000
G1 Z4.695 X-9.450 Y-11.44365
G1 Z4.811 X9.450 Y-11.44379
G1 Z4.945 X9.450 Y10.45971
G1 Z5.000 X0.450 Y10.45968 F600.000
G1 Z5.060 X-9.450 Y10.64185 F600.000
G1 Z5.195 X-9.450 Y-11.57794
G1 Z5.310 X9.450 Y-11.57709
G1 Z5.445 X9.450 Y10.64118
G1 Z5.500 X0.450 Y10.64116 F600.000
G1 Z5.560 X-9.450 Y10.82332 F600.000
G1 Z5.696 X-9.450 Y-11.71161
G1 Z5.810 X9.450 Y-11.71175
G1 Z5.946 X9.450 Y10.82303
G1 Z6.000 X0.450 Y10.82301 F600.000
G1 Z6.059 X-9.450 Y11.00518 F600.000
G1 Z6.196 X-9.450 Y-11.84565
G1 Z6.309 X9.450 Y-11.84579
G1 Z6.446 X9.450 Y11.00526
G1 Z6.500 X0.450 Y11.00523 F600.000
G1 Z6.559 X-9.450 Y11.18740 F600.000
G1 Z6.697 X-9.450 Y-11.97906
G1 Z6.809 X9.450 Y-11.97920
G1 Z6.947 X9.450 Y11.18785
G1 Z7.000 X0.450 Y11.18783 F600.000
G1 Z7.058 X-9.450 Y11.36900 F600.000
G1 Z7.197 X-9.450 Y-12.11384
G1 Z7.308 X9.450 Y-12.11398
G1 Z7.447 X9.450 Y11.36982
G1 Z7.500 X0.450 Y11.36980 F600.000
G1 Z7.558 X-9.450 Y11.55196 F600.000
G1 Z7.697 X-9.450 Y-12.24799
G1 Z7.808 X9.450 Y-12.24714
G1 Z7.947 X9.450 Y11.55117
G1 Z8.000 X0.450 Y11.55114 F600.000
G1 Z8.058 X-9.450 Y11.73331 F600.000
G1 Z8.198 X-9.450 Y-12.38152
G1 Z8.308 X9.450 Y-12.38166
G1 Z8.448 X9.450 Y11.73388
G1 Z8.500 X0.450 Y11.73385 F600.000
G1 Z8.557 X-9.450 Y11.91502 F600.000
G1 Z8.698 X-9.450 Y-12.51542
G1 Z8.807 X9.450 Y-12.515356
G1 Z8.948 X9.450 Y11.915897
G1 Z9.000 X0.450 Y11.915094 F600.000
G1 Z9.057 X-9.450 Y12.097611 F600.000
G1 Z9.198 X-9.450 Y-12.649370
G1 Z9.307 X9.450 Y-12.649084
G1 Z9.448 X9.450 Y12.097843
G1 Z9.500 X0.450 Y12.097040 F600.000
G1 Z9.556 X-9.450 Y12.279557 F600.000
G1 Z9.699 X-9.450 Y-12.783534
G1 Z9.806 X9.450 Y-12.783249
G1 Z9.949 X9.450 Y12.279226
G1 Z10.000 X0.450 Y12.279423 F600.000
G1 Z10.056 X-9.450 Y12.461940 F600.000
G1 Z10.199 X-9.450 Y-12.917136
G1 Z10.306 X9.450 Y-12.917851
G1 Z10.449 X9.450 Y12.461047
G1 Z10.500 X0.450 Y12.461244 F600.000
G1 Z10.556 X-9.450 Y12.643761 F600.000
G1 Z10.700 X-9.450 Y-13.051176
G1 Z10.806 X9.450 Y-13.051890
G1 Z10.950 X9.450 Y12.643305
G1 Z11.000 X0.450 Y12.643502 F600.000
G1 Z11.055 X-9.450 Y12.825019 F600.000
G1 Z11.200 X-9.450 Y-13.185652
G1 Z11.305 X9.450 Y-13.185366
G1 Z11.450 X9.450 Y12.825000
G1 Z11.500 X0.450 Y12.825197 F600.000
G1 Z11.555 X-9.450 Y13.006714 F600.000
G1 Z11.700 X-9.450 Y-13.319566
G1 Z11.805 X9.450 Y-13.319280
G1 Z11.950 X9.450 Y13.006132
G1 Z12.000 X0.450 Y13.006329 F600.000
G1 Z12.054 X-9.450 Y13.188846 F600.000
G1 Z12.201 X-9.450 Y-13.453917
G1 Z12.304 X9.450 Y-13.453631
G1 Z12.451 X9.450 Y13.188702
G1 Z12.500 X0.450 Y13.188899 F600.000
G1 Z12.554 X-9.450 Y13.370416 F600.000
G1 Z12.701 X-9.450 Y-13.587705
G1 Z12.804 X9.450 Y-13.587420
G1 Z12.951 X9.450 Y13.370709
G1 Z13.000 X0.450 Y13.370906 F600.000
G1 Z13.054 X-9.450 Y13.552423 F600.000
G1 Z13.201 X-9.450 Y-13.720931
G1 Z13.304 X9.450 Y-13.720645
G1 Z13.451 X9.450 Y13.552153
G1 Z13.500 X0.450 Y13.552350 F600.000
G1 Z13.553 X-9.450 Y13.734867 F600.000
G1 Z13.702 X-9.450 Y-13.854594
G1 Z13.803 X9.450 Y-13.854308
G1 Z13.952 X9.450 Y13.734035
G1 Z14.000 X0.450 Y13.734232 F600.000
G1 Z14.053 X-9.450 Y13.916749 F600.000
G1 Z14.202 X-9.450 Y-13.988694
G1 Z14.303 X9.450 Y-13.988408
G1 Z14.452 X9.450 Y13.916354
G1 Z14.500 X0.450 Y13.916551 F600.000
G1 Z14.553 X-9.450 Y14.098068 F600.000
G1 Z14.702 X-9.450 Y-14.122232
G1 Z14.803 X9.450 Y-14.122946
G1 Z14.952 X9.450 Y14.098110
G1 Z15.000 X0.450 Y14.098307 F600.000
ID=1 WHEN $AC_TIMER[1]>=0 DO M51
M0
;TURN OFF POWDER!!!
M0
G4F5

;End of Programm--------------------
M55				;home mirror
M30				;program end
