; generated by Slic3r 1.2.9 on 2017-06-01 at 17:36:45

; external perimeters extrusion width = 1.10mm
; perimeters extrusion width = 1.10mm
; infill extrusion width = 1.10mm
; solid infill extrusion width = 1.10mm
; top infill extrusion width = 1.10mm

H=1500
$AC_TIMER[1]=0

;General Config.--------------------
G641			;
G603			;
M55			;home mirror
G4F4			;necessary delay for positioning of the mirror				
M0			;wait for user-input

;Process Start-up-------------------
M56			;set canal 1 as laser-source
G4F4			;necessary delay for positioning of the mirror
M0			;wait for user-input
;START POWDER!!!
G4F15

M0

G54

G90 ; use absolute coordinates
G1 X0.000 Y-8.821 F1980.000
ID=1 WHEN $AC_TIMER[1]>=0 DO M50
G1 X9.450 Y-8.8217 F600.000
G1 X9.450 Y10.2370
G1 X-9.450 Y10.2375 F600.000
G1 X-9.450 Y-8.8218
G1 X-0.450 Y-8.8215
G1 Z0.565 X9.450 Y-9.0032 F600.000
G1 Z0.691 X9.450 Y10.3714
G1 Z0.815 X-9.450 Y10.3718 F600.000
G1 Z0.941 X-9.450 Y-9.00330
G1 Z1.000 X-0.450 Y-9.00327
G1 Z1.064 X9.450 Y-9.18544 F600.000
G1 Z1.192 X9.450 Y10.50505
G1 Z1.314 X-9.450 Y10.50519 F600.000
G1 Z1.442 X-9.450 Y-9.18580
G1 Z1.500 X-0.450 Y-9.18577
G1 Z1.564 X9.450 Y-9.36794 F600.000
G1 Z1.692 X9.450 Y10.63973
G1 Z1.814 X-9.450 Y10.63987 F600.000
G1 Z1.942 X-9.450 Y-9.36767
G1 Z2.000 X-0.450 Y-9.36764
G1 Z2.063 X9.450 Y-9.54981 F600.000
G1 Z2.193 X9.450 Y10.77379
G1 Z2.313 X-9.450 Y10.77393 F600.000
G1 Z2.443 X-9.450 Y-9.54991
G1 Z2.500 X-0.450 Y-9.54988
G1 Z2.563 X9.450 Y-9.73105 F600.000
G1 Z2.693 X9.450 Y10.90721
G1 Z2.813 X-9.450 Y10.90735 F600.000
G1 Z2.943 X-9.450 Y-9.73152
G1 Z3.000 X-0.450 Y-9.73149
G1 Z3.062 X9.450 Y-9.91366 F600.000
G1 Z3.194 X9.450 Y11.04101
G1 Z3.312 X-9.450 Y11.04115 F600.000
G1 Z3.444 X-9.450 Y-9.91351
G1 Z3.500 X-0.450 Y-9.91348
G1 Z3.562 X9.450 Y-10.09565 F600.000
G1 Z3.694 X9.450 Y11.17519
G1 Z3.812 X-9.450 Y11.17533 F600.000
G1 Z3.944 X-9.450 Y-10.09587
G1 Z4.000 X-0.450 Y-10.09584
G1 Z4.061 X9.450 Y-10.27701 F600.000
G1 Z4.194 X9.450 Y11.30973
G1 Z4.311 X-9.450 Y11.30987 F600.000
G1 Z4.444 X-9.450 Y-10.27760
G1 Z4.500 X-0.450 Y-10.27757
G1 Z4.561 X9.450 Y-10.45974 F600.000
G1 Z4.695 X9.450 Y11.44365
G1 Z4.811 X-9.450 Y11.44379 F600.000
G1 Z4.945 X-9.450 Y-10.45970
G1 Z5.000 X-0.450 Y-10.45968
G1 Z5.060 X9.450 Y-10.64184 F600.000
G1 Z5.195 X9.450 Y11.57794
G1 Z5.310 X-9.450 Y11.57708 F600.000
G1 Z5.445 X-9.450 Y-10.64118
G1 Z5.500 X-0.450 Y-10.64115
G1 Z5.560 X9.450 Y-10.82332 F600.000
G1 Z5.696 X9.450 Y11.71161
G1 Z5.810 X-9.450 Y11.71175 F600.000
G1 Z5.946 X-9.450 Y-10.82303
G1 Z6.000 X-0.450 Y-10.82300
G1 Z6.059 X9.450 Y-11.00517 F600.000
G1 Z6.196 X9.450 Y11.84564
G1 Z6.309 X-9.450 Y11.84578 F600.000
G1 Z6.446 X-9.450 Y-11.00526
G1 Z6.500 X-0.450 Y-11.00523
G1 Z6.559 X9.450 Y-11.18740 F600.000
G1 Z6.697 X9.450 Y11.97905
G1 Z6.809 X-9.450 Y11.97919 F600.000
G1 Z6.947 X-9.450 Y-11.18785
G1 Z7.000 X-0.450 Y-11.18782
G1 Z7.058 X9.450 Y-11.36999 F600.000
G1 Z7.197 X9.450 Y12.11384
G1 Z7.308 X-9.450 Y12.11398 F600.000
G1 Z7.447 X-9.450 Y-11.36982
G1 Z7.500 X-0.450 Y-11.36979
G1 Z7.558 X9.450 Y-11.55196 F600.000
G1 Z7.697 X9.450 Y12.24799
G1 Z7.808 X-9.450 Y12.24713 F600.000
G1 Z7.947 X-9.450 Y-11.55116
G1 Z8.000 X-0.450 Y-11.55113
G1 Z8.058 X9.450 Y-11.73330 F600.000
G1 Z8.198 X9.450 Y12.38152
G1 Z8.308 X-9.450 Y12.38166 F600.000
G1 Z8.448 X-9.450 Y-11.73388
G1 Z8.500 X-0.450 Y-11.73385
G1 Z8.557 X9.450 Y-11.91502 F600.000
G1 Z8.698 X9.450 Y12.51542
G1 Z8.807 X-9.450 Y12.515356 F600.000
G1 Z8.948 X-9.450 Y-11.915897
G1 Z9.000 X-0.450 Y-11.915094
G1 Z9.057 X9.450 Y-12.097611 F600.000
G1 Z9.198 X9.450 Y12.649370
G1 Z9.307 X-9.450 Y12.649084 F600.000
G1 Z9.448 X-9.450 Y-12.097843
G1 Z9.500 X-0.450 Y-12.097040
G1 Z9.556 X9.450 Y-12.279557 F600.000
G1 Z9.699 X9.450 Y12.783534
G1 Z9.806 X-9.450 Y12.783248 F600.000
G1 Z9.949 X-9.450 Y-12.279226
G1 Z10.000 X-0.450 Y-12.279423
G1 Z10.056 X9.450 Y-12.461940 F600.000
G1 Z10.199 X9.450 Y12.917136
G1 Z10.306 X-9.450 Y12.917850 F600.000
G1 Z10.449 X-9.450 Y-12.461046
G1 Z10.500 X-0.450 Y-12.461244
G1 Z10.556 X9.450 Y-12.643761 F600.000
G1 Z10.700 X9.450 Y13.051175
G1 Z10.806 X-9.450 Y13.051889 F600.000
G1 Z10.950 X-9.450 Y-12.643304
G1 Z11.000 X-0.450 Y-12.643502
G1 Z11.055 X9.450 Y-12.825018 F600.000
G1 Z11.200 X9.450 Y13.185652
G1 Z11.305 X-9.450 Y13.185366 F600.000
G1 Z11.450 X-9.450 Y-12.825999
G1 Z11.500 X-0.450 Y-12.825197
G1 Z11.555 X9.450 Y-13.006714 F600.000
G1 Z11.700 X9.450 Y13.319566
G1 Z11.805 X-9.450 Y13.319280 F600.000
G1 Z11.950 X-9.450 Y-13.006132
G1 Z12.000 X-0.450 Y-13.006329
G1 Z12.054 X9.450 Y-13.188846 F600.000
G1 Z12.201 X9.450 Y13.453917
G1 Z12.304 X-9.450 Y13.453631 F600.000
G1 Z12.451 X-9.450 Y-13.188702
G1 Z12.500 X-0.450 Y-13.188899
G1 Z12.554 X9.450 Y-13.370416 F600.000
G1 Z12.701 X9.450 Y13.587705
G1 Z12.804 X-9.450 Y13.587419 F600.000
G1 Z12.951 X-9.450 Y-13.370709
G1 Z13.000 X-0.450 Y-13.370906
G1 Z13.054 X9.450 Y-13.552423 F600.000
G1 Z13.201 X9.450 Y13.720931
G1 Z13.304 X-9.450 Y13.720645 F600.000
G1 Z13.451 X-9.450 Y-13.552153
G1 Z13.500 X-0.450 Y-13.552350
G1 Z13.553 X9.450 Y-13.734867 F600.000
G1 Z13.702 X9.450 Y13.854594
G1 Z13.803 X-9.450 Y13.854308 F600.000
G1 Z13.952 X-9.450 Y-13.734035
G1 Z14.000 X-0.450 Y-13.734232
G1 Z14.053 X9.450 Y-13.916749 F600.000
G1 Z14.202 X9.450 Y13.988694
G1 Z14.303 X-9.450 Y13.988408 F600.000
G1 Z14.452 X-9.450 Y-13.916353
G1 Z14.500 X-0.450 Y-13.916551
G1 Z14.553 X9.450 Y-14.098067 F600.000
G1 Z14.702 X9.450 Y14.122231
G1 Z14.803 X-9.450 Y14.122946 F600.000
G1 Z14.952 X-9.450 Y-14.098109
G1 Z15.000 X-0.450 Y-14.098307
ID=1 WHEN $AC_TIMER[1]>=0 DO M51
M0
;TURN OFF POWDER!!!
M0
G4F5

;End of Programm--------------------
M55				;home mirror
M30				;program end

; filament used = 179.2mm (1.3cm3)

; avoid_crossing_perimeters = 0
; bed_shape = -150x-150,150x-150,150x150,-150x150
; bed_temperature = 0
; before_layer_gcode = 
; bridge_acceleration = 0
; bridge_fan_speed = 100
; brim_width = 0
; complete_objects = 0
; cooling = 0
; default_acceleration = 0
; disable_fan_first_layers = 3
; duplicate_distance = 6
; end_gcode = M0\n;TURN OFF POWDER!!!\nM0\nG4F5\n\n;End of Programm--------------------\nM55				;home mirror\nM30				;program end\n
; extruder_clearance_height = 20
; extruder_clearance_radius = 20
; extruder_offset = 0x0
; extrusion_axis = E
; extrusion_multiplier = 1
; fan_always_on = 0
; fan_below_layer_time = 60
; filament_colour = #FFFFFF
; filament_diameter = 3
; first_layer_acceleration = 0
; first_layer_bed_temperature = 0
; first_layer_extrusion_width = 0
; first_layer_speed = 100%
; first_layer_temperature = 205
; gcode_arcs = 0
; gcode_comments = 0
; gcode_flavor = reprap
; infill_acceleration = 0
; infill_first = 0
; layer_gcode = 
; max_fan_speed = 100
; max_print_speed = 80
; max_volumetric_speed = 0
; min_fan_speed = 35
; min_print_speed = 33
; min_skirt_length = 0
; notes = 
; nozzle_diameter = 3
; only_retract_when_crossing_perimeters = 0
; ooze_prevention = 0
; output_filename_format = [input_filename_base].gcode
; perimeter_acceleration = 0
; post_process = 
; pressure_advance = 0
; resolution = 0
; retract_before_travel = 2
; retract_layer_change = 0
; retract_length = 0
; retract_length_toolchange = 10
; retract_lift = 0
; retract_restart_extra = 0
; retract_restart_extra_toolchange = 0
; retract_speed = 40
; skirt_distance = 6
; skirt_height = 1
; skirts = 0
; slowdown_below_layer_time = 5
; spiral_vase = 1
; standby_temperature_delta = -5
; start_gcode = $AC_TIMER[1]=0\n\n;General Config.--------------------\nG641			;\nG603			;\nM55			;home mirror\nG4F4			;necessary delay for positioning of the mirror				\nM0			;wait for user-input\n\n;Process Start-up-------------------\nM56			;set canal 1 as laser-source\nG4F4			;necessary delay for positioning of the mirror\nM0			;wait for user-input\n;START POWDER!!!\nG4F15\n\nM0\n\nG54\n
; temperature = 200
; threads = 2
; toolchange_gcode = 
; travel_speed = 33
; use_firmware_retraction = 0
; use_relative_e_distances = 0
; use_volumetric_e = 0
; vibration_limit = 0
; wipe = 0
; z_offset = 0
; dont_support_bridges = 1
; extrusion_width = 1.1
; first_layer_height = 100%
; infill_only_where_needed = 0
; interface_shells = 0
; layer_height = 0.5
; raft_layers = 0
; seam_position = aligned
; support_material = 0
; support_material_angle = 0
; support_material_contact_distance = 0.2
; support_material_enforce_layers = 0
; support_material_extruder = 1
; support_material_extrusion_width = 0
; support_material_interface_extruder = 1
; support_material_interface_layers = 3
; support_material_interface_spacing = 0
; support_material_interface_speed = 100%
; support_material_pattern = pillars
; support_material_spacing = 2.5
; support_material_speed = 60
; support_material_threshold = 0
; xy_size_compensation = 0
; bottom_solid_layers = 0
; bridge_flow_ratio = 1
; bridge_speed = 33.3333
; external_fill_pattern = rectilinear
; external_perimeter_extrusion_width = 0
; external_perimeter_speed = 100%
; external_perimeters_first = 0
; extra_perimeters = 1
; fill_angle = 45
; fill_density = 0%
; fill_pattern = rectilinear
; gap_fill_speed = 33.3333
; infill_every_layers = 1
; infill_extruder = 1
; infill_extrusion_width = 0
; infill_overlap = 15%
; infill_speed = 33.3333
; overhangs = 1
; perimeter_extruder = 1
; perimeter_extrusion_width = 0
; perimeter_speed = 10
; perimeters = 1
; small_perimeter_speed = 100%
; solid_infill_below_area = 70
; solid_infill_every_layers = 0
; solid_infill_extruder = 1
; solid_infill_extrusion_width = 0
; solid_infill_speed = 100%
; thin_walls = 1
; top_infill_extrusion_width = 0
; top_solid_infill_speed = 100%
; top_solid_layers = 0
