; generated by Slic3r 1.2.9 on 2017-06-05 at 17:10:47

; external perimeters extrusion width = 1.10mm
; perimeters extrusion width = 1.10mm
; infill extrusion width = 1.10mm
; solid infill extrusion width = 1.10mm
; top infill extrusion width = 1.10mm

H=1500
$AC_TIMER[1]=0

;General Config.--------------------
G641			;
G603			;
M55			;home mirror
G4F4			;necessary delay for positioning of the mirror				
M0			;wait for user-input

;Process Start-up-------------------
M56			;set canal 1 as laser-source
G4F4			;necessary delay for positioning of the mirror
M0			;wait for user-input
;START POWDER!!!
G4F15

M0

G54

G90 ; use absolute coordinates
G1 X0.000 Y-8.762 F1980.000
ID=1 WHEN $AC_TIMER[1]>=0 DO M50
G1 X9.450 Y-8.7627 F600.000
G1 X9.450 Y10.3993
G1 X-9.450 Y10.3997 F600.000
G1 X-9.450 Y-8.7624
G1 X-0.450 Y-8.7621
G1 Z0.564 X9.450 Y-9.0508 F600.000
G1 Z0.692 X9.450 Y10.6338
G1 Z0.814 X-9.450 Y10.6332 F600.000
G1 Z0.942 X-9.450 Y-9.05013
G1 Z1.000 X-0.450 Y-9.05010
G1 Z1.063 X9.450 Y-9.33927 F600.000
G1 Z1.192 X9.450 Y10.86601
G1 Z1.313 X-9.450 Y10.86615 F600.000
G1 Z1.442 X-9.450 Y-9.33990
G1 Z1.500 X-0.450 Y-9.33987
G1 Z1.562 X9.450 Y-9.62804 F600.000
G1 Z1.693 X9.450 Y11.09943
G1 Z1.812 X-9.450 Y11.09957 F600.000
G1 Z1.943 X-9.450 Y-9.62896
G1 Z2.000 X-0.450 Y-9.62893
G1 Z2.062 X9.450 Y-9.91610 F600.000
G1 Z2.194 X9.450 Y11.33213
G1 Z2.312 X-9.450 Y11.33227 F600.000
G1 Z2.444 X-9.450 Y-9.91631
G1 Z2.500 X-0.450 Y-9.91628
G1 Z2.561 X9.450 Y-10.20545 F600.000
G1 Z2.695 X9.450 Y11.56512
G1 Z2.811 X-9.450 Y11.56526 F600.000
G1 Z2.945 X-9.450 Y-10.20594
G1 Z3.000 X-0.450 Y-10.20591
G1 Z3.060 X9.450 Y-10.49408 F600.000
G1 Z3.195 X9.450 Y11.79839
G1 Z3.310 X-9.450 Y11.79853 F600.000
G1 Z3.445 X-9.450 Y-10.49485
G1 Z3.500 X-0.450 Y-10.49482
G1 Z3.559 X9.450 Y-10.78299 F600.000
G1 Z3.696 X9.450 Y12.03195
G1 Z3.809 X-9.450 Y12.03109 F600.000
G1 Z3.946 X-9.450 Y-10.78205
G1 Z4.000 X-0.450 Y-10.78202
G1 Z4.059 X9.450 Y-11.07119 F600.000
G1 Z4.197 X9.450 Y12.26579
G1 Z4.309 X-9.450 Y12.26593 F600.000
G1 Z4.447 X-9.450 Y-11.07153
G1 Z4.500 X-0.450 Y-11.07150
G1 Z4.558 X9.450 Y-11.36067 F600.000
G1 Z4.697 X9.450 Y12.49892
G1 Z4.808 X-9.450 Y12.49806 F600.000
G1 Z4.947 X-9.450 Y-11.36030
G1 Z5.000 X-0.450 Y-11.36027
G1 Z5.057 X9.450 Y-11.64844 F600.000
G1 Z5.198 X9.450 Y12.73133
G1 Z5.307 X-9.450 Y12.73147 F600.000
G1 Z5.448 X-9.450 Y-11.64835
G1 Z5.500 X-0.450 Y-11.64832
G1 Z5.557 X9.450 Y-11.93749 F600.000
G1 Z5.699 X9.450 Y12.96402
G1 Z5.807 X-9.450 Y12.96416 F600.000
G1 Z5.949 X-9.450 Y-11.93769
G1 Z6.000 X-0.450 Y-11.93766
G1 Z6.056 X9.450 Y-12.22683 F600.000
G1 Z6.199 X9.450 Y13.19700
G1 Z6.306 X-9.450 Y13.19714 F600.000
G1 Z6.449 X-9.450 Y-12.22631
G1 Z6.500 X-0.450 Y-12.22629
G1 Z6.555 X9.450 Y-12.51445 F600.000
G1 Z6.700 X9.450 Y13.43027
G1 Z6.805 X-9.450 Y13.43041 F600.000
G1 Z6.950 X-9.450 Y-12.51422
G1 Z7.000 X-0.450 Y-12.51419
G1 Z7.055 X9.450 Y-12.80336 F600.000
G1 Z7.200 X9.450 Y13.66482
G1 Z7.305 X-9.450 Y13.66496 F600.000
G1 Z7.450 X-9.450 Y-12.80341
G1 Z7.500 X-0.450 Y-12.80338
G1 Z7.554 X9.450 Y-13.09255 F600.000
G1 Z7.701 X9.450 Y13.89765
G1 Z7.804 X-9.450 Y13.89779 F600.000
G1 Z7.951 X-9.450 Y-13.09289
G1 Z8.000 X-0.450 Y-13.09286
G1 Z8.053 X9.450 Y-13.38003 F600.000
G1 Z8.202 X9.450 Y14.13077
G1 Z8.303 X-9.450 Y14.13091 F600.000
G1 Z8.452 X-9.450 Y-13.380165
G1 Z8.500 X-0.450 Y-13.380362
G1 Z8.553 X9.450 Y-13.669879 F600.000
G1 Z8.702 X9.450 Y14.363717
G1 Z8.803 X-9.450 Y14.363431 F600.000
G1 Z8.952 X-9.450 Y-13.669270
G1 Z9.000 X-0.450 Y-13.669467
G1 Z9.052 X9.450 Y-13.958984 F600.000
G1 Z9.203 X9.450 Y14.596486
G1 Z9.302 X-9.450 Y14.596200 F600.000
G1 Z9.453 X-9.450 Y-13.958703
G1 Z9.500 X-0.450 Y-13.958900
G1 Z9.552 X9.450 Y-14.246417 F600.000
G1 Z9.703 X9.450 Y14.829583
G1 Z9.802 X-9.450 Y14.829298 F600.000
G1 Z9.953 X-9.450 Y-14.246464
G1 Z10.000 X-0.450 Y-14.246661
G1 Z10.051 X9.450 Y-14.535178 F600.000
G1 Z10.204 X9.450 Y15.062009
G1 Z10.301 X-9.450 Y15.062723 F600.000
G1 Z10.454 X-9.450 Y-14.535554
G1 Z10.500 X-0.450 Y-14.535751
G1 Z10.550 X9.450 Y-14.824268 F600.000
G1 Z10.704 X9.450 Y15.296763
G1 Z10.800 X-9.450 Y15.296478 F600.000
G1 Z10.954 X-9.450 Y-14.824973
G1 Z11.000 X-0.450 Y-14.824170
G1 Z11.050 X9.450 Y-15.112687 F600.000
G1 Z11.205 X9.450 Y15.529846
G1 Z11.300 X-9.450 Y15.529560 F600.000
G1 Z11.455 X-9.450 Y-15.112720
G1 Z11.500 X-0.450 Y-15.112917
G1 Z11.549 X9.450 Y-15.401434 F600.000
G1 Z11.705 X9.450 Y15.762257
G1 Z11.799 X-9.450 Y15.762971 F600.000
G1 Z11.955 X-9.450 Y-15.401795
G1 Z12.000 X-0.450 Y-15.401992
G1 Z12.049 X9.450 Y-15.690509 F600.000
G1 Z12.206 X9.450 Y15.995997
G1 Z12.299 X-9.450 Y15.995711 F600.000
G1 Z12.456 X-9.450 Y-15.690199
G1 Z12.500 X-0.450 Y-15.690396
G1 Z12.548 X9.450 Y-15.978913 F600.000
G1 Z12.706 X9.450 Y16.228065
G1 Z12.798 X-9.450 Y16.228779 F600.000
G1 Z12.956 X-9.450 Y-15.978931
G1 Z13.000 X-0.450 Y-15.978129
G1 Z13.048 X9.450 Y-16.267645 F600.000
G1 Z13.206 X9.450 Y16.461462
G1 Z13.298 X-9.450 Y16.461176 F600.000
G1 Z13.456 X-9.450 Y-16.267992
G1 Z13.500 X-0.450 Y-16.267189
G1 Z13.547 X9.450 Y-16.556706 F600.000
G1 Z13.707 X9.450 Y16.695187
G1 Z13.797 X-9.450 Y16.695901 F600.000
G1 Z13.957 X-9.450 Y-16.556382
G1 Z14.000 X-0.450 Y-16.556579
G1 Z14.047 X9.450 Y-16.844096 F600.000
G1 Z14.207 X9.450 Y16.928240
G1 Z14.297 X-9.450 Y16.928954 F600.000
G1 Z14.457 X-9.450 Y-16.844099
G1 Z14.500 X-0.450 Y-16.844296
G1 Z14.547 X9.450 Y-17.133813 F600.000
G1 Z14.708 X9.450 Y17.161622
G1 Z14.797 X-9.450 Y17.161337 F600.000
G1 Z14.958 X-9.450 Y-17.133146
G1 Z15.000 X-0.450 Y-17.133343
ID=1 WHEN $AC_TIMER[1]>=0 DO M51
M0
;TURN OFF POWDER!!!
M0
G4F5

;End of Programm--------------------
M55				;home mirror
M30				;program end

; filament used = 192.2mm (1.4cm3)

; avoid_crossing_perimeters = 0
; bed_shape = -150x-150,150x-150,150x150,-150x150
; bed_temperature = 0
; before_layer_gcode = 
; bridge_acceleration = 0
; bridge_fan_speed = 100
; brim_width = 0
; complete_objects = 0
; cooling = 0
; default_acceleration = 0
; disable_fan_first_layers = 3
; duplicate_distance = 6
; end_gcode = M0\n;TURN OFF POWDER!!!\nM0\nG4F5\n\n;End of Programm--------------------\nM55				;home mirror\nM30				;program end\n
; extruder_clearance_height = 20
; extruder_clearance_radius = 20
; extruder_offset = 0x0
; extrusion_axis = E
; extrusion_multiplier = 1
; fan_always_on = 0
; fan_below_layer_time = 60
; filament_colour = #FFFFFF
; filament_diameter = 3
; first_layer_acceleration = 0
; first_layer_bed_temperature = 0
; first_layer_extrusion_width = 0
; first_layer_speed = 100%
; first_layer_temperature = 205
; gcode_arcs = 0
; gcode_comments = 0
; gcode_flavor = reprap
; infill_acceleration = 0
; infill_first = 0
; layer_gcode = 
; max_fan_speed = 100
; max_print_speed = 80
; max_volumetric_speed = 0
; min_fan_speed = 35
; min_print_speed = 33
; min_skirt_length = 0
; notes = 
; nozzle_diameter = 3
; only_retract_when_crossing_perimeters = 0
; ooze_prevention = 0
; output_filename_format = [input_filename_base].gcode
; perimeter_acceleration = 0
; post_process = 
; pressure_advance = 0
; resolution = 0
; retract_before_travel = 2
; retract_layer_change = 0
; retract_length = 0
; retract_length_toolchange = 10
; retract_lift = 0
; retract_restart_extra = 0
; retract_restart_extra_toolchange = 0
; retract_speed = 40
; skirt_distance = 6
; skirt_height = 1
; skirts = 0
; slowdown_below_layer_time = 5
; spiral_vase = 1
; standby_temperature_delta = -5
; start_gcode = $AC_TIMER[1]=0\n\n;General Config.--------------------\nG641			;\nG603			;\nM55			;home mirror\nG4F4			;necessary delay for positioning of the mirror				\nM0			;wait for user-input\n\n;Process Start-up-------------------\nM56			;set canal 1 as laser-source\nG4F4			;necessary delay for positioning of the mirror\nM0			;wait for user-input\n;START POWDER!!!\nG4F15\n\nM0\n\nG54\n
; temperature = 200
; threads = 2
; toolchange_gcode = 
; travel_speed = 33
; use_firmware_retraction = 0
; use_relative_e_distances = 0
; use_volumetric_e = 0
; vibration_limit = 0
; wipe = 0
; z_offset = 0
; dont_support_bridges = 1
; extrusion_width = 1.1
; first_layer_height = 100%
; infill_only_where_needed = 0
; interface_shells = 0
; layer_height = 0.5
; raft_layers = 0
; seam_position = aligned
; support_material = 0
; support_material_angle = 0
; support_material_contact_distance = 0.2
; support_material_enforce_layers = 0
; support_material_extruder = 1
; support_material_extrusion_width = 0
; support_material_interface_extruder = 1
; support_material_interface_layers = 3
; support_material_interface_spacing = 0
; support_material_interface_speed = 100%
; support_material_pattern = pillars
; support_material_spacing = 2.5
; support_material_speed = 60
; support_material_threshold = 0
; xy_size_compensation = 0
; bottom_solid_layers = 0
; bridge_flow_ratio = 1
; bridge_speed = 33.3333
; external_fill_pattern = rectilinear
; external_perimeter_extrusion_width = 0
; external_perimeter_speed = 100%
; external_perimeters_first = 0
; extra_perimeters = 1
; fill_angle = 45
; fill_density = 0%
; fill_pattern = rectilinear
; gap_fill_speed = 33.3333
; infill_every_layers = 1
; infill_extruder = 1
; infill_extrusion_width = 0
; infill_overlap = 15%
; infill_speed = 33.3333
; overhangs = 1
; perimeter_extruder = 1
; perimeter_extrusion_width = 0
; perimeter_speed = 10
; perimeters = 1
; small_perimeter_speed = 100%
; solid_infill_below_area = 70
; solid_infill_every_layers = 0
; solid_infill_extruder = 1
; solid_infill_extrusion_width = 0
; solid_infill_speed = 100%
; thin_walls = 1
; top_infill_extrusion_width = 0
; top_solid_infill_speed = 100%
; top_solid_layers = 0
