; generated by Slic3r 1.2.9 on 2017-06-01 at 10:56:51

; external perimeters extrusion width = 1.10mm
; perimeters extrusion width = 1.10mm
; infill extrusion width = 1.10mm
; solid infill extrusion width = 1.10mm
; top infill extrusion width = 1.10mm

H=1500
$AC_TIMER[1]=0

;General Config.--------------------
G641			;
G603			;
M55			;home mirror
G4F4			;necessary delay for positioning of the mirror				
M0			;wait for user-input

;Process Start-up-------------------
M56			;set canal 1 as laser-source
G4F4			;necessary delay for positioning of the mirror
M0			;wait for user-input
;START POWDER!!!
G4F15

M0

G54

G90 ; use absolute coordinates
G1 X0.000 Y8.310 F1980.000
ID=1 WHEN $AC_TIMER[1]>=0 DO M50
G1 X-9.450 Y8.3107 F600.000
G1 X-9.450 Y-11.1389
G1 X9.450 Y-11.1383
G1 X9.450 Y8.3104
G1 X0.450 Y8.3102 F600.000
G1 Z0.563 X-9.450 Y8.9069 F600.000
G1 Z0.693 X-9.450 Y-11.6385
G1 Z0.813 X9.450 Y-11.6389
G1 Z0.943 X9.450 Y8.90636
G1 Z1.000 X0.450 Y8.90633 F600.000
G1 Z1.061 X-9.450 Y9.50250 F600.000
G1 Z1.194 X-9.450 Y-12.13802
G1 Z1.311 X9.450 Y-12.13816
G1 Z1.444 X9.450 Y9.50268
G1 Z1.500 X0.450 Y9.50266 F600.000
G1 Z1.559 X-9.450 Y10.09782 F600.000
G1 Z1.696 X-9.450 Y-12.63830
G1 Z1.809 X9.450 Y-12.63844
G1 Z1.946 X9.450 Y10.09791
G1 Z2.000 X0.450 Y10.09788 F600.000
G1 Z2.058 X-9.450 Y10.69305 F600.000
G1 Z2.197 X-9.450 Y-13.13847
G1 Z2.308 X9.450 Y-13.13861
G1 Z2.447 X9.450 Y10.69303
G1 Z2.500 X0.450 Y10.69301 F600.000
G1 Z2.556 X-9.450 Y11.28917 F600.000
G1 Z2.699 X-9.450 Y-13.63855
G1 Z2.806 X9.450 Y-13.63869
G1 Z2.949 X9.450 Y11.28906
G1 Z3.000 X0.450 Y11.28904 F600.000
G1 Z3.055 X-9.450 Y11.88520 F600.000
G1 Z3.200 X-9.450 Y-14.13853
G1 Z3.305 X9.450 Y-14.13867
G1 Z3.450 X9.450 Y11.88500
G1 Z3.500 X0.450 Y11.88597 F600.000
G1 Z3.554 X-9.450 Y12.48114 F600.000
G1 Z3.701 X-9.450 Y-14.63841
G1 Z3.804 X9.450 Y-14.63855
G1 Z3.951 X9.450 Y12.48183
G1 Z4.000 X0.450 Y12.48180 F600.000
G1 Z4.053 X-9.450 Y13.07797 F600.000
G1 Z4.202 X-9.450 Y-15.13820
G1 Z4.303 X9.450 Y-15.13834
G1 Z4.452 X9.450 Y13.07757
G1 Z4.500 X0.450 Y13.07754 F600.000
G1 Z4.551 X-9.450 Y13.67371 F600.000
G1 Z4.703 X-9.450 Y-15.63889
G1 Z4.801 X9.450 Y-15.63803
G1 Z4.953 X9.450 Y13.67321
G1 Z5.000 X0.450 Y13.67318 F600.000
G1 Z5.050 X-9.450 Y14.26935 F600.000
G1 Z5.204 X-9.450 Y-16.13848
G1 Z5.300 X9.450 Y-16.13863
G1 Z5.454 X9.450 Y14.26976
G1 Z5.500 X0.450 Y14.26973 F600.000
G1 Z5.549 X-9.450 Y14.86490 F600.000
G1 Z5.705 X-9.450 Y-16.63898
G1 Z5.799 X9.450 Y-16.63812
G1 Z5.955 X9.450 Y14.86420
G1 Z6.000 X0.450 Y14.86418 F600.000
G1 Z6.048 X-9.450 Y15.46034 F600.000
G1 Z6.206 X-9.450 Y-17.13838
G1 Z6.298 X9.450 Y-17.13852
G1 Z6.456 X9.450 Y15.46055
G1 Z6.500 X0.450 Y15.46053 F600.000
G1 Z6.547 X-9.450 Y16.05670 F600.000
G1 Z6.707 X-9.450 Y-17.63868
G1 Z6.797 X9.450 Y-17.63882
G1 Z6.957 X9.450 Y16.05681
G1 Z7.000 X0.450 Y16.05678 F600.000
G1 Z7.046 X-9.450 Y16.65295 F600.000
G1 Z7.208 X-9.450 Y-18.13889
G1 Z7.296 X9.450 Y-18.13803
G1 Z7.458 X9.450 Y16.65296
G1 Z7.500 X0.450 Y16.65294 F600.000
G1 Z7.545 X-9.450 Y17.24811 F600.000
G1 Z7.709 X-9.450 Y-18.638599
G1 Z7.795 X9.450 Y-18.638313
G1 Z7.959 X9.450 Y17.248302
G1 Z8.000 X0.450 Y17.248500 F600.000
G1 Z8.044 X-9.450 Y17.844016 F600.000
G1 Z8.210 X-9.450 Y-19.138700
G1 Z8.294 X9.450 Y-19.138415
G1 Z8.460 X9.450 Y17.844099
G1 Z8.500 X0.450 Y17.844296 F600.000
G1 Z8.543 X-9.450 Y18.440813 F600.000
G1 Z8.711 X-9.450 Y-19.638192
G1 Z8.793 X9.450 Y-19.638906
G1 Z8.961 X9.450 Y18.440285
G1 Z9.000 X0.450 Y18.440482 F600.000
G1 Z9.043 X-9.450 Y19.036999 F600.000
G1 Z9.211 X-9.450 Y-20.138074
G1 Z9.293 X9.450 Y-20.138788
G1 Z9.461 X9.450 Y19.036862
G1 Z9.500 X0.450 Y19.036059 F600.000
G1 Z9.542 X-9.450 Y19.631576 F600.000
G1 Z9.712 X-9.450 Y-20.638345
G1 Z9.792 X9.450 Y-20.638060
G1 Z9.962 X9.450 Y19.631829
G1 Z10.000 X0.450 Y19.631026 F600.000
G1 Z10.041 X-9.450 Y20.227543 F600.000
G1 Z10.213 X-9.450 Y-21.138008
G1 Z10.291 X9.450 Y-21.138722
G1 Z10.463 X9.450 Y20.227186
G1 Z10.500 X0.450 Y20.227384 F600.000
G1 Z10.540 X-9.450 Y20.823901 F600.000
G1 Z10.713 X-9.450 Y-21.638060
G1 Z10.790 X9.450 Y-21.638774
G1 Z10.963 X9.450 Y20.823934
G1 Z11.000 X0.450 Y20.823131 F600.000
G1 Z11.040 X-9.450 Y21.419648 F600.000
G1 Z11.214 X-9.450 Y-22.138503
G1 Z11.290 X9.450 Y-22.138217
G1 Z11.464 X9.450 Y21.419072
G1 Z11.500 X0.450 Y21.419269 F600.000
G1 Z11.539 X-9.450 Y22.015786 F600.000
G1 Z11.715 X-9.450 Y-22.638336
G1 Z11.789 X9.450 Y-22.638050
G1 Z11.965 X9.450 Y22.015600
G1 Z12.000 X0.450 Y22.015798 F600.000
G1 Z12.038 X-9.450 Y22.611315 F600.000
G1 Z12.215 X-9.450 Y-23.138560
G1 Z12.288 X9.450 Y-23.138274
G1 Z12.465 X9.450 Y22.611519
G1 Z12.500 X0.450 Y22.611716 F600.000
G1 Z12.538 X-9.450 Y23.207233 F600.000
G1 Z12.716 X-9.450 Y-23.638174
G1 Z12.788 X9.450 Y-23.638888
G1 Z12.966 X9.450 Y23.207828
G1 Z13.000 X0.450 Y23.207025 F600.000
G1 Z13.037 X-9.450 Y23.803542 F600.000
G1 Z13.216 X-9.450 Y-24.138178
G1 Z13.287 X9.450 Y-24.138892
G1 Z13.466 X9.450 Y23.803527
G1 Z13.500 X0.450 Y23.803724 F600.000
G1 Z13.536 X-9.450 Y24.398241 F600.000
G1 Z13.717 X-9.450 Y-24.638572
G1 Z13.786 X9.450 Y-24.638286
G1 Z13.967 X9.450 Y24.398617
G1 Z14.000 X0.450 Y24.398814 F600.000
G1 Z14.036 X-9.450 Y24.994331 F600.000
G1 Z14.217 X-9.450 Y-25.138357
G1 Z14.286 X9.450 Y-25.138071
G1 Z14.467 X9.450 Y24.994096
G1 Z14.500 X0.450 Y24.994294 F600.000
G1 Z14.535 X-9.450 Y25.590811 F600.000
G1 Z14.718 X-9.450 Y-25.638531
G1 Z14.785 X9.450 Y-25.638246
G1 Z14.968 X9.450 Y25.590966
G1 Z15.000 X0.450 Y25.590164 F600.000
ID=1 WHEN $AC_TIMER[1]>=0 DO M51
M0
;TURN OFF POWDER!!!
M0
G4F5

;End of Programm--------------------
M55				;home mirror
M30				;program end

; filament used = 228.5mm (1.6cm3)

; avoid_crossing_perimeters = 0
; bed_shape = -150x-150,150x-150,150x150,-150x150
; bed_temperature = 0
; before_layer_gcode = 
; bridge_acceleration = 0
; bridge_fan_speed = 100
; brim_width = 0
; complete_objects = 0
; cooling = 0
; default_acceleration = 0
; disable_fan_first_layers = 3
; duplicate_distance = 6
; end_gcode = M0\n;TURN OFF POWDER!!!\nM0\nG4F5\n\n;End of Programm--------------------\nM55				;home mirror\nM30				;program end\n
; extruder_clearance_height = 20
; extruder_clearance_radius = 20
; extruder_offset = 0x0
; extrusion_axis = E
; extrusion_multiplier = 1
; fan_always_on = 0
; fan_below_layer_time = 60
; filament_colour = #FFFFFF
; filament_diameter = 3
; first_layer_acceleration = 0
; first_layer_bed_temperature = 0
; first_layer_extrusion_width = 0
; first_layer_speed = 100%
; first_layer_temperature = 205
; gcode_arcs = 0
; gcode_comments = 0
; gcode_flavor = reprap
; infill_acceleration = 0
; infill_first = 0
; layer_gcode = 
; max_fan_speed = 100
; max_print_speed = 80
; max_volumetric_speed = 0
; min_fan_speed = 35
; min_print_speed = 33
; min_skirt_length = 0
; notes = 
; nozzle_diameter = 3
; only_retract_when_crossing_perimeters = 0
; ooze_prevention = 0
; output_filename_format = [input_filename_base].gcode
; perimeter_acceleration = 0
; post_process = 
; pressure_advance = 0
; resolution = 0
; retract_before_travel = 2
; retract_layer_change = 0
; retract_length = 0
; retract_length_toolchange = 10
; retract_lift = 0
; retract_restart_extra = 0
; retract_restart_extra_toolchange = 0
; retract_speed = 40
; skirt_distance = 6
; skirt_height = 1
; skirts = 0
; slowdown_below_layer_time = 5
; spiral_vase = 1
; standby_temperature_delta = -5
; start_gcode = $AC_TIMER[1]=0\n\n;General Config.--------------------\nG641			;\nG603			;\nM55			;home mirror\nG4F4			;necessary delay for positioning of the mirror				\nM0			;wait for user-input\n\n;Process Start-up-------------------\nM56			;set canal 1 as laser-source\nG4F4			;necessary delay for positioning of the mirror\nM0			;wait for user-input\n;START POWDER!!!\nG4F15\n\nM0\n\nG54\n
; temperature = 200
; threads = 2
; toolchange_gcode = 
; travel_speed = 33
; use_firmware_retraction = 0
; use_relative_e_distances = 0
; use_volumetric_e = 0
; vibration_limit = 0
; wipe = 0
; z_offset = 0
; dont_support_bridges = 1
; extrusion_width = 1.1
; first_layer_height = 100%
; infill_only_where_needed = 0
; interface_shells = 0
; layer_height = 0.5
; raft_layers = 0
; seam_position = aligned
; support_material = 0
; support_material_angle = 0
; support_material_contact_distance = 0.2
; support_material_enforce_layers = 0
; support_material_extruder = 1
; support_material_extrusion_width = 0
; support_material_interface_extruder = 1
; support_material_interface_layers = 3
; support_material_interface_spacing = 0
; support_material_interface_speed = 100%
; support_material_pattern = pillars
; support_material_spacing = 2.5
; support_material_speed = 60
; support_material_threshold = 0
; xy_size_compensation = 0
; bottom_solid_layers = 0
; bridge_flow_ratio = 1
; bridge_speed = 33.3333
; external_fill_pattern = rectilinear
; external_perimeter_extrusion_width = 0
; external_perimeter_speed = 100%
; external_perimeters_first = 0
; extra_perimeters = 1
; fill_angle = 45
; fill_density = 0%
; fill_pattern = rectilinear
; gap_fill_speed = 33.3333
; infill_every_layers = 1
; infill_extruder = 1
; infill_extrusion_width = 0
; infill_overlap = 15%
; infill_speed = 33.3333
; overhangs = 1
; perimeter_extruder = 1
; perimeter_extrusion_width = 0
; perimeter_speed = 10
; perimeters = 1
; small_perimeter_speed = 100%
; solid_infill_below_area = 70
; solid_infill_every_layers = 0
; solid_infill_extruder = 1
; solid_infill_extrusion_width = 0
; solid_infill_speed = 100%
; thin_walls = 1
; top_infill_extrusion_width = 0
; top_solid_infill_speed = 100%
; top_solid_layers = 0
