; generated by Slic3r 1.2.9 on 2017-06-02 at 15:50:43

; external perimeters extrusion width = 1.10mm
; perimeters extrusion width = 1.10mm
; infill extrusion width = 1.10mm
; solid infill extrusion width = 1.10mm
; top infill extrusion width = 1.10mm

H=2000
$AC_TIMER[1]=0

;General Config.--------------------
G641			;
G603			;
M55			;home mirror
G4F4			;necessary delay for positioning of the mirror				
M0			;wait for user-input

;Process Start-up-------------------
M56			;set canal 1 as laser-source
G4F4			;necessary delay for positioning of the mirror
M0			;wait for user-input
;START POWDER!!!
G4F15

M0

G54

G90 ; use absolute coordinates
G1 X3.380 Y-0.221 F1980.000
ID=1 WHEN $AC_TIMER[1]>=0 DO M50
G1 X3.425 Y0.6843 F600.000
G1 X3.543 Y2.0291
G1 X3.541 Y2.2002
G1 X3.688 Y3.5540
G1 X3.687 Y3.7307
G1 X3.860 Y5.0865
G1 X3.861 Y5.2674
G1 X4.056 Y6.6164
G1 X4.059 Y6.8010
G1 X4.273 Y8.1345
G1 X4.278 Y8.3224
G1 X4.508 Y9.6337
G1 X4.516 Y9.8233
G1 X4.758 Y11.1027
G1 X4.768 Y11.2944
G1 X5.021 Y12.5370
G1 X5.034 Y12.7288
G1 X5.293 Y13.9391
G1 X5.307 Y14.1312
G1 X5.569 Y15.3152
G1 X5.585 Y15.5080
G1 X5.846 Y16.6741
G1 X5.862 Y16.8691
G1 X6.119 Y18.0222
G1 X6.135 Y18.2201
G1 X6.385 Y19.3682
G1 X6.400 Y19.5698
G1 X6.674 Y20.8897
G1 X6.251 Y21.0905
G1 X5.450 Y20.1038
G1 X5.347 Y19.9219
G1 X4.592 Y18.9429
G1 X4.495 Y18.7638
G1 X3.761 Y17.7670
G1 X3.670 Y17.5916
G1 X2.956 Y16.5785
G1 X2.871 Y16.4068
G1 X2.175 Y15.3760
G1 X2.096 Y15.2089
G1 X1.415 Y14.1639
G1 X1.342 Y14.0003
G1 X0.676 Y12.9404
G1 X0.608 Y12.7822
G1 X-0.044 Y11.7088
G1 X-0.108 Y11.5556
G1 X-0.746 Y10.4660
G1 X-0.805 Y10.3209
G1 X-1.428 Y9.2149
G1 X-1.483 Y9.0748
G1 X-2.090 Y7.9513
G1 X-2.141 Y7.8164
G1 X-2.731 Y6.6742
G1 X-2.778 Y6.5456
G1 X-3.351 Y5.3834
G1 X-3.393 Y5.2593
G1 X-3.958 Y4.0538
G1 X-4.530 Y2.7324
G1 X-5.078 Y1.3929
G1 X-5.774 Y-0.4639
G1 X-6.085 Y-1.3765
G1 X-6.370 Y-2.2976
G1 X-6.624 Y-3.2243
G1 X-6.842 Y-4.1561
G1 X-7.019 Y-5.0921
G1 X-7.149 Y-6.0329
G1 X-7.230 Y-6.9760
G1 X-7.253 Y-7.9632
G1 X-7.201 Y-8.9727
G1 X-7.060 Y-9.9796
G1 X-6.816 Y-11.0261
G1 X-6.649 Y-11.5717
G1 X-6.214 Y-12.7292
G1 X-5.666 Y-13.9068
G1 X-5.027 Y-15.0526
G1 X-4.319 Y-16.1138
G1 X-3.569 Y-17.0314
G1 X-2.809 Y-17.7527
G1 X-2.083 Y-18.2236
G1 X-1.441 Y-18.4190
G1 X-0.886 Y-18.3574
G1 X-0.600 Y-18.2239 F600.000
G1 X-0.325 Y-18.0196
G1 X-0.020 Y-17.7218
G1 X0.284 Y-17.3521
G1 X0.581 Y-16.9262
G1 X0.867 Y-16.4554
G1 X1.137 Y-15.9567
G1 X1.631 Y-14.9043
G1 X2.205 Y-13.4388
G1 X2.641 Y-11.9794
G1 X2.942 Y-10.5762
G1 X3.133 Y-9.2117
G1 X3.240 Y-7.8685
G1 X3.285 Y-6.5326
G1 X3.297 Y-2.2546
G1 X3.351 Y-0.6703
H=1800
G1 Z0.505 X3.260 Y0.2447 F600.000
G1 Z0.507 X3.254 Y0.5119
G1 Z0.514 X3.363 Y1.7511
G1 Z0.516 X3.360 Y2.0230
G1 Z0.523 X3.495 Y3.2710
G1 Z0.524 X3.494 Y3.5483
G1 Z0.532 X3.653 Y4.7976
G1 Z0.533 X3.656 Y5.0786
G1 Z0.541 X3.835 Y6.3209
G1 Z0.542 X3.840 Y6.6049
G1 Z0.549 X4.037 Y7.8310
G1 Z0.551 X4.045 Y8.1174
G1 Z0.558 X4.256 Y9.3229
G1 Z0.560 X4.268 Y9.6089
G1 Z0.567 X4.491 Y10.7857
G1 Z0.568 X4.507 Y11.0704
G1 Z0.575 X4.739 Y12.2130
G1 Z0.577 X4.757 Y12.4963
G1 Z0.583 X4.996 Y13.6088
G1 Z0.585 X5.016 Y13.8892
G1 Z0.592 X5.257 Y14.9775
G1 Z0.593 X5.279 Y15.2596
G1 Z0.600 X5.519 Y16.3296
G1 Z0.601 X5.542 Y16.6114
G1 Z0.607 X5.778 Y17.6697
G1 Z0.609 X5.801 Y17.9530
G1 Z0.615 X6.030 Y19.0064
G1 Z0.617 X6.051 Y19.2944
G1 Z0.623 X6.270 Y20.3475
G1 Z0.625 X6.287 Y20.6058
G1 Z0.627 X5.881 Y20.7647
G1 Z0.634 X5.168 Y19.8849
G1 Z0.636 X5.020 Y19.6220
G1 Z0.642 X4.328 Y18.7268
G1 Z0.644 X4.189 Y18.4680
G1 Z0.650 X3.516 Y17.5554
G1 Z0.652 X3.385 Y17.3006
G1 Z0.659 X2.730 Y16.3710
G1 Z0.660 X2.606 Y16.1201
G1 Z0.667 X1.967 Y15.1753
G1 Z0.668 X1.852 Y14.9292
G1 Z0.675 X1.227 Y13.9697
G1 Z0.677 X1.118 Y13.7283
G1 Z0.683 X0.506 Y12.7535
G1 Z0.685 X0.404 Y12.5185
G1 Z0.691 X-0.196 Y11.5299
G1 Z0.693 X-0.292 Y11.3000
G1 Z0.700 X-0.880 Y10.2961
G1 Z0.701 X-0.970 Y10.0743
G1 Z0.708 X-1.545 Y9.0539
G1 Z0.709 X-1.629 Y8.8382
G1 Z0.716 X-2.190 Y7.7993
G1 Z0.717 X-2.268 Y7.5918
G1 Z0.724 X-2.816 Y6.5332
G1 Z0.725 X-2.888 Y6.3301
G1 Z0.732 X-3.420 Y5.2528
G1 Z0.734 X-3.487 Y5.0561
G1 Z0.741 X-4.003 Y3.9550
G1 Z0.742 X-4.065 Y3.7650
G1 Z0.749 X-4.564 Y2.6400
G1 Z0.750 X-4.621 Y2.4577
G1 Z0.757 X-5.109 Y1.2913
G1 Z0.769 X-5.797 Y-0.5708
G1 Z0.774 X-6.103 Y-1.4782
G1 Z0.780 X-6.383 Y-2.3948
G1 Z0.785 X-6.633 Y-3.3161
G1 Z0.791 X-6.848 Y-4.2467
G1 Z0.797 X-7.022 Y-5.1811
G1 Z0.802 X-7.152 Y-6.1241
G1 Z0.808 X-7.231 Y-7.0723
G1 Z0.814 X-7.255 Y-8.0981
G1 Z0.820 X-7.201 Y-9.1572
G1 Z0.826 X-7.060 Y-10.18123
G1 Z0.832 X-6.815 Y-11.24483
G1 Z0.835 X-6.648 Y-11.79636
G1 Z0.843 X-6.212 Y-12.96488
G1 Z0.850 X-5.665 Y-14.14737
G1 Z0.858 X-5.027 Y-15.29561
G1 Z0.865 X-4.321 Y-16.35395
G1 Z0.872 X-3.575 Y-17.26884
G1 Z0.878 X-2.820 Y-17.98387
G1 Z0.883 X-2.100 Y-18.44906
G1 Z0.887 X-1.465 Y-18.64063
G1 Z0.890 X-0.909 Y-18.57891
G1 Z0.892 X-0.644 Y-18.44573 F600.000
G1 Z0.894 X-0.388 Y-18.25514
G1 Z0.896 X-0.089 Y-17.96254
G1 Z0.899 X0.210 Y-17.59953
G1 Z0.902 X0.501 Y-17.17756
G1 Z0.905 X0.782 Y-16.71085
G1 Z0.908 X1.047 Y-16.21432
G1 Z0.915 X1.532 Y-15.16452
G1 Z0.923 X2.075 Y-13.76870
G1 Z0.932 X2.508 Y-12.30201
G1 Z0.941 X2.807 Y-10.89133
G1 Z0.949 X2.997 Y-9.51768
G1 Z0.957 X3.103 Y-8.16689
G1 Z0.964 X3.148 Y-6.82133
G1 Z0.990 X3.142 Y-2.42505
G1 Z1.000 X3.201 Y-0.66003
G1 Z1.004 X3.092 Y-0.03069 F600.000
G1 Z1.006 X3.083 Y0.33750
G1 Z1.012 X3.183 Y1.47355
G1 Z1.015 X3.178 Y1.84673
G1 Z1.021 X3.302 Y2.98844
G1 Z1.023 X3.301 Y3.36693
G1 Z1.030 X3.446 Y4.50881
G1 Z1.032 X3.450 Y4.88952
G1 Z1.039 X3.613 Y6.02408
G1 Z1.041 X3.621 Y6.40793
G1 Z1.048 X3.801 Y7.52869
G1 Z1.050 X3.812 Y7.91158
G1 Z1.057 X4.005 Y9.01205
G1 Z1.059 X4.021 Y9.39489
G1 Z1.065 X4.225 Y10.46762
G1 Z1.067 X4.245 Y10.84629
G1 Z1.074 X4.457 Y11.88894
G1 Z1.076 X4.481 Y12.26333
G1 Z1.082 X4.698 Y13.27711
G1 Z1.084 X4.726 Y13.64827
G1 Z1.090 X4.945 Y14.63953
G1 Z1.092 X4.974 Y15.00957
G1 Z1.098 X5.193 Y15.98366
G1 Z1.100 X5.223 Y16.35370
G1 Z1.106 X5.437 Y17.31597
G1 Z1.108 X5.467 Y17.68714
G1 Z1.114 X5.675 Y18.64491
G1 Z1.116 X5.703 Y19.01935
G1 Z1.122 X5.902 Y19.97695
G1 Z1.123 X5.922 Y20.28461
G1 Z1.126 X5.516 Y20.44320
G1 Z1.132 X4.886 Y19.66551
G1 Z1.134 X4.692 Y19.32402
G1 Z1.140 X4.064 Y18.51019
G1 Z1.142 X3.882 Y18.17314
G1 Z1.148 X3.271 Y17.34348
G1 Z1.150 X3.099 Y17.00987
G1 Z1.156 X2.503 Y16.16446
G1 Z1.159 X2.341 Y15.83426
G1 Z1.165 X1.760 Y14.97417
G1 Z1.167 X1.607 Y14.65037
G1 Z1.173 X1.038 Y13.77565
G1 Z1.175 X0.894 Y13.45623
G1 Z1.181 X0.336 Y12.56696
G1 Z1.183 X0.200 Y12.25489
G1 Z1.189 X-0.348 Y11.35011
G1 Z1.191 X-0.476 Y11.04535
G1 Z1.197 X-1.014 Y10.12613
G1 Z1.199 X-1.134 Y9.82867
G1 Z1.205 X-1.662 Y8.89310
G1 Z1.207 X-1.774 Y8.60296
G1 Z1.213 X-2.291 Y7.64813
G1 Z1.215 X-2.396 Y7.36532
G1 Z1.222 X-2.900 Y6.39134
G1 Z1.223 X-2.999 Y6.11687
G1 Z1.230 X-3.490 Y5.12083
G1 Z1.231 X-3.582 Y4.85371
G1 Z1.238 X-4.059 Y3.83471
G1 Z1.239 X-4.144 Y3.57396
G1 Z1.246 X-4.607 Y2.53010
G1 Z1.248 X-4.686 Y2.27773
G1 Z1.254 X-5.133 Y1.20810
G1 Z1.256 X-5.207 Y0.96120
G1 Z1.261 X-5.501 Y0.21643
G1 Z1.272 X-6.120 Y-1.57977
G1 Z1.277 X-6.396 Y-2.49059
G1 Z1.283 X-6.642 Y-3.40937
G1 Z1.288 X-6.853 Y-4.33613
G1 Z1.294 X-7.026 Y-5.27191
G1 Z1.299 X-7.154 Y-6.21582
G1 Z1.305 X-7.234 Y-7.17224
G1 Z1.308 X-7.255 Y-7.74227
G1 Z1.315 X-7.239 Y-8.83717
G1 Z1.321 X-7.143 Y-9.85384
G1 Z1.327 X-6.950 Y-10.91889
G1 Z1.330 X-6.813 Y-11.46225
G1 Z1.334 X-6.647 Y-12.02225
G1 Z1.341 X-6.211 Y-13.20044
G1 Z1.348 X-5.664 Y-14.38827
G1 Z1.356 X-5.027 Y-15.53756
G1 Z1.363 X-4.324 Y-16.59472
G1 Z1.370 X-3.581 Y-17.50524
G1 Z1.376 X-2.830 Y-18.21578
G1 Z1.381 X-2.115 Y-18.67653
G1 Z1.385 X-1.505 Y-18.86337
G1 Z1.388 X-0.954 Y-18.80225
G1 Z1.390 X-0.684 Y-18.66359 F600.000
G1 Z1.392 X-0.451 Y-18.49192
G1 Z1.394 X-0.157 Y-18.20380
G1 Z1.397 X0.135 Y-17.84626
G1 Z1.400 X0.422 Y-17.42880
G1 Z1.403 X0.697 Y-16.96467
G1 Z1.406 X0.956 Y-16.47278
G1 Z1.413 X1.432 Y-15.42361
G1 Z1.421 X1.945 Y-14.09744
G1 Z1.430 X2.374 Y-12.62610
G1 Z1.438 X2.672 Y-11.20695
G1 Z1.447 X2.862 Y-9.82492
G1 Z1.455 X2.967 Y-8.46375
G1 Z1.462 X3.010 Y-7.10989
G1 Z1.470 X3.015 Y-5.74936
G1 Z1.480 X2.989 Y-4.02359
G1 Z1.487 X3.004 Y-2.96399
G1 Z1.489 X2.988 Y-2.61084
G1 Z1.495 X3.032 Y-1.51200
G1 Z1.497 X3.018 Y-1.15138
G1 Z1.500 X3.051 Y-0.65059
G1 Z1.502 X2.923 Y-0.30426 F600.000
G1 Z1.505 X2.912 Y0.16416
G1 Z1.511 X3.003 Y1.19583
G1 Z1.514 X2.997 Y1.66910
G1 Z1.520 X3.109 Y2.70633
G1 Z1.522 X3.108 Y3.18388
G1 Z1.529 X3.240 Y4.21921
G1 Z1.531 X3.244 Y4.70094
G1 Z1.537 X3.392 Y5.72892
G1 Z1.540 X3.402 Y6.21072
G1 Z1.546 X3.565 Y7.22592
G1 Z1.549 X3.579 Y7.70567
G1 Z1.555 X3.754 Y8.70167
G1 Z1.558 X3.774 Y9.17924
G1 Z1.564 X3.958 Y10.15061
G1 Z1.566 X3.983 Y10.62388
G1 Z1.572 X4.175 Y11.56433
G1 Z1.575 X4.205 Y12.03117
G1 Z1.580 X4.401 Y12.94688
G1 Z1.583 X4.435 Y13.40736
G1 Z1.588 X4.633 Y14.30165
G1 Z1.591 X4.669 Y14.75992
G1 Z1.596 X4.866 Y15.63711
G1 Z1.599 X4.903 Y16.09432
G1 Z1.604 X5.097 Y16.96271
G1 Z1.607 X5.133 Y17.42003
G1 Z1.612 X5.320 Y18.28292
G1 Z1.615 X5.355 Y18.74450
G1 Z1.620 X5.533 Y19.60520
G1 Z1.622 X5.557 Y19.96339
G1 Z1.624 X5.151 Y20.12297
G1 Z1.630 X4.603 Y19.44608
G1 Z1.632 X4.365 Y19.02599
G1 Z1.638 X3.801 Y18.29483
G1 Z1.641 X3.576 Y17.87712
G1 Z1.646 X3.026 Y17.13118
G1 Z1.649 X2.814 Y16.71882
G1 Z1.654 X2.277 Y15.95717
G1 Z1.657 X2.077 Y15.54915
G1 Z1.662 X1.552 Y14.77485
G1 Z1.665 X1.363 Y14.37015
G1 Z1.670 X0.849 Y13.58129
G1 Z1.673 X0.670 Y13.18389
G1 Z1.678 X0.165 Y12.38052
G1 Z1.681 X-0.004 Y11.99038
G1 Z1.687 X-0.500 Y11.17258
G1 Z1.689 X-0.660 Y10.79065
G1 Z1.695 X-1.148 Y9.95650
G1 Z1.697 X-1.299 Y9.58277
G1 Z1.703 X-1.779 Y8.73236
G1 Z1.705 X-1.920 Y8.36785
G1 Z1.711 X-2.391 Y7.49729
G1 Z1.713 X-2.524 Y7.14001
G1 Z1.719 X-2.984 Y6.25040
G1 Z1.721 X-3.109 Y5.90237
G1 Z1.727 X-3.559 Y4.98982
G1 Z1.729 X-3.676 Y4.64905
G1 Z1.735 X-4.115 Y3.71366
G1 Z1.737 X-4.223 Y3.38117
G1 Z1.743 X-4.650 Y2.42004
G1 Z1.745 X-4.751 Y2.09685
G1 Z1.752 X-5.164 Y1.10808
G1 Z1.753 X-5.258 Y0.79126
G1 Z1.758 X-5.525 Y0.11719
G1 Z1.769 X-6.138 Y-1.68154
G1 Z1.774 X-6.409 Y-2.58691
G1 Z1.780 X-6.651 Y-3.50135
G1 Z1.785 X-6.859 Y-4.42589
G1 Z1.791 X-7.029 Y-5.36061
G1 Z1.797 X-7.156 Y-6.30664
G1 Z1.802 X-7.235 Y-7.26837
G1 Z1.806 X-7.258 Y-7.87177
G1 Z1.812 X-7.240 Y-9.01293
G1 Z1.819 X-7.143 Y-10.04680
G1 Z1.825 X-6.949 Y-11.12905
G1 Z1.828 X-6.812 Y-11.68097
G1 Z1.832 X-6.645 Y-12.24744
G1 Z1.839 X-6.210 Y-13.43530
G1 Z1.847 X-5.664 Y-14.62948
G1 Z1.855 X-5.028 Y-15.78082
G1 Z1.862 X-4.326 Y-16.83579
G1 Z1.869 X-3.586 Y-17.74296
G1 Z1.875 X-2.841 Y-18.44699
G1 Z1.880 X-2.134 Y-18.90198
G1 Z1.883 X-1.514 Y-19.08341
G1 Z1.886 X-1.056 Y-19.03274
G1 Z1.887 X-0.982 Y-19.01704 F600.000
G1 Z1.888 X-0.724 Y-18.88250
G1 Z1.890 X-0.515 Y-18.72777
G1 Z1.892 X-0.226 Y-18.44512
G1 Z1.895 X0.061 Y-18.09204
G1 Z1.898 X0.342 Y-17.67909
G1 Z1.901 X0.612 Y-17.22054
G1 Z1.904 X0.866 Y-16.73029
G1 Z1.911 X1.333 Y-15.68376
G1 Z1.919 X1.812 Y-14.43561
G1 Z1.921 X1.918 Y-14.01887
G1 Z1.928 X2.242 Y-12.94651
G1 Z1.936 X2.537 Y-11.52165
G1 Z1.944 X2.726 Y-10.13023
G1 Z1.952 X2.830 Y-8.76069
G1 Z1.960 X2.872 Y-7.39841
G1 Z1.968 X2.876 Y-6.03233
G1 Z1.979 X2.841 Y-4.20099
G1 Z1.985 X2.855 Y-3.23668
G1 Z1.987 X2.834 Y-2.78355
G1 Z1.993 X2.873 Y-1.78471
G1 Z1.996 X2.857 Y-1.32315
G1 Z2.000 X2.901 Y-0.64113
G1 Z2.004 X2.741 Y-0.00979 F600.000
G1 Z2.009 X2.823 Y0.91710
G1 Z2.013 X2.815 Y1.49245
G1 Z2.018 X2.916 Y2.42320
G1 Z2.021 X2.915 Y3.00180
G1 Z2.027 X3.033 Y3.93059
G1 Z2.030 X3.039 Y4.51032
G1 Z2.036 X3.171 Y5.43374
G1 Z2.039 X3.183 Y6.01347
G1 Z2.045 X3.329 Y6.92214
G1 Z2.048 X3.346 Y7.50073
G1 Z2.053 X3.502 Y8.39125
G1 Z2.057 X3.527 Y8.96456
G1 Z2.062 X3.691 Y9.83258
G1 Z2.065 X3.721 Y10.39945
G1 Z2.070 X3.892 Y11.24070
G1 Z2.074 X3.928 Y11.79898
G1 Z2.078 X4.103 Y12.61562
G1 Z2.082 X4.144 Y13.16643
G1 Z2.087 X4.320 Y13.96375
G1 Z2.090 X4.364 Y14.50925
G1 Z2.094 X4.539 Y15.29153
G1 Z2.098 X4.584 Y15.83691
G1 Z2.102 X4.756 Y16.60843
G1 Z2.106 X4.799 Y17.15488
G1 Z2.110 X4.966 Y17.92090
G1 Z2.113 X5.007 Y18.47063
G1 Z2.118 X5.165 Y19.23442
G1 Z2.120 X5.192 Y19.64214
G1 Z2.123 X4.786 Y19.80173
G1 Z2.127 X4.321 Y19.22662
G1 Z2.131 X4.038 Y18.72794
G1 Z2.136 X3.537 Y18.07946
G1 Z2.139 X3.269 Y17.58208
G1 Z2.144 X2.781 Y16.92085
G1 Z2.147 X2.528 Y16.42775
G1 Z2.152 X2.051 Y15.75185
G1 Z2.155 X1.812 Y15.26302
G1 Z2.160 X1.345 Y14.57351
G1 Z2.163 X1.118 Y14.09192
G1 Z2.168 X0.660 Y13.38790
G1 Z2.171 X0.446 Y12.91151
G1 Z2.176 X-0.005 Y12.19306
G1 Z2.179 X-0.207 Y11.72684
G1 Z2.184 X-0.652 Y10.99303
G1 Z2.187 X-0.844 Y10.53492
G1 Z2.192 X-1.282 Y9.78684
G1 Z2.195 X-1.464 Y9.33784
G1 Z2.200 X-1.895 Y8.57159
G1 Z2.203 X-2.066 Y8.13172
G1 Z2.208 X-2.491 Y7.34642
G1 Z2.211 X-2.652 Y6.91568
G1 Z2.216 X-3.069 Y6.10944
G1 Z2.219 X-3.220 Y5.68785
G1 Z2.224 X-3.629 Y4.85879
G1 Z2.227 X-3.770 Y4.44637
G1 Z2.232 X-4.170 Y3.59258
G1 Z2.235 X-4.302 Y3.18936
G1 Z2.240 X-4.693 Y2.30995
G1 Z2.243 X-4.816 Y1.91593
G1 Z2.249 X-5.195 Y1.00803
G1 Z2.251 X-5.310 Y0.62229
G1 Z2.255 X-5.556 Y0.00023
G1 Z2.256 X-5.627 Y-0.25046
G1 Z2.260 X-5.864 Y-0.88397
G1 Z2.262 X-5.929 Y-1.13193
G1 Z2.266 X-6.157 Y-1.78775
G1 Z2.272 X-6.422 Y-2.68229
G1 Z2.277 X-6.660 Y-3.59339
G1 Z2.283 X-6.865 Y-4.51572
G1 Z2.288 X-7.033 Y-5.45039
G1 Z2.294 X-7.158 Y-6.39853
G1 Z2.300 X-7.237 Y-7.36030
G1 Z2.306 X-7.263 Y-8.50900
G1 Z2.313 X-7.203 Y-9.70399
G1 Z2.320 X-7.058 Y-10.78669
G1 Z2.326 X-6.811 Y-11.89974
G1 Z2.330 X-6.644 Y-12.47268
G1 Z2.337 X-6.208 Y-13.67122
G1 Z2.345 X-5.663 Y-14.87073
G1 Z2.353 X-5.028 Y-16.02213
G1 Z2.360 X-4.329 Y-17.07692
G1 Z2.367 X-3.592 Y-17.97872
G1 Z2.373 X-2.852 Y-18.67825
G1 Z2.378 X-2.151 Y-19.12664
G1 Z2.382 X-1.538 Y-19.30450
G1 Z2.384 X-1.134 Y-19.25901
G1 Z2.385 X-1.007 Y-19.23316 F600.000
G1 Z2.386 X-0.852 Y-19.15822
G1 Z2.388 X-0.575 Y-18.96016
G1 Z2.390 X-0.295 Y-18.68667
G1 Z2.393 X-0.013 Y-18.33904
G1 Z2.396 X0.262 Y-17.93161
G1 Z2.399 X0.527 Y-17.47564
G1 Z2.402 X0.776 Y-16.98804
G1 Z2.409 X1.226 Y-15.96084
G1 Z2.416 X1.683 Y-14.76191
G1 Z2.419 X1.816 Y-14.23788
G1 Z2.425 X2.109 Y-13.26896
G1 Z2.434 X2.402 Y-11.83658
G1 Z2.442 X2.590 Y-10.43677
G1 Z2.450 X2.693 Y-9.05885
G1 Z2.458 X2.735 Y-7.68714
G1 Z2.467 X2.736 Y-6.31272
G1 Z2.475 X2.719 Y-4.93074
G1 Z2.478 X2.693 Y-4.38415
G1 Z2.483 X2.705 Y-3.50960
G1 Z2.486 X2.680 Y-2.95551
G1 Z2.492 X2.715 Y-2.05765
G1 Z2.495 X2.695 Y-1.49416
G1 Z2.500 X2.751 Y-0.63192
G1 Z2.503 X2.570 Y-0.18370 F600.000
G1 Z2.508 X2.643 Y0.63964
G1 Z2.512 X2.634 Y1.31508
G1 Z2.516 X2.723 Y2.14034
G1 Z2.520 X2.722 Y2.81901
G1 Z2.525 X2.827 Y3.64124
G1 Z2.529 X2.833 Y4.32199
G1 Z2.534 X2.950 Y5.13783
G1 Z2.538 X2.964 Y5.81551
G1 Z2.543 X3.093 Y6.61962
G1 Z2.547 X3.113 Y7.29407
G1 Z2.552 X3.251 Y8.08012
G1 Z2.556 X3.279 Y8.75016
G1 Z2.560 X3.424 Y9.51482
G1 Z2.564 X3.460 Y10.17529
G1 Z2.569 X3.610 Y10.91634
G1 Z2.573 X3.652 Y11.56607
G1 Z2.577 X3.806 Y12.28464
G1 Z2.581 X3.853 Y12.92577
G1 Z2.585 X4.008 Y13.62512
G1 Z2.589 X4.059 Y14.26085
G1 Z2.593 X4.212 Y14.94623
G1 Z2.597 X4.264 Y15.57878
G1 Z2.601 X4.415 Y16.25442
G1 Z2.604 X4.465 Y16.88702
G1 Z2.608 X4.611 Y17.55716
G1 Z2.612 X4.658 Y18.19504
G1 Z2.616 X4.797 Y18.86292
G1 Z2.619 X4.827 Y19.32116
G1 Z2.622 X4.422 Y19.47975
G1 Z2.625 X4.039 Y19.00744
G1 Z2.629 X3.711 Y18.42816
G1 Z2.633 X3.274 Y17.86336
G1 Z2.637 X2.963 Y17.28731
G1 Z2.641 X2.537 Y16.70879
G1 Z2.645 X2.242 Y16.13696
G1 Z2.650 X1.825 Y15.54480
G1 Z2.653 X1.547 Y14.97716
G1 Z2.658 X1.137 Y14.37245
G1 Z2.661 X0.874 Y13.81196
G1 Z2.666 X0.471 Y13.19378
G1 Z2.669 X0.222 Y12.63942
G1 Z2.674 X-0.175 Y12.00687
G1 Z2.677 X-0.411 Y11.46158
G1 Z2.682 X-0.804 Y10.81475
G1 Z2.685 X-1.028 Y10.27947
G1 Z2.690 X-1.417 Y9.61645
G1 Z2.693 X-1.628 Y9.09119
G1 Z2.698 X-2.012 Y8.41010
G1 Z2.701 X-2.212 Y7.89586
G1 Z2.705 X-2.591 Y7.19482
G1 Z2.709 X-2.779 Y6.69062
G1 Z2.713 X-3.153 Y5.96775
G1 Z2.717 X-3.330 Y5.47361
G1 Z2.721 X-3.698 Y4.72703
G1 Z2.725 X-3.864 Y4.24396
G1 Z2.730 X-4.226 Y3.47178
G1 Z2.732 X-4.381 Y2.99782
G1 Z2.738 X-4.735 Y2.19915
G1 Z2.741 X-4.881 Y1.73530
G1 Z2.746 X-5.226 Y0.90825
G1 Z2.749 X-5.362 Y0.45260
G1 Z2.752 X-5.587 Y-0.11654
G1 Z2.754 X-5.670 Y-0.41210
G1 Z2.758 X-5.891 Y-1.00238
G1 Z2.769 X-6.435 Y-2.78207
G1 Z2.774 X-6.669 Y-3.68558
G1 Z2.780 X-6.871 Y-4.60571
G1 Z2.785 X-7.036 Y-5.53931
G1 Z2.791 X-7.160 Y-6.48958
G1 Z2.797 X-7.239 Y-7.45566
G1 Z2.804 X-7.265 Y-8.64310
G1 Z2.811 X-7.204 Y-9.88755
G1 Z2.818 X-7.058 Y-10.98748
G1 Z2.825 X-6.810 Y-12.11768
G1 Z2.828 X-6.644 Y-12.69376
G1 Z2.833 X-6.369 Y-13.41504
G1 Z2.836 X-6.204 Y-13.91280
G1 Z2.844 X-5.662 Y-15.11118
G1 Z2.851 X-5.028 Y-16.26563
G1 Z2.859 X-4.331 Y-17.31724
G1 Z2.866 X-3.598 Y-18.21567
G1 Z2.872 X-2.862 Y-18.90970
G1 Z2.877 X-2.168 Y-19.35249
G1 Z2.880 X-1.562 Y-19.52678
G1 Z2.882 X-1.213 Y-19.48746
G1 Z2.883 X-1.039 Y-19.45189 F600.000
G1 Z2.884 X-0.910 Y-19.38897
G1 Z2.886 X-0.638 Y-19.19545
G1 Z2.888 X-0.363 Y-18.92736
G1 Z2.891 X-0.088 Y-18.58518
G1 Z2.894 X0.182 Y-18.18226
G1 Z2.897 X0.439 Y-17.73545
G1 Z2.904 X0.918 Y-16.72969
G1 Z2.914 X1.553 Y-15.09107
G1 Z2.918 X1.714 Y-14.45603
G1 Z2.923 X1.976 Y-13.59155
G1 Z2.932 X2.267 Y-12.15264
G1 Z2.940 X2.454 Y-10.74345
G1 Z2.948 X2.557 Y-9.35515
G1 Z2.957 X2.597 Y-7.97601
G1 Z2.973 X2.575 Y-5.20284
G1 Z2.977 X2.545 Y-4.56098
G1 Z2.981 X2.556 Y-3.78165
G1 Z2.985 X2.525 Y-3.12858
G1 Z2.990 X2.557 Y-2.32971
G1 Z2.994 X2.533 Y-1.66629
G1 Z2.999 X2.586 Y-0.85353
G1 Z3.000 X2.581 Y-0.63581
G1 Z3.002 X2.399 Y-0.35672 F600.000
G1 Z3.006 X2.463 Y0.36129
G1 Z3.011 X2.453 Y1.13881
G1 Z3.015 X2.531 Y1.85759
G1 Z3.019 X2.529 Y2.63632
G1 Z3.024 X2.620 Y3.35200
G1 Z3.028 X2.627 Y4.13276
G1 Z3.033 X2.729 Y4.84103
G1 Z3.037 X2.745 Y5.61865
G1 Z3.041 X2.857 Y6.31522
G1 Z3.046 X2.880 Y7.08852
G1 Z3.050 X3.000 Y7.77009
G1 Z3.055 X3.032 Y8.53588
G1 Z3.059 X3.157 Y9.19718
G1 Z3.063 X3.198 Y9.95225
G1 Z3.067 X3.328 Y10.59109
G1 Z3.072 X3.376 Y11.33328
G1 Z3.075 X3.509 Y11.95377
G1 Z3.080 X3.562 Y12.68323
G1 Z3.083 X3.696 Y13.28660
G1 Z3.088 X3.753 Y14.01057
G1 Z3.091 X3.886 Y14.60003
G1 Z3.095 X3.944 Y15.32076
G1 Z3.099 X4.074 Y15.90153
G1 Z3.103 X4.131 Y16.62127
G1 Z3.107 X4.256 Y17.19554
G1 Z3.111 X4.310 Y17.92056
G1 Z3.115 X4.429 Y18.49153
G1 Z3.118 X4.462 Y19.00030
G1 Z3.120 X4.057 Y19.15889
G1 Z3.123 X3.756 Y18.78836
G1 Z3.128 X3.383 Y18.13049
G1 Z3.131 X3.010 Y17.64737
G1 Z3.136 X2.657 Y16.99166
G1 Z3.139 X2.292 Y16.49685
G1 Z3.144 X1.957 Y15.84528
G1 Z3.147 X1.599 Y15.33787
G1 Z3.152 X1.282 Y14.69141
G1 Z3.155 X0.930 Y14.17149
G1 Z3.159 X0.630 Y13.53211
G1 Z3.163 X0.283 Y12.99978
G1 Z3.167 X-0.002 Y12.36743
G1 Z3.171 X-0.345 Y11.82079
G1 Z3.175 X-0.615 Y11.19742
G1 Z3.179 X-0.956 Y10.63658
G1 Z3.183 X-1.212 Y10.02413
G1 Z3.187 X-1.551 Y9.44618
G1 Z3.191 X-1.793 Y8.84564
G1 Z3.195 X-2.129 Y8.24972
G1 Z3.199 X-2.358 Y7.66011
G1 Z3.203 X-2.691 Y7.04334
G1 Z3.207 X-2.907 Y6.46567
G1 Z3.211 X-3.238 Y5.82618
G1 Z3.214 X-3.441 Y5.25947
G1 Z3.219 X-3.768 Y4.59638
G1 Z3.222 X-3.959 Y4.04067
G1 Z3.227 X-4.281 Y3.35110
G1 Z3.230 X-4.460 Y2.80639
G1 Z3.235 X-4.778 Y2.08945
G1 Z3.238 X-4.945 Y1.55477
G1 Z3.243 X-5.257 Y0.80858
G1 Z3.246 X-5.413 Y0.28302
G1 Z3.249 X-5.617 Y-0.23396
G1 Z3.252 X-5.714 Y-0.57485
G1 Z3.255 X-5.915 Y-1.11113
G1 Z3.266 X-6.445 Y-2.86905
G1 Z3.268 X-6.520 Y-3.21488
G1 Z3.272 X-6.679 Y-3.78439
G1 Z3.277 X-6.877 Y-4.69588
G1 Z3.283 X-7.040 Y-5.62942
G1 Z3.288 X-7.163 Y-6.58081
G1 Z3.294 X-7.240 Y-7.55120
G1 Z3.301 X-7.268 Y-8.77840
G1 Z3.306 X-7.243 Y-9.54197
G1 Z3.309 X-7.204 Y-10.07232
G1 Z3.316 X-7.057 Y-11.18946
G1 Z3.319 X-6.948 Y-11.75486
G1 Z3.323 X-6.809 Y-12.33584
G1 Z3.326 X-6.643 Y-12.91734
G1 Z3.331 X-6.397 Y-13.56599
G1 Z3.334 X-6.203 Y-14.14706
G1 Z3.342 X-5.661 Y-15.35283
G1 Z3.350 X-5.029 Y-16.50733
G1 Z3.357 X-4.334 Y-17.55876
G1 Z3.364 X-3.604 Y-18.45283
G1 Z3.370 X-2.873 Y-19.14136
G1 Z3.375 X-2.185 Y-19.57854
G1 Z3.379 X-1.586 Y-19.74727
G1 Z3.380 X-1.291 Y-19.71413
G1 Z3.382 X-1.072 Y-19.66984 F600.000
G1 Z3.382 X-0.968 Y-19.61993
G1 Z3.384 X-0.700 Y-19.43095
G1 Z3.387 X-0.432 Y-19.16826
G1 Z3.389 X-0.162 Y-18.83253
G1 Z3.392 X0.102 Y-18.43313
G1 Z3.395 X0.350 Y-17.99735
G1 Z3.398 X0.595 Y-17.50309
G1 Z3.400 X0.684 Y-17.26871
G1 Z3.402 X0.825 Y-16.98307
G1 Z3.412 X1.423 Y-15.42056
G1 Z3.416 X1.612 Y-14.67648
G1 Z3.421 X1.842 Y-13.91343
G1 Z3.430 X2.132 Y-12.46701
G1 Z3.438 X2.318 Y-11.04943
G1 Z3.446 X2.420 Y-9.65275
G1 Z3.455 X2.460 Y-8.26519
G1 Z3.471 X2.432 Y-5.47797
G1 Z3.476 X2.397 Y-4.73611
G1 Z3.480 X2.406 Y-4.05499
G1 Z3.484 X2.371 Y-3.30096
G1 Z3.488 X2.399 Y-2.60108
G1 Z3.493 X2.372 Y-1.83872
G1 Z3.497 X2.418 Y-1.12775
G1 Z3.500 X2.406 Y-0.63900
G1 Z3.504 X2.282 Y0.08418 F600.000
G1 Z3.510 X2.271 Y0.96179
G1 Z3.513 X2.338 Y1.57409
G1 Z3.519 X2.336 Y2.45488
G1 Z3.522 X2.414 Y3.06301
G1 Z3.527 X2.422 Y3.94378
G1 Z3.531 X2.508 Y4.54548
G1 Z3.536 X2.526 Y5.42105
G1 Z3.540 X2.621 Y6.01207
G1 Z3.545 X2.648 Y6.88322
G1 Z3.549 X2.748 Y7.45932
G1 Z3.554 X2.785 Y8.32083
G1 Z3.557 X2.891 Y8.87978
G1 Z3.562 X2.936 Y9.72845
G1 Z3.565 X3.046 Y10.26709
G1 Z3.570 X3.100 Y11.10073
G1 Z3.574 X3.211 Y11.62215
G1 Z3.579 X3.272 Y12.44293
G1 Z3.582 X3.384 Y12.94833
G1 Z3.586 X3.448 Y13.76053
G1 Z3.590 X3.559 Y14.25409
G1 Z3.594 X3.625 Y15.06299
G1 Z3.597 X3.733 Y15.54788
G1 Z3.602 X3.797 Y16.35576
G1 Z3.605 X3.901 Y16.83316
G1 Z3.610 X3.962 Y17.64532
G1 Z3.613 X4.061 Y18.12039
G1 Z3.616 X4.097 Y18.67969
G1 Z3.619 X3.692 Y18.83728
G1 Z3.621 X3.474 Y18.56954
G1 Z3.626 X3.056 Y17.83107
G1 Z3.629 X2.747 Y17.43163
G1 Z3.634 X2.350 Y16.69625
G1 Z3.637 X2.047 Y16.28415
G1 Z3.642 X1.671 Y15.55485
G1 Z3.645 X1.373 Y15.13119
G1 Z3.650 X1.017 Y14.40691
G1 Z3.653 X0.723 Y13.97179
G1 Z3.658 X0.385 Y13.25251
G1 Z3.661 X0.094 Y12.80502
G1 Z3.665 X-0.226 Y12.09569
G1 Z3.669 X-0.516 Y11.63396
G1 Z3.673 X-0.819 Y10.93352
G1 Z3.677 X-1.108 Y10.45765
G1 Z3.681 X-1.396 Y9.76904
G1 Z3.684 X-1.685 Y9.27615
G1 Z3.689 X-1.957 Y8.59935
G1 Z3.692 X-2.246 Y8.08859
G1 Z3.697 X-2.504 Y7.42461
G1 Z3.700 X-2.792 Y6.89210
G1 Z3.704 X-3.035 Y6.24097
G1 Z3.708 X-3.322 Y5.68585
G1 Z3.712 X-3.551 Y5.04459
G1 Z3.716 X-3.837 Y4.46598
G1 Z3.720 X-4.053 Y3.83762
G1 Z3.724 X-4.337 Y3.23066
G1 Z3.728 X-4.539 Y2.61421
G1 Z3.732 X-4.821 Y1.97800
G1 Z3.736 X-5.010 Y1.37450
G1 Z3.740 X-5.288 Y0.70817
G1 Z3.744 X-5.465 Y0.11469
G1 Z3.747 X-5.648 Y-0.34963
G1 Z3.749 X-5.758 Y-0.73685
G1 Z3.752 X-5.939 Y-1.22012
G1 Z3.763 X-6.458 Y-2.96504
G1 Z3.765 X-6.543 Y-3.35932
G1 Z3.769 X-6.688 Y-3.87705
G1 Z3.774 X-6.882 Y-4.78527
G1 Z3.780 X-7.043 Y-5.71876
G1 Z3.786 X-7.165 Y-6.67226
G1 Z3.791 X-7.242 Y-7.64797
G1 Z3.799 X-7.270 Y-8.91392
G1 Z3.804 X-7.244 Y-9.71736
G1 Z3.807 X-7.205 Y-10.25630
G1 Z3.814 X-7.057 Y-11.39066
G1 Z3.817 X-6.947 Y-11.96466
G1 Z3.821 X-6.808 Y-12.55318
G1 Z3.825 X-6.642 Y-13.14210
G1 Z3.828 X-6.424 Y-13.71413
G1 Z3.832 X-6.202 Y-14.38250
G1 Z3.840 X-5.660 Y-15.59367
G1 Z3.848 X-5.029 Y-16.75023
G1 Z3.856 X-4.336 Y-17.79948
G1 Z3.863 X-3.610 Y-18.68918
G1 Z3.869 X-2.883 Y-19.37221
G1 Z3.873 X-2.203 Y-19.80378
G1 Z3.877 X-1.611 Y-19.96995
G1 Z3.879 X-1.369 Y-19.94298
G1 Z3.880 X-1.105 Y-19.88797 F600.000
G1 Z3.881 X-1.026 Y-19.84909
G1 Z3.883 X-0.762 Y-19.66568
G1 Z3.885 X-0.501 Y-19.41032
G1 Z3.887 X-0.237 Y-19.07908
G1 Z3.890 X0.022 Y-18.68518
G1 Z3.893 X0.265 Y-18.25111
G1 Z3.896 X0.506 Y-17.75864
G1 Z3.898 X0.608 Y-17.48891
G1 Z3.900 X0.731 Y-17.24128
G1 Z3.909 X1.293 Y-15.74918
G1 Z3.914 X1.510 Y-14.89507
G1 Z3.919 X1.709 Y-14.23646
G1 Z3.927 X1.997 Y-12.78251
G1 Z3.936 X2.182 Y-11.35555
G1 Z3.944 X2.284 Y-9.95049
G1 Z3.953 X2.322 Y-8.55451
G1 Z3.969 X2.288 Y-5.75323
G1 Z3.975 X2.249 Y-4.91139
G1 Z3.978 X2.257 Y-4.32648
G1 Z3.983 X2.217 Y-3.47348
G1 Z3.987 X2.241 Y-2.87359
G1 Z3.992 X2.210 Y-2.01030
G1 Z3.995 X2.250 Y-1.40111
G1 Z4.000 X2.231 Y-0.64333
G1 Z4.003 X2.102 Y-0.19496 F600.000
G1 Z4.008 X2.090 Y0.78465
G1 Z4.012 X2.145 Y1.29147
G1 Z4.017 X2.143 Y2.27232
G1 Z4.020 X2.207 Y2.77489
G1 Z4.026 X2.216 Y3.75468
G1 Z4.029 X2.287 Y4.24981
G1 Z4.035 X2.307 Y5.22432
G1 Z4.038 X2.385 Y5.70979
G1 Z4.044 X2.415 Y6.67779
G1 Z4.047 X2.497 Y7.14942
G1 Z4.053 X2.537 Y8.10667
G1 Z4.055 X2.624 Y8.56226
G1 Z4.061 X2.674 Y9.50453
G1 Z4.064 X2.763 Y9.94397
G1 Z4.069 X2.823 Y10.86805
G1 Z4.072 X2.914 Y11.29141
G1 Z4.077 X2.981 Y12.20151
G1 Z4.080 X3.071 Y12.61094
G1 Z4.085 X3.143 Y13.51137
G1 Z4.088 X3.232 Y13.90902
G1 Z4.093 X3.305 Y14.80409
G1 Z4.095 X3.392 Y15.19311
G1 Z4.101 X3.463 Y16.08813
G1 Z4.103 X3.547 Y16.47165
G1 Z4.109 X3.614 Y17.37096
G1 Z4.111 X3.692 Y17.74912
G1 Z4.115 X3.733 Y18.36657
G1 Z4.118 X3.278 Y18.50291
G1 Z4.124 X2.729 Y17.53314
G1 Z4.127 X2.483 Y17.21538
G1 Z4.132 X2.044 Y16.40133
G1 Z4.135 X1.802 Y16.07295
G1 Z4.140 X1.385 Y15.26391
G1 Z4.143 X1.147 Y14.92400
G1 Z4.148 X0.752 Y14.12091
G1 Z4.150 X0.515 Y13.77058
G1 Z4.156 X0.141 Y12.97340
G1 Z4.158 X-0.095 Y12.61176
G1 Z4.164 X-0.450 Y11.82245
G1 Z4.166 X-0.686 Y11.44662
G1 Z4.171 X-1.023 Y10.66911
G1 Z4.174 X-1.260 Y10.27823
G1 Z4.179 X-1.580 Y9.51344
G1 Z4.182 X-1.819 Y9.10662
G1 Z4.187 X-2.122 Y8.35455
G1 Z4.190 X-2.363 Y7.92795
G1 Z4.194 X-2.649 Y7.18860
G1 Z4.197 X-2.892 Y6.74036
G1 Z4.202 X-3.163 Y6.01476
G1 Z4.205 X-3.406 Y5.54301
G1 Z4.210 X-3.662 Y4.83020
G1 Z4.213 X-3.907 Y4.33408
G1 Z4.218 X-4.147 Y3.63306
G1 Z4.221 X-4.393 Y3.10971
G1 Z4.225 X-4.618 Y2.42252
G1 Z4.229 X-4.864 Y1.86805
G1 Z4.233 X-5.075 Y1.19371
G1 Z4.237 X-5.319 Y0.60824
G1 Z4.241 X-5.517 Y-0.05685
G1 Z4.244 X-5.679 Y-0.46580
G1 Z4.247 X-5.801 Y-0.89834
G1 Z4.249 X-5.962 Y-1.32861
G1 Z4.260 X-6.471 Y-3.06253
G1 Z4.263 X-6.567 Y-3.50425
G1 Z4.266 X-6.697 Y-3.97021
G1 Z4.271 X-6.888 Y-4.87516
G1 Z4.277 X-7.047 Y-5.80860
G1 Z4.283 X-7.167 Y-6.76322
G1 Z4.289 X-7.244 Y-7.74648
G1 Z4.293 X-7.271 Y-8.52188
G1 Z4.300 X-7.259 Y-9.58028
G1 Z4.305 X-7.205 Y-10.44396
G1 Z4.312 X-7.056 Y-11.59235
G1 Z4.315 X-6.946 Y-12.17495
G1 Z4.319 X-6.807 Y-12.77102
G1 Z4.323 X-6.640 Y-13.36637
G1 Z4.326 X-6.451 Y-13.86478
G1 Z4.331 X-6.201 Y-14.61645
G1 Z4.339 X-5.659 Y-15.83401
G1 Z4.347 X-5.030 Y-16.99363
G1 Z4.354 X-4.339 Y-18.03970
G1 Z4.361 X-3.616 Y-18.92603
G1 Z4.367 X-2.894 Y-19.60355
G1 Z4.372 X-2.220 Y-20.02952
G1 Z4.375 X-1.635 Y-20.19013
G1 Z4.376 X-1.448 Y-20.16934
G1 Z4.378 X-1.115 Y-20.10021 F600.000
G1 Z4.381 X-0.825 Y-19.90092
G1 Z4.383 X-0.569 Y-19.65102
G1 Z4.385 X-0.311 Y-19.32619
G1 Z4.388 X-0.058 Y-18.93681
G1 Z4.391 X0.186 Y-18.49617
G1 Z4.394 X0.412 Y-18.02675
G1 Z4.396 X0.533 Y-17.70770
G1 Z4.398 X0.633 Y-17.50650
G1 Z4.400 X0.740 Y-17.18805
G1 Z4.401 X0.833 Y-16.98573
G1 Z4.403 X0.930 Y-16.66995
G1 Z4.407 X1.164 Y-16.07486
G1 Z4.413 X1.408 Y-15.11535
G1 Z4.416 X1.576 Y-14.55817
G1 Z4.425 X1.862 Y-13.09770
G1 Z4.434 X2.047 Y-11.66135
G1 Z4.442 X2.147 Y-10.24792
G1 Z4.451 X2.184 Y-8.84351
G1 Z4.468 X2.145 Y-6.03570
G1 Z4.482 X2.063 Y-3.64563
G1 Z4.485 X2.083 Y-3.14674
G1 Z4.491 X2.048 Y-2.18151
G1 Z4.494 X2.081 Y-1.67511
G1 Z4.500 X2.064 Y-0.62961
G1 Z4.501 X1.922 Y-0.47270 F600.000
G1 Z4.507 X1.909 Y0.60748
G1 Z4.510 X1.952 Y1.00881
G1 Z4.516 X1.950 Y2.08972
G1 Z4.519 X2.000 Y2.48574
G1 Z4.525 X2.010 Y3.56555
G1 Z4.528 X2.066 Y3.95310
G1 Z4.534 X2.088 Y5.02755
G1 Z4.536 X2.149 Y5.40648
G1 Z4.543 X2.182 Y6.47133
G1 Z4.545 X2.246 Y6.83848
G1 Z4.551 X2.290 Y7.89147
G1 Z4.554 X2.357 Y8.24471
G1 Z4.560 X2.412 Y9.28057
G1 Z4.562 X2.481 Y9.61981
G1 Z4.568 X2.547 Y10.63534
G1 Z4.570 X2.616 Y10.95963
G1 Z4.576 X2.690 Y11.96006
G1 Z4.578 X2.759 Y12.27251
G1 Z4.584 X2.838 Y13.26117
G1 Z4.586 X2.905 Y13.56392
G1 Z4.592 X2.986 Y14.54616
G1 Z4.594 X3.051 Y14.84030
G1 Z4.600 X3.130 Y15.82246
G1 Z4.601 X3.192 Y16.10911
G1 Z4.607 X3.266 Y17.09557
G1 Z4.609 X3.324 Y17.37882
G1 Z4.613 X3.365 Y17.99631
G1 Z4.616 X2.910 Y18.13264
G1 Z4.622 X2.402 Y17.23505
G1 Z4.624 X2.220 Y16.99996
G1 Z4.630 X1.737 Y16.10526
G1 Z4.632 X1.557 Y15.86159
G1 Z4.638 X1.100 Y14.97180
G1 Z4.640 X0.921 Y14.71764
G1 Z4.646 X0.487 Y13.83474
G1 Z4.648 X0.308 Y13.56920
G1 Z4.653 X-0.103 Y12.69313
G1 Z4.655 X-0.284 Y12.41633
G1 Z4.661 X-0.674 Y11.55004
G1 Z4.663 X-0.856 Y11.26012
G1 Z4.669 X-1.227 Y10.40553
G1 Z4.671 X-1.412 Y10.09963
G1 Z4.676 X-1.764 Y9.25867
G1 Z4.679 X-1.953 Y8.93593
G1 Z4.684 X-2.287 Y8.10858
G1 Z4.686 X-2.479 Y7.76614
G1 Z4.692 X-2.795 Y6.95243
G1 Z4.694 X-2.992 Y6.58945
G1 Z4.699 X-3.290 Y5.78939
G1 Z4.702 X-3.491 Y5.40202
G1 Z4.707 X-3.772 Y4.61664
G1 Z4.710 X-3.976 Y4.20201
G1 Z4.715 X-4.241 Y3.43034
G1 Z4.718 X-4.448 Y2.98860
G1 Z4.723 X-4.697 Y2.23067
G1 Z4.726 X-4.906 Y1.75893
G1 Z4.730 X-5.140 Y1.01276
G1 Z4.734 X-5.350 Y0.50816
G1 Z4.738 X-5.569 Y-0.22585
G1 Z4.741 X-5.710 Y-0.58280
G1 Z4.744 X-5.845 Y-1.06066
G1 Z4.746 X-5.986 Y-1.43793
G1 Z4.757 X-6.484 Y-3.15985
G1 Z4.760 X-6.590 Y-3.64902
G1 Z4.762 X-6.706 Y-4.06320
G1 Z4.768 X-6.894 Y-4.96589
G1 Z4.774 X-7.051 Y-5.89727
G1 Z4.780 X-7.169 Y-6.85401
G1 Z4.786 X-7.246 Y-7.84258
G1 Z4.790 X-7.273 Y-8.65037
G1 Z4.797 X-7.262 Y-9.72157
G1 Z4.802 X-7.205 Y-10.62728
G1 Z4.809 X-7.056 Y-11.79387
G1 Z4.813 X-6.945 Y-12.38408
G1 Z4.817 X-6.805 Y-12.99070
G1 Z4.821 X-6.639 Y-13.59047
G1 Z4.829 X-6.200 Y-14.85121
G1 Z4.837 X-5.659 Y-16.07517
G1 Z4.845 X-5.030 Y-17.23585
G1 Z4.852 X-4.341 Y-18.28073
G1 Z4.859 X-3.621 Y-19.16370
G1 Z4.865 X-2.904 Y-19.83572
G1 Z4.870 X-2.237 Y-20.25508
G1 Z4.873 X-1.659 Y-20.41213
G1 Z4.874 X-1.526 Y-20.39752
G1 Z4.877 X-1.158 Y-20.32189 F600.000
G1 Z4.878 X-0.888 Y-20.13691
G1 Z4.881 X-0.638 Y-19.89240
G1 Z4.883 X-0.385 Y-19.57201
G1 Z4.886 X-0.138 Y-19.18814
G1 Z4.889 X0.101 Y-18.75109
G1 Z4.892 X0.326 Y-18.27410
G1 Z4.895 X0.534 Y-17.77980
G1 Z4.898 X0.659 Y-17.40830
G1 Z4.899 X0.735 Y-17.24211
G1 Z4.901 X0.843 Y-16.88904
G1 Z4.904 X1.035 Y-16.40282
G1 Z4.911 X1.306 Y-15.33419
G1 Z4.914 X1.443 Y-14.88145
G1 Z4.923 X1.727 Y-13.41246
G1 Z4.931 X1.911 Y-11.96872
G1 Z4.940 X2.011 Y-10.54491
G1 Z4.949 X2.047 Y-9.13208
G1 Z4.957 X2.037 Y-7.72305
G1 Z4.966 X2.001 Y-6.30938
G1 Z4.981 X1.909 Y-3.81560
G1 Z4.983 X1.925 Y-3.41852
G1 Z4.989 X1.886 Y-2.35335
G1 Z4.992 X1.913 Y-1.94975
G1 Z4.998 X1.887 Y-0.87617
G1 Z5.000 X1.910 Y-0.61554
G1 Z5.006 X1.727 Y0.43009 F600.000
G1 Z5.008 X1.759 Y0.72594
G1 Z5.015 X1.757 Y1.90791
G1 Z5.017 X1.794 Y2.19638
G1 Z5.024 X1.805 Y3.37520
G1 Z5.026 X1.845 Y3.65718
G1 Z5.033 X1.869 Y4.83058
G1 Z5.035 X1.913 Y5.10396
G1 Z5.042 X1.949 Y6.26666
G1 Z5.043 X1.994 Y6.52833
G1 Z5.050 X2.043 Y7.67606
G1 Z5.052 X2.090 Y7.92794
G1 Z5.059 X2.151 Y9.05741
G1 Z5.060 X2.199 Y9.29444
G1 Z5.067 X2.271 Y10.40342
G1 Z5.069 X2.319 Y10.62864
G1 Z5.075 X2.399 Y11.71939
G1 Z5.076 X2.447 Y11.93488
G1 Z5.083 X2.533 Y13.01177
G1 Z5.084 X2.579 Y13.21761
G1 Z5.091 X2.666 Y14.28801
G1 Z5.092 X2.710 Y14.48629
G1 Z5.099 X2.796 Y15.55559
G1 Z5.100 X2.837 Y15.74737
G1 Z5.111 X2.997 Y17.62572
G1 Z5.114 X2.542 Y17.76106
G1 Z5.120 X2.074 Y16.93664
G1 Z5.121 X1.956 Y16.78323
G1 Z5.128 X1.431 Y15.81086
G1 Z5.129 X1.312 Y15.64990
G1 Z5.136 X0.814 Y14.68038
G1 Z5.137 X0.695 Y14.51197
G1 Z5.143 X0.222 Y13.54825
G1 Z5.145 X0.100 Y13.36850
G1 Z5.151 X-0.348 Y12.41454
G1 Z5.153 X-0.473 Y12.22259
G1 Z5.159 X-0.898 Y11.27831
G1 Z5.160 X-1.027 Y11.07330
G1 Z5.166 X-1.430 Y10.14164
G1 Z5.168 X-1.564 Y9.92173
G1 Z5.174 X-1.948 Y9.00359
G1 Z5.176 X-2.087 Y8.76591
G1 Z5.182 X-2.451 Y7.86230
G1 Z5.183 X-2.596 Y7.60502
G1 Z5.189 X-2.941 Y6.71794
G1 Z5.191 X-3.092 Y6.43822
G1 Z5.197 X-3.418 Y5.56470
G1 Z5.199 X-3.575 Y5.26070
G1 Z5.204 X-3.883 Y4.40277
G1 Z5.207 X-4.046 Y4.07162
G1 Z5.212 X-4.335 Y3.22731
G1 Z5.214 X-4.504 Y2.86817
G1 Z5.220 X-4.776 Y2.03850
G1 Z5.222 X-4.949 Y1.64749
G1 Z5.228 X-5.204 Y0.83250
G1 Z5.230 X-5.381 Y0.40875
G1 Z5.235 X-5.620 Y-0.39453
G1 Z5.237 X-5.741 Y-0.69848
G1 Z5.241 X-5.889 Y-1.22267
G1 Z5.243 X-6.010 Y-1.54593
G1 Z5.254 X-6.498 Y-3.25685
G1 Z5.257 X-6.614 Y-3.79447
G1 Z5.259 X-6.715 Y-4.15688
G1 Z5.265 X-6.900 Y-5.05530
G1 Z5.271 X-7.054 Y-5.98663
G1 Z5.276 X-7.172 Y-6.94649
G1 Z5.282 X-7.248 Y-7.93837
G1 Z5.288 X-7.276 Y-8.78054
G1 Z5.294 X-7.265 Y-9.86355
G1 Z5.300 X-7.206 Y-10.81129
G1 Z5.307 X-7.055 Y-11.99508
G1 Z5.311 X-6.944 Y-12.59489
G1 Z5.315 X-6.804 Y-13.20806
G1 Z5.319 X-6.636 Y-13.82384
G1 Z5.327 X-6.200 Y-15.08346
G1 Z5.335 X-5.658 Y-16.31604
G1 Z5.343 X-5.030 Y-17.47877
G1 Z5.350 X-4.344 Y-18.52148
G1 Z5.357 X-3.627 Y-19.39908
G1 Z5.363 X-2.915 Y-20.06660
G1 Z5.368 X-2.254 Y-20.48035
G1 Z5.372 X-1.683 Y-20.63383
G1 Z5.372 X-1.605 Y-20.62441
G1 Z5.374 X-1.233 Y-20.54705 F600.000
G1 Z5.376 X-0.944 Y-20.36506
G1 Z5.379 X-0.707 Y-20.13331
G1 Z5.381 X-0.460 Y-19.81937
G1 Z5.384 X-0.217 Y-19.43902
G1 Z5.387 X0.015 Y-19.00654
G1 Z5.390 X0.236 Y-18.53322
G1 Z5.393 X0.442 Y-18.03132
G1 Z5.396 X0.630 Y-17.52058
G1 Z5.399 X0.756 Y-17.11068
G1 Z5.402 X0.905 Y-16.73034
G1 Z5.409 X1.204 Y-15.55358
G1 Z5.411 X1.310 Y-15.20328
G1 Z5.420 X1.593 Y-13.72778
G1 Z5.429 X1.775 Y-12.27465
G1 Z5.438 X1.874 Y-10.84247
G1 Z5.446 X1.909 Y-9.42221
G1 Z5.455 X1.898 Y-8.00566
G1 Z5.480 X1.755 Y-3.98989
G1 Z5.481 X1.767 Y-3.69085
G1 Z5.488 X1.725 Y-2.52575
G1 Z5.490 X1.744 Y-2.22493
G1 Z5.497 X1.716 Y-1.04944
G1 Z5.500 X1.741 Y-0.61780
G1 Z5.505 X1.546 Y0.25309 F600.000
G1 Z5.506 X1.566 Y0.44246
G1 Z5.514 X1.564 Y1.72449
G1 Z5.515 X1.587 Y1.90741
G1 Z5.523 X1.599 Y3.18624
G1 Z5.524 X1.624 Y3.36165
G1 Z5.532 X1.650 Y4.63399
G1 Z5.533 X1.677 Y4.80082
G1 Z5.541 X1.716 Y6.06038
G1 Z5.542 X1.743 Y6.21758
G1 Z5.549 X1.795 Y7.46204
G1 Z5.550 X1.823 Y7.60957
G1 Z5.558 X1.889 Y8.83363
G1 Z5.559 X1.917 Y8.97046
G1 Z5.566 X1.994 Y10.17090
G1 Z5.567 X2.022 Y10.29704
G1 Z5.574 X2.109 Y11.47712
G1 Z5.575 X2.135 Y11.59983
G1 Z5.606 X2.586 Y16.60476
G1 Z5.610 X2.631 Y17.26953
G1 Z5.613 X2.179 Y17.40773
G1 Z5.626 X1.068 Y15.43755
G1 Z5.634 X0.529 Y14.38928
G1 Z5.634 X0.468 Y14.30462
G1 Z5.641 X-0.043 Y13.26209
G1 Z5.642 X-0.107 Y13.16814
G1 Z5.649 X-0.592 Y12.13527
G1 Z5.650 X-0.661 Y12.02817
G1 Z5.657 X-1.122 Y11.00691
G1 Z5.657 X-1.197 Y10.88681
G1 Z5.664 X-1.634 Y9.87708
G1 Z5.665 X-1.716 Y9.74214
G1 Z5.672 X-2.132 Y8.74884
G1 Z5.673 X-2.221 Y8.59523
G1 Z5.679 X-2.616 Y7.61634
G1 Z5.680 X-2.713 Y7.44423
G1 Z5.687 X-3.087 Y6.48178
G1 Z5.688 X-3.192 Y6.28632
G1 Z5.694 X-3.546 Y5.33934
G1 Z5.696 X-3.660 Y5.11971
G1 Z5.702 X-3.993 Y4.18722
G1 Z5.704 X-4.115 Y3.94057
G1 Z5.709 X-4.430 Y3.02460
G1 Z5.711 X-4.559 Y2.74707
G1 Z5.717 X-4.855 Y1.84666
G1 Z5.719 X-4.992 Y1.53738
G1 Z5.725 X-5.269 Y0.65156
G1 Z5.727 X-5.412 Y0.30867
G1 Z5.733 X-5.672 Y-0.56453
G1 Z5.734 X-5.771 Y-0.81549
G1 Z5.738 X-5.932 Y-1.38401
G1 Z5.740 X-6.033 Y-1.65426
G1 Z5.751 X-6.512 Y-3.35859
G1 Z5.756 X-6.722 Y-4.23913
G1 Z5.762 X-6.905 Y-5.14402
G1 Z5.767 X-7.058 Y-6.07629
G1 Z5.773 X-7.174 Y-7.03727
G1 Z5.779 X-7.249 Y-8.03124
G1 Z5.788 X-7.280 Y-9.45318
G1 Z5.794 X-7.249 Y-10.41577
G1 Z5.801 X-7.142 Y-11.58844
G1 Z5.809 X-6.942 Y-12.80935
G1 Z5.813 X-6.803 Y-13.42671
G1 Z5.817 X-6.635 Y-14.04896
G1 Z5.825 X-6.199 Y-15.31827
G1 Z5.833 X-5.657 Y-16.55720
G1 Z5.841 X-5.031 Y-17.72099
G1 Z5.849 X-4.347 Y-18.76252
G1 Z5.856 X-3.633 Y-19.63675
G1 Z5.862 X-2.925 Y-20.29876
G1 Z5.866 X-2.271 Y-20.70691
G1 Z5.870 X-1.703 Y-20.85620
G1 Z5.873 X-1.244 Y-20.76108
G1 Z5.874 X-1.013 Y-20.60664 F600.000
G1 Z5.876 X-0.776 Y-20.37589
G1 Z5.879 X-0.534 Y-20.06639
G1 Z5.882 X-0.297 Y-19.69155
G1 Z5.885 X-0.070 Y-19.26266
G1 Z5.891 X0.346 Y-18.29463
G1 Z5.899 X0.773 Y-17.06789
G1 Z5.909 X1.175 Y-15.53604
G1 Z5.918 X1.458 Y-14.04373
G1 Z5.927 X1.639 Y-12.58022
G1 Z5.936 X1.738 Y-11.13966
G1 Z5.944 X1.772 Y-9.71198
G1 Z5.953 X1.758 Y-8.29076
G1 Z5.978 X1.601 Y-4.17777
G1 Z5.996 X1.545 Y-1.22137
G1 Z5.998 X1.562 Y-1.02898
G1 Z6.000 X1.557 Y-0.62064
G1 Z6.013 X1.371 Y1.51342 F600.000
G1 Z6.031 X1.430 Y4.40336
G1 Z6.040 X1.482 Y5.82313
G1 Z6.057 X1.625 Y8.57456
G1 Z6.073 X1.815 Y11.19832
G1 Z6.108 X2.270 Y16.86981
G1 Z6.111 X1.813 Y17.01033
G1 Z6.123 X0.842 Y15.25991
G1 Z6.131 X0.259 Y14.13111
G1 Z6.139 X-0.298 Y13.00249
G1 Z6.154 X-1.353 Y10.73131
G1 Z6.169 X-2.344 Y8.45375
G1 Z6.177 X-2.818 Y7.31439
G1 Z6.184 X-3.233 Y6.24588
G1 Z6.185 X-3.292 Y6.13569
G1 Z6.191 X-3.674 Y5.11424
G1 Z6.192 X-3.744 Y4.97898
G1 Z6.199 X-4.104 Y3.97393
G1 Z6.200 X-4.185 Y3.80977
G1 Z6.207 X-4.524 Y2.82015
G1 Z6.208 X-4.615 Y2.62623
G1 Z6.214 X-4.934 Y1.65407
G1 Z6.216 X-5.035 Y1.42753
G1 Z6.222 X-5.334 Y0.47088
G1 Z6.224 X-5.444 Y0.20796
G1 Z6.235 X-5.978 Y-1.55091
G1 Z6.236 X-6.057 Y-1.76279
G1 Z6.247 X-6.525 Y-3.45406
G1 Z6.253 X-6.731 Y-4.33127
G1 Z6.258 X-6.911 Y-5.23496
G1 Z6.264 X-7.061 Y-6.16519
G1 Z6.270 X-7.176 Y-7.12829
G1 Z6.276 X-7.251 Y-8.12657
G1 Z6.285 X-7.283 Y-9.58826
G1 Z6.291 X-7.250 Y-10.59172
G1 Z6.299 X-7.142 Y-11.78157
G1 Z6.306 X-6.941 Y-13.01969
G1 Z6.310 X-6.802 Y-13.64460
G1 Z6.314 X-6.633 Y-14.27333
G1 Z6.323 X-6.198 Y-15.55333
G1 Z6.331 X-5.656 Y-16.79761
G1 Z6.339 X-5.031 Y-17.96346
G1 Z6.347 X-4.349 Y-19.00380
G1 Z6.354 X-3.639 Y-19.87367
G1 Z6.360 X-2.936 Y-20.52918
G1 Z6.364 X-2.288 Y-20.93171
G1 Z6.368 X-1.740 Y-21.07448
G1 Z6.371 X-1.262 Y-20.96591
G1 Z6.372 X-1.075 Y-20.84167 F600.000
G1 Z6.374 X-0.844 Y-20.61629
G1 Z6.377 X-0.609 Y-20.31323
G1 Z6.379 X-0.377 Y-19.94391
G1 Z6.382 X-0.155 Y-19.51761
G1 Z6.389 X0.250 Y-18.55498
G1 Z6.396 X0.643 Y-17.39875
G1 Z6.406 X1.042 Y-15.85938
G1 Z6.415 X1.323 Y-14.35862
G1 Z6.424 X1.503 Y-12.88672
G1 Z6.433 X1.601 Y-11.43678
G1 Z6.442 X1.634 Y-10.00067
G1 Z6.451 X1.618 Y-8.57294
G1 Z6.477 X1.447 Y-4.35252
G1 Z6.495 X1.375 Y-1.42042
G1 Z6.500 X1.374 Y-0.62063
G1 Z6.512 X1.208 Y1.34457 F600.000
G1 Z6.530 X1.261 Y4.22697
G1 Z6.539 X1.309 Y5.64141
G1 Z6.556 X1.450 Y8.38317
G1 Z6.572 X1.639 Y10.99939
G1 Z6.607 X2.097 Y16.64403
G1 Z6.610 X1.642 Y16.77936
G1 Z6.613 X1.332 Y16.23060
G1 Z6.629 X0.142 Y13.97193
G1 Z6.637 X-0.414 Y12.84322
G1 Z6.652 X-1.472 Y10.57121
G1 Z6.668 X-2.464 Y8.29364
G1 Z6.683 X-3.382 Y6.01327
G1 Z6.698 X-4.246 Y3.70157
G1 Z6.706 X-4.662 Y2.53180
G1 Z6.713 X-5.013 Y1.46278
G1 Z6.714 X-5.077 Y1.31697
G1 Z6.720 X-5.399 Y0.29049
G1 Z6.721 X-5.475 Y0.10648
G1 Z6.734 X-6.076 Y-1.85549
G1 Z6.745 X-6.538 Y-3.55087
G1 Z6.750 X-6.739 Y-4.42376
G1 Z6.756 X-6.917 Y-5.32425
G1 Z6.762 X-7.065 Y-6.25542
G1 Z6.768 X-7.178 Y-7.22064
G1 Z6.774 X-7.253 Y-8.22224
G1 Z6.783 X-7.285 Y-9.72367
G1 Z6.790 X-7.251 Y-10.76702
G1 Z6.797 X-7.142 Y-11.97304
G1 Z6.805 X-6.941 Y-13.22937
G1 Z6.809 X-6.801 Y-13.86283
G1 Z6.813 X-6.632 Y-14.49804
G1 Z6.822 X-6.196 Y-15.78972
G1 Z6.830 X-5.655 Y-17.03836
G1 Z6.838 X-5.031 Y-18.20526
G1 Z6.846 X-4.352 Y-19.24443
G1 Z6.853 X-3.645 Y-20.11093
G1 Z6.858 X-2.947 Y-20.76093
G1 Z6.863 X-2.306 Y-21.15785
G1 Z6.867 X-1.775 Y-21.29329
G1 Z6.869 X-1.317 Y-21.19421
G1 Z6.871 X-1.138 Y-21.07629 F600.000
G1 Z6.873 X-0.913 Y-20.85728
G1 Z6.875 X-0.684 Y-20.56066
G1 Z6.878 X-0.457 Y-20.19584
G1 Z6.881 X-0.240 Y-19.77314
G1 Z6.887 X0.155 Y-18.81589
G1 Z6.894 X0.513 Y-17.72919
G1 Z6.904 X0.909 Y-16.18233
G1 Z6.913 X1.188 Y-14.67310
G1 Z6.922 X1.368 Y-13.19281
G1 Z6.931 X1.465 Y-11.73349
G1 Z6.940 X1.496 Y-10.28996
G1 Z6.949 X1.479 Y-8.85473
G1 Z6.976 X1.294 Y-4.52403
G1 Z6.994 X1.217 Y-1.58638
G1 Z7.000 X1.214 Y-0.62022
G1 Z7.011 X1.108 Y1.20649 F600.000
G1 Z7.029 X1.149 Y4.07385
G1 Z7.038 X1.191 Y5.48174
G1 Z7.055 X1.317 Y8.20635
G1 Z7.071 X1.493 Y10.80847
G1 Z7.101 X1.878 Y15.65480
G1 Z7.105 X1.922 Y16.39816
G1 Z7.108 X1.470 Y16.53331
G1 Z7.112 X1.203 Y16.06700
G1 Z7.127 X0.035 Y13.81896
G1 Z7.135 X-0.511 Y12.69565
G1 Z7.150 X-1.549 Y10.43439
G1 Z7.166 X-2.522 Y8.16762
G1 Z7.181 X-3.443 Y5.88542
G1 Z7.196 X-4.303 Y3.60645
G1 Z7.204 X-4.717 Y2.41220
G1 Z7.219 X-5.500 Y0.02838
G1 Z7.232 X-6.100 Y-1.96233
G1 Z7.243 X-6.551 Y-3.64674
G1 Z7.248 X-6.748 Y-4.51531
G1 Z7.254 X-6.923 Y-5.41460
G1 Z7.260 X-7.068 Y-6.34472
G1 Z7.266 X-7.180 Y-7.31107
G1 Z7.272 X-7.255 Y-8.32119
G1 Z7.278 X-7.286 Y-9.29993
G1 Z7.285 X-7.278 Y-10.35389
G1 Z7.292 X-7.207 Y-11.54800
G1 Z7.300 X-7.054 Y-12.80157
G1 Z7.304 X-6.941 Y-13.43478
G1 Z7.308 X-6.800 Y-14.08015
G1 Z7.312 X-6.631 Y-14.72384
G1 Z7.320 X-6.195 Y-16.02421
G1 Z7.329 X-5.654 Y-17.27919
G1 Z7.337 X-5.033 Y-18.44595
G1 Z7.345 X-4.355 Y-19.46600
G1 Z7.351 X-3.650 Y-20.32078
G1 Z7.357 X-2.956 Y-20.96322
G1 Z7.362 X-2.320 Y-21.35564
G1 Z7.365 X-1.811 Y-21.48453
G1 Z7.368 X-1.369 Y-21.39616
G1 Z7.369 X-1.191 Y-21.28010 F600.000
G1 Z7.371 X-0.976 Y-21.07115
G1 Z7.373 X-0.751 Y-20.77809
G1 Z7.376 X-0.529 Y-20.41693
G1 Z7.379 X-0.316 Y-19.99698
G1 Z7.385 X0.072 Y-19.03949
G1 Z7.392 X0.407 Y-17.99457
G1 Z7.402 X0.799 Y-16.45791
G1 Z7.411 X1.081 Y-14.93655
G1 Z7.421 X1.264 Y-13.44412
G1 Z7.430 X1.366 Y-11.97458
G1 Z7.439 X1.403 Y-10.45344
G1 Z7.448 X1.388 Y-9.00324
G1 Z7.475 X1.211 Y-4.64270
G1 Z7.493 X1.128 Y-1.71346
G1 Z7.500 X1.120 Y-0.62116
G1 Z7.510 X1.008 Y1.06777 F600.000
G1 Z7.528 X1.037 Y3.92333
G1 Z7.536 X1.080 Y5.09674
G1 Z7.537 X1.072 Y5.30331
G1 Z7.544 X1.128 Y6.46599
G1 Z7.545 X1.121 Y6.67465
G1 Z7.552 X1.189 Y7.80525
G1 Z7.554 X1.184 Y8.01594
G1 Z7.560 X1.263 Y9.11434
G1 Z7.562 X1.260 Y9.32399
G1 Z7.599 X1.703 Y15.34713
G1 Z7.601 X1.702 Y15.56545
G1 Z7.604 X1.745 Y16.14212
G1 Z7.607 X1.290 Y16.28253
G1 Z7.618 X0.498 Y14.80422
G1 Z7.619 X0.418 Y14.60437
G1 Z7.625 X-0.063 Y13.68428
G1 Z7.627 X-0.137 Y13.49083
G1 Z7.633 X-0.601 Y12.56272
G1 Z7.634 X-0.669 Y12.37659
G1 Z7.641 X-1.119 Y11.43963
G1 Z7.642 X-1.181 Y11.26274
G1 Z7.648 X-1.618 Y10.31410
G1 Z7.650 X-1.674 Y10.14835
G1 Z7.656 X-2.102 Y9.18723
G1 Z7.657 X-2.151 Y9.03550
G1 Z7.664 X-2.581 Y8.04059
G1 Z7.679 X-3.482 Y5.77391
G1 Z7.694 X-4.338 Y3.47323
G1 Z7.710 X-5.150 Y1.12194
G1 Z7.717 X-5.530 Y-0.06961
G1 Z7.730 X-6.123 Y-2.06915
G1 Z7.741 X-6.563 Y-3.74260
G1 Z7.747 X-6.757 Y-4.60785
G1 Z7.752 X-6.929 Y-5.50494
G1 Z7.758 X-7.072 Y-6.43401
G1 Z7.764 X-7.183 Y-7.40248
G1 Z7.770 X-7.256 Y-8.41791
G1 Z7.777 X-7.289 Y-9.42902
G1 Z7.783 X-7.279 Y-10.52170
G1 Z7.791 X-7.208 Y-11.73291
G1 Z7.799 X-7.053 Y-13.00271
G1 Z7.803 X-6.940 Y-13.64452
G1 Z7.807 X-6.799 Y-14.29631
G1 Z7.811 X-6.629 Y-14.93152
G1 Z7.820 X-6.188 Y-16.19978
G1 Z7.828 X-5.645 Y-17.42595
G1 Z7.836 X-5.023 Y-18.56940
G1 Z7.844 X-4.347 Y-19.58823
G1 Z7.850 X-3.647 Y-20.43855
G1 Z7.856 X-2.957 Y-21.07549
G1 Z7.861 X-2.327 Y-21.46342
G1 Z7.864 X-1.821 Y-21.59211
G1 Z7.867 X-1.420 Y-21.50989
G1 Z7.868 X-1.210 Y-21.38018 F600.000
G1 Z7.870 X-1.017 Y-21.19211
G1 Z7.872 X-0.795 Y-20.90368
G1 Z7.875 X-0.576 Y-20.54609
G1 Z7.878 X-0.366 Y-20.13175
G1 Z7.884 X0.017 Y-19.18262
G1 Z7.891 X0.347 Y-18.14133
G1 Z7.900 X0.721 Y-16.67183
G1 Z7.910 X1.002 Y-15.15043
G1 Z7.919 X1.186 Y-13.65706
G1 Z7.928 X1.288 Y-12.18659
G1 Z7.938 X1.326 Y-10.57010
G1 Z7.946 X1.314 Y-9.28251
G1 Z7.955 X1.268 Y-7.83988
G1 Z7.974 X1.128 Y-4.76217
G1 Z7.992 X1.038 Y-1.84048
G1 Z8.000 X1.025 Y-0.62201
G1 Z8.008 X0.925 Y0.63329 F600.000
G1 Z8.010 X0.908 Y0.91937
G1 Z8.017 X0.925 Y2.06049
G1 Z8.019 X0.909 Y2.34767
G1 Z8.026 X0.938 Y3.46950
G1 Z8.027 X0.925 Y3.75773
G1 Z8.034 X0.965 Y4.85705
G1 Z8.036 X0.953 Y5.14530
G1 Z8.043 X1.005 Y6.22087
G1 Z8.044 X0.996 Y6.50809
G1 Z8.051 X1.059 Y7.55471
G1 Z8.053 X1.052 Y7.84183
G1 Z8.059 X1.125 Y8.85738
G1 Z8.061 X1.121 Y9.14133
G1 Z8.083 X1.368 Y12.61265
G1 Z8.084 X1.368 Y12.89871
G1 Z8.090 X1.451 Y13.83909
G1 Z8.092 X1.451 Y14.12405
G1 Z8.098 X1.529 Y15.06003
G1 Z8.100 X1.528 Y15.34823
G1 Z8.103 X1.569 Y15.89791
G1 Z8.106 X1.114 Y16.03632
G1 Z8.108 X0.956 Y15.76163
G1 Z8.110 X0.840 Y15.48754
G1 Z8.116 X0.380 Y14.64586
G1 Z8.118 X0.272 Y14.37715
G1 Z8.124 X-0.171 Y13.52936
G1 Z8.125 X-0.272 Y13.26898
G1 Z8.131 X-0.700 Y12.41222
G1 Z8.133 X-0.792 Y12.15909
G1 Z8.139 X-1.207 Y11.29352
G1 Z8.141 X-1.292 Y11.05157
G1 Z8.147 X-1.697 Y10.17438
G1 Z8.148 X-1.774 Y9.94350
G1 Z8.154 X-2.171 Y9.05387
G1 Z8.156 X-2.241 Y8.83596
G1 Z8.162 X-2.631 Y7.93112
G1 Z8.163 X-2.694 Y7.72801
G1 Z8.169 X-3.079 Y6.80622
G1 Z8.171 X-3.135 Y6.62179
G1 Z8.177 X-3.522 Y5.65864
G1 Z8.192 X-4.361 Y3.37354
G1 Z8.200 X-4.763 Y2.21658
G1 Z8.216 X-5.540 Y-0.15576
G1 Z8.229 X-6.147 Y-2.17914
G1 Z8.239 X-6.576 Y-3.83848
G1 Z8.245 X-6.766 Y-4.69941
G1 Z8.251 X-6.934 Y-5.59330
G1 Z8.256 X-7.075 Y-6.52332
G1 Z8.262 X-7.185 Y-7.49491
G1 Z8.269 X-7.258 Y-8.51046
G1 Z8.279 X-7.293 Y-10.12814
G1 Z8.286 X-7.254 Y-11.29613
G1 Z8.293 X-7.153 Y-12.44412
G1 Z8.298 X-7.048 Y-13.16740
G1 Z8.302 X-6.930 Y-13.79632
G1 Z8.306 X-6.784 Y-14.43098
G1 Z8.310 X-6.612 Y-15.05982
G1 Z8.318 X-6.172 Y-16.33027
G1 Z8.327 X-5.631 Y-17.55529
G1 Z8.335 X-5.011 Y-18.69645
G1 Z8.343 X-4.339 Y-19.71088
G1 Z8.349 X-3.643 Y-20.55575
G1 Z8.355 X-2.959 Y-21.18819
G1 Z8.360 X-2.336 Y-21.57054
G1 Z8.363 X-1.831 Y-21.69607
G1 Z8.366 X-1.422 Y-21.61242
G1 Z8.367 X-1.241 Y-21.49168 F600.000
G1 Z8.369 X-1.058 Y-21.31264
G1 Z8.371 X-0.838 Y-21.02883
G1 Z8.373 X-0.623 Y-20.67781
G1 Z8.376 X-0.416 Y-20.26609
G1 Z8.383 X-0.039 Y-19.32531
G1 Z8.389 X0.287 Y-18.28766
G1 Z8.398 X0.642 Y-16.88431
G1 Z8.408 X0.923 Y-15.36388
G1 Z8.417 X1.107 Y-13.87147
G1 Z8.428 X1.219 Y-12.15057
G1 Z8.436 X1.249 Y-10.93960
G1 Z8.445 X1.238 Y-9.49035
G1 Z8.454 X1.193 Y-8.04774
G1 Z8.473 X1.045 Y-4.88227
G1 Z8.492 X0.948 Y-1.96897
G1 Z8.500 X0.923 Y-0.62437
G1 Z8.506 X0.830 Y0.41207 F600.000
G1 Z8.509 X0.808 Y0.78213
G1 Z8.515 X0.824 Y1.83389
G1 Z8.518 X0.804 Y2.20396
G1 Z8.524 X0.830 Y3.23650
G1 Z8.527 X0.813 Y3.60652
G1 Z8.533 X0.850 Y4.61863
G1 Z8.535 X0.835 Y4.98755
G1 Z8.541 X0.883 Y5.97502
G1 Z8.544 X0.871 Y6.34279
G1 Z8.550 X0.928 Y7.30443
G1 Z8.552 X0.920 Y7.667198
G1 Z8.558 X0.986 Y8.601769
G1 Z8.560 X0.981 Y8.960293
G1 Z8.566 X1.055 Y9.868693
G1 Z8.568 X1.053 Y10.225194
G1 Z8.574 X1.130 Y11.113455
G1 Z8.576 X1.130 Y11.467943
G1 Z8.581 X1.208 Y12.340099
G1 Z8.584 X1.208 Y12.695587
G1 Z8.589 X1.284 Y13.558670
G1 Z8.591 X1.284 Y13.914169
G1 Z8.597 X1.356 Y14.771211
G1 Z8.599 X1.354 Y15.131736
G1 Z8.602 X1.393 Y15.654423
G1 Z8.605 X0.902 Y15.774970
G1 Z8.609 X0.682 Y15.256922
G1 Z8.614 X0.261 Y14.486080
G1 Z8.617 X0.126 Y14.150622
G1 Z8.622 X-0.280 Y13.374774
G1 Z8.624 X-0.406 Y13.046242
G1 Z8.630 X-0.798 Y12.261401
G1 Z8.632 X-0.915 Y11.942789
G1 Z8.637 X-1.296 Y11.148972
G1 Z8.639 X-1.404 Y10.839270
G1 Z8.645 X-1.775 Y10.034495
G1 Z8.647 X-1.875 Y9.737695
G1 Z8.653 X-2.239 Y8.919981
G1 Z8.654 X-2.331 Y8.636071
G1 Z8.660 X-2.690 Y7.803441
G1 Z8.662 X-2.774 Y7.536407
G1 Z8.668 X-3.129 Y6.684885
G1 Z8.669 X-3.204 Y6.435714
G1 Z8.675 X-3.556 Y5.561330
G1 Z8.677 X-3.623 Y5.331011
G1 Z8.683 X-3.972 Y4.430795
G1 Z8.684 X-4.031 Y4.222316
G1 Z8.690 X-4.378 Y3.290299
G1 Z8.698 X-4.779 Y2.123966
G1 Z8.714 X-5.540 Y-0.230326
G1 Z8.727 X-6.147 Y-2.268259
G1 Z8.738 X-6.586 Y-3.933355
G1 Z8.743 X-6.775 Y-4.792529
G1 Z8.749 X-6.940 Y-5.683893
G1 Z8.755 X-7.079 Y-6.612490
G1 Z8.761 X-7.187 Y-7.585361
G1 Z8.767 X-7.260 Y-8.606547
G1 Z8.778 X-7.294 Y-10.260164
G1 Z8.785 X-7.245 Y-11.435425
G1 Z8.793 X-7.122 Y-12.662082
G1 Z8.801 X-6.909 Y-13.927089
G1 Z8.805 X-6.765 Y-14.558634
G1 Z8.809 X-6.593 Y-15.189228
G1 Z8.817 X-6.155 Y-16.461675
G1 Z8.826 X-5.617 Y-17.685062
G1 Z8.834 X-5.000 Y-18.823150
G1 Z8.841 X-4.332 Y-19.832654
G1 Z8.848 X-3.640 Y-20.672294
G1 Z8.854 X-2.961 Y-21.300788
G1 Z8.859 X-2.343 Y-21.678871
G1 Z8.862 X-1.845 Y-21.801479
G1 Z8.864 X-1.449 Y-21.720314
G1 Z8.866 X-1.266 Y-21.595871 F600.000
G1 Z8.867 X-1.099 Y-21.433506
G1 Z8.869 X-0.882 Y-21.154988
G1 Z8.872 X-0.670 Y-20.807843
G1 Z8.875 X-0.465 Y-20.401032
G1 Z8.881 X-0.094 Y-19.467090
G1 Z8.888 X0.226 Y-18.434688
G1 Z8.897 X0.564 Y-17.097369
G1 Z8.906 X0.843 Y-15.577223
G1 Z8.916 X1.028 Y-14.084783
G1 Z8.927 X1.145 Y-12.268562
G1 Z8.934 X1.172 Y-11.149420
G1 Z8.943 X1.162 Y-9.699606
G1 Z8.952 X1.118 Y-8.255750
G1 Z8.973 X0.962 Y-5.001627
G1 Z8.991 X0.858 Y-2.091072
G1 Z8.997 X0.849 Y-1.023573
G1 Z9.000 X0.826 Y-0.624381
G1 Z9.005 X0.735 Y0.190092 F600.000
G1 Z9.008 X0.709 Y0.646298
G1 Z9.014 X0.723 Y1.606037
G1 Z9.017 X0.698 Y2.060234
G1 Z9.023 X0.723 Y3.003858
G1 Z9.026 X0.701 Y3.456039
G1 Z9.032 X0.735 Y4.379528
G1 Z9.034 X0.717 Y4.829688
G1 Z9.040 X0.760 Y5.730025
G1 Z9.043 X0.745 Y6.176157
G1 Z9.048 X0.798 Y7.053323
G1 Z9.051 X0.787 Y7.493420
G1 Z9.057 X0.848 Y8.344407
G1 Z9.059 X0.842 Y8.779462
G1 Z9.065 X0.909 Y9.606289
G1 Z9.067 X0.907 Y10.036309
G1 Z9.072 X0.977 Y10.844006
G1 Z9.075 X0.976 Y11.272006
G1 Z9.080 X1.047 Y12.066603
G1 Z9.083 X1.048 Y12.492597
G1 Z9.088 X1.117 Y13.276125
G1 Z9.090 X1.117 Y13.704127
G1 Z9.095 X1.182 Y14.482614
G1 Z9.098 X1.180 Y14.914642
G1 Z9.101 X1.214 Y15.374886
G1 Z9.104 X0.723 Y15.494433
G1 Z9.107 X0.524 Y15.025010
G1 Z9.112 X0.143 Y14.327593
G1 Z9.115 X-0.020 Y13.924649
G1 Z9.120 X-0.388 Y13.219231
G1 Z9.123 X-0.540 Y12.823206
G1 Z9.128 X-0.897 Y12.111800
G1 Z9.130 X-1.038 Y11.725688
G1 Z9.135 X-1.384 Y11.003311
G1 Z9.138 X-1.515 Y10.627103
G1 Z9.143 X-1.854 Y9.894772
G1 Z9.145 X-1.975 Y9.531460
G1 Z9.151 X-2.308 Y8.785195
G1 Z9.153 X-2.420 Y8.437767
G1 Z9.158 X-2.749 Y7.675590
G1 Z9.160 X-2.853 Y7.343032
G1 Z9.166 X-3.178 Y6.563969
G1 Z9.168 X-3.273 Y6.250268
G1 Z9.173 X-3.596 Y5.447347
G1 Z9.175 X-3.682 Y5.153494
G1 Z9.181 X-4.003 Y4.323744
G1 Z9.182 X-4.080 Y4.051727
G1 Z9.188 X-4.401 Y3.190179
G1 Z9.190 X-4.468 Y2.942987
G1 Z9.196 X-4.793 Y2.031774
G1 Z9.211 X-5.539 Y-0.304988
G1 Z9.225 X-6.141 Y-2.350966
G1 Z9.236 X-6.573 Y-4.006979
G1 Z9.241 X-6.764 Y-4.864153
G1 Z9.247 X-6.931 Y-5.757531
G1 Z9.253 X-7.071 Y-6.686132
G1 Z9.259 X-7.179 Y-7.657992
G1 Z9.266 X-7.250 Y-8.705369
G1 Z9.276 X-7.276 Y-10.335813
G1 Z9.283 X-7.225 Y-11.550356
G1 Z9.291 X-7.102 Y-12.783052
G1 Z9.299 X-6.889 Y-14.053095
G1 Z9.303 X-6.746 Y-14.686655
G1 Z9.308 X-6.575 Y-15.319257
G1 Z9.316 X-6.138 Y-16.592708
G1 Z9.324 X-5.602 Y-17.814081
G1 Z9.333 X-4.989 Y-18.949139
G1 Z9.340 X-4.324 Y-19.955604
G1 Z9.347 X-3.637 Y-20.790198
G1 Z9.353 X-2.962 Y-21.412642
G1 Z9.357 X-2.351 Y-21.786672
G1 Z9.361 X-1.858 Y-21.906235
G1 Z9.363 X-1.476 Y-21.828973
G1 Z9.364 X-1.290 Y-21.700559 F600.000
G1 Z9.366 X-1.140 Y-21.553033
G1 Z9.368 X-0.926 Y-21.279478
G1 Z9.370 X-0.716 Y-20.937290
G1 Z9.373 X-0.515 Y-20.537439
G1 Z9.380 X-0.150 Y-19.610434
G1 Z9.386 X0.166 Y-18.581994
G1 Z9.395 X0.485 Y-17.310191
G1 Z9.404 X0.764 Y-15.790042
G1 Z9.414 X0.949 Y-14.297605
G1 Z9.426 X1.070 Y-12.386052
G1 Z9.432 X1.095 Y-11.360264
G1 Z9.441 X1.086 Y-9.907462
G1 Z9.451 X1.043 Y-8.463611
G1 Z9.472 X0.879 Y-5.120112
G1 Z9.490 X0.768 Y-2.217512
G1 Z9.496 X0.760 Y-1.240374
G1 Z9.500 X0.732 Y-0.623706
G1 Z9.504 X0.640 Y-0.031859 F600.000
G1 Z9.507 X0.609 Y0.509663
G1 Z9.513 X0.622 Y1.379767
G1 Z9.516 X0.593 Y1.917552
G1 Z9.522 X0.615 Y2.770547
G1 Z9.525 X0.589 Y3.305306
G1 Z9.530 X0.620 Y4.140175
G1 Z9.534 X0.598 Y4.671902
G1 Z9.539 X0.638 Y5.485628
G1 Z9.542 X0.620 Y6.010316
G1 Z9.547 X0.668 Y6.802885
G1 Z9.550 X0.655 Y7.320524
G1 Z9.555 X0.710 Y8.087927
G1 Z9.558 X0.703 Y8.598512
G1 Z9.563 X0.763 Y9.343766
G1 Z9.566 X0.760 Y9.848305
G1 Z9.571 X0.824 Y10.576438
G1 Z9.574 X0.823 Y11.076950
G1 Z9.579 X0.887 Y11.791989
G1 Z9.582 X0.888 Y12.289489
G1 Z9.586 X0.950 Y12.994461
G1 Z9.590 X0.950 Y13.494967
G1 Z9.594 X1.008 Y14.194899
G1 Z9.597 X1.006 Y14.697431
G1 Z9.600 X1.035 Y15.094230
G1 Z9.603 X0.545 Y15.213778
G1 Z9.606 X0.366 Y14.794979
G1 Z9.610 X0.024 Y14.168988
G1 Z9.614 X-0.166 Y13.697558
G1 Z9.618 X-0.497 Y13.064570
G1 Z9.621 X-0.675 Y12.601052
G1 Z9.626 X-0.995 Y11.960081
G1 Z9.629 X-1.161 Y11.507469
G1 Z9.633 X-1.473 Y10.857531
G1 Z9.636 X-1.627 Y10.416817
G1 Z9.641 X-1.932 Y9.754930
G1 Z9.644 X-2.076 Y9.326106
G1 Z9.648 X-2.376 Y8.651290
G1 Z9.651 X-2.510 Y8.238344
G1 Z9.656 X-2.808 Y7.547621
G1 Z9.659 X-2.932 Y7.151538
G1 Z9.663 X-3.227 Y6.442933
G1 Z9.666 X-3.342 Y6.064704
G1 Z9.671 X-3.636 Y5.332244
G1 Z9.673 X-3.741 Y4.975858
G1 Z9.679 X-4.035 Y4.216574
G1 Z9.681 X-4.129 Y3.881020
G1 Z9.686 X-4.424 Y3.090941
G1 Z9.688 X-4.508 Y2.779208
G1 Z9.694 X-4.803 Y1.953367
G1 Z9.696 X-4.878 Y1.667443
G1 Z9.701 X-5.178 Y0.789959
G1 Z9.717 X-5.892 Y-1.568248
G1 Z9.728 X-6.353 Y-3.242444
G1 Z9.739 X-6.749 Y-4.933638
G1 Z9.745 X-6.914 Y-5.817952
G1 Z9.751 X-7.052 Y-6.742518
G1 Z9.757 X-7.159 Y-7.708347
G1 Z9.764 X-7.232 Y-8.811103
G1 Z9.774 X-7.257 Y-10.411343
G1 Z9.782 X-7.205 Y-11.665158
G1 Z9.790 X-7.082 Y-12.903894
G1 Z9.798 X-6.870 Y-14.179973
G1 Z9.802 X-6.727 Y-14.814547
G1 Z9.806 X-6.556 Y-15.449159
G1 Z9.815 X-6.122 Y-16.723613
G1 Z9.823 X-5.588 Y-17.944971
G1 Z9.831 X-4.977 Y-19.076000
G1 Z9.839 X-4.316 Y-20.077426
G1 Z9.846 X-3.633 Y-20.907974
G1 Z9.852 X-2.964 Y-21.525368
G1 Z9.856 X-2.359 Y-21.894345
G1 Z9.859 X-1.872 Y-22.012863
G1 Z9.861 X-1.566 Y-21.948060
G1 Z9.862 X-1.490 Y-21.926609 F600.000
G1 Z9.863 X-1.315 Y-21.804111
G1 Z9.864 X-1.181 Y-21.674425
G1 Z9.866 X-0.969 Y-21.404833
G1 Z9.869 X-0.763 Y-21.068601
G1 Z9.872 X-0.565 Y-20.672711
G1 Z9.878 X-0.205 Y-19.753642
G1 Z9.885 X0.106 Y-18.727166
G1 Z9.893 X0.407 Y-17.524879
G1 Z9.902 X0.685 Y-16.004726
G1 Z9.912 X0.870 Y-14.507321
G1 Z9.925 X0.996 Y-12.506397
G1 Z9.931 X1.018 Y-11.570974
G1 Z9.940 X1.011 Y-10.116183
G1 Z9.949 X0.967 Y-8.670337
G1 Z9.980 X0.731 Y-3.787668
G1 Z10.000 X0.638 Y-0.623895
G1 Z10.002 X0.545 Y-0.253490 F600.000
G1 Z10.006 X0.509 Y0.373893
G1 Z10.011 X0.520 Y1.152360
G1 Z10.015 X0.487 Y1.774735
G1 Z10.020 X0.507 Y2.537100
G1 Z10.024 X0.477 Y3.154438
G1 Z10.029 X0.505 Y3.901686
G1 Z10.033 X0.480 Y4.512980
G1 Z10.037 X0.515 Y5.240096
G1 Z10.041 X0.495 Y5.844339
G1 Z10.046 X0.537 Y6.551310
G1 Z10.050 X0.523 Y7.146492
G1 Z10.054 X0.572 Y7.831311
G1 Z10.058 X0.564 Y8.416425
G1 Z10.062 X0.618 Y9.081107
G1 Z10.066 X0.614 Y9.659166
G1 Z10.070 X0.671 Y10.307735
G1 Z10.073 X0.670 Y10.880757
G1 Z10.077 X0.727 Y11.516238
G1 Z10.081 X0.728 Y12.086244
G1 Z10.085 X0.783 Y12.713661
G1 Z10.089 X0.783 Y13.284671
G1 Z10.093 X0.834 Y13.905047
G1 Z10.096 X0.832 Y14.480082
G1 Z10.098 X0.857 Y14.814438
G1 Z10.102 X0.366 Y14.933986
G1 Z10.104 X0.208 Y14.563812
G1 Z10.108 X-0.095 Y14.009247
G1 Z10.112 X-0.312 Y13.470330
G1 Z10.116 X-0.605 Y12.909772
G1 Z10.120 X-0.809 Y12.379761
G1 Z10.124 X-1.093 Y11.810225
G1 Z10.127 X-1.284 Y11.290113
G1 Z10.131 X-1.561 Y10.712615
G1 Z10.135 X-1.739 Y10.204395
G1 Z10.139 X-2.011 Y9.615953
G1 Z10.142 X-2.177 Y9.120616
G1 Z10.146 X-2.445 Y8.517249
G1 Z10.150 X-2.600 Y8.038784
G1 Z10.154 X-2.867 Y7.420515
G1 Z10.157 X-3.011 Y6.958909
G1 Z10.161 X-3.277 Y6.320762
G1 Z10.164 X-3.410 Y5.879003
G1 Z10.169 X-3.676 Y5.218006
G1 Z10.172 X-3.800 Y4.797086
G1 Z10.176 X-4.066 Y4.109268
G1 Z10.179 X-4.179 Y3.710177
G1 Z10.184 X-4.446 Y2.990567
G1 Z10.186 X-4.549 Y2.616294
G1 Z10.191 X-4.818 Y1.861924
G1 Z10.194 X-4.910 Y1.512457
G1 Z10.199 X-5.181 Y0.716358
G1 Z10.201 X-5.262 Y0.395686
G1 Z10.207 X-5.536 Y-0.445892
G1 Z10.209 X-5.607 Y-0.737999
G1 Z10.215 X-5.885 Y-1.637612
G1 Z10.226 X-6.344 Y-3.319857
G1 Z10.237 X-6.733 Y-4.999965
G1 Z10.243 X-6.896 Y-5.878241
G1 Z10.248 X-7.034 Y-6.798773
G1 Z10.255 X-7.139 Y-7.760569
G1 Z10.262 X-7.215 Y-8.916706
G1 Z10.272 X-7.238 Y-10.488742
G1 Z10.280 X-7.185 Y-11.781829
G1 Z10.288 X-7.062 Y-13.024603
G1 Z10.297 X-6.850 Y-14.305719
G1 Z10.301 X-6.708 Y-14.943307
G1 Z10.305 X-6.538 Y-15.578928
G1 Z10.313 X-6.105 Y-16.854386
G1 Z10.322 X-5.573 Y-18.074729
G1 Z10.330 X-4.966 Y-19.202730
G1 Z10.338 X-4.308 Y-20.199116
G1 Z10.345 X-3.630 Y-21.024618
G1 Z10.350 X-2.966 Y-21.637962
G1 Z10.355 X-2.367 Y-22.002886
G1 Z10.358 X-1.886 Y-22.117358
G1 Z10.360 X-1.620 Y-22.062261
G1 Z10.360 X-1.512 Y-22.030054 F600.000
G1 Z10.362 X-1.340 Y-21.909535
G1 Z10.363 X-1.222 Y-21.794690
G1 Z10.365 X-1.013 Y-21.529060
G1 Z10.367 X-0.810 Y-21.198784
G1 Z10.370 X-0.615 Y-20.807856
G1 Z10.376 X-0.260 Y-19.895722
G1 Z10.383 X0.045 Y-18.874209
G1 Z10.391 X0.328 Y-17.737438
G1 Z10.400 X0.606 Y-16.218283
G1 Z10.410 X0.791 Y-14.720881
G1 Z10.423 X0.921 Y-12.624623
G1 Z10.429 X0.942 Y-11.780555
G1 Z10.438 X0.935 Y-10.326762
G1 Z10.457 X0.827 Y-7.430114
G1 Z10.479 X0.645 Y-3.910864
G1 Z10.484 X0.629 Y-3.105517
G1 Z10.488 X0.588 Y-2.474955
G1 Z10.493 X0.582 Y-1.673582
G1 Z10.497 X0.543 Y-1.044006
G1 Z10.500 X0.544 Y-0.623966
G1 Z10.506 X0.409 Y0.237003 F600.000
G1 Z10.510 X0.419 Y0.924834
G1 Z10.514 X0.382 Y1.630798
G1 Z10.519 X0.399 Y2.304533
G1 Z10.523 X0.366 Y3.004450
G1 Z10.527 X0.390 Y3.662077
G1 Z10.532 X0.362 Y4.354938
G1 Z10.536 X0.392 Y4.995444
G1 Z10.540 X0.370 Y5.678242
G1 Z10.544 X0.407 Y6.300616
G1 Z10.549 X0.391 Y6.972341
G1 Z10.553 X0.434 Y7.574575
G1 Z10.557 X0.425 Y8.235219
G1 Z10.561 X0.472 Y8.818328
G1 Z10.565 X0.468 Y9.470906
G1 Z10.568 X0.517 Y10.039911
G1 Z10.573 X0.517 Y10.684445
G1 Z10.576 X0.567 Y11.241368
G1 Z10.580 X0.567 Y11.883880
G1 Z10.584 X0.616 Y12.431741
G1 Z10.588 X0.616 Y13.074255
G1 Z10.591 X0.661 Y13.616075
G1 Z10.595 X0.658 Y14.262615
G1 Z10.597 X0.678 Y14.534527
G1 Z10.600 X0.187 Y14.653075
G1 Z10.603 X0.050 Y14.332526
G1 Z10.606 X-0.213 Y13.850385
G1 Z10.610 X-0.459 Y13.243982
G1 Z10.614 X-0.714 Y12.754855
G1 Z10.618 X-0.943 Y12.156350
G1 Z10.622 X-1.192 Y11.660250
G1 Z10.626 X-1.407 Y11.073638
G1 Z10.629 X-1.649 Y10.567580
G1 Z10.633 X-1.850 Y9.992853
G1 Z10.637 X-2.089 Y9.475855
G1 Z10.641 X-2.277 Y8.914006
G1 Z10.644 X-2.514 Y8.383088
G1 Z10.648 X-2.689 Y7.839105
G1 Z10.652 X-2.925 Y7.292290
G1 Z10.655 X-3.090 Y6.766159
G1 Z10.659 X-3.326 Y6.199470
G1 Z10.663 X-3.479 Y5.693183
G1 Z10.667 X-3.717 Y5.103648
G1 Z10.670 X-3.858 Y4.618195
G1 Z10.674 X-4.097 Y4.001842
G1 Z10.677 X-4.228 Y3.539214
G1 Z10.682 X-4.469 Y2.891073
G1 Z10.685 X-4.589 Y2.453260
G1 Z10.689 X-4.833 Y1.768361
G1 Z10.692 X-4.941 Y1.357352
G1 Z10.697 X-5.188 Y0.632728
G1 Z10.699 X-5.286 Y0.248510
G1 Z10.705 X-5.536 Y-0.522192
G1 Z10.707 X-5.622 Y-0.876754
G1 Z10.712 X-5.878 Y-1.704839
G1 Z10.724 X-6.334 Y-3.396145
G1 Z10.735 X-6.718 Y-5.065167
G1 Z10.740 X-6.879 Y-5.938405
G1 Z10.746 X-7.014 Y-6.852890
G1 Z10.754 X-7.132 Y-7.995960
G1 Z10.760 X-7.197 Y-9.021180
G1 Z10.770 X-7.219 Y-10.564015
G1 Z10.779 X-7.165 Y-11.896373
G1 Z10.787 X-7.042 Y-13.145187
G1 Z10.795 X-6.831 Y-14.431339
G1 Z10.799 X-6.689 Y-15.071941
G1 Z10.804 X-6.519 Y-15.708572
G1 Z10.812 X-6.088 Y-16.985033
G1 Z10.821 X-5.559 Y-18.203361
G1 Z10.829 X-4.955 Y-19.329333
G1 Z10.836 X-4.301 Y-20.322681
G1 Z10.843 X-3.626 Y-21.142136
G1 Z10.849 X-2.968 Y-21.749429
G1 Z10.853 X-2.374 Y-22.109301
G1 Z10.857 X-1.899 Y-22.222728
G1 Z10.858 X-1.675 Y-22.176336
G1 Z10.859 X-1.522 Y-22.131457 F600.000
G1 Z10.860 X-1.459 Y-22.090983
G1 Z10.861 X-1.256 Y-21.906904
G1 Z10.863 X-1.056 Y-21.654165
G1 Z10.866 X-0.857 Y-21.329845
G1 Z10.869 X-0.665 Y-20.942877
G1 Z10.875 X-0.316 Y-20.038680
G1 Z10.882 X-0.015 Y-19.021130
G1 Z10.889 X0.250 Y-17.950874
G1 Z10.899 X0.527 Y-16.431717
G1 Z10.908 X0.713 Y-14.933320
G1 Z10.922 X0.846 Y-12.743726
G1 Z10.927 X0.865 Y-11.990015
G1 Z10.936 X0.859 Y-10.532248
G1 Z10.946 X0.817 Y-9.085414
G1 Z10.987 X0.498 Y-2.599013
G1 Z10.992 X0.492 Y-1.890996
G1 Z10.996 X0.448 Y-1.174028
G1 Z11.000 X0.450 Y-0.622905
G1 Z11.005 X0.310 Y0.100026 F600.000
G1 Z11.009 X0.318 Y0.697222
G1 Z11.014 X0.276 Y1.487774
G1 Z11.017 X0.291 Y2.072880
G1 Z11.022 X0.254 Y2.853375
G1 Z11.026 X0.275 Y3.423381
G1 Z11.031 X0.243 Y4.196810
G1 Z11.035 X0.270 Y4.750706
G1 Z11.040 X0.245 Y5.512059
G1 Z11.043 X0.277 Y6.049835
G1 Z11.048 X0.259 Y6.799102
G1 Z11.051 X0.296 Y7.317753
G1 Z11.056 X0.286 Y8.054927
G1 Z11.059 X0.326 Y8.556463
G1 Z11.064 X0.322 Y9.282560
G1 Z11.067 X0.364 Y9.770001
G1 Z11.072 X0.364 Y10.489047
G1 Z11.075 X0.406 Y10.966411
G1 Z11.079 X0.407 Y11.680429
G1 Z11.082 X0.448 Y12.149735
G1 Z11.087 X0.448 Y12.864753
G1 Z11.090 X0.487 Y13.327017
G1 Z11.096 X0.482 Y14.274667
G1 Z11.099 X0.007 Y14.370074
G1 Z11.101 X-0.108 Y14.101124
G1 Z11.104 X-0.332 Y13.691409
G1 Z11.109 X-0.605 Y13.016520
G1 Z11.112 X-0.822 Y12.599823
G1 Z11.116 X-1.078 Y11.934825
G1 Z11.120 X-1.290 Y11.509159
G1 Z11.124 X-1.529 Y10.856047
G1 Z11.127 X-1.738 Y10.421429
G1 Z11.132 X-1.962 Y9.781196
G1 Z11.135 X-2.168 Y9.335643
G1 Z11.139 X-2.378 Y8.709281
G1 Z11.142 X-2.582 Y8.249812
G1 Z11.146 X-2.779 Y7.640311
G1 Z11.150 X-2.984 Y7.164949
G1 Z11.154 X-3.169 Y6.573295
G1 Z11.157 X-3.376 Y6.078064
G1 Z11.161 X-3.548 Y5.508248
G1 Z11.165 X-3.757 Y4.989175
G1 Z11.168 X-3.917 Y4.440188
G1 Z11.172 X-4.129 Y3.894301
G1 Z11.176 X-4.277 Y3.368136
G1 Z11.179 X-4.492 Y2.791464
G1 Z11.183 X-4.629 Y2.290110
G1 Z11.187 X-4.848 Y1.676684
G1 Z11.190 X-4.973 Y1.201131
G1 Z11.195 X-5.196 Y0.548982
G1 Z11.198 X-5.309 Y0.101219
G1 Z11.202 X-5.536 Y-0.598378
G1 Z11.205 X-5.638 Y-1.015393
G1 Z11.210 X-5.869 Y-1.763894
G1 Z11.227 X-6.522 Y-4.291222
G1 Z11.232 X-6.701 Y-5.127230
G1 Z11.238 X-6.861 Y-5.999453
G1 Z11.244 X-6.996 Y-6.910916
G1 Z11.250 X-7.100 Y-7.865662
G1 Z11.257 X-7.169 Y-8.868728
G1 Z11.266 X-7.202 Y-10.228280
G1 Z11.273 X-7.179 Y-11.400510
G1 Z11.281 X-7.093 Y-12.633186
G1 Z11.289 X-6.928 Y-13.912240
G1 Z11.298 X-6.670 Y-15.199462
G1 Z11.302 X-6.501 Y-15.838102
G1 Z11.311 X-6.071 Y-17.116566
G1 Z11.319 X-5.545 Y-18.333880
G1 Z11.328 X-4.943 Y-19.455824
G1 Z11.335 X-4.293 Y-20.444132
G1 Z11.342 X-3.623 Y-21.259541
G1 Z11.348 X-2.969 Y-21.862784
G1 Z11.352 X-2.382 Y-22.217603
G1 Z11.355 X-1.913 Y-22.327985
G1 Z11.356 X-1.730 Y-22.289299
G1 Z11.358 X-1.524 Y-22.229807 F600.000
G1 Z11.360 X-1.296 Y-22.026950
G1 Z11.362 X-1.100 Y-21.779162
G1 Z11.364 X-0.904 Y-21.459799
G1 Z11.367 X-0.715 Y-21.077792
G1 Z11.373 X-0.371 Y-20.181531
G1 Z11.380 X-0.075 Y-19.168943
G1 Z11.387 X0.171 Y-18.164204
G1 Z11.397 X0.448 Y-16.645045
G1 Z11.406 X0.633 Y-15.147644
G1 Z11.416 X0.742 Y-13.666072
G1 Z11.425 X0.788 Y-12.200366
G1 Z11.440 X0.762 Y-9.936267
G1 Z11.453 X0.676 Y-7.846956
G1 Z11.486 X0.408 Y-2.724967
G1 Z11.490 X0.403 Y-2.106307
G1 Z11.496 X0.354 Y-1.305947
G1 Z11.500 X0.352 Y-0.628700
G1 Z11.504 X0.210 Y-0.036905 F600.000
G1 Z11.507 X0.217 Y0.470464
G1 Z11.513 X0.171 Y1.344606
G1 Z11.516 X0.183 Y1.839082
G1 Z11.522 X0.142 Y2.703156
G1 Z11.525 X0.160 Y3.184541
G1 Z11.530 X0.125 Y4.038537
G1 Z11.533 X0.147 Y4.505822
G1 Z11.539 X0.119 Y5.346731
G1 Z11.542 X0.147 Y5.798909
G1 Z11.547 X0.127 Y6.625719
G1 Z11.550 X0.158 Y7.061785
G1 Z11.555 X0.147 Y7.873489
G1 Z11.558 X0.181 Y8.293453
G1 Z11.563 X0.176 Y9.093070
G1 Z11.566 X0.211 Y9.501947
G1 Z11.571 X0.211 Y10.293503
G1 Z11.573 X0.246 Y10.691309
G1 Z11.579 X0.247 Y11.478834
G1 Z11.581 X0.281 Y11.868584
G1 Z11.586 X0.281 Y12.654105
G1 Z11.589 X0.313 Y13.038814
G1 Z11.595 X0.309 Y14.006607
G1 Z11.598 X-0.167 Y14.102014
G1 Z11.600 X-0.265 Y13.871777
G1 Z11.602 X-0.450 Y13.532488
G1 Z11.607 X-0.751 Y12.789112
G1 Z11.610 X-0.931 Y12.444846
G1 Z11.615 X-1.212 Y11.712355
G1 Z11.618 X-1.389 Y11.359124
G1 Z11.623 X-1.652 Y10.638512
G1 Z11.625 X-1.826 Y10.276334
G1 Z11.630 X-2.073 Y9.569595
G1 Z11.633 X-2.246 Y9.195485
G1 Z11.637 X-2.478 Y8.503611
G1 Z11.640 X-2.651 Y8.115591
G1 Z11.645 X-2.869 Y7.440572
G1 Z11.648 X-3.043 Y7.036664
G1 Z11.652 X-3.248 Y6.381486
G1 Z11.655 X-3.425 Y5.957713
G1 Z11.659 X-3.617 Y5.322368
G1 Z11.662 X-3.797 Y4.874757
G1 Z11.667 X-3.976 Y4.262237
G1 Z11.670 X-4.160 Y3.787816
G1 Z11.674 X-4.327 Y3.198113
G1 Z11.677 X-4.515 Y2.691910
G1 Z11.681 X-4.669 Y2.127016
G1 Z11.685 X-4.863 Y1.584062
G1 Z11.688 X-5.004 Y1.046966
G1 Z11.692 X-5.203 Y0.463291
G1 Z11.696 X-5.332 Y-0.046984
G1 Z11.700 X-5.536 Y-0.674619
G1 Z11.703 X-5.653 Y-1.154088
G1 Z11.708 X-5.863 Y-1.832067
G1 Z11.711 X-5.968 Y-2.280303
G1 Z11.714 X-6.112 Y-2.768872
G1 Z11.725 X-6.509 Y-4.362409
G1 Z11.730 X-6.686 Y-5.193376
G1 Z11.736 X-6.844 Y-6.060560
G1 Z11.742 X-6.977 Y-6.965989
G1 Z11.748 X-7.080 Y-7.916706
G1 Z11.755 X-7.150 Y-8.918759
G1 Z11.762 X-7.181 Y-9.977195
G1 Z11.770 X-7.166 Y-11.301495
G1 Z11.776 X-7.125 Y-12.123274
G1 Z11.784 X-7.002 Y-13.386187
G1 Z11.792 X-6.792 Y-14.683412
G1 Z11.797 X-6.651 Y-15.327042
G1 Z11.801 X-6.483 Y-15.968692
G1 Z11.810 X-6.055 Y-17.246159
G1 Z11.818 X-5.530 Y-18.463459
G1 Z11.826 X-4.932 Y-19.582373
G1 Z11.834 X-4.285 Y-20.566642
G1 Z11.841 X-3.620 Y-21.377005
G1 Z11.847 X-2.971 Y-21.974198
G1 Z11.851 X-2.390 Y-22.325964
G1 Z11.854 X-1.927 Y-22.432301
G1 Z11.855 X-1.785 Y-22.403320
G1 Z11.856 X-1.551 Y-22.335031 F600.000
G1 Z11.858 X-1.336 Y-22.145044
G1 Z11.860 X-1.144 Y-21.904207
G1 Z11.863 X-0.951 Y-21.590799
G1 Z11.865 X-0.764 Y-21.213753
G1 Z11.872 X-0.427 Y-20.324428
G1 Z11.878 X-0.136 Y-19.315803
G1 Z11.885 X0.093 Y-18.377580
G1 Z11.895 X0.368 Y-16.858419
G1 Z11.904 X0.555 Y-15.360024
G1 Z11.914 X0.664 Y-13.877462
G1 Z11.924 X0.711 Y-12.408783
G1 Z11.933 X0.707 Y-10.949031
G1 Z11.952 X0.601 Y-8.054373
G1 Z11.986 X0.318 Y-2.850969
G1 Z11.989 X0.314 Y-2.323665
G1 Z11.995 X0.259 Y-1.435913
G1 Z12.000 X0.245 Y-0.634538
G1 Z12.003 X0.110 Y-0.173827 F600.000
G1 Z12.006 X0.116 Y0.243750
G1 Z12.012 X0.065 Y1.201481
G1 Z12.015 X0.075 Y1.606328
G1 Z12.021 X0.030 Y2.552980
G1 Z12.023 X0.045 Y2.946744
G1 Z12.029 X0.006 Y3.879308
G1 Z12.032 X0.025 Y4.260983
G1 Z12.038 X-0.006 Y5.180447
G1 Z12.040 X0.016 Y5.547027
G1 Z12.046 X-0.005 Y6.451380
G1 Z12.049 X0.020 Y6.804862
G1 Z12.054 X0.007 Y7.691095
G1 Z12.057 X0.035 Y8.031487
G1 Z12.062 X0.030 Y8.905623
G1 Z12.064 X0.058 Y9.233936
G1 Z12.070 X0.057 Y10.097004
G1 Z12.072 X0.086 Y10.416252
G1 Z12.078 X0.087 Y11.275282
G1 Z12.080 X0.114 Y11.586477
G1 Z12.085 X0.114 Y12.444502
G1 Z12.087 X0.140 Y12.750655
G1 Z12.094 X0.135 Y13.729532
G1 Z12.097 X-0.313 Y13.842773
G1 Z12.100 X-0.569 Y13.373530
G1 Z12.106 X-0.897 Y12.562668
G1 Z12.108 X-1.039 Y12.289832
G1 Z12.114 X-1.347 Y11.489847
G1 Z12.116 X-1.487 Y11.209052
G1 Z12.121 X-1.775 Y10.421940
G1 Z12.123 X-1.914 Y10.131201
G1 Z12.128 X-2.185 Y9.357956
G1 Z12.131 X-2.324 Y9.055291
G1 Z12.136 X-2.579 Y8.297904
G1 Z12.138 X-2.719 Y7.981334
G1 Z12.143 X-2.959 Y7.241796
G1 Z12.146 X-3.102 Y6.908341
G1 Z12.150 X-3.327 Y6.188639
G1 Z12.153 X-3.474 Y5.835325
G1 Z12.158 X-3.686 Y5.136451
G1 Z12.160 X-3.837 Y4.760302
G1 Z12.165 X-4.035 Y4.084249
G1 Z12.168 X-4.192 Y3.679293
G1 Z12.172 X-4.376 Y3.027053
G1 Z12.175 X-4.538 Y2.591319
G1 Z12.179 X-4.709 Y1.964885
G1 Z12.183 X-4.877 Y1.492402
G1 Z12.187 X-5.035 Y0.891764
G1 Z12.190 X-5.210 Y0.379563
G1 Z12.194 X-5.355 Y-0.194711
G1 Z12.198 X-5.536 Y-0.750823
G1 Z12.202 X-5.669 Y-1.293746
G1 Z12.206 X-5.856 Y-1.900203
G1 Z12.223 X-6.496 Y-4.433553
G1 Z12.228 X-6.670 Y-5.259478
G1 Z12.234 X-6.826 Y-6.120624
G1 Z12.240 X-6.958 Y-7.021019
G1 Z12.246 X-7.060 Y-7.968707
G1 Z12.253 X-7.130 Y-8.967737
G1 Z12.259 X-7.162 Y-10.023157
G1 Z12.268 X-7.148 Y-11.379677
G1 Z12.274 X-7.105 Y-12.238719
G1 Z12.282 X-6.982 Y-13.507671
G1 Z12.291 X-6.772 Y-14.809933
G1 Z12.295 X-6.632 Y-15.456577
G1 Z12.299 X-6.464 Y-16.098236
G1 Z12.308 X-6.038 Y-17.377707
G1 Z12.317 X-5.516 Y-18.592992
G1 Z12.325 X-4.920 Y-19.709878
G1 Z12.333 X-4.277 Y-20.689108
G1 Z12.340 X-3.616 Y-21.494424
G1 Z12.345 X-2.973 Y-22.086567
G1 Z12.350 X-2.398 Y-22.433280
G1 Z12.353 X-1.941 Y-22.537572
G1 Z12.353 X-1.840 Y-22.517297
G1 Z12.355 X-1.578 Y-22.440212 F600.000
G1 Z12.357 X-1.376 Y-22.264094
G1 Z12.359 X-1.187 Y-22.029208
G1 Z12.361 X-0.997 Y-21.720755
G1 Z12.364 X-0.814 Y-21.348670
G1 Z12.370 X-0.482 Y-20.467281
G1 Z12.377 X-0.196 Y-19.462618
G1 Z12.383 X0.014 Y-18.591911
G1 Z12.393 X0.289 Y-17.072749
G1 Z12.403 X0.476 Y-15.572359
G1 Z12.412 X0.586 Y-14.089807
G1 Z12.422 X0.634 Y-12.618140
G1 Z12.431 X0.632 Y-11.157397
G1 Z12.450 X0.525 Y-8.261746
G1 Z12.475 X0.300 Y-4.396936
G1 Z12.478 X0.292 Y-3.956026
G1 Z12.485 X0.228 Y-2.975928
G1 Z12.488 X0.225 Y-2.540981
G1 Z12.494 X0.165 Y-1.565837
G1 Z12.497 X0.166 Y-1.139829
G1 Z12.500 X0.137 Y-0.640338
G1 Z12.520 X-0.082 Y2.402748 F600.000
G1 Z12.522 X-0.070 Y2.707891
G1 Z12.529 X-0.112 Y3.721022
G1 Z12.531 X-0.098 Y4.015086
G1 Z12.537 X-0.131 Y5.014106
G1 Z12.539 X-0.114 Y5.296088
G1 Z12.545 X-0.138 Y6.278983
G1 Z12.547 X-0.118 Y6.547882
G1 Z12.553 X-0.132 Y7.510645
G1 Z12.555 X-0.111 Y7.768464
G1 Z12.561 X-0.117 Y8.716119
G1 Z12.563 X-0.095 Y8.964868
G1 Z12.569 X-0.096 Y9.901447
G1 Z12.571 X-0.074 Y10.141137
G1 Z12.577 X-0.073 Y11.072674
G1 Z12.578 X-0.053 Y11.304313
G1 Z12.584 X-0.053 Y12.234841
G1 Z12.586 X-0.034 Y12.461439
G1 Z12.593 X-0.039 Y13.469517
G1 Z12.596 X-0.486 Y13.582758
G1 Z12.598 X-0.688 Y13.214706
G1 Z12.605 X-1.043 Y12.335357
G1 Z12.606 X-1.148 Y12.134952
G1 Z12.612 X-1.481 Y11.267474
G1 Z12.614 X-1.585 Y11.058114
G1 Z12.620 X-1.898 Y10.204502
G1 Z12.621 X-2.003 Y9.986203
G1 Z12.627 X-2.297 Y9.146451
G1 Z12.629 X-2.403 Y8.916231
G1 Z12.634 X-2.679 Y8.092331
G1 Z12.636 X-2.788 Y7.847210
G1 Z12.642 X-3.048 Y7.042154
G1 Z12.644 X-3.161 Y6.780153
G1 Z12.649 X-3.406 Y5.996927
G1 Z12.651 X-3.524 Y5.714070
G1 Z12.656 X-3.755 Y4.951668
G1 Z12.658 X-3.877 Y4.645981
G1 Z12.663 X-4.094 Y3.905394
G1 Z12.666 X-4.223 Y3.572904
G1 Z12.671 X-4.425 Y2.856127
G1 Z12.673 X-4.561 Y2.491862
G1 Z12.678 X-4.749 Y1.801888
G1 Z12.681 X-4.892 Y1.400877
G1 Z12.685 X-5.067 Y0.736696
G1 Z12.688 X-5.217 Y0.295969
G1 Z12.692 X-5.378 Y-0.341573
G1 Z12.696 X-5.536 Y-0.827161
G1 Z12.700 X-5.684 Y-1.432538
G1 Z12.704 X-5.850 Y-1.968473
G1 Z12.707 X-5.984 Y-2.542616
G1 Z12.710 X-6.100 Y-2.934489
G1 Z12.721 X-6.483 Y-4.505837
G1 Z12.732 X-6.808 Y-6.181827
G1 Z12.738 X-6.939 Y-7.077187
G1 Z12.744 X-7.040 Y-8.020847
G1 Z12.751 X-7.110 Y-9.015854
G1 Z12.757 X-7.142 Y-10.069258
G1 Z12.766 X-7.129 Y-11.456998
G1 Z12.772 X-7.085 Y-12.353304
G1 Z12.781 X-6.962 Y-13.628295
G1 Z12.789 X-6.753 Y-14.935593
G1 Z12.794 X-6.613 Y-15.584252
G1 Z12.798 X-6.446 Y-16.227920
G1 Z12.807 X-6.021 Y-17.508395
G1 Z12.816 X-5.502 Y-18.722665
G1 Z12.824 X-4.909 Y-19.835522
G1 Z12.832 X-4.270 Y-20.811713
G1 Z12.838 X-3.613 Y-21.611983
G1 Z12.844 X-2.974 Y-22.199075
G1 Z12.848 X-2.406 Y-22.541735
G1 Z12.851 X-1.945 Y-22.645054
G1 Z12.854 X-1.604 Y-22.546543
G1 Z12.855 X-1.416 Y-22.383292 F600.000
G1 Z12.857 X-1.231 Y-22.154356
G1 Z12.860 X-1.044 Y-21.851859
G1 Z12.862 X-0.864 Y-21.483734
G1 Z12.865 X-0.694 Y-21.064909
G1 Z12.868 X-0.538 Y-20.610284
G1 Z12.875 X-0.257 Y-19.609582
G1 Z12.881 X-0.064 Y-18.804392
G1 Z12.891 X0.210 Y-17.285230
G1 Z12.901 X0.397 Y-15.785845
G1 Z12.910 X0.509 Y-14.300303
G1 Z12.920 X0.557 Y-12.827653
G1 Z12.927 X0.559 Y-11.752202
G1 Z12.939 X0.516 Y-9.915105
G1 Z12.993 X0.070 Y-1.694917
G1 Z13.000 X0.038 Y-0.645285
G1 Z13.028 X-0.230 Y3.548782 F600.000
G1 Z13.052 X-0.271 Y7.311207
G1 Z13.091 X-0.202 Y13.246886
G1 Z13.095 X-0.678 Y13.349301
G1 Z13.112 X-1.677 Y10.927693
G1 Z13.118 X-2.021 Y9.987726
G1 Z13.120 X-2.091 Y9.840867
G1 Z13.126 X-2.408 Y8.934609
G1 Z13.127 X-2.481 Y8.776833
G1 Z13.133 X-2.780 Y7.886421
G1 Z13.134 X-2.857 Y7.713749
G1 Z13.140 X-3.138 Y6.843174
G1 Z13.142 X-3.220 Y6.653627
G1 Z13.148 X-3.485 Y5.803878
G1 Z13.149 X-3.573 Y5.593479
G1 Z13.155 X-3.823 Y4.765547
G1 Z13.157 X-3.918 Y4.531322
G1 Z13.162 X-4.153 Y3.727202
G1 Z13.164 X-4.254 Y3.465178
G1 Z13.169 X-4.475 Y2.686864
G1 Z13.171 X-4.584 Y2.391068
G1 Z13.176 X-4.789 Y1.638553
G1 Z13.179 X-4.907 Y1.308014
G1 Z13.184 X-5.098 Y0.581291
G1 Z13.186 X-5.225 Y0.211038
G1 Z13.191 X-5.401 Y-0.488097
G1 Z13.194 X-5.536 Y-0.903162
G1 Z13.198 X-5.699 Y-1.571993
G1 Z13.202 X-5.843 Y-2.036406
G1 Z13.206 X-5.992 Y-2.673002
G1 Z13.208 X-6.094 Y-3.018527
G1 Z13.219 X-6.469 Y-4.572752
G1 Z13.230 X-6.791 Y-6.245718
G1 Z13.236 X-6.920 Y-7.133017
G1 Z13.242 X-7.021 Y-8.072647
G1 Z13.249 X-7.090 Y-9.064632
G1 Z13.256 X-7.123 Y-10.116019
G1 Z13.265 X-7.111 Y-11.534981
G1 Z13.271 X-7.065 Y-12.469550
G1 Z13.280 X-6.942 Y-13.749580
G1 Z13.288 X-6.734 Y-15.061914
G1 Z13.293 X-6.594 Y-15.712587
G1 Z13.297 X-6.427 Y-16.357265
G1 Z13.306 X-6.005 Y-17.639743
G1 Z13.315 X-5.487 Y-18.851999
G1 Z13.323 X-4.898 Y-19.962827
G1 Z13.330 X-4.262 Y-20.933979
G1 Z13.337 X-3.609 Y-21.729203
G1 Z13.343 X-2.976 Y-22.311244
G1 Z13.347 X-2.414 Y-22.648851
G1 Z13.350 X-1.965 Y-22.748077
G1 Z13.353 X-1.630 Y-22.651526
G1 Z13.354 X-1.455 Y-22.502138 F600.000
G1 Z13.356 X-1.274 Y-22.279153
G1 Z13.358 X-1.091 Y-21.981611
G1 Z13.361 X-0.914 Y-21.618446
G1 Z13.364 X-0.747 Y-21.203587
G1 Z13.367 X-0.593 Y-20.752932
G1 Z13.374 X-0.317 Y-19.756192
G1 Z13.379 X-0.143 Y-19.018518
G1 Z13.389 X0.131 Y-17.499356
G1 Z13.399 X0.318 Y-15.998977
G1 Z13.409 X0.431 Y-14.512445
G1 Z13.418 X0.481 Y-13.038801
G1 Z13.428 X0.480 Y-11.575074
G1 Z13.438 X0.441 Y-10.121285
G1 Z13.500 X-0.076 Y-0.650887
G1 Z13.527 X-0.348 Y3.388304 F600.000
G1 Z13.552 X-0.410 Y7.126556
G1 Z13.590 X-0.382 Y12.948439
G1 Z13.593 X-0.866 Y13.043899
G1 Z13.610 X-1.775 Y10.777047
G1 Z13.617 X-2.172 Y9.717990
G1 Z13.632 X-2.919 Y7.599766
G1 Z13.647 X-3.617 Y5.490361
G1 Z13.660 X-4.213 Y3.546643
G1 Z13.661 X-4.286 Y3.358059
G1 Z13.667 X-4.524 Y2.515208
G1 Z13.669 X-4.607 Y2.292881
G1 Z13.674 X-4.830 Y1.475826
G1 Z13.676 X-4.922 Y1.215759
G1 Z13.682 X-5.130 Y0.426492
G1 Z13.684 X-5.232 Y0.126714
G1 Z13.689 X-5.425 Y-0.635228
G1 Z13.691 X-5.538 Y-0.983799
G1 Z13.706 X-6.086 Y-3.092103
G1 Z13.716 X-6.456 Y-4.643297
G1 Z13.728 X-6.774 Y-6.306182
G1 Z13.733 X-6.901 Y-7.189447
G1 Z13.740 X-7.001 Y-8.124049
G1 Z13.746 X-7.070 Y-9.113011
G1 Z13.753 X-7.104 Y-10.162382
G1 Z13.763 X-7.092 Y-11.612564
G1 Z13.769 X-7.045 Y-12.584396
G1 Z13.778 X-6.922 Y-13.869465
G1 Z13.787 X-6.714 Y-15.187836
G1 Z13.791 X-6.575 Y-15.840523
G1 Z13.795 X-6.409 Y-16.487211
G1 Z13.804 X-5.988 Y-17.770693
G1 Z13.813 X-5.473 Y-18.981934
G1 Z13.821 X-4.886 Y-20.088734
G1 Z13.829 X-4.254 Y-21.056846
G1 Z13.836 X-3.606 Y-21.846024
G1 Z13.841 X-2.978 Y-22.423015
G1 Z13.846 X-2.421 Y-22.756567
G1 Z13.849 X-1.986 Y-22.852700
G1 Z13.851 X-1.656 Y-22.756114
G1 Z13.852 X-1.495 Y-22.621587 F600.000
G1 Z13.854 X-1.318 Y-22.404551
G1 Z13.857 X-1.138 Y-22.112964
G1 Z13.859 X-0.964 Y-21.754760
G1 Z13.862 X-0.800 Y-21.343867
G1 Z13.869 X-0.508 Y-20.413711
G1 Z13.877 X-0.221 Y-19.229262
G1 Z13.887 X0.052 Y-17.713084
G1 Z13.897 X0.239 Y-16.211710
G1 Z13.907 X0.353 Y-14.723188
G1 Z13.917 X0.404 Y-13.247555
G1 Z13.926 X0.404 Y-11.783839
G1 Z13.936 X0.365 Y-10.329056
G1 Z13.945 X0.299 Y-8.884210
G1 Z13.991 X-0.118 Y-1.970844
G1 Z14.000 X-0.182 Y-0.655090
G1 Z14.017 X-0.416 Y1.930302 F600.000
G1 Z14.034 X-0.506 Y4.495326
G1 Z14.059 X-0.555 Y8.125816
G1 Z14.089 X-0.548 Y12.637502
G1 Z14.092 X-1.029 Y12.732944
G1 Z14.099 X-1.452 Y11.699782
G1 Z14.110 X-1.999 Y10.282450
G1 Z14.129 X-2.987 Y7.467402
G1 Z14.144 X-3.666 Y5.370875
G1 Z14.159 X-4.312 Y3.267327
G1 Z14.174 X-4.933 Y1.138901
G1 Z14.187 X-5.449 Y-0.786884
G1 Z14.189 X-5.538 Y-1.058897
G1 Z14.203 X-6.080 Y-3.175239
G1 Z14.214 X-6.443 Y-4.714346
G1 Z14.225 X-6.756 Y-6.366151
G1 Z14.231 X-6.882 Y-7.245382
G1 Z14.237 X-6.981 Y-8.175955
G1 Z14.244 X-7.050 Y-9.161895
G1 Z14.251 X-7.084 Y-10.208249
G1 Z14.261 X-7.074 Y-11.689651
G1 Z14.267 X-7.025 Y-12.699748
G1 Z14.276 X-6.902 Y-13.990856
G1 Z14.285 X-6.695 Y-15.314263
G1 Z14.289 X-6.556 Y-15.969964
G1 Z14.294 X-6.390 Y-16.617662
G1 Z14.303 X-5.971 Y-17.901147
G1 Z14.312 X-5.458 Y-19.111374
G1 Z14.320 X-4.875 Y-20.215145
G1 Z14.328 X-4.246 Y-21.178217
G1 Z14.334 X-3.603 Y-21.963349
G1 Z14.340 X-2.980 Y-22.536290
G1 Z14.344 X-2.429 Y-22.864789
G1 Z14.347 X-2.006 Y-22.956828
G1 Z14.349 X-1.688 Y-22.863155
G1 Z14.351 X-1.532 Y-22.737561 F600.000
G1 Z14.353 X-1.361 Y-22.529450
G1 Z14.355 X-1.185 Y-22.242819
G1 Z14.357 X-1.014 Y-21.889574
G1 Z14.360 X-0.852 Y-21.482646
G1 Z14.367 X-0.566 Y-20.558439
G1 Z14.374 X-0.300 Y-19.443490
G1 Z14.385 X-0.027 Y-17.926313
G1 Z14.395 X0.160 Y-16.424944
G1 Z14.405 X0.275 Y-14.935432
G1 Z14.415 X0.327 Y-13.457811
G1 Z14.424 X0.328 Y-11.991105
G1 Z14.434 X0.290 Y-10.536329
G1 Z14.444 X0.223 Y-9.091484
G1 Z14.500 X-0.292 Y-0.661794
G1 Z14.517 X-0.485 Y1.807167 F600.000
G1 Z14.534 X-0.570 Y4.365141
G1 Z14.550 X-0.607 Y6.809301
G1 Z14.588 X-0.600 Y12.449905
G1 Z14.591 X-1.084 Y12.542364
G1 Z14.605 X-1.884 Y10.529577
G1 Z14.621 X-2.656 Y8.411405
G1 Z14.635 X-3.373 Y6.300056
G1 Z14.643 X-3.726 Y5.213085
G1 Z14.657 X-4.343 Y3.163119
G1 Z14.672 X-4.948 Y1.046575
G1 Z14.687 X-5.534 Y-1.120336
G1 Z14.702 X-6.074 Y-3.257813
G1 Z14.712 X-6.430 Y-4.786832
G1 Z14.724 X-6.739 Y-6.427557
G1 Z14.729 X-6.863 Y-7.300754
G1 Z14.736 X-6.961 Y-8.227298
G1 Z14.742 X-7.030 Y-9.210215
G1 Z14.749 X-7.065 Y-10.254553
G1 Z14.759 X-7.055 Y-11.767176
G1 Z14.766 X-7.005 Y-12.814536
G1 Z14.775 X-6.882 Y-14.111683
G1 Z14.784 X-6.675 Y-15.440126
G1 Z14.789 X-6.537 Y-16.097842
G1 Z14.793 X-6.372 Y-16.747549
G1 Z14.802 X-5.954 Y-18.032038
G1 Z14.811 X-5.444 Y-19.240251
G1 Z14.819 X-4.863 Y-20.342993
G1 Z14.827 X-4.239 Y-21.300026
G1 Z14.834 X-3.599 Y-22.081112
G1 Z14.839 X-2.981 Y-22.648001
G1 Z14.843 X-2.442 Y-22.969410
G1 Z14.846 X-2.007 Y-23.054522
G1 Z14.848 X-1.708 Y-22.966707
G1 Z14.850 X-1.573 Y-22.858924 F600.000
G1 Z14.851 X-1.405 Y-22.654776
G1 Z14.854 X-1.232 Y-22.373098
G1 Z14.856 X-1.064 Y-22.024814
G1 Z14.859 X-0.905 Y-21.622852
G1 Z14.865 X-0.624 Y-20.704592
G1 Z14.873 X-0.378 Y-19.657142
G1 Z14.883 X-0.106 Y-18.140968
G1 Z14.893 X0.081 Y-16.637605
G1 Z14.903 X0.197 Y-15.146103
G1 Z14.913 X0.250 Y-13.667494
G1 Z14.923 X0.253 Y-12.200798
G1 Z14.932 X0.215 Y-10.743028
G1 Z14.942 X0.147 Y-9.298188
G1 Z15.000 X-0.369 Y-0.664923
G1 Z15.025 X-0.571 Y2.990621 F600.000
G1 Z15.049 X-0.650 Y6.680534
G1 Z15.087 X-0.652 Y12.277840
G1 Z15.090 X-1.134 Y12.371287
G1 Z15.096 X-1.490 Y11.489964
G1 Z15.112 X-2.289 Y9.372855
G1 Z15.134 X-3.372 Y6.215288
G1 Z15.149 X-4.041 Y4.116761
G1 Z15.161 X-4.549 Y2.436088
G1 Z15.178 X-5.250 Y-0.112639
G1 Z15.193 X-5.814 Y-2.297486
G1 Z15.206 X-6.246 Y-4.089428
G1 Z15.217 X-6.578 Y-5.656679
G1 Z15.222 X-6.721 Y-6.483574
G1 Z15.228 X-6.844 Y-7.356763
G1 Z15.234 X-6.941 Y-8.279278
G1 Z15.241 X-7.010 Y-9.259179
G1 Z15.246 X-7.037 Y-9.967151
G1 Z15.254 X-7.049 Y-11.252173
G1 Z15.266 X-6.985 Y-12.932978
G1 Z15.274 X-6.862 Y-14.232147
G1 Z15.283 X-6.656 Y-15.566627
G1 Z15.288 X-6.518 Y-16.225357
G1 Z15.292 X-6.354 Y-16.876073
G1 Z15.301 X-5.938 Y-18.163566
G1 Z15.310 X-5.430 Y-19.370764
G1 Z15.319 X-4.852 Y-20.468473
G1 Z15.326 X-4.232 Y-21.415424
G1 Z15.333 X-3.597 Y-22.179399
G1 Z15.338 X-2.983 Y-22.737227
G1 Z15.343 X-2.443 Y-23.057631
G1 Z15.345 X-2.049 Y-23.141465
G1 Z15.348 X-1.725 Y-23.049827
G1 Z15.349 X-1.607 Y-22.954893 F600.000
G1 Z15.350 X-1.443 Y-22.757691
G1 Z15.352 X-1.273 Y-22.479979
G1 Z15.355 X-1.107 Y-22.134666
G1 Z15.358 X-0.950 Y-21.734682
G1 Z15.361 X-0.806 Y-21.295925
G1 Z15.368 X-0.548 Y-20.315047
G1 Z15.371 X-0.439 Y-19.816631
G1 Z15.381 X-0.168 Y-18.307396
G1 Z15.392 X0.024 Y-16.798077
G1 Z15.402 X0.146 Y-15.258928
G1 Z15.412 X0.202 Y-13.817053
G1 Z15.422 X0.209 Y-12.289781
G1 Z15.432 X0.176 Y-10.823079
G1 Z15.442 X0.112 Y-9.369298
G1 Z15.500 X-0.406 Y-0.666519
G1 Z15.515 X-0.558 Y1.599457 F600.000
G1 Z15.532 X-0.650 Y4.133259
G1 Z15.549 X-0.694 Y6.553255
G1 Z15.586 X-0.703 Y12.097189
G1 Z15.589 X-1.185 Y12.190637
G1 Z15.595 X-1.509 Y11.384740
G1 Z15.610 X-2.301 Y9.273569
G1 Z15.625 X-3.026 Y7.177140
G1 Z15.640 X-3.705 Y5.088571
G1 Z15.655 X-4.351 Y2.991972
G1 Z15.670 X-4.967 Y0.873460
G1 Z15.692 X-5.808 Y-2.364951
G1 Z15.705 X-6.236 Y-4.166951
G1 Z15.715 X-6.562 Y-5.722116
G1 Z15.721 X-6.703 Y-6.544973
G1 Z15.727 X-6.825 Y-7.412128
G1 Z15.733 X-6.922 Y-8.331614
G1 Z15.740 X-6.990 Y-9.308492
G1 Z15.745 X-7.019 Y-10.071853
G1 Z15.757 X-7.021 Y-11.796967
G1 Z15.765 X-6.965 Y-13.045745
G1 Z15.774 X-6.842 Y-14.352967
G1 Z15.783 X-6.636 Y-15.692483
G1 Z15.788 X-6.499 Y-16.353227
G1 Z15.792 X-6.335 Y-17.006953
G1 Z15.801 X-5.933 Y-18.257179
G1 Z15.810 X-5.415 Y-19.451319
G1 Z15.818 X-4.839 Y-20.516822
G1 Z15.825 X-4.221 Y-21.447671
G1 Z15.832 X-3.589 Y-22.208617
G1 Z15.838 X-2.979 Y-22.763404
G1 Z15.842 X-2.444 Y-23.079766
G1 Z15.845 X-2.049 Y-23.163606
G1 Z15.846 X-1.811 Y-23.094343
G1 Z15.847 X-1.738 Y-23.072882 F600.000
G1 Z15.848 X-1.620 Y-22.976949
G1 Z15.849 X-1.455 Y-22.776766
G1 Z15.851 X-1.297 Y-22.518896
G1 Z15.854 X-1.132 Y-22.176558
G1 Z15.857 X-0.978 Y-21.786502
G1 Z15.863 X-0.699 Y-20.867250
G1 Z15.870 X-0.468 Y-19.871429
G1 Z15.880 X-0.208 Y-18.419786
G1 Z15.890 X-0.015 Y-16.914439
G1 Z15.901 X0.114 Y-15.305775
G1 Z15.910 X0.166 Y-13.940366
G1 Z15.921 X0.176 Y-12.343578
G1 Z15.931 X0.143 Y-10.881849
G1 Z15.941 X0.080 Y-9.431041
G1 Z16.000 X-0.446 Y-0.668685
G1 Z16.015 X-0.594 Y1.495907 F600.000
G1 Z16.032 X-0.690 Y4.016623
G1 Z16.048 X-0.738 Y6.425537
G1 Z16.085 X-0.755 Y11.916100
G1 Z16.089 X-1.237 Y12.008550
G1 Z16.094 X-1.529 Y11.278071
G1 Z16.109 X-2.312 Y9.177819
G1 Z16.131 X-3.370 Y6.046020
G1 Z16.146 X-4.023 Y3.966330
G1 Z16.161 X-4.646 Y1.872674
G1 Z16.185 X-5.578 Y-1.526412
G1 Z16.199 X-6.056 Y-3.504707
G1 Z16.209 X-6.391 Y-4.999464
G1 Z16.220 X-6.686 Y-6.608949
G1 Z16.226 X-6.806 Y-7.468045
G1 Z16.232 X-6.902 Y-8.382503
G1 Z16.239 X-6.970 Y-9.355352
G1 Z16.246 X-7.007 Y-10.393641
G1 Z16.257 X-6.999 Y-12.000924
G1 Z16.265 X-6.945 Y-13.159075
G1 Z16.273 X-6.822 Y-14.473340
G1 Z16.283 X-6.617 Y-15.818892
G1 Z16.287 X-6.480 Y-16.477622
G1 Z16.292 X-6.316 Y-17.098130
G1 Z16.300 X-5.900 Y-18.332274
G1 Z16.309 X-5.395 Y-19.494169
G1 Z16.317 X-4.823 Y-20.555635
G1 Z16.325 X-4.208 Y-21.481442
G1 Z16.331 X-3.580 Y-22.238345
G1 Z16.337 X-2.975 Y-22.788090
G1 Z16.341 X-2.445 Y-23.102412
G1 Z16.344 X-2.054 Y-23.184219
G1 Z16.344 X-1.965 Y-23.158869
G1 Z16.346 X-1.748 Y-23.093463 F600.000
G1 Z16.347 X-1.633 Y-22.998510
G1 Z16.349 X-1.469 Y-22.799319
G1 Z16.351 X-1.320 Y-22.556318
G1 Z16.353 X-1.156 Y-22.219954
G1 Z16.356 X-1.002 Y-21.827911
G1 Z16.362 X-0.729 Y-20.926524
G1 Z16.369 X-0.498 Y-19.929708
G1 Z16.379 X-0.247 Y-18.532676
G1 Z16.390 X-0.035 Y-16.847601
G1 Z16.400 X0.081 Y-15.353121
G1 Z16.411 X0.137 Y-13.870542
G1 Z16.420 X0.143 Y-12.399874
G1 Z16.430 X0.110 Y-10.941112
G1 Z16.450 X-0.034 Y-8.055404
G1 Z16.500 X-0.485 Y-0.670357
G1 Z16.531 X-0.729 Y3.899488 F600.000
G1 Z16.547 X-0.781 Y6.296326
G1 Z16.584 X-0.806 Y11.735512
G1 Z16.588 X-1.289 Y11.826963
G1 Z16.608 X-2.323 Y9.079571
G1 Z16.630 X-3.369 Y5.962657
G1 Z16.645 X-4.015 Y3.892886
G1 Z16.660 X-4.631 Y1.806157
G1 Z16.675 X-5.220 Y-0.314607
G1 Z16.690 X-5.786 Y-2.491400
G1 Z16.708 X-6.378 Y-5.070986
G1 Z16.719 X-6.668 Y-6.668391
G1 Z16.725 X-6.787 Y-7.524454
G1 Z16.731 X-6.882 Y-8.434883
G1 Z16.738 X-6.950 Y-9.404710
G1 Z16.745 X-6.987 Y-10.439983
G1 Z16.755 X-6.982 Y-12.015046
G1 Z16.764 X-6.925 Y-13.275901
G1 Z16.773 X-6.802 Y-14.597228
G1 Z16.778 X-6.711 Y-15.246832
G1 Z16.786 X-6.453 Y-16.531031
G1 Z16.791 X-6.290 Y-17.149518
G1 Z16.800 X-5.876 Y-18.379634
G1 Z16.808 X-5.375 Y-19.537492
G1 Z16.816 X-4.806 Y-20.593919
G1 Z16.824 X-4.195 Y-21.515682
G1 Z16.831 X-3.572 Y-22.267542
G1 Z16.836 X-2.971 Y-22.814245
G1 Z16.840 X-2.446 Y-23.124527
G1 Z16.843 X-2.061 Y-23.205292
G1 Z16.845 X-1.758 Y-23.114511
G1 Z16.846 X-1.643 Y-23.019558 F600.000
G1 Z16.847 X-1.511 Y-22.859015
G1 Z16.850 X-1.343 Y-22.592229
G1 Z16.852 X-1.181 Y-22.261819
G1 Z16.855 X-1.028 Y-21.873746
G1 Z16.861 X-0.757 Y-20.979308
G1 Z16.868 X-0.529 Y-19.987455
G1 Z16.877 X-0.287 Y-18.644038
G1 Z16.890 X-0.066 Y-16.890449
G1 Z16.900 X0.049 Y-15.400940
G1 Z16.910 X0.104 Y-13.921335
G1 Z16.920 X0.110 Y-12.453643
G1 Z16.930 X0.077 Y-10.999856
G1 Z16.949 X-0.066 Y-8.120096
G1 Z17.000 X-0.520 Y-0.672494
ID=1 WHEN $AC_TIMER[1]>=0 DO M51
M0
;TURN OFF POWDER!!!
M0
G4F5

;End of Programm--------------------
M55				;home mirror
M30				;program end

; filament used = 190.7mm (1.3cm3)

; avoid_crossing_perimeters = 0
; bed_shape = -150x-150,150x-150,150x150,-150x150
; bed_temperature = 0
; before_layer_gcode = 
; bridge_acceleration = 0
; bridge_fan_speed = 100
; brim_width = 0
; complete_objects = 0
; cooling = 0
; default_acceleration = 0
; disable_fan_first_layers = 3
; duplicate_distance = 6
; end_gcode = M0\n;TURN OFF POWDER!!!\nM0\nG4F5\n\n;End of Programm--------------------\nM55				;home mirror\nM30				;program end\n
; extruder_clearance_height = 20
; extruder_clearance_radius = 20
; extruder_offset = 0x0
; extrusion_axis = E
; extrusion_multiplier = 1
; fan_always_on = 0
; fan_below_layer_time = 60
; filament_colour = #FFFFFF
; filament_diameter = 3
; first_layer_acceleration = 0
; first_layer_bed_temperature = 0
; first_layer_extrusion_width = 0
; first_layer_speed = 100%
; first_layer_temperature = 205
; gcode_arcs = 0
; gcode_comments = 0
; gcode_flavor = reprap
; infill_acceleration = 0
; infill_first = 0
; layer_gcode = 
; max_fan_speed = 100
; max_print_speed = 80
; max_volumetric_speed = 0
; min_fan_speed = 35
; min_print_speed = 33
; min_skirt_length = 0
; notes = 
; nozzle_diameter = 3
; only_retract_when_crossing_perimeters = 0
; ooze_prevention = 0
; output_filename_format = [input_filename_base].gcode
; perimeter_acceleration = 0
; post_process = 
; pressure_advance = 0
; resolution = 0
; retract_before_travel = 2
; retract_layer_change = 0
; retract_length = 0
; retract_length_toolchange = 10
; retract_lift = 0
; retract_restart_extra = 0
; retract_restart_extra_toolchange = 0
; retract_speed = 40
; skirt_distance = 6
; skirt_height = 1
; skirts = 0
; slowdown_below_layer_time = 5
; spiral_vase = 1
; standby_temperature_delta = -5
; start_gcode = $AC_TIMER[1]=0\n\n;General Config.--------------------\nG641			;\nG603			;\nM55			;home mirror\nG4F4			;necessary delay for positioning of the mirror				\nM0			;wait for user-input\n\n;Process Start-up-------------------\nM56			;set canal 1 as laser-source\nG4F4			;necessary delay for positioning of the mirror\nM0			;wait for user-input\n;START POWDER!!!\nG4F15\n\nM0\n\nG54\n
; temperature = 200
; threads = 2
; toolchange_gcode = 
; travel_speed = 33
; use_firmware_retraction = 0
; use_relative_e_distances = 0
; use_volumetric_e = 0
; vibration_limit = 0
; wipe = 0
; z_offset = 0
; dont_support_bridges = 1
; extrusion_width = 1.1
; first_layer_height = 100%
; infill_only_where_needed = 0
; interface_shells = 0
; layer_height = 0.5
; raft_layers = 0
; seam_position = aligned
; support_material = 0
; support_material_angle = 0
; support_material_contact_distance = 0.2
; support_material_enforce_layers = 0
; support_material_extruder = 1
; support_material_extrusion_width = 0
; support_material_interface_extruder = 1
; support_material_interface_layers = 3
; support_material_interface_spacing = 0
; support_material_interface_speed = 100%
; support_material_pattern = pillars
; support_material_spacing = 2.5
; support_material_speed = 60
; support_material_threshold = 0
; xy_size_compensation = 0
; bottom_solid_layers = 0
; bridge_flow_ratio = 1
; bridge_speed = 33.3333
; external_fill_pattern = rectilinear
; external_perimeter_extrusion_width = 0
; external_perimeter_speed = 100%
; external_perimeters_first = 0
; extra_perimeters = 1
; fill_angle = 45
; fill_density = 0%
; fill_pattern = rectilinear
; gap_fill_speed = 33.3333
; infill_every_layers = 1
; infill_extruder = 1
; infill_extrusion_width = 0
; infill_overlap = 15%
; infill_speed = 33.3333
; overhangs = 1
; perimeter_extruder = 1
; perimeter_extrusion_width = 0
; perimeter_speed = 10
; perimeters = 1
; small_perimeter_speed = 100%
; solid_infill_below_area = 70
; solid_infill_every_layers = 0
; solid_infill_extruder = 1
; solid_infill_extrusion_width = 0
; solid_infill_speed = 100%
; thin_walls = 1
; top_infill_extrusion_width = 0
; top_solid_infill_speed = 100%
; top_solid_layers = 0
