; generated by Slic3r 1.2.9 on 2017-04-19 at 12:59:07

; external perimeters extrusion width = 3.00mm
; perimeters extrusion width = 3.00mm
; infill extrusion width = 3.00mm
; solid infill extrusion width = 3.00mm
; top infill extrusion width = 3.00mm

;General Config.--------------------
G641			;
G603			;
M55			;home mirror
G4F4			;necessary delay for positioning of the mirror				
M0			;wait for user-input

;R-Parameters-----------------------
R0=1500			;Laser Power


;Process Start-up-------------------
M56			;set canal 1 as laser-source
G4F4			;necessary delay for positioning of the mirror
M0			;wait for user-input
;START POWDER!!!
G4F15
H=R0
G54

G90 ; use absolute coordinates

G1 Z1.000 F3999.960
G4 F30
G1 X13.500 Y-13.500 F3999.960
M50
G1 X13.500 Y13.500 F1999.980
G1 X-13.500 Y13.500
G1 X-13.500 Y-13.500
G1 X12.450 Y-13.500
M51
G1 X11.743 Y-10.522 F3999.960
M50
G1 X10.522 Y-11.743 F1999.980
G1 X6.473 Y-11.743
G1 X11.743 Y-6.473
G1 X11.743 Y-2.425
G1 X2.425 Y-11.743
G1 X-1.623 Y-11.743
G1 X11.743 Y1.623
G1 X11.743 Y5.671
G1 X-5.671 Y-11.743
G1 X-9.719 Y-11.743
G1 X11.743 Y9.719
G1 X9.719 Y11.743
G1 X-11.743 Y-9.719
G1 X-11.743 Y-5.671
G1 X5.671 Y11.743
G1 X1.623 Y11.743
G1 X-11.743 Y-1.623
G1 X-11.743 Y2.425
G1 X-2.425 Y11.743
G1 X-6.473 Y11.743
G1 X-11.743 Y6.473
G1 X-11.743 Y10.522
G1 X-10.522 Y11.743
M51
G1 Z2.000 F3999.960
G4 F30
G1 X13.500 Y-13.500 F3999.960
M50
G1 X13.500 Y13.500 F1999.980
G1 X-13.500 Y13.500
G1 X-13.500 Y-13.500
G1 X12.450 Y-13.500
M51
G1 X-11.743 Y-10.522 F3999.960
M50
G1 X-10.522 Y-11.743 F1999.980
G1 X-6.473 Y-11.743
G1 X-11.743 Y-6.473
G1 X-11.743 Y-2.425
G1 X-2.425 Y-11.743
G1 X1.623 Y-11.743
G1 X-11.743 Y1.623
G1 X-11.743 Y5.671
G1 X5.671 Y-11.743
G1 X9.719 Y-11.743
G1 X-11.743 Y9.719
G1 X-9.719 Y11.743
G1 X11.743 Y-9.719
G1 X11.743 Y-5.671
G1 X-5.671 Y11.743
G1 X-1.623 Y11.743
G1 X11.743 Y-1.623
G1 X11.743 Y2.425
G1 X2.425 Y11.743
G1 X6.473 Y11.743
G1 X11.743 Y6.473
G1 X11.743 Y10.522
G1 X10.522 Y11.743
M51
G1 Z3.000 F3999.960
G4 F30
G1 X13.500 Y-13.500 F3999.960
M50
G1 X13.500 Y13.500 F1999.980
G1 X-13.500 Y13.500
G1 X-13.500 Y-13.500
G1 X12.450 Y-13.500
M51
G1 X11.743 Y-10.522 F3999.960
M50
G1 X10.522 Y-11.743 F1999.980
G1 X6.473 Y-11.743
G1 X11.743 Y-6.473
G1 X11.743 Y-2.425
G1 X2.425 Y-11.743
G1 X-1.623 Y-11.743
G1 X11.743 Y1.623
G1 X11.743 Y5.671
G1 X-5.671 Y-11.743
G1 X-9.719 Y-11.743
G1 X11.743 Y9.719
G1 X9.719 Y11.743
G1 X-11.743 Y-9.719
G1 X-11.743 Y-5.671
G1 X5.671 Y11.743
G1 X1.623 Y11.743
G1 X-11.743 Y-1.623
G1 X-11.743 Y2.425
G1 X-2.425 Y11.743
G1 X-6.473 Y11.743
G1 X-11.743 Y6.473
G1 X-11.743 Y10.522
G1 X-10.522 Y11.743
M51
G1 Z4.000 F3999.960
G4 F30
G1 X13.500 Y-13.500 F3999.960
M50
G1 X13.500 Y13.500 F1999.980
G1 X-13.500 Y13.500
G1 X-13.500 Y-13.500
G1 X12.450 Y-13.500
M51
G1 X-11.743 Y-10.522 F3999.960
M50
G1 X-10.522 Y-11.743 F1999.980
G1 X-6.473 Y-11.743
G1 X-11.743 Y-6.473
G1 X-11.743 Y-2.425
G1 X-2.425 Y-11.743
G1 X1.623 Y-11.743
G1 X-11.743 Y1.623
G1 X-11.743 Y5.671
G1 X5.671 Y-11.743
G1 X9.719 Y-11.743
G1 X-11.743 Y9.719
G1 X-9.719 Y11.743
G1 X11.743 Y-9.719
G1 X11.743 Y-5.671
G1 X-5.671 Y11.743
G1 X-1.623 Y11.743
G1 X11.743 Y-1.623
G1 X11.743 Y2.425
G1 X2.425 Y11.743
G1 X6.473 Y11.743
G1 X11.743 Y6.473
G1 X11.743 Y10.522
G1 X10.522 Y11.743
M51
G1 Z5.000 F3999.960
G4 F30
G1 X13.500 Y-13.500 F3999.960
M50
G1 X13.500 Y13.500 F1999.980
G1 X-13.500 Y13.500
G1 X-13.500 Y-13.500
G1 X12.450 Y-13.500
M51
G1 X11.743 Y-10.522 F3999.960
M50
G1 X10.522 Y-11.743 F1999.980
G1 X6.473 Y-11.743
G1 X11.743 Y-6.473
G1 X11.743 Y-2.425
G1 X2.425 Y-11.743
G1 X-1.623 Y-11.743
G1 X11.743 Y1.623
G1 X11.743 Y5.671
G1 X-5.671 Y-11.743
G1 X-9.719 Y-11.743
G1 X11.743 Y9.719
G1 X9.719 Y11.743
G1 X-11.743 Y-9.719
G1 X-11.743 Y-5.671
G1 X5.671 Y11.743
G1 X1.623 Y11.743
G1 X-11.743 Y-1.623
G1 X-11.743 Y2.425
G1 X-2.425 Y11.743
G1 X-6.473 Y11.743
G1 X-11.743 Y6.473
G1 X-11.743 Y10.522
G1 X-10.522 Y11.743
M51
G1 Z6.000 F3999.960
G4 F30
G1 X13.500 Y-13.500 F3999.960
M50
G1 X13.500 Y13.500 F1999.980
G1 X-13.500 Y13.500
G1 X-13.500 Y-13.500
G1 X12.450 Y-13.500
M51
G1 X-11.743 Y-10.522 F3999.960
M50
G1 X-10.522 Y-11.743 F1999.980
G1 X-6.473 Y-11.743
G1 X-11.743 Y-6.473
G1 X-11.743 Y-2.425
G1 X-2.425 Y-11.743
G1 X1.623 Y-11.743
G1 X-11.743 Y1.623
G1 X-11.743 Y5.671
G1 X5.671 Y-11.743
G1 X9.719 Y-11.743
G1 X-11.743 Y9.719
G1 X-9.719 Y11.743
G1 X11.743 Y-9.719
G1 X11.743 Y-5.671
G1 X-5.671 Y11.743
G1 X-1.623 Y11.743
G1 X11.743 Y-1.623
G1 X11.743 Y2.425
G1 X2.425 Y11.743
G1 X6.473 Y11.743
G1 X11.743 Y6.473
G1 X11.743 Y10.522
G1 X10.522 Y11.743
M51
G1 Z7.000 F3999.960
G4 F30
G1 X13.500 Y-13.500 F3999.960
M50
G1 X13.500 Y13.500 F1999.980
G1 X-13.500 Y13.500
G1 X-13.500 Y-13.500
G1 X12.450 Y-13.500
M51
G1 X11.743 Y-10.522 F3999.960
M50
G1 X10.522 Y-11.743 F1999.980
G1 X6.473 Y-11.743
G1 X11.743 Y-6.473
G1 X11.743 Y-2.425
G1 X2.425 Y-11.743
G1 X-1.623 Y-11.743
G1 X11.743 Y1.623
G1 X11.743 Y5.671
G1 X-5.671 Y-11.743
G1 X-9.719 Y-11.743
G1 X11.743 Y9.719
G1 X9.719 Y11.743
G1 X-11.743 Y-9.719
G1 X-11.743 Y-5.671
G1 X5.671 Y11.743
G1 X1.623 Y11.743
G1 X-11.743 Y-1.623
G1 X-11.743 Y2.425
G1 X-2.425 Y11.743
G1 X-6.473 Y11.743
G1 X-11.743 Y6.473
G1 X-11.743 Y10.522
G1 X-10.522 Y11.743
M51
G1 Z8.000 F3999.960
G4 F30
G1 X13.500 Y-13.500 F3999.960
M50
G1 X13.500 Y13.500 F1999.980
G1 X-13.500 Y13.500
G1 X-13.500 Y-13.500
G1 X12.450 Y-13.500
M51
G1 X-11.743 Y-10.522 F3999.960
M50
G1 X-10.522 Y-11.743 F1999.980
G1 X-6.473 Y-11.743
G1 X-11.743 Y-6.473
G1 X-11.743 Y-2.425
G1 X-2.425 Y-11.743
G1 X1.623 Y-11.743
G1 X-11.743 Y1.623
G1 X-11.743 Y5.671
G1 X5.671 Y-11.743
G1 X9.719 Y-11.743
G1 X-11.743 Y9.719
G1 X-9.719 Y11.743
G1 X11.743 Y-9.719
G1 X11.743 Y-5.671
G1 X-5.671 Y11.743
G1 X-1.623 Y11.743
G1 X11.743 Y-1.623
G1 X11.743 Y2.425
G1 X2.425 Y11.743
G1 X6.473 Y11.743
G1 X11.743 Y6.473
G1 X11.743 Y10.522
G1 X10.522 Y11.743
M51
G1 Z9.000 F3999.960
G4 F30
G1 X13.500 Y-13.500 F3999.960
M50
G1 X13.500 Y13.500 F1999.980
G1 X-13.500 Y13.500
G1 X-13.500 Y-13.500
G1 X12.450 Y-13.500
M51
G1 X11.743 Y-10.522 F3999.960
M50
G1 X10.522 Y-11.743 F1999.980
G1 X6.473 Y-11.743
G1 X11.743 Y-6.473
G1 X11.743 Y-2.425
G1 X2.425 Y-11.743
G1 X-1.623 Y-11.743
G1 X11.743 Y1.623
G1 X11.743 Y5.671
G1 X-5.671 Y-11.743
G1 X-9.719 Y-11.743
G1 X11.743 Y9.719
G1 X9.719 Y11.743
G1 X-11.743 Y-9.719
G1 X-11.743 Y-5.671
G1 X5.671 Y11.743
G1 X1.623 Y11.743
G1 X-11.743 Y-1.623
G1 X-11.743 Y2.425
G1 X-2.425 Y11.743
G1 X-6.473 Y11.743
G1 X-11.743 Y6.473
G1 X-11.743 Y10.522
G1 X-10.522 Y11.743
M51
M0
;TURN OFF POWDER!!!
M0
G4F15

;End of Programm--------------------
M55				;home mirror
M30				;program end

