;Gerado com pos-processador LMP Laser Tool para Inkscape
;Processo: 
;Velocidade(m/min):
;Potencia (kW):
;Espessura(mm): 
;Material:

;Configuracoes gerais
G90 ;Cordenadas absolutas 
G64 ;Modo de velocidade constante	
G54 ;Sistema de cordenadas da peca 
M55 ;Espelho para a posicao home
G4F4 ;Aguarda o posicionamento do espelho 
M56 ;Habilita o canal 1 da fonte LASER
G4F4 ;Aguarda o posicionamento do espelho 

;Verificacao da focagem e ou posicao da peca (nao obrigatorio)
G1 X0 Y0 Z100 F2000
G1 Z0 F2000
M0 

G1 F4000
G1 X16.138483 Y2.966607
G4 F0 
M50 H1500
G4 F0
G1 F4000.000000
G1 X16.083619 Y5.367331
G1 X12.702992 Y5.420896
G1 X9.322365 Y5.474462
G1 X9.322365 Y8.801467
G1 X9.322365 Y12.128444
G1 X12.751986 Y12.128444
G1 X16.181607 Y12.128444
G1 X16.181607 Y15.330707
G3 X15.620588 Y19.962353 I-19.399435 J-0.
G3 X13.909294 Y24.573033 I-20.933654 J-5.146785
G3 X11.082927 Y29.479416 I-47.732607 J-24.22954
G3 X8.535106 Y32.856058 I-25.060421 J-16.259622
G3 X5.551728 Y35.831644 I-22.872501 J-19.949003
G3 X2.218168 Y38.33656 I-19.477301 J-22.449915
G2 X1.081714 Y39.293801 I3.216752 J4.972216
G2 X0.895336 Y39.770785 I0.517166 J0.476984
G1 X0.895336 Y40.349256
G1 X7.029831 Y40.349256
G1 X13.164312 Y40.349256
G1 X14.721953 Y38.565922
G2 X17.51855 Y35.042894 I-36.068651 J-31.502959
G2 X19.474886 Y31.963812 I-25.556824 J-18.39891
G1 X20.382513 Y30.333753
G1 X20.780813 Y31.050965
G2 X23.592821 Y35.532572 I43.266684 J-24.024898
G2 X26.469849 Y39.124383 I30.600403 J-21.562663
G1 X27.581183 Y40.349256
G1 X33.738087 Y40.349256
G1 X39.894934 Y40.349256
G1 X39.894934 Y39.810296
G2 X39.716142 Y39.370575 I-0.63012 J-0.
G2 X38.572074 Y38.450972 I-4.341864 J4.230206
G3 X32.380833 Y33.236426 I14.854894 J-23.919952
G3 X27.457118 Y25.944887 I24.860673 J-22.095694
G3 X25.231643 Y19.860179 I26.270406 J-13.057712
G3 X24.651717 Y14.480173 I19.876355 J-4.863787
G1 X24.708528 Y12.226431
G1 X28.187143 Y12.172866
G1 X31.665729 Y12.1193
G1 X31.665729 Y8.796698
G1 X31.665729 Y5.474095
G1 X28.187143 Y5.420501
G1 X24.708528 Y5.366935
G1 X24.653664 Y2.966212
G1 X24.5988 Y0.565489
G1 X20.397329 Y0.565489
G1 X16.195915 Y0.565489
G1 X16.141023 Y2.966212
G1 X16.138483 Y2.966607
G4 F0 
M51 
G1 F4000
G1 X4.154876 Y38.826667
G4 F0 
M50 H1500
G4 F0
G1 F4000.000000
G2 X7.185916 Y36.381374 I-22.942647 J-31.539545
G2 X9.681916 Y33.856366 I-18.963284 J-21.241596
G2 X12.369766 Y30.292885 I-23.699538 J-20.671437
G2 X15.266811 Y25.261825 I-46.197817 J-29.951817
G2 X17.102037 Y20.313418 I-20.582198 J-10.447882
G2 X17.704308 Y15.330565 I-20.311521 J-4.982852
G1 X17.704308 Y12.128557
G2 X17.258398 Y11.052006 I-1.522377 J-0.000051
G2 X16.181832 Y10.606109 I-1.076514 J1.076548
G1 X12.752183 Y10.606109
G1 X10.844982 Y10.606109
G1 X10.844982 Y8.801411
G1 X10.844982 Y6.972498
G1 X12.727376 Y6.942723
G1 X16.107975 Y6.889242
G2 X17.156357 Y6.447354 I-0.024166 J-1.521922
G2 X17.605644 Y5.402072 I-1.072844 J-1.080332
G2 X17.654561 Y3.295075 I-2586.725259 J-61.109241
G3 X17.663048 Y3.000982 I24.336775 J0.555103
G1 X17.683932 Y2.088162
G1 X20.397555 Y2.088162
G1 X23.110642 Y2.088162
G1 X23.131527 Y3.000982
G1 X23.186645 Y5.401536
G2 X23.636368 Y6.447158 I1.522239 J-0.035192
G2 X24.685414 Y6.888706 I1.072257 J-1.080554
G1 X28.163577 Y6.942159
G1 X30.142999 Y6.973034
G1 X30.142999 Y8.796472
G1 X30.142999 Y10.620446
G1 X28.164142 Y10.650756
G1 X24.685414 Y10.704774
G2 X23.638012 Y11.145121 I0.02368 J1.522165
G2 X23.187209 Y12.188077 I1.071164 J1.0819
G1 X23.130454 Y14.441453
G2 X23.74716 Y20.193465 I21.962651 J0.554326
G2 X26.094324 Y26.62222 I29.956155 J-7.294252
G2 X30.681685 Y33.600385 I31.164047 J-15.48995
G2 X36.40647 Y38.826667 I22.996367 J-19.441289
G1 X33.738595 Y38.826667
G1 X28.255638 Y38.826667
G1 X27.597496 Y38.101271
G3 X24.850002 Y34.673216 I26.590936 J-24.126972
G3 X22.111801 Y30.31205 I39.146077 J-27.618431
G1 X21.714376 Y29.59546
G2 X20.38456 Y28.811322 I-1.331423 J0.738272
G2 X19.053105 Y29.592638 I-0.001607 J1.522398
G1 X18.145252 Y31.223148
G3 X16.29498 Y34.136989 I-26.148658 J-14.559875
G3 X13.576244 Y37.563779 I-37.603063 J-27.041518
G1 X12.473799 Y38.826046
G1 X7.030551 Y38.826046
G1 X4.155412 Y38.826046
G1 X4.154876 Y38.826667
G4 F0 
M51 
G1 F4000

G1 X0 Y0
M55
M30
