; generated by Slic3r 1.2.9 on 2017-11-09 at 14:17:23

; external perimeters extrusion width = 1.10mm
; perimeters extrusion width = 1.10mm
; infill extrusion width = 1.10mm
; solid infill extrusion width = 1.10mm
; top infill extrusion width = 1.10mm

H=2000
$AC_TIMER[1]=0

;General Config.--------------------
G641			;
G603			;
M55			;home mirror
G4F4			;necessary delay for positioning of the mirror				
M0			;wait for user-input

;Process Start-up-------------------
M56			;set canal 1 as laser-source
G4F4			;necessary delay for positioning of the mirror
M0			;wait for user-input
;START POWDER!!!
G4F15

M0

G54

G90 ; use absolute coordinates
G0 X7.585 Y7.480
ID=1 WHEN $AC_TIMER[1]>=0 DO M50
G1 X7.087 Y9.9080 F600.000
G1 X6.503 Y11.7466
G1 X5.750 Y13.4256
G1 X4.841 Y14.9418
G1 X3.776 Y16.3131
G1 X2.549 Y17.5559
G1 X1.148 Y18.6797
G1 X0.130 Y19.3394
G1 X-1.193 Y18.4871
G1 X-2.606 Y17.3291
G1 X-3.826 Y16.0595
G1 X-4.871 Y14.6730
G1 X-5.751 Y13.1610
G1 X-6.473 Y11.5070
G1 X-7.039 Y9.6952
G1 X-7.480 Y7.5856
G1 X-9.908 Y7.0876
G1 X-11.746 Y6.5032
G1 X-13.425 Y5.7502
G1 X-14.941 Y4.8413
G1 X-16.313 Y3.7767
G1 X-17.555 Y2.5495
G1 X-18.679 Y1.1483
G1 X-19.339 Y0.1309
G1 X-18.487 Y-1.1937
G1 X-17.329 Y-2.6067
G1 X-16.059 Y-3.8260
G1 X-14.673 Y-4.8716
G1 X-13.161 Y-5.7515
G1 X-11.507 Y-6.4735
G1 X-9.695 Y-7.0398
G1 X-7.585 Y-7.4801
G1 X-7.087 Y-9.9082
G1 X-6.503 Y-11.7468
G1 X-5.750 Y-13.4257
G1 X-4.841 Y-14.9419
G1 X-3.776 Y-16.3132
G1 X-2.549 Y-17.5550
G1 X-1.148 Y-18.6798
G1 X-0.132 Y-19.3377
G1 X1.123 Y-18.5173
G1 X1.212 Y-18.4712 F600.000
G1 X2.606 Y-17.3294
G1 X3.826 Y-16.0597
G1 X4.871 Y-14.6733
G1 X5.751 Y-13.1613
G1 X6.473 Y-11.5072
G1 X7.039 Y-9.6955
G1 X7.480 Y-7.5858
G1 X9.908 Y-7.0879
G1 X11.746 Y-6.5035
G1 X13.425 Y-5.7504
G1 X14.941 Y-4.8416
G1 X16.313 Y-3.7769
G1 X17.555 Y-2.5497
G1 X18.679 Y-1.1485
G1 X19.339 Y-0.1302
G1 X18.487 Y1.1930
G1 X17.329 Y2.6060
G1 X16.059 Y3.8263
G1 X14.673 Y4.8718
G1 X13.161 Y5.7518
G1 X11.507 Y6.4738
G1 X9.695 Y7.0390
G1 X8.026 Y7.3884
H=1800
G1 Z0.501 X7.678 Y7.4056 F600.000
G1 Z0.510 X7.257 Y9.4093
G1 Z0.512 X7.214 Y9.8012
G1 Z0.519 X6.725 Y11.3070
G1 Z0.520 X6.645 Y11.6698
G1 Z0.527 X6.026 Y13.0276
G1 Z0.528 X5.913 Y13.3569
G1 Z0.535 X5.167 Y14.5811
G1 Z0.536 X5.023 Y14.8822
G1 Z0.542 X4.151 Y15.9897
G1 Z0.543 X3.975 Y16.2657
G1 Z0.550 X2.973 Y17.2669
G1 Z0.551 X2.764 Y17.5217
G1 Z0.557 X1.624 Y18.4235
G1 Z0.559 X1.377 Y18.6626
G1 Z0.564 X0.367 Y19.3074
G1 Z0.569 X-0.643 Y18.6472
G1 Z0.571 X-0.962 Y18.4813
G1 Z0.577 X-2.103 Y17.5349
G1 Z0.579 X-2.389 Y17.3415
G1 Z0.585 X-3.372 Y16.3047
G1 Z0.586 X-3.623 Y16.0879
G1 Z0.592 X-4.463 Y14.9567
G1 Z0.594 X-4.683 Y14.7146
G1 Z0.600 X-5.389 Y13.4832
G1 Z0.601 X-5.581 Y13.2137
G1 Z0.608 X-6.158 Y11.8700
G1 Z0.609 X-6.323 Y11.5709
G1 Z0.616 X-6.771 Y10.1024
G1 Z0.617 X-6.911 Y9.76543
G1 Z0.623 X-7.195 Y8.36297
G1 Z0.626 X-7.405 Y7.67824
G1 Z0.635 X-9.409 Y7.25702
G1 Z0.637 X-9.801 Y7.21470
G1 Z0.644 X-11.307 Y6.72588
G1 Z0.645 X-11.669 Y6.64596
G1 Z0.652 X-13.027 Y6.02674
G1 Z0.653 X-13.356 Y5.91318
G1 Z0.660 X-14.581 Y5.16789
G1 Z0.661 X-14.882 Y5.02330
G1 Z0.667 X-15.989 Y4.15125
G1 Z0.668 X-16.265 Y3.97525
G1 Z0.675 X-17.266 Y2.97367
G1 Z0.676 X-17.521 Y2.76485
G1 Z0.682 X-18.423 Y1.62493
G1 Z0.684 X-18.662 Y1.37704
G1 Z0.689 X-19.307 Y0.36722
G1 Z0.694 X-18.647 Y-0.64390
G1 Z0.696 X-18.481 Y-0.96221
G1 Z0.702 X-17.534 Y-2.10327
G1 Z0.704 X-17.340 Y-2.38953
G1 Z0.710 X-16.304 Y-3.37286
G1 Z0.711 X-16.087 Y-3.62317
G1 Z0.717 X-14.956 Y-4.46305
G1 Z0.719 X-14.714 Y-4.68304
G1 Z0.725 X-13.483 Y-5.38971
G1 Z0.726 X-13.213 Y-5.58195
G1 Z0.733 X-11.870 Y-6.15859
G1 Z0.734 X-11.569 Y-6.32367
G1 Z0.741 X-10.102 Y-6.77142
G1 Z0.742 X-9.765 Y-6.91101
G1 Z0.748 X-8.362 Y-7.19555
G1 Z0.751 X-7.678 Y-7.40582
G1 Z0.760 X-7.257 Y-9.40960
G1 Z0.762 X-7.214 Y-9.80128
G1 Z0.769 X-6.725 Y-11.30746
G1 Z0.770 X-6.645 Y-11.66954
G1 Z0.777 X-6.026 Y-13.02732
G1 Z0.778 X-5.913 Y-13.35676
G1 Z0.785 X-5.167 Y-14.58147
G1 Z0.786 X-5.023 Y-14.88289
G1 Z0.792 X-4.151 Y-15.98983
G1 Z0.793 X-3.975 Y-16.26583
G1 Z0.800 X-2.973 Y-17.26625
G1 Z0.801 X-2.764 Y-17.52143
G1 Z0.807 X-1.624 Y-18.42351
G1 Z0.809 X-1.377 Y-18.66263
G1 Z0.814 X-0.367 Y-19.30780
G1 Z0.819 X0.643 Y-18.64748
G1 Z0.821 X0.962 Y-18.48179 F600.000
G1 Z0.827 X2.103 Y-17.53486
G1 Z0.829 X2.389 Y-17.34111
G1 Z0.835 X3.372 Y-16.30444
G1 Z0.836 X3.623 Y-16.08776
G1 Z0.842 X4.463 Y-14.95664
G1 Z0.844 X4.683 Y-14.71462
G1 Z0.850 X5.389 Y-13.48329
G1 Z0.851 X5.581 Y-13.21354
G1 Z0.858 X6.158 Y-11.87017
G1 Z0.859 X6.323 Y-11.57025
G1 Z0.866 X6.771 Y-10.10201
G1 Z0.867 X6.911 Y-9.76560
G1 Z0.873 X7.195 Y-8.36213
G1 Z0.876 X7.405 Y-7.67840
G1 Z0.885 X9.409 Y-7.25718
G1 Z0.887 X9.801 Y-7.21487
G1 Z0.894 X11.307 Y-6.72504
G1 Z0.895 X11.669 Y-6.64513
G1 Z0.902 X13.027 Y-6.02690
G1 Z0.903 X13.356 Y-5.91334
G1 Z0.910 X14.581 Y-5.16705
G1 Z0.911 X14.882 Y-5.02347
G1 Z0.917 X15.989 Y-4.15142
G1 Z0.918 X16.265 Y-3.97541
G1 Z0.925 X17.266 Y-2.97383
G1 Z0.926 X17.521 Y-2.76401
G1 Z0.932 X18.423 Y-1.62409
G1 Z0.934 X18.662 Y-1.37721
G1 Z0.939 X19.307 Y-0.36738
G1 Z0.944 X18.647 Y0.64306
G1 Z0.946 X18.481 Y0.96238
G1 Z0.952 X17.534 Y2.10344
G1 Z0.954 X17.340 Y2.38969
G1 Z0.960 X16.304 Y3.37202
G1 Z0.961 X16.087 Y3.62334
G1 Z0.967 X14.956 Y4.46322
G1 Z0.969 X14.714 Y4.68321
G1 Z0.975 X13.483 Y5.38987
G1 Z0.976 X13.213 Y5.58112
G1 Z0.983 X11.870 Y6.15875
G1 Z0.984 X11.569 Y6.32383
G1 Z0.991 X10.102 Y6.77159
G1 Z0.992 X9.765 Y6.91118
G1 Z0.998 X8.362 Y7.19572
G1 Z1.000 X8.000 Y7.30627
G1 Z1.001 X7.777 Y7.29505 F600.000
G1 Z1.009 X7.414 Y9.02398
G1 Z1.011 X7.341 Y9.69551
G1 Z1.017 X6.935 Y10.94682
G1 Z1.020 X6.797 Y11.57177
G1 Z1.025 X6.283 Y12.69772
G1 Z1.028 X6.088 Y13.26799
G1 Z1.033 X5.470 Y14.28354
G1 Z1.035 X5.219 Y14.80412
G1 Z1.041 X4.496 Y15.72319
G1 Z1.043 X4.191 Y16.20106
G1 Z1.048 X3.360 Y17.03153
G1 Z1.050 X2.997 Y17.47366
G1 Z1.056 X2.051 Y18.22136
G1 Z1.058 X1.626 Y18.63286
G1 Z1.063 X0.609 Y19.28262
G1 Z1.067 X-0.163 Y18.77834
G1 Z1.070 X-0.714 Y18.49001
G1 Z1.075 X-1.660 Y17.70436
G1 Z1.078 X-2.155 Y17.37032
G1 Z1.083 X-2.971 Y16.51055
G1 Z1.086 X-3.406 Y16.13397
G1 Z1.091 X-4.103 Y15.19698
G1 Z1.093 X-4.484 Y14.77584
G1 Z1.098 X-5.070 Y13.75451
G1 Z1.101 X-5.402 Y13.28775
G1 Z1.106 X-5.881 Y12.17391
G1 Z1.108 X-6.166 Y11.65446
G1 Z1.114 X-6.538 Y10.43691
G1 Z1.117 X-6.778 Y9.85981
G1 Z1.122 X-7.014 Y8.69428
G1 Z1.126 X-7.295 Y7.77762
G1 Z1.134 X-9.023 Y7.41455
G1 Z1.136 X-9.695 Y7.34108
G1 Z1.142 X-10.946 Y6.93538
G1 Z1.145 X-11.571 Y6.79734
G1 Z1.150 X-12.697 Y6.28328
G1 Z1.153 X-13.267 Y6.08855
G1 Z1.158 X-14.283 Y5.47010
G1 Z1.160 X-14.804 Y5.21968
G1 Z1.166 X-15.723 Y4.49675
G1 Z1.168 X-16.201 Y4.19163
G1 Z1.173 X-17.031 Y3.36009
G1 Z1.175 X-17.473 Y2.99722
G1 Z1.181 X-18.221 Y2.05192
G1 Z1.183 X-18.632 Y1.62642
G1 Z1.188 X-19.282 Y0.60918
G1 Z1.192 X-18.777 Y-0.16390
G1 Z1.195 X-18.490 Y-0.71457
G1 Z1.200 X-17.704 Y-1.66092
G1 Z1.203 X-17.370 Y-2.15588
G1 Z1.208 X-16.510 Y-2.97111
G1 Z1.211 X-16.133 Y-3.40653
G1 Z1.216 X-15.196 Y-4.10355
G1 Z1.218 X-14.775 Y-4.48540
G1 Z1.223 X-13.754 Y-5.07007
G1 Z1.226 X-13.287 Y-5.40231
G1 Z1.231 X-12.173 Y-5.88147
G1 Z1.233 X-11.654 Y-6.16602
G1 Z1.239 X-10.436 Y-6.53847
G1 Z1.242 X-9.859 Y-6.77837
G1 Z1.247 X-8.694 Y-7.01485
G1 Z1.251 X-7.777 Y-7.29518
G1 Z1.259 X-7.414 Y-9.02311
G1 Z1.261 X-7.341 Y-9.69564
G1 Z1.267 X-6.935 Y-10.94695
G1 Z1.270 X-6.797 Y-11.57190
G1 Z1.275 X-6.283 Y-12.69785
G1 Z1.278 X-6.088 Y-13.26711
G1 Z1.283 X-5.470 Y-14.28367
G1 Z1.285 X-5.219 Y-14.80424
G1 Z1.291 X-4.496 Y-15.72332
G1 Z1.293 X-4.191 Y-16.20119
G1 Z1.298 X-3.360 Y-17.03166
G1 Z1.300 X-2.997 Y-17.47379
G1 Z1.306 X-2.051 Y-18.22148
G1 Z1.308 X-1.626 Y-18.63298
G1 Z1.313 X-0.609 Y-19.28275
G1 Z1.317 X0.163 Y-18.77847
G1 Z1.320 X0.714 Y-18.49013 F600.000
G1 Z1.325 X1.660 Y-17.70449
G1 Z1.328 X2.155 Y-17.37045
G1 Z1.333 X2.971 Y-16.51067
G1 Z1.336 X3.406 Y-16.13309
G1 Z1.341 X4.103 Y-15.19611
G1 Z1.343 X4.484 Y-14.77596
G1 Z1.348 X5.070 Y-13.75463
G1 Z1.351 X5.402 Y-13.28787
G1 Z1.356 X5.881 Y-12.17303
G1 Z1.358 X6.166 Y-11.65459
G1 Z1.364 X6.538 Y-10.43604
G1 Z1.367 X6.778 Y-9.85993
G1 Z1.372 X7.014 Y-8.69441
G1 Z1.376 X7.295 Y-7.77774
G1 Z1.384 X9.023 Y-7.41467
G1 Z1.386 X9.695 Y-7.34120
G1 Z1.392 X10.946 Y-6.93551
G1 Z1.395 X11.571 Y-6.79746
G1 Z1.400 X12.697 Y-6.28341
G1 Z1.403 X13.267 Y-6.08868
G1 Z1.408 X14.283 Y-5.47023
G1 Z1.410 X14.804 Y-5.21980
G1 Z1.416 X15.723 Y-4.49688
G1 Z1.418 X16.201 Y-4.19175
G1 Z1.423 X17.031 Y-3.36022
G1 Z1.425 X17.473 Y-2.99735
G1 Z1.431 X18.221 Y-2.05105
G1 Z1.433 X18.632 Y-1.62654
G1 Z1.438 X19.282 Y-0.60931
G1 Z1.442 X18.777 Y0.16303
G1 Z1.445 X18.490 Y0.71469
G1 Z1.450 X17.704 Y1.66005
G1 Z1.453 X17.370 Y2.15501
G1 Z1.458 X16.510 Y2.97124
G1 Z1.461 X16.133 Y3.40666
G1 Z1.466 X15.196 Y4.10367
G1 Z1.468 X14.775 Y4.48452
G1 Z1.473 X13.754 Y5.07020
G1 Z1.476 X13.287 Y5.40244
G1 Z1.481 X12.173 Y5.88159
G1 Z1.483 X11.654 Y6.16615
G1 Z1.489 X10.436 Y6.53860
G1 Z1.492 X9.859 Y6.77850
G1 Z1.497 X8.694 Y7.01497
G1 Z1.500 X7.978 Y7.23352
G1 Z1.500 X7.876 Y7.18637 F600.000
G1 Z1.507 X7.572 Y8.63646
G1 Z1.511 X7.467 Y9.59083
G1 Z1.515 X7.144 Y10.58527
G1 Z1.519 X6.950 Y11.47309
G1 Z1.524 X6.541 Y12.36821
G1 Z1.527 X6.264 Y13.17831
G1 Z1.531 X5.772 Y13.98569
G1 Z1.535 X5.415 Y14.72643
G1 Z1.539 X4.841 Y15.45663
G1 Z1.542 X4.406 Y16.13738
G1 Z1.546 X3.746 Y16.79790
G1 Z1.550 X3.230 Y17.42598
G1 Z1.554 X2.479 Y18.02029
G1 Z1.558 X1.875 Y18.60217
G1 Z1.561 X1.181 Y19.04602
G1 Z1.563 X0.885 Y19.27949
G1 Z1.566 X0.317 Y18.90809
G1 Z1.570 X-0.466 Y18.49911
G1 Z1.574 X-1.218 Y17.87576
G1 Z1.577 X-1.922 Y17.39942
G1 Z1.582 X-2.570 Y16.71655
G1 Z1.585 X-3.189 Y16.17907
G1 Z1.589 X-3.743 Y15.43523
G1 Z1.593 X-4.286 Y14.83794
G1 Z1.597 X-4.751 Y14.02562
G1 Z1.600 X-5.223 Y13.36185
G1 Z1.604 X-5.604 Y12.47554
G1 Z1.608 X-6.009 Y11.73956
G1 Z1.612 X-6.305 Y10.77071
G1 Z1.616 X-6.645 Y9.95291
G1 Z1.620 X-6.833 Y9.02532
G1 Z1.625 X-7.186 Y7.87672
G1 Z1.632 X-8.636 Y7.57281
G1 Z1.636 X-9.590 Y7.46718
G1 Z1.640 X-10.585 Y7.14462
G1 Z1.644 X-11.473 Y6.95044
G1 Z1.649 X-12.368 Y6.54156
G1 Z1.652 X-13.178 Y6.26465
G1 Z1.656 X-13.985 Y5.77204
G1 Z1.660 X-14.726 Y5.41678
G1 Z1.664 X-15.456 Y4.84198
G1 Z1.667 X-16.137 Y4.40673
G1 Z1.671 X-16.797 Y3.74625
G1 Z1.675 X-17.425 Y3.23033
G1 Z1.679 X-18.020 Y2.47964
G1 Z1.683 X-18.602 Y1.87552
G1 Z1.686 X-19.046 Y1.18137
G1 Z1.688 X-19.279 Y0.88583
G1 Z1.691 X-18.908 Y0.31744
G1 Z1.695 X-18.499 Y-0.46646
G1 Z1.699 X-17.875 Y-1.21811
G1 Z1.702 X-17.399 Y-1.92277
G1 Z1.707 X-16.716 Y-2.57090
G1 Z1.710 X-16.179 Y-3.18942
G1 Z1.714 X-15.435 Y-3.74357
G1 Z1.718 X-14.837 Y-4.28629
G1 Z1.722 X-14.025 Y-4.75197
G1 Z1.725 X-13.361 Y-5.22320
G1 Z1.729 X-12.475 Y-5.60489
G1 Z1.733 X-11.739 Y-6.00991
G1 Z1.737 X-10.770 Y-6.30505
G1 Z1.741 X-9.952 Y-6.64526
G1 Z1.745 X-9.025 Y-6.83367
G1 Z1.750 X-7.876 Y-7.18607
G1 Z1.757 X-7.572 Y-8.63616
G1 Z1.761 X-7.467 Y-9.59053
G1 Z1.765 X-7.144 Y-10.58597
G1 Z1.769 X-6.950 Y-11.47379
G1 Z1.774 X-6.541 Y-12.36891
G1 Z1.777 X-6.264 Y-13.17800
G1 Z1.781 X-5.772 Y-13.98539
G1 Z1.785 X-5.415 Y-14.72613
G1 Z1.789 X-4.841 Y-15.45633
G1 Z1.792 X-4.406 Y-16.13708
G1 Z1.796 X-3.746 Y-16.79760
G1 Z1.800 X-3.230 Y-17.42567
G1 Z1.804 X-2.479 Y-18.02099
G1 Z1.808 X-1.875 Y-18.60287
G1 Z1.811 X-1.181 Y-19.04672
G1 Z1.813 X-0.885 Y-19.27918
G1 Z1.816 X-0.317 Y-18.90879
G1 Z1.820 X0.466 Y-18.49981 F600.000
G1 Z1.824 X1.218 Y-17.87545
G1 Z1.827 X1.922 Y-17.39912
G1 Z1.832 X2.570 Y-16.71625
G1 Z1.835 X3.189 Y-16.17977
G1 Z1.839 X3.743 Y-15.43592
G1 Z1.843 X4.286 Y-14.83764
G1 Z1.847 X4.751 Y-14.02532
G1 Z1.850 X5.223 Y-13.36155
G1 Z1.854 X5.604 Y-12.47523
G1 Z1.858 X6.009 Y-11.73926
G1 Z1.862 X6.305 Y-10.77040
G1 Z1.866 X6.645 Y-9.95261
G1 Z1.870 X6.833 Y-9.02502
G1 Z1.875 X7.186 Y-7.87642
G1 Z1.882 X8.636 Y-7.57250
G1 Z1.886 X9.590 Y-7.46788
G1 Z1.890 X10.585 Y-7.14431
G1 Z1.894 X11.473 Y-6.95014
G1 Z1.899 X12.368 Y-6.54126
G1 Z1.902 X13.178 Y-6.26435
G1 Z1.906 X13.985 Y-5.77274
G1 Z1.910 X14.726 Y-5.41648
G1 Z1.914 X15.456 Y-4.84168
G1 Z1.917 X16.137 Y-4.40643
G1 Z1.921 X16.797 Y-3.74695
G1 Z1.925 X17.425 Y-3.23002
G1 Z1.929 X18.020 Y-2.47934
G1 Z1.933 X18.602 Y-1.87522
G1 Z1.936 X19.045 Y-1.18106
G1 Z1.938 X19.279 Y-0.88553
G1 Z1.941 X18.908 Y-0.31714
G1 Z1.945 X18.499 Y0.46615
G1 Z1.949 X17.875 Y1.21880
G1 Z1.952 X17.399 Y1.92247
G1 Z1.957 X16.716 Y2.57060
G1 Z1.960 X16.179 Y3.18912
G1 Z1.964 X15.435 Y3.74327
G1 Z1.968 X14.837 Y4.28698
G1 Z1.972 X14.025 Y4.75167
G1 Z1.975 X13.361 Y5.22390
G1 Z1.979 X12.475 Y5.60458
G1 Z1.983 X11.739 Y6.00961
G1 Z1.987 X10.770 Y6.30575
G1 Z1.991 X9.952 Y6.64596
G1 Z1.995 X9.025 Y6.83337
G1 Z2.000 X7.956 Y7.16191
G1 Z2.005 X7.729 Y8.25002 F600.000
G1 Z2.010 X7.594 Y9.48523
G1 Z2.014 X7.354 Y10.22480
G1 Z2.019 X7.102 Y11.37449
G1 Z2.022 X6.799 Y12.03979
G1 Z2.027 X6.439 Y13.08871
G1 Z2.030 X6.074 Y13.68793
G1 Z2.034 X5.612 Y14.64983
G1 Z2.037 X5.186 Y15.18916
G1 Z2.042 X4.622 Y16.07378
G1 Z2.045 X4.133 Y16.56235
G1 Z2.049 X3.464 Y17.37738
G1 Z2.052 X2.906 Y17.81831
G1 Z2.057 X2.125 Y18.57257
G1 Z2.060 X1.610 Y18.90148
G1 Z2.062 X1.146 Y19.26688
G1 Z2.064 X0.798 Y19.03814
G1 Z2.069 X-0.217 Y18.50951
G1 Z2.072 X-0.775 Y18.04545
G1 Z2.077 X-1.688 Y17.42882
G1 Z2.080 X-2.169 Y16.92185
G1 Z2.084 X-2.972 Y16.22647
G1 Z2.087 X-3.382 Y15.67476
G1 Z2.092 X-4.087 Y14.89834
G1 Z2.095 X-4.432 Y14.29703
G1 Z2.099 X-5.045 Y13.43525
G1 Z2.102 X-5.327 Y12.77847
G1 Z2.107 X-5.852 Y11.82496
G1 Z2.110 X-6.072 Y11.10480
G1 Z2.115 X-6.512 Y10.04631
G1 Z2.118 X-6.652 Y9.35766
G1 Z2.125 X-7.076 Y7.97612
G1 Z2.130 X-8.250 Y7.72936
G1 Z2.135 X-9.485 Y7.59458
G1 Z2.139 X-10.224 Y7.35415
G1 Z2.144 X-11.374 Y7.10284
G1 Z2.147 X-12.039 Y6.79913
G1 Z2.152 X-13.088 Y6.43905
G1 Z2.155 X-13.687 Y6.07428
G1 Z2.159 X-14.649 Y5.61218
G1 Z2.162 X-15.189 Y5.18651
G1 Z2.167 X-16.073 Y4.62213
G1 Z2.170 X-16.562 Y4.13370
G1 Z2.174 X-17.377 Y3.46472
G1 Z2.177 X-17.818 Y2.90666
G1 Z2.182 X-18.572 Y2.12592
G1 Z2.185 X-18.901 Y1.61082
G1 Z2.187 X-19.266 Y1.14623
G1 Z2.189 X-19.038 Y0.79849
G1 Z2.194 X-18.509 Y-0.21786
G1 Z2.197 X-18.045 Y-0.77580
G1 Z2.202 X-17.428 Y-1.68817
G1 Z2.205 X-16.921 Y-2.16920
G1 Z2.209 X-16.226 Y-2.97282
G1 Z2.212 X-15.674 Y-3.38211
G1 Z2.217 X-14.898 Y-4.08769
G1 Z2.220 X-14.296 Y-4.43238
G1 Z2.224 X-13.435 Y-5.04560
G1 Z2.227 X-12.778 Y-5.32781
G1 Z2.232 X-11.824 Y-5.85231
G1 Z2.235 X-11.104 Y-6.07215
G1 Z2.240 X-10.046 Y-6.51266
G1 Z2.243 X-9.357 Y-6.65201
G1 Z2.250 X-7.976 Y-7.07647
G1 Z2.255 X-7.729 Y-8.25071
G1 Z2.260 X-7.594 Y-9.48593
G1 Z2.264 X-7.354 Y-10.22450
G1 Z2.269 X-7.102 Y-11.37419
G1 Z2.272 X-6.799 Y-12.03948
G1 Z2.277 X-6.439 Y-13.08840
G1 Z2.280 X-6.074 Y-13.68763
G1 Z2.284 X-5.612 Y-14.64953
G1 Z2.287 X-5.186 Y-15.18985
G1 Z2.292 X-4.622 Y-16.07348
G1 Z2.295 X-4.133 Y-16.56205
G1 Z2.299 X-3.464 Y-17.37707
G1 Z2.302 X-2.906 Y-17.81801
G1 Z2.307 X-2.125 Y-18.57227
G1 Z2.310 X-1.610 Y-18.90117
G1 Z2.312 X-1.146 Y-19.26658
G1 Z2.314 X-0.798 Y-19.03883
G1 Z2.319 X0.217 Y-18.50920 F600.000
G1 Z2.322 X0.775 Y-18.04515
G1 Z2.327 X1.688 Y-17.42852
G1 Z2.330 X2.169 Y-16.92155
G1 Z2.334 X2.972 Y-16.22617
G1 Z2.337 X3.382 Y-15.67446
G1 Z2.342 X4.087 Y-14.89803
G1 Z2.345 X4.432 Y-14.29773
G1 Z2.349 X5.045 Y-13.43595
G1 Z2.352 X5.327 Y-12.77816
G1 Z2.357 X5.852 Y-11.82466
G1 Z2.360 X6.072 Y-11.10449
G1 Z2.365 X6.512 Y-10.04601
G1 Z2.368 X6.652 Y-9.35736
G1 Z2.375 X7.076 Y-7.97682
G1 Z2.380 X8.250 Y-7.72906
G1 Z2.385 X9.485 Y-7.59428
G1 Z2.389 X10.224 Y-7.35484
G1 Z2.394 X11.374 Y-7.10254
G1 Z2.397 X12.039 Y-6.79983
G1 Z2.402 X13.088 Y-6.43975
G1 Z2.405 X13.687 Y-6.07497
G1 Z2.409 X14.649 Y-5.61288
G1 Z2.412 X15.189 Y-5.18620
G1 Z2.417 X16.073 Y-4.62282
G1 Z2.420 X16.562 Y-4.13339
G1 Z2.424 X17.377 Y-3.46442
G1 Z2.427 X17.818 Y-2.90635
G1 Z2.432 X18.572 Y-2.12562
G1 Z2.435 X18.901 Y-1.61052
G1 Z2.437 X19.266 Y-1.14693
G1 Z2.439 X19.038 Y-0.79818
G1 Z2.444 X18.509 Y0.21755
G1 Z2.447 X18.045 Y0.77549
G1 Z2.452 X17.428 Y1.68887
G1 Z2.455 X16.921 Y2.16989
G1 Z2.459 X16.226 Y2.97251
G1 Z2.462 X15.674 Y3.38280
G1 Z2.467 X14.898 Y4.08738
G1 Z2.470 X14.296 Y4.43208
G1 Z2.474 X13.435 Y5.04529
G1 Z2.477 X12.778 Y5.32751
G1 Z2.482 X11.824 Y5.85201
G1 Z2.485 X11.104 Y6.07284
G1 Z2.490 X10.046 Y6.51235
G1 Z2.493 X9.357 Y6.65271
G1 Z2.500 X7.976 Y7.07616
G1 Z2.500 X7.958 Y7.16230
G1 Z2.503 X7.887 Y7.86459 F600.000
G1 Z2.510 X7.721 Y9.37965
G1 Z2.512 X7.564 Y9.86335
G1 Z2.518 X7.254 Y11.27691
G1 Z2.520 X7.056 Y11.70938
G1 Z2.526 X6.614 Y12.99913
G1 Z2.528 X6.377 Y13.38919
G1 Z2.534 X5.808 Y14.57125
G1 Z2.536 X5.531 Y14.92370
G1 Z2.541 X4.838 Y16.00920
G1 Z2.543 X4.519 Y16.32782
G1 Z2.549 X3.697 Y17.32880
G1 Z2.551 X3.333 Y17.61635
G1 Z2.556 X2.374 Y18.54299
G1 Z2.558 X2.038 Y18.75795
G1 Z2.562 X1.421 Y19.24313
G1 Z2.568 X0.031 Y18.51819
G1 Z2.570 X-0.333 Y18.21542
G1 Z2.576 X-1.455 Y17.45750
G1 Z2.578 X-1.768 Y17.12743
G1 Z2.584 X-2.755 Y16.27215
G1 Z2.586 X-3.022 Y15.91358
G1 Z2.591 X-3.888 Y14.95902
G1 Z2.593 X-4.113 Y14.56872
G1 Z2.599 X-4.866 Y13.51093
G1 Z2.601 X-5.050 Y13.08167
G1 Z2.607 X-5.696 Y11.90964
G1 Z2.609 X-5.839 Y11.43917
G1 Z2.615 X-6.380 Y10.13999
G1 Z2.617 X-6.471 Y9.68928
G1 Z2.624 X-6.966 Y8.07580
G1 Z2.628 X-7.864 Y7.88720
G1 Z2.635 X-9.379 Y7.72126
G1 Z2.637 X-9.863 Y7.56496
G1 Z2.643 X-11.276 Y7.25452
G1 Z2.645 X-11.709 Y7.05699
G1 Z2.651 X-12.999 Y6.61473
G1 Z2.653 X-13.389 Y6.37779
G1 Z2.659 X-14.571 Y5.80886
G1 Z2.661 X-14.923 Y5.53131
G1 Z2.666 X-16.009 Y4.83881
G1 Z2.668 X-16.327 Y4.51943
G1 Z2.674 X-17.328 Y3.69740
G1 Z2.676 X-17.616 Y3.33395
G1 Z2.681 X-18.542 Y2.37460
G1 Z2.683 X-18.757 Y2.03856
G1 Z2.687 X-19.243 Y1.42174
G1 Z2.693 X-18.518 Y0.03179
G1 Z2.695 X-18.215 Y-0.33303
G1 Z2.701 X-17.457 Y-1.45511
G1 Z2.703 X-17.127 Y-1.76803
G1 Z2.709 X-16.272 Y-2.75575
G1 Z2.711 X-15.913 Y-3.02218
G1 Z2.716 X-14.959 Y-3.88862
G1 Z2.718 X-14.568 Y-4.11333
G1 Z2.724 X-13.510 Y-4.86653
G1 Z2.726 X-13.081 Y-5.05028
G1 Z2.732 X-11.909 Y-5.69625
G1 Z2.734 X-11.439 Y-5.83977
G1 Z2.740 X-10.139 Y-6.38059
G1 Z2.742 X-9.689 Y-6.47188
G1 Z2.749 X-8.075 Y-6.96640
G1 Z2.753 X-7.887 Y-7.86480
G1 Z2.760 X-7.721 Y-9.37986
G1 Z2.762 X-7.564 Y-9.86356
G1 Z2.768 X-7.254 Y-11.27612
G1 Z2.770 X-7.056 Y-11.70959
G1 Z2.776 X-6.614 Y-12.99934
G1 Z2.778 X-6.377 Y-13.38940
G1 Z2.784 X-5.808 Y-14.57146
G1 Z2.786 X-5.531 Y-14.92391
G1 Z2.791 X-4.838 Y-16.00941
G1 Z2.793 X-4.519 Y-16.32703
G1 Z2.799 X-3.697 Y-17.32801
G1 Z2.801 X-3.333 Y-17.61656
G1 Z2.806 X-2.374 Y-18.54220
G1 Z2.808 X-2.038 Y-18.75716
G1 Z2.812 X-1.421 Y-19.24334
G1 Z2.818 X-0.031 Y-18.51840
G1 Z2.820 X0.333 Y-18.21563 F600.000
G1 Z2.826 X1.455 Y-17.45771
G1 Z2.828 X1.768 Y-17.12764
G1 Z2.834 X2.755 Y-16.27236
G1 Z2.836 X3.022 Y-15.91379
G1 Z2.841 X3.888 Y-14.96023
G1 Z2.843 X4.113 Y-14.56893
G1 Z2.849 X4.866 Y-13.51014
G1 Z2.851 X5.050 Y-13.08188
G1 Z2.857 X5.696 Y-11.90985
G1 Z2.859 X5.839 Y-11.43938
G1 Z2.865 X6.380 Y-10.13920
G1 Z2.867 X6.471 Y-9.68949
G1 Z2.874 X6.966 Y-8.07501
G1 Z2.878 X7.864 Y-7.88741
G1 Z2.885 X9.379 Y-7.72147
G1 Z2.887 X9.863 Y-7.56417
G1 Z2.893 X11.276 Y-7.25473
G1 Z2.895 X11.709 Y-7.05620
G1 Z2.901 X12.999 Y-6.61494
G1 Z2.903 X13.389 Y-6.37700
G1 Z2.909 X14.571 Y-5.80807
G1 Z2.911 X14.923 Y-5.53152
G1 Z2.916 X16.009 Y-4.83802
G1 Z2.918 X16.327 Y-4.51964
G1 Z2.924 X17.328 Y-3.69761
G1 Z2.926 X17.616 Y-3.33316
G1 Z2.931 X18.542 Y-2.37481
G1 Z2.933 X18.757 Y-2.03877
G1 Z2.937 X19.243 Y-1.42195
G1 Z2.943 X18.518 Y-0.03100
G1 Z2.945 X18.215 Y0.33324
G1 Z2.951 X17.457 Y1.45532
G1 Z2.953 X17.127 Y1.76824
G1 Z2.959 X16.272 Y2.75596
G1 Z2.961 X15.913 Y3.02239
G1 Z2.966 X14.959 Y3.88883
G1 Z2.968 X14.568 Y4.11354
G1 Z2.974 X13.510 Y4.86674
G1 Z2.976 X13.081 Y5.05049
G1 Z2.982 X11.909 Y5.69646
G1 Z2.984 X11.439 Y5.83998
G1 Z2.990 X10.139 Y6.38080
G1 Z2.992 X9.689 Y6.47109
G1 Z2.999 X8.075 Y6.96661
G1 Z3.000 X8.031 Y7.17772
G1 Z3.001 X8.044 Y7.47820 F600.000
G1 Z3.009 X7.848 Y9.27410
G1 Z3.010 X7.774 Y9.50293
G1 Z3.017 X7.406 Y11.17736
G1 Z3.018 X7.314 Y11.38000
G1 Z3.025 X6.790 Y12.91057
G1 Z3.026 X6.679 Y13.09147
G1 Z3.033 X6.005 Y14.49370
G1 Z3.034 X5.877 Y14.65628
G1 Z3.041 X5.053 Y15.94565
G1 Z3.041 X4.906 Y16.09332
G1 Z3.048 X3.930 Y17.28025
G1 Z3.049 X3.761 Y17.41442
G1 Z3.056 X2.623 Y18.51244
G1 Z3.057 X2.467 Y18.61246
G1 Z3.061 X1.660 Y19.24755
G1 Z3.068 X0.279 Y18.52789
G1 Z3.069 X0.109 Y18.38641
G1 Z3.076 X-1.221 Y17.48620
G1 Z3.077 X-1.366 Y17.33303
G1 Z3.083 X-2.538 Y16.31985
G1 Z3.084 X-2.662 Y16.15241
G1 Z3.091 X-3.689 Y15.02172
G1 Z3.092 X-3.794 Y14.83943
G1 Z3.098 X-4.687 Y13.58463
G1 Z3.099 X-4.773 Y13.38490
G1 Z3.106 X-5.539 Y11.99434
G1 Z3.107 X-5.606 Y11.77356
G1 Z3.114 X-6.247 Y10.23369
G1 Z3.115 X-6.290 Y10.02091
G1 Z3.124 X-6.857 Y8.17550
G1 Z3.126 X-7.478 Y8.04406
G1 Z3.134 X-9.274 Y7.84896
G1 Z3.135 X-9.502 Y7.77479
G1 Z3.142 X-11.177 Y7.40622
G1 Z3.143 X-11.380 Y7.31486
G1 Z3.150 X-12.910 Y6.79043
G1 Z3.151 X-13.091 Y6.67933
G1 Z3.158 X-14.493 Y6.00556
G1 Z3.159 X-14.656 Y5.87713
G1 Z3.166 X-15.945 Y5.05350
G1 Z3.166 X-16.092 Y4.90618
G1 Z3.173 X-17.280 Y3.93010
G1 Z3.174 X-17.414 Y3.76127
G1 Z3.181 X-18.512 Y2.62330
G1 Z3.182 X-18.612 Y2.46731
G1 Z3.186 X-19.247 Y1.66041
G1 Z3.193 X-18.527 Y0.27974
G1 Z3.194 X-18.386 Y0.10927
G1 Z3.201 X-17.486 Y-1.22106
G1 Z3.202 X-17.333 Y-1.36688
G1 Z3.208 X-16.319 Y-2.53870
G1 Z3.209 X-16.152 Y-2.66227
G1 Z3.216 X-15.021 Y-3.68957
G1 Z3.217 X-14.839 Y-3.79429
G1 Z3.223 X-13.584 Y-4.68748
G1 Z3.224 X-13.384 Y-4.77376
G1 Z3.231 X-11.994 Y-5.53920
G1 Z3.232 X-11.773 Y-5.60642
G1 Z3.239 X-10.233 Y-6.24754
G1 Z3.240 X-10.020 Y-6.29077
G1 Z3.249 X-8.175 Y-6.85735
G1 Z3.251 X-8.044 Y-7.47891
G1 Z3.259 X-7.848 Y-9.27481
G1 Z3.260 X-7.774 Y-9.50264
G1 Z3.267 X-7.406 Y-11.17707
G1 Z3.268 X-7.314 Y-11.38071
G1 Z3.275 X-6.790 Y-12.91029
G1 Z3.276 X-6.679 Y-13.09118
G1 Z3.283 X-6.005 Y-14.49341
G1 Z3.284 X-5.877 Y-14.65699
G1 Z3.291 X-5.053 Y-15.94536
G1 Z3.291 X-4.906 Y-16.09303
G1 Z3.298 X-3.930 Y-17.28096
G1 Z3.299 X-3.761 Y-17.41413
G1 Z3.306 X-2.623 Y-18.51215
G1 Z3.307 X-2.467 Y-18.61217
G1 Z3.311 X-1.660 Y-19.24727
G1 Z3.318 X-0.279 Y-18.52760
G1 Z3.319 X-0.109 Y-18.38612 F600.000
G1 Z3.326 X1.221 Y-17.48691
G1 Z3.327 X1.366 Y-17.33374
G1 Z3.333 X2.538 Y-16.31956
G1 Z3.334 X2.662 Y-16.15212
G1 Z3.341 X3.689 Y-15.02143
G1 Z3.342 X3.794 Y-14.83914
G1 Z3.348 X4.687 Y-13.58434
G1 Z3.349 X4.773 Y-13.38461
G1 Z3.356 X5.539 Y-11.99405
G1 Z3.357 X5.606 Y-11.77327
G1 Z3.364 X6.247 Y-10.23340
G1 Z3.365 X6.290 Y-10.02063
G1 Z3.374 X6.857 Y-8.17521
G1 Z3.376 X7.478 Y-8.04477
G1 Z3.384 X9.274 Y-7.84867
G1 Z3.385 X9.502 Y-7.77450
G1 Z3.392 X11.177 Y-7.40693
G1 Z3.393 X11.380 Y-7.31457
G1 Z3.400 X12.910 Y-6.79014
G1 Z3.401 X13.091 Y-6.67904
G1 Z3.408 X14.493 Y-6.00527
G1 Z3.409 X14.656 Y-5.87785
G1 Z3.416 X15.945 Y-5.05322
G1 Z3.416 X16.092 Y-4.90689
G1 Z3.423 X17.280 Y-3.93081
G1 Z3.424 X17.414 Y-3.76198
G1 Z3.431 X18.512 Y-2.62301
G1 Z3.432 X18.612 Y-2.46702
G1 Z3.436 X19.247 Y-1.66012
G1 Z3.443 X18.527 Y-0.27945
G1 Z3.444 X18.386 Y-0.10998
G1 Z3.451 X17.486 Y1.22177
G1 Z3.452 X17.333 Y1.36659
G1 Z3.458 X16.319 Y2.53841
G1 Z3.459 X16.152 Y2.66298
G1 Z3.466 X15.021 Y3.68928
G1 Z3.467 X14.839 Y3.79400
G1 Z3.473 X13.584 Y4.68719
G1 Z3.474 X13.384 Y4.77347
G1 Z3.481 X11.994 Y5.53991
G1 Z3.482 X11.773 Y5.60613
G1 Z3.489 X10.233 Y6.24726
G1 Z3.490 X10.020 Y6.29048
G1 Z3.499 X8.175 Y6.85706
G1 Z3.500 X8.104 Y7.19214
G1 Z3.509 X7.972 Y9.19598 F600.000
G1 Z3.517 X7.553 Y11.10527
G1 Z3.525 X6.956 Y12.84651
G1 Z3.533 X6.190 Y14.44066
G1 Z3.540 X5.255 Y15.90363
G1 Z3.548 X4.146 Y17.25325
G1 Z3.555 X2.853 Y18.50147
G1 Z3.561 X1.899 Y19.25269
G1 Z3.567 X0.504 Y18.52418
G1 Z3.575 X-1.010 Y17.50052
G1 Z3.583 X-2.341 Y16.34719
G1 Z3.590 X-3.509 Y15.06208
G1 Z3.598 X-4.524 Y13.63602
G1 Z3.606 X-5.395 Y12.05575
G1 Z3.614 X-6.124 Y10.30212
G1 Z3.623 X-6.758 Y8.23871
G1 Z3.634 X-9.195 Y7.97288
G1 Z3.642 X-11.105 Y7.55316
G1 Z3.650 X-12.846 Y6.95640
G1 Z3.658 X-14.440 Y6.19056
G1 Z3.665 X-15.903 Y5.25553
G1 Z3.673 X-17.253 Y4.14615
G1 Z3.680 X-18.501 Y2.85336
G1 Z3.686 X-19.252 Y1.89959
G1 Z3.692 X-18.524 Y0.50408
G1 Z3.700 X-17.500 Y-1.01042
G1 Z3.708 X-16.347 Y-2.34109
G1 Z3.715 X-15.062 Y-3.50998
G1 Z3.723 X-13.636 Y-4.52492
G1 Z3.731 X-12.055 Y-5.39565
G1 Z3.739 X-10.302 Y-6.12401
G1 Z3.748 X-8.238 Y-6.75861
G1 Z3.759 X-7.972 Y-9.19578
G1 Z3.767 X-7.553 Y-11.10506
G1 Z3.775 X-6.956 Y-12.84630
G1 Z3.783 X-6.190 Y-14.44045
G1 Z3.790 X-5.255 Y-15.90343
G1 Z3.798 X-4.146 Y-17.25304
G1 Z3.805 X-2.853 Y-18.50126
G1 Z3.811 X-1.899 Y-19.25249
G1 Z3.817 X-0.504 Y-18.52497
G1 Z3.825 X1.010 Y-17.50032 F600.000
G1 Z3.833 X2.341 Y-16.34799
G1 Z3.840 X3.509 Y-15.06288
G1 Z3.848 X4.524 Y-13.63681
G1 Z3.856 X5.395 Y-12.05555
G1 Z3.864 X6.124 Y-10.30291
G1 Z3.873 X6.758 Y-8.23850
G1 Z3.884 X9.195 Y-7.97267
G1 Z3.892 X11.105 Y-7.55396
G1 Z3.900 X12.846 Y-6.95620
G1 Z3.908 X14.439 Y-6.19035
G1 Z3.915 X15.903 Y-5.25532
G1 Z3.923 X17.253 Y-4.14694
G1 Z3.930 X18.501 Y-2.85316
G1 Z3.936 X19.252 Y-1.89939
G1 Z3.942 X18.524 Y-0.50487
G1 Z3.950 X17.500 Y1.01021
G1 Z3.958 X16.347 Y2.34189
G1 Z3.965 X15.062 Y3.50978
G1 Z3.973 X13.636 Y4.52471
G1 Z3.981 X12.055 Y5.39545
G1 Z3.989 X10.302 Y6.12481
G1 Z3.998 X8.238 Y6.75840
G1 Z4.000 X8.190 Y7.20274
G1 Z4.007 X8.084 Y8.85379 F600.000
G1 Z4.008 X8.082 Y9.10552
G1 Z4.016 X7.714 Y10.78316
G1 Z4.017 X7.686 Y11.01878
G1 Z4.024 X7.161 Y12.55050
G1 Z4.025 X7.110 Y12.76500
G1 Z4.031 X6.435 Y14.16832
G1 Z4.032 X6.363 Y14.36612
G1 Z4.039 X5.539 Y15.65553
G1 Z4.040 X5.446 Y15.84007
G1 Z4.046 X4.470 Y17.02899
G1 Z4.047 X4.354 Y17.20167
G1 Z4.054 X3.219 Y18.29747
G1 Z4.055 X3.077 Y18.46486
G1 Z4.060 X2.138 Y19.20374
G1 Z4.066 X0.942 Y18.57943
G1 Z4.067 X0.729 Y18.49454
G1 Z4.074 X-0.603 Y17.59248
G1 Z4.075 X-0.795 Y17.48886
G1 Z4.082 X-1.968 Y16.47376
G1 Z4.082 X-2.139 Y16.35250
G1 Z4.089 X-3.167 Y15.22084
G1 Z4.090 X-3.321 Y15.08237
G1 Z4.097 X-4.214 Y13.82655
G1 Z4.097 X-4.352 Y13.66828
G1 Z4.104 X-5.117 Y12.27968
G1 Z4.105 X-5.241 Y12.09900
G1 Z4.112 X-5.881 Y10.56194
G1 Z4.113 X-5.991 Y10.35535
G1 Z4.120 X-6.447 Y8.87044
G1 Z4.123 X-6.676 Y8.32215
G1 Z4.132 X-8.853 Y8.08488
G1 Z4.133 X-9.105 Y8.08261
G1 Z4.141 X-10.783 Y7.71425
G1 Z4.142 X-11.018 Y7.68687
G1 Z4.149 X-12.550 Y7.16159
G1 Z4.150 X-12.765 Y7.11009
G1 Z4.156 X-14.168 Y6.43541
G1 Z4.157 X-14.366 Y6.36322
G1 Z4.164 X-15.655 Y5.53963
G1 Z4.165 X-15.840 Y5.44616
G1 Z4.171 X-17.028 Y4.47008
G1 Z4.172 X-17.201 Y4.35476
G1 Z4.179 X-18.297 Y3.21956
G1 Z4.180 X-18.464 Y3.07795
G1 Z4.185 X-19.203 Y2.13884
G1 Z4.191 X-18.579 Y0.94252
G1 Z4.192 X-18.494 Y0.72963
G1 Z4.199 X-17.592 Y-0.60358
G1 Z4.200 X-17.488 Y-0.79595
G1 Z4.207 X-16.473 Y-1.96885
G1 Z4.207 X-16.352 Y-2.13960
G1 Z4.214 X-15.220 Y-3.16793
G1 Z4.215 X-15.081 Y-3.32146
G1 Z4.222 X-13.826 Y-4.21465
G1 Z4.222 X-13.668 Y-4.35238
G1 Z4.229 X-12.279 Y-5.11777
G1 Z4.230 X-12.099 Y-5.24109
G1 Z4.237 X-10.561 Y-5.88103
G1 Z4.238 X-10.355 Y-5.99144
G1 Z4.245 X-8.870 Y-6.44753
G1 Z4.248 X-8.322 Y-6.67625
G1 Z4.257 X-8.084 Y-8.85397
G1 Z4.258 X-8.082 Y-9.10571
G1 Z4.266 X-7.714 Y-10.78335
G1 Z4.267 X-7.686 Y-11.01897
G1 Z4.274 X-7.161 Y-12.55068
G1 Z4.275 X-7.110 Y-12.76518
G1 Z4.281 X-6.435 Y-14.16850
G1 Z4.282 X-6.363 Y-14.36631
G1 Z4.289 X-5.539 Y-15.65572
G1 Z4.290 X-5.446 Y-15.84026
G1 Z4.296 X-4.470 Y-17.02817
G1 Z4.297 X-4.354 Y-17.20185
G1 Z4.304 X-3.219 Y-18.29765
G1 Z4.305 X-3.077 Y-18.46405
G1 Z4.310 X-2.138 Y-19.20393
G1 Z4.316 X-0.942 Y-18.57962
G1 Z4.317 X-0.729 Y-18.49473 F600.000
G1 Z4.324 X0.603 Y-17.59267
G1 Z4.325 X0.795 Y-17.48804
G1 Z4.332 X1.968 Y-16.47395
G1 Z4.332 X2.139 Y-16.35269
G1 Z4.339 X3.167 Y-15.22003
G1 Z4.340 X3.321 Y-15.08256
G1 Z4.347 X4.214 Y-13.82674
G1 Z4.347 X4.352 Y-13.66847
G1 Z4.354 X5.117 Y-12.27986
G1 Z4.355 X5.241 Y-12.09918
G1 Z4.362 X5.881 Y-10.56112
G1 Z4.363 X5.991 Y-10.35553
G1 Z4.370 X6.447 Y-8.87062
G1 Z4.373 X6.676 Y-8.32234
G1 Z4.382 X8.853 Y-8.08406
G1 Z4.383 X9.105 Y-8.08280
G1 Z4.391 X10.783 Y-7.71444
G1 Z4.392 X11.018 Y-7.68606
G1 Z4.399 X12.550 Y-7.16177
G1 Z4.400 X12.765 Y-7.11027
G1 Z4.406 X14.168 Y-6.43560
G1 Z4.407 X14.366 Y-6.36340
G1 Z4.414 X15.655 Y-5.53981
G1 Z4.415 X15.840 Y-5.44635
G1 Z4.421 X17.028 Y-4.47027
G1 Z4.422 X17.201 Y-4.35494
G1 Z4.429 X18.297 Y-3.21974
G1 Z4.430 X18.464 Y-3.07714
G1 Z4.435 X19.203 Y-2.13802
G1 Z4.441 X18.579 Y-0.94271
G1 Z4.442 X18.494 Y-0.72982
G1 Z4.449 X17.592 Y0.60376
G1 Z4.450 X17.488 Y0.79514
G1 Z4.457 X16.473 Y1.96804
G1 Z4.457 X16.352 Y2.13978
G1 Z4.464 X15.220 Y3.16712
G1 Z4.465 X15.081 Y3.32165
G1 Z4.472 X13.826 Y4.21483
G1 Z4.472 X13.668 Y4.35256
G1 Z4.479 X12.279 Y5.11796
G1 Z4.480 X12.099 Y5.24128
G1 Z4.487 X10.561 Y5.88121
G1 Z4.488 X10.355 Y5.99162
G1 Z4.495 X8.870 Y6.44772
G1 Z4.498 X8.322 Y6.67643
G1 Z4.500 X8.264 Y7.21011
G1 Z4.505 X8.203 Y8.45333 F600.000
G1 Z4.508 X8.198 Y8.98892
G1 Z4.514 X7.887 Y10.40368
G1 Z4.516 X7.828 Y10.90618
G1 Z4.522 X7.385 Y12.19706
G1 Z4.524 X7.276 Y12.65939
G1 Z4.530 X6.707 Y13.84254
G1 Z4.532 X6.551 Y14.27052
G1 Z4.537 X5.857 Y15.35605
G1 Z4.539 X5.654 Y15.75547
G1 Z4.545 X4.832 Y16.75643
G1 Z4.547 X4.582 Y17.13006
G1 Z4.552 X3.624 Y18.05447
G1 Z4.554 X3.322 Y18.41026
G1 Z4.560 X2.376 Y19.15473
G1 Z4.564 X1.433 Y18.66245
G1 Z4.566 X0.978 Y18.47892
G1 Z4.572 X-0.146 Y17.71915
G1 Z4.574 X-0.560 Y17.49423
G1 Z4.580 X-1.548 Y16.63903
G1 Z4.582 X-1.919 Y16.37788
G1 Z4.587 X-2.785 Y15.42335
G1 Z4.589 X-3.117 Y15.12375
G1 Z4.595 X-3.870 Y14.06593
G1 Z4.597 X-4.167 Y13.72566
G1 Z4.603 X-4.812 Y12.55357
G1 Z4.605 X-5.076 Y12.16838
G1 Z4.611 X-5.616 Y10.87100
G1 Z4.613 X-5.850 Y10.43672
G1 Z4.619 X-6.234 Y9.18375
G1 Z4.622 X-6.557 Y8.41053
G1 Z4.630 X-8.453 Y8.20340
G1 Z4.633 X-8.988 Y8.19899
G1 Z4.639 X-10.403 Y7.88775
G1 Z4.641 X-10.906 Y7.82825
G1 Z4.647 X-12.197 Y7.38513
G1 Z4.649 X-12.659 Y7.27647
G1 Z4.655 X-13.842 Y6.70762
G1 Z4.657 X-14.270 Y6.55159
G1 Z4.662 X-15.356 Y5.85712
G1 Z4.664 X-15.755 Y5.65454
G1 Z4.670 X-16.756 Y4.83250
G1 Z4.672 X-17.130 Y4.58214
G1 Z4.677 X-18.054 Y3.62454
G1 Z4.679 X-18.410 Y3.32233
G1 Z4.685 X-19.154 Y2.37680
G1 Z4.689 X-18.662 Y1.43352
G1 Z4.691 X-18.478 Y0.97899
G1 Z4.697 X-17.719 Y-0.14622
G1 Z4.699 X-17.494 Y-0.56031
G1 Z4.705 X-16.639 Y-1.54810
G1 Z4.707 X-16.377 Y-1.91996
G1 Z4.712 X-15.423 Y-2.78542
G1 Z4.714 X-15.123 Y-3.11782
G1 Z4.720 X-14.065 Y-3.87001
G1 Z4.722 X-13.724 Y-4.16774
G1 Z4.728 X-12.553 Y-4.81265
G1 Z4.730 X-12.168 Y-5.07645
G1 Z4.736 X-10.871 Y-5.61607
G1 Z4.738 X-10.436 Y-5.85080
G1 Z4.744 X-9.183 Y-6.23482
G1 Z4.747 X-8.410 Y-6.55760
G1 Z4.755 X-8.203 Y-8.45348
G1 Z4.758 X-8.198 Y-8.98806
G1 Z4.764 X-7.887 Y-10.40383
G1 Z4.766 X-7.828 Y-10.90633
G1 Z4.772 X-7.385 Y-12.19720
G1 Z4.774 X-7.276 Y-12.65954
G1 Z4.780 X-6.707 Y-13.84269
G1 Z4.782 X-6.551 Y-14.27067
G1 Z4.787 X-5.857 Y-15.35620
G1 Z4.789 X-5.654 Y-15.75561
G1 Z4.795 X-4.832 Y-16.75657
G1 Z4.797 X-4.582 Y-17.13021
G1 Z4.802 X-3.624 Y-18.05462
G1 Z4.804 X-3.322 Y-18.41041
G1 Z4.810 X-2.376 Y-19.15488
G1 Z4.814 X-1.433 Y-18.66260
G1 Z4.816 X-0.978 Y-18.47807 F600.000
G1 Z4.822 X0.146 Y-17.71929
G1 Z4.824 X0.560 Y-17.49438
G1 Z4.830 X1.548 Y-16.63918
G1 Z4.832 X1.919 Y-16.37703
G1 Z4.837 X2.785 Y-15.42349
G1 Z4.839 X3.117 Y-15.12390
G1 Z4.845 X3.870 Y-14.06508
G1 Z4.847 X4.167 Y-13.72581
G1 Z4.853 X4.812 Y-12.55372
G1 Z4.855 X5.076 Y-12.16852
G1 Z4.861 X5.616 Y-10.87114
G1 Z4.863 X5.850 Y-10.43687
G1 Z4.869 X6.234 Y-9.18389
G1 Z4.872 X6.557 Y-8.41068
G1 Z4.880 X8.453 Y-8.20355
G1 Z4.883 X8.988 Y-8.19814
G1 Z4.889 X10.403 Y-7.88790
G1 Z4.891 X10.906 Y-7.82840
G1 Z4.897 X12.197 Y-7.38528
G1 Z4.899 X12.659 Y-7.27661
G1 Z4.905 X13.842 Y-6.70776
G1 Z4.907 X14.270 Y-6.55174
G1 Z4.912 X15.356 Y-5.85727
G1 Z4.914 X15.755 Y-5.65469
G1 Z4.920 X16.756 Y-4.83265
G1 Z4.922 X17.130 Y-4.58228
G1 Z4.927 X18.054 Y-3.62469
G1 Z4.929 X18.410 Y-3.32248
G1 Z4.935 X19.154 Y-2.37695
G1 Z4.939 X18.662 Y-1.43367
G1 Z4.941 X18.478 Y-0.97814
G1 Z4.947 X17.719 Y0.14637
G1 Z4.949 X17.494 Y0.56046
G1 Z4.955 X16.639 Y1.54825
G1 Z4.957 X16.377 Y1.91910
G1 Z4.962 X15.423 Y2.78557
G1 Z4.964 X15.123 Y3.11797
G1 Z4.970 X14.065 Y3.87016
G1 Z4.972 X13.724 Y4.16788
G1 Z4.978 X12.553 Y4.81280
G1 Z4.980 X12.168 Y5.07660
G1 Z4.986 X10.871 Y5.61622
G1 Z4.988 X10.436 Y5.85094
G1 Z4.994 X9.183 Y6.23497
G1 Z4.997 X8.410 Y6.55775
G1 Z5.000 X8.338 Y7.21840
G1 Z5.004 X8.322 Y8.05380 F600.000
G1 Z5.007 X8.313 Y8.87124
G1 Z5.012 X8.061 Y10.02412
G1 Z5.016 X7.970 Y10.79350
G1 Z5.020 X7.610 Y11.84454
G1 Z5.023 X7.442 Y12.55371
G1 Z5.028 X6.979 Y13.51569
G1 Z5.031 X6.739 Y14.17384
G1 Z5.036 X6.174 Y15.05748
G1 Z5.039 X5.863 Y15.67079
G1 Z5.043 X5.194 Y16.48479
G1 Z5.046 X4.809 Y17.06038
G1 Z5.051 X4.030 Y17.81140
G1 Z5.054 X3.567 Y18.35658
G1 Z5.058 X2.836 Y18.93191
G1 Z5.059 X2.641 Y19.11889
G1 Z5.063 X1.924 Y18.74468
G1 Z5.066 X1.226 Y18.46352
G1 Z5.071 X0.311 Y17.84503
G1 Z5.074 X-0.325 Y17.50083
G1 Z5.078 X-1.129 Y16.80452
G1 Z5.081 X-1.698 Y16.40248
G1 Z5.086 X-2.403 Y15.62607
G1 Z5.089 X-2.913 Y15.16535
G1 Z5.093 X-3.525 Y14.30453
G1 Z5.096 X-3.981 Y13.78126
G1 Z5.101 X-4.507 Y12.82769
G1 Z5.104 X-4.912 Y12.23797
G1 Z5.109 X-5.351 Y11.18127
G1 Z5.112 X-5.708 Y10.51632
G1 Z5.117 X-6.022 Y9.49527
G1 Z5.122 X-6.438 Y8.49913
G1 Z5.129 X-8.053 Y8.32214
G1 Z5.132 X-8.871 Y8.31359
G1 Z5.137 X-10.024 Y8.06147
G1 Z5.141 X-10.793 Y7.97085
G1 Z5.145 X-11.844 Y7.61089
G1 Z5.148 X-12.553 Y7.44206
G1 Z5.153 X-13.515 Y6.97904
G1 Z5.156 X-14.173 Y6.73919
G1 Z5.161 X-15.057 Y6.17483
G1 Z5.164 X-15.670 Y5.86314
G1 Z5.168 X-16.484 Y5.19414
G1 Z5.171 X-17.060 Y4.80973
G1 Z5.176 X-17.811 Y4.03075
G1 Z5.179 X-18.356 Y3.56793
G1 Z5.183 X-18.931 Y2.83625
G1 Z5.184 X-19.118 Y2.64124
G1 Z5.188 X-18.744 Y1.92403
G1 Z5.191 X-18.463 Y1.22686
G1 Z5.196 X-17.845 Y0.31137
G1 Z5.199 X-17.500 Y-0.32518
G1 Z5.203 X-16.804 Y-1.12987
G1 Z5.206 X-16.402 Y-1.69883
G1 Z5.211 X-15.626 Y-2.40342
G1 Z5.214 X-15.165 Y-2.91369
G1 Z5.218 X-14.304 Y-3.52588
G1 Z5.221 X-13.781 Y-3.98161
G1 Z5.226 X-12.827 Y-4.50704
G1 Z5.229 X-12.237 Y-4.91232
G1 Z5.234 X-11.181 Y-5.35162
G1 Z5.237 X-10.516 Y-5.70867
G1 Z5.242 X-9.495 Y-6.02262
G1 Z5.247 X-8.499 Y-6.43848
G1 Z5.254 X-8.322 Y-8.05349
G1 Z5.257 X-8.313 Y-8.87194
G1 Z5.262 X-8.061 Y-10.02482
G1 Z5.266 X-7.970 Y-10.79320
G1 Z5.270 X-7.610 Y-11.84424
G1 Z5.273 X-7.442 Y-12.55341
G1 Z5.278 X-6.979 Y-13.51539
G1 Z5.281 X-6.739 Y-14.17354
G1 Z5.286 X-6.174 Y-15.05718
G1 Z5.289 X-5.863 Y-15.67049
G1 Z5.293 X-5.194 Y-16.48449
G1 Z5.296 X-4.809 Y-17.06008
G1 Z5.301 X-4.030 Y-17.81110
G1 Z5.304 X-3.567 Y-18.35628
G1 Z5.308 X-2.836 Y-18.93160
G1 Z5.309 X-2.641 Y-19.11859
G1 Z5.313 X-1.924 Y-18.74438
G1 Z5.316 X-1.226 Y-18.46321 F600.000
G1 Z5.321 X-0.311 Y-17.84572
G1 Z5.324 X0.325 Y-17.50053
G1 Z5.328 X1.129 Y-16.80421
G1 Z5.331 X1.698 Y-16.40218
G1 Z5.336 X2.403 Y-15.62677
G1 Z5.339 X2.913 Y-15.16504
G1 Z5.343 X3.525 Y-14.30423
G1 Z5.346 X3.981 Y-13.78196
G1 Z5.351 X4.507 Y-12.82739
G1 Z5.354 X4.912 Y-12.23767
G1 Z5.359 X5.351 Y-11.18197
G1 Z5.362 X5.708 Y-10.51602
G1 Z5.367 X6.022 Y-9.49597
G1 Z5.372 X6.438 Y-8.49982
G1 Z5.379 X8.053 Y-8.32284
G1 Z5.382 X8.871 Y-8.31328
G1 Z5.387 X10.024 Y-8.06117
G1 Z5.391 X10.793 Y-7.97055
G1 Z5.395 X11.844 Y-7.61059
G1 Z5.398 X12.553 Y-7.44276
G1 Z5.403 X13.515 Y-6.97974
G1 Z5.406 X14.173 Y-6.73989
G1 Z5.411 X15.057 Y-6.17453
G1 Z5.414 X15.670 Y-5.86383
G1 Z5.418 X16.484 Y-5.19484
G1 Z5.421 X17.060 Y-4.80943
G1 Z5.426 X17.811 Y-4.03045
G1 Z5.429 X18.356 Y-3.56763
G1 Z5.433 X18.931 Y-2.83695
G1 Z5.434 X19.118 Y-2.64194
G1 Z5.438 X18.744 Y-1.92473
G1 Z5.441 X18.463 Y-1.22656
G1 Z5.446 X17.845 Y-0.31107
G1 Z5.449 X17.500 Y0.32588
G1 Z5.453 X16.804 Y1.12956
G1 Z5.456 X16.402 Y1.69852
G1 Z5.461 X15.626 Y2.40312
G1 Z5.464 X15.165 Y2.91339
G1 Z5.468 X14.304 Y3.52558
G1 Z5.471 X13.781 Y3.98130
G1 Z5.476 X12.827 Y4.50774
G1 Z5.479 X12.237 Y4.91202
G1 Z5.484 X11.181 Y5.35132
G1 Z5.487 X10.516 Y5.70837
G1 Z5.492 X9.495 Y6.02232
G1 Z5.497 X8.499 Y6.43817
G1 Z5.500 X8.413 Y7.22680
G1 Z5.502 X8.441 Y7.65336 F600.000
G1 Z5.507 X8.429 Y8.75366
G1 Z5.511 X8.234 Y9.64466
G1 Z5.515 X8.112 Y10.68092
G1 Z5.519 X7.834 Y11.49113
G1 Z5.523 X7.608 Y12.44713
G1 Z5.526 X7.251 Y13.18994
G1 Z5.531 X6.927 Y14.07626
G1 Z5.534 X6.492 Y14.75702
G1 Z5.538 X6.071 Y15.58521
G1 Z5.542 X5.555 Y16.21325
G1 Z5.546 X5.037 Y16.98981
G1 Z5.549 X4.436 Y17.56943
G1 Z5.553 X3.812 Y18.30200
G1 Z5.556 X3.248 Y18.74537
G1 Z5.559 X2.900 Y19.08031
G1 Z5.561 X2.415 Y18.82774
G1 Z5.565 X1.474 Y18.44894
G1 Z5.569 X0.769 Y17.97173
G1 Z5.573 X-0.089 Y17.50625
G1 Z5.577 X-0.709 Y16.97083
G1 Z5.581 X-1.478 Y16.42790
G1 Z5.584 X-2.021 Y15.82962
G1 Z5.588 X-2.709 Y15.20677
G1 Z5.592 X-3.181 Y14.54395
G1 Z5.596 X-3.796 Y13.83768
G1 Z5.599 X-4.201 Y13.10263
G1 Z5.604 X-4.747 Y12.30639
G1 Z5.607 X-5.087 Y11.49138
G1 Z5.612 X-5.567 Y10.59674
G1 Z5.615 X-5.809 Y9.80862
G1 Z5.621 X-6.320 Y8.58755
G1 Z5.627 X-7.653 Y8.44171
G1 Z5.632 X-8.753 Y8.42901
G1 Z5.636 X-9.644 Y8.23401
G1 Z5.640 X-10.680 Y8.11227
G1 Z5.644 X-11.491 Y7.83447
G1 Z5.648 X-12.447 Y7.60848
G1 Z5.651 X-13.189 Y7.25129
G1 Z5.656 X-14.076 Y6.92761
G1 Z5.659 X-14.757 Y6.49237
G1 Z5.663 X-15.585 Y6.07156
G1 Z5.667 X-16.213 Y5.55560
G1 Z5.671 X-16.989 Y5.03715
G1 Z5.674 X-17.569 Y4.43678
G1 Z5.678 X-18.301 Y3.81235
G1 Z5.681 X-18.745 Y3.24872
G1 Z5.684 X-19.080 Y2.90066
G1 Z5.686 X-18.827 Y2.41509
G1 Z5.690 X-18.448 Y1.47429
G1 Z5.694 X-17.971 Y0.76908
G1 Z5.698 X-17.506 Y-0.08960
G1 Z5.702 X-16.970 Y-0.70918
G1 Z5.706 X-16.427 Y-1.47825
G1 Z5.709 X-15.829 Y-2.02197
G1 Z5.713 X-15.206 Y-2.70912
G1 Z5.717 X-14.543 Y-3.18130
G1 Z5.721 X-13.837 Y-3.79603
G1 Z5.724 X-13.102 Y-4.20198
G1 Z5.729 X-12.306 Y-4.74874
G1 Z5.732 X-11.491 Y-5.08773
G1 Z5.737 X-10.596 Y-5.56709
G1 Z5.740 X-9.808 Y-5.80997
G1 Z5.746 X-8.587 Y-6.32090
G1 Z5.752 X-8.441 Y-7.65306
G1 Z5.757 X-8.429 Y-8.75336
G1 Z5.761 X-8.234 Y-9.64436
G1 Z5.765 X-8.112 Y-10.68062
G1 Z5.769 X-7.834 Y-11.49182
G1 Z5.773 X-7.608 Y-12.44783
G1 Z5.776 X-7.251 Y-13.18964
G1 Z5.781 X-6.927 Y-14.07696
G1 Z5.784 X-6.492 Y-14.75772
G1 Z5.788 X-6.071 Y-15.58591
G1 Z5.792 X-5.555 Y-16.21395
G1 Z5.796 X-5.037 Y-16.98950
G1 Z5.799 X-4.436 Y-17.56913
G1 Z5.803 X-3.812 Y-18.30270
G1 Z5.806 X-3.248 Y-18.74507
G1 Z5.809 X-2.900 Y-19.08001
G1 Z5.811 X-2.415 Y-18.82744
G1 Z5.815 X-1.474 Y-18.44863 F600.000
G1 Z5.819 X-0.769 Y-17.97143
G1 Z5.823 X0.089 Y-17.50695
G1 Z5.827 X0.709 Y-16.97053
G1 Z5.831 X1.478 Y-16.42760
G1 Z5.834 X2.021 Y-15.82932
G1 Z5.838 X2.709 Y-15.20646
G1 Z5.842 X3.181 Y-14.54365
G1 Z5.846 X3.796 Y-13.83738
G1 Z5.849 X4.201 Y-13.10233
G1 Z5.854 X4.747 Y-12.30609
G1 Z5.857 X5.087 Y-11.49108
G1 Z5.862 X5.567 Y-10.59644
G1 Z5.865 X5.809 Y-9.80832
G1 Z5.871 X6.320 Y-8.58725
G1 Z5.877 X7.653 Y-8.44141
G1 Z5.882 X8.753 Y-8.42971
G1 Z5.886 X9.644 Y-8.23471
G1 Z5.890 X10.680 Y-8.11297
G1 Z5.894 X11.491 Y-7.83417
G1 Z5.898 X12.447 Y-7.60818
G1 Z5.901 X13.189 Y-7.25198
G1 Z5.906 X14.076 Y-6.92731
G1 Z5.909 X14.757 Y-6.49207
G1 Z5.913 X15.585 Y-6.07125
G1 Z5.917 X16.213 Y-5.55530
G1 Z5.921 X16.989 Y-5.03785
G1 Z5.924 X17.569 Y-4.43647
G1 Z5.928 X18.301 Y-3.81205
G1 Z5.931 X18.745 Y-3.24842
G1 Z5.934 X19.080 Y-2.90036
G1 Z5.936 X18.827 Y-2.41579
G1 Z5.940 X18.448 Y-1.47498
G1 Z5.944 X17.971 Y-0.76978
G1 Z5.948 X17.506 Y0.08930
G1 Z5.952 X16.970 Y0.70987
G1 Z5.956 X16.427 Y1.47895
G1 Z5.959 X15.829 Y2.02167
G1 Z5.963 X15.206 Y2.70981
G1 Z5.967 X14.543 Y3.18100
G1 Z5.971 X13.837 Y3.79673
G1 Z5.974 X13.102 Y4.20168
G1 Z5.979 X12.306 Y4.74844
G1 Z5.982 X11.491 Y5.08743
G1 Z5.987 X10.596 Y5.56779
G1 Z5.990 X9.808 Y5.80967
G1 Z5.996 X8.587 Y6.32059
G1 Z6.000 X8.487 Y7.23419
G1 Z6.006 X8.545 Y8.63608 F600.000
G1 Z6.009 X8.408 Y9.26420
G1 Z6.014 X8.254 Y10.56734
G1 Z6.017 X8.058 Y11.13871
G1 Z6.022 X7.774 Y12.34155
G1 Z6.025 X7.523 Y12.86318
G1 Z6.030 X7.115 Y13.98068
G1 Z6.032 X6.809 Y14.45856
G1 Z6.038 X6.279 Y15.50063
G1 Z6.040 X5.917 Y15.94171
G1 Z6.045 X5.264 Y16.91822
G1 Z6.048 X4.841 Y17.32645
G1 Z6.053 X4.057 Y18.24742
G1 Z6.055 X3.661 Y18.55984
G1 Z6.058 X3.159 Y19.04173
G1 Z6.059 X2.905 Y18.90980
G1 Z6.065 X1.722 Y18.43335
G1 Z6.067 X1.226 Y18.09743
G1 Z6.073 X0.146 Y17.51267
G1 Z6.075 X-0.290 Y17.13514
G1 Z6.080 X-1.257 Y16.45132
G1 Z6.083 X-1.639 Y16.03116
G1 Z6.088 X-2.505 Y15.24818
G1 Z6.090 X-2.837 Y14.78237
G1 Z6.095 X-3.611 Y13.89310
G1 Z6.098 X-3.896 Y13.37656
G1 Z6.103 X-4.583 Y12.37581
G1 Z6.106 X-4.822 Y11.80148
G1 Z6.111 X-5.426 Y10.67616
G1 Z6.114 X-5.596 Y10.12097
G1 Z6.120 X-6.201 Y8.67597
G1 Z6.125 X-7.253 Y8.56028
G1 Z6.131 X-8.636 Y8.54543
G1 Z6.134 X-9.264 Y8.40855
G1 Z6.139 X-10.567 Y8.25469
G1 Z6.142 X-11.138 Y8.05806
G1 Z6.147 X-12.341 Y7.774990
G1 Z6.150 X-12.863 Y7.523053
G1 Z6.155 X-13.980 Y7.115403
G1 Z6.157 X-14.458 Y6.809390
G1 Z6.163 X-15.500 Y6.279597
G1 Z6.165 X-15.941 Y5.917606
G1 Z6.170 X-16.918 Y5.264857
G1 Z6.173 X-17.326 Y4.841980
G1 Z6.178 X-18.247 Y4.057477
G1 Z6.180 X-18.559 Y3.661019
G1 Z6.183 X-19.041 Y3.159908
G1 Z6.184 X-18.909 Y2.905914
G1 Z6.190 X-18.433 Y1.722870
G1 Z6.192 X-18.097 Y1.226078
G1 Z6.198 X-17.512 Y0.146702
G1 Z6.200 X-17.135 Y-0.290748
G1 Z6.205 X-16.451 Y-1.257066
G1 Z6.208 X-16.031 Y-1.639051
G1 Z6.213 X-15.248 Y-2.505253
G1 Z6.215 X-14.782 Y-2.837272
G1 Z6.220 X-13.893 Y-3.611545
G1 Z6.223 X-13.376 Y-3.896691
G1 Z6.228 X-12.375 Y-4.583216
G1 Z6.231 X-11.801 Y-4.822583
G1 Z6.236 X-10.676 Y-5.426551
G1 Z6.239 X-10.120 Y-5.596631
G1 Z6.245 X-8.675 Y-6.201631
G1 Z6.250 X-8.560 Y-7.253063
G1 Z6.256 X-8.545 Y-8.636777
G1 Z6.259 X-8.408 Y-9.264290
G1 Z6.264 X-8.254 Y-10.567504
G1 Z6.267 X-8.058 Y-11.138740
G1 Z6.272 X-7.774 Y-12.341425
G1 Z6.275 X-7.523 Y-12.863488
G1 Z6.280 X-7.115 Y-13.980838
G1 Z6.282 X-6.809 Y-14.458825
G1 Z6.288 X-6.279 Y-15.500032
G1 Z6.290 X-5.917 Y-15.941041
G1 Z6.295 X-5.264 Y-16.918292
G1 Z6.298 X-4.841 Y-17.326415
G1 Z6.303 X-4.057 Y-18.247912
G1 Z6.305 X-3.661 Y-18.559454
G1 Z6.308 X-3.159 Y-19.041343
G1 Z6.309 X-2.905 Y-18.909349
G1 Z6.315 X-1.722 Y-18.433305 F600.000
G1 Z6.317 X-1.226 Y-18.097513
G1 Z6.323 X-0.146 Y-17.512137
G1 Z6.325 X0.290 Y-17.135183
G1 Z6.330 X1.257 Y-16.451501
G1 Z6.333 X1.639 Y-16.031486
G1 Z6.338 X2.505 Y-15.248688
G1 Z6.340 X2.837 Y-14.782707
G1 Z6.345 X3.611 Y-13.893979
G1 Z6.348 X3.896 Y-13.376126
G1 Z6.353 X4.583 Y-12.375651
G1 Z6.356 X4.822 Y-11.801018
G1 Z6.361 X5.426 Y-10.676986
G1 Z6.364 X5.596 Y-10.120066
G1 Z6.370 X6.201 Y-8.675066
G1 Z6.375 X7.253 Y-8.560497
G1 Z6.381 X8.636 Y-8.545212
G1 Z6.384 X9.264 Y-8.408724
G1 Z6.389 X10.567 Y-8.254938
G1 Z6.392 X11.138 Y-8.058175
G1 Z6.397 X12.341 Y-7.774860
G1 Z6.400 X12.863 Y-7.523923
G1 Z6.405 X13.980 Y-7.115273
G1 Z6.407 X14.458 Y-6.809260
G1 Z6.413 X15.500 Y-6.279467
G1 Z6.415 X15.941 Y-5.917476
G1 Z6.420 X16.918 Y-5.264727
G1 Z6.423 X17.326 Y-4.841850
G1 Z6.428 X18.247 Y-4.057347
G1 Z6.430 X18.559 Y-3.661889
G1 Z6.433 X19.041 Y-3.159778
G1 Z6.434 X18.909 Y-2.905784
G1 Z6.440 X18.433 Y-1.722740
G1 Z6.442 X18.097 Y-1.226948
G1 Z6.448 X17.512 Y-0.146572
G1 Z6.450 X17.135 Y0.290618
G1 Z6.455 X16.451 Y1.257936
G1 Z6.458 X16.031 Y1.639921
G1 Z6.463 X15.248 Y2.505123
G1 Z6.465 X14.782 Y2.837142
G1 Z6.470 X13.893 Y3.611414
G1 Z6.473 X13.376 Y3.896561
G1 Z6.478 X12.375 Y4.583086
G1 Z6.481 X11.801 Y4.822453
G1 Z6.486 X10.676 Y5.426420
G1 Z6.489 X10.120 Y5.596501
G1 Z6.495 X8.675 Y6.201501
G1 Z6.500 X8.561 Y7.242858
G1 Z6.506 X8.661 Y8.519815 F600.000
G1 Z6.507 X8.581 Y8.884439
G1 Z6.514 X8.396 Y10.454541
G1 Z6.515 X8.282 Y10.784994
G1 Z6.522 X7.940 Y12.235462
G1 Z6.523 X7.795 Y12.536808
G1 Z6.530 X7.303 Y13.883875
G1 Z6.531 X7.126 Y14.159174
G1 Z6.537 X6.488 Y15.415070
G1 Z6.538 X6.279 Y15.670382
G1 Z6.545 X5.491 Y16.847329
G1 Z6.546 X5.247 Y17.083713
G1 Z6.552 X4.303 Y18.193949
G1 Z6.554 X4.073 Y18.373996
G1 Z6.557 X3.419 Y19.001362
G1 Z6.564 X1.970 Y18.418331
G1 Z6.566 X1.683 Y18.224767
G1 Z6.572 X0.381 Y17.518162
G1 Z6.574 X0.130 Y17.301498
G1 Z6.580 X-1.037 Y16.476527
G1 Z6.581 X-1.257 Y16.234825
G1 Z6.587 X-2.301 Y15.289714
G1 Z6.589 X-2.493 Y15.020033
G1 Z6.595 X-3.425 Y13.950005
G1 Z6.596 X-3.590 Y13.650404
G1 Z6.603 X-4.419 Y12.444677
G1 Z6.604 X-4.557 Y12.111212
G1 Z6.611 X-5.284 Y10.756011
G1 Z6.612 X-5.384 Y10.433385
G1 Z6.620 X-6.082 Y8.763092
G1 Z6.623 X-6.853 Y8.679538
G1 Z6.631 X-8.519 Y8.661238
G1 Z6.632 X-8.884 Y8.581862
G1 Z6.639 X-10.454 Y8.396964
G1 Z6.640 X-10.784 Y8.282417
G1 Z6.647 X-12.235 Y7.940885
G1 Z6.648 X-12.536 Y7.795231
G1 Z6.655 X-13.883 Y7.303298
G1 Z6.656 X-14.159 Y7.126598
G1 Z6.662 X-15.415 Y6.488493
G1 Z6.663 X-15.670 Y6.279805
G1 Z6.670 X-16.847 Y5.491753
G1 Z6.671 X-17.083 Y5.247137
G1 Z6.677 X-18.193 Y4.303372
G1 Z6.679 X-18.373 Y4.073419
G1 Z6.682 X-19.001 Y3.419785
G1 Z6.689 X-18.418 Y1.970754
G1 Z6.691 X-18.224 Y1.683190
G1 Z6.697 X-17.518 Y0.381586
G1 Z6.699 X-17.301 Y0.130921
G1 Z6.705 X-16.476 Y-1.037950
G1 Z6.706 X-16.234 Y-1.257248
G1 Z6.712 X-15.289 Y-2.301137
G1 Z6.714 X-15.020 Y-2.493456
G1 Z6.720 X-13.950 Y-3.426428
G1 Z6.721 X-13.650 Y-3.590827
G1 Z6.728 X-12.444 Y-4.419100
G1 Z6.729 X-12.111 Y-4.557635
G1 Z6.736 X-10.756 Y-5.284434
G1 Z6.737 X-10.433 Y-5.384808
G1 Z6.745 X-8.763 Y-6.082515
G1 Z6.748 X-8.679 Y-6.853961
G1 Z6.756 X-8.661 Y-8.519661
G1 Z6.757 X-8.581 Y-8.884285
G1 Z6.764 X-8.396 Y-10.454387
G1 Z6.765 X-8.282 Y-10.784841
G1 Z6.772 X-7.940 Y-12.235309
G1 Z6.773 X-7.795 Y-12.536655
G1 Z6.780 X-7.303 Y-13.883722
G1 Z6.781 X-7.126 Y-14.159021
G1 Z6.787 X-6.488 Y-15.415916
G1 Z6.788 X-6.279 Y-15.670229
G1 Z6.795 X-5.491 Y-16.847176
G1 Z6.796 X-5.247 Y-17.083560
G1 Z6.802 X-4.303 Y-18.193796
G1 Z6.804 X-4.073 Y-18.373842
G1 Z6.807 X-3.419 Y-19.001208
G1 Z6.814 X-1.970 Y-18.418177
G1 Z6.816 X-1.683 Y-18.224614 F600.000
G1 Z6.822 X-0.381 Y-17.518009
G1 Z6.824 X-0.130 Y-17.301345
G1 Z6.830 X1.037 Y-16.476374
G1 Z6.831 X1.257 Y-16.234671
G1 Z6.837 X2.301 Y-15.289560
G1 Z6.839 X2.493 Y-15.020880
G1 Z6.845 X3.425 Y-13.950852
G1 Z6.846 X3.590 Y-13.650250
G1 Z6.853 X4.419 Y-12.445523
G1 Z6.854 X4.557 Y-12.111058
G1 Z6.861 X5.284 Y-10.756858
G1 Z6.862 X5.384 Y-10.433231
G1 Z6.870 X6.082 Y-8.763939
G1 Z6.873 X6.853 Y-8.679384
G1 Z6.881 X8.519 Y-8.661085
G1 Z6.882 X8.884 Y-8.581709
G1 Z6.889 X10.454 Y-8.396811
G1 Z6.890 X10.784 Y-8.282264
G1 Z6.897 X12.235 Y-7.940732
G1 Z6.898 X12.536 Y-7.795078
G1 Z6.905 X13.883 Y-7.303145
G1 Z6.906 X14.159 Y-7.126444
G1 Z6.912 X15.415 Y-6.488339
G1 Z6.913 X15.670 Y-6.279652
G1 Z6.920 X16.847 Y-5.491599
G1 Z6.921 X17.083 Y-5.247983
G1 Z6.927 X18.193 Y-4.303219
G1 Z6.929 X18.373 Y-4.073266
G1 Z6.932 X19.001 Y-3.419632
G1 Z6.939 X18.418 Y-1.970601
G1 Z6.941 X18.224 Y-1.683037
G1 Z6.947 X17.518 Y-0.381432
G1 Z6.949 X17.301 Y-0.130768
G1 Z6.955 X16.476 Y1.037797
G1 Z6.956 X16.234 Y1.257095
G1 Z6.962 X15.289 Y2.301984
G1 Z6.964 X15.020 Y2.493303
G1 Z6.970 X13.950 Y3.425275
G1 Z6.971 X13.650 Y3.590674
G1 Z6.978 X12.444 Y4.419946
G1 Z6.979 X12.111 Y4.557481
G1 Z6.986 X10.756 Y5.284281
G1 Z6.987 X10.433 Y5.384655
G1 Z6.995 X8.763 Y6.082362
G1 Z6.998 X8.679 Y6.853808
G1 Z7.000 X8.675 Y7.243552
G1 Z7.005 X8.777 Y8.427854 F600.000
G1 Z7.014 X8.535 Y10.365565
G1 Z7.021 X8.100 Y12.152485
G1 Z7.029 X7.483 Y13.809896
G1 Z7.037 X6.686 Y15.351090
G1 Z7.044 X5.706 Y16.796348
G1 Z7.052 X4.533 Y18.157966
G1 Z7.057 X3.652 Y18.991483
G1 Z7.064 X2.196 Y18.394530
G1 Z7.072 X0.596 Y17.513360
G1 Z7.079 X-0.835 Y16.488723
G1 Z7.087 X-2.115 Y15.315909
G1 Z7.094 X-3.256 Y13.988199
G1 Z7.102 X-4.268 Y12.494868
G1 Z7.110 X-5.154 Y10.815201
G1 Z7.119 X-5.960 Y8.852106
G1 Z7.122 X-6.453 Y8.798584
G1 Z7.130 X-8.427 Y8.777447
G1 Z7.139 X-10.365 Y8.535159
G1 Z7.146 X-12.152 Y8.100078
G1 Z7.154 X-13.809 Y7.483490
G1 Z7.162 X-15.351 Y6.686683
G1 Z7.169 X-16.796 Y5.706941
G1 Z7.177 X-18.157 Y4.533559
G1 Z7.182 X-18.991 Y3.652076
G1 Z7.189 X-18.394 Y2.196124
G1 Z7.197 X-17.513 Y0.596953
G1 Z7.204 X-16.488 Y-0.835317
G1 Z7.212 X-15.315 Y-2.115502
G1 Z7.219 X-13.988 Y-3.256792
G1 Z7.227 X-12.494 Y-4.268462
G1 Z7.235 X-10.815 Y-5.154794
G1 Z7.244 X-8.852 Y-5.960700
G1 Z7.247 X-8.798 Y-6.453177
G1 Z7.255 X-8.777 Y-8.427041
G1 Z7.264 X-8.535 Y-10.365752
G1 Z7.271 X-8.100 Y-12.152672
G1 Z7.279 X-7.483 Y-13.809083
G1 Z7.287 X-6.686 Y-15.351277
G1 Z7.294 X-5.706 Y-16.796535
G1 Z7.302 X-4.533 Y-18.157153
G1 Z7.307 X-3.661 Y-18.983588
G1 Z7.314 X-2.195 Y-18.393682
G1 Z7.322 X-0.596 Y-17.513499 F600.000
G1 Z7.329 X0.835 Y-16.488863
G1 Z7.337 X2.115 Y-15.315048
G1 Z7.344 X3.256 Y-13.988338
G1 Z7.352 X4.268 Y-12.494008
G1 Z7.360 X5.154 Y-10.815340
G1 Z7.369 X5.960 Y-8.852245
G1 Z7.372 X6.453 Y-8.798723
G1 Z7.380 X8.427 Y-8.777587
G1 Z7.389 X10.365 Y-8.535298
G1 Z7.396 X12.152 Y-8.100218
G1 Z7.404 X13.809 Y-7.483629
G1 Z7.412 X15.351 Y-6.686822
G1 Z7.419 X16.796 Y-5.706081
G1 Z7.427 X18.157 Y-4.533698
G1 Z7.432 X18.991 Y-3.652215
G1 Z7.439 X18.394 Y-2.196263
G1 Z7.447 X17.513 Y-0.596093
G1 Z7.454 X16.488 Y0.835456
G1 Z7.462 X15.315 Y2.115642
G1 Z7.469 X13.988 Y3.256931
G1 Z7.477 X12.494 Y4.268601
G1 Z7.485 X10.815 Y5.154934
G1 Z7.494 X8.852 Y5.960839
G1 Z7.497 X8.798 Y6.453316
G1 Z7.500 X8.789 Y7.245878
G1 Z7.505 X8.884 Y8.335526 F600.000
G1 Z7.513 X8.670 Y10.252072
G1 Z7.521 X8.258 Y12.045992
G1 Z7.529 X7.663 Y13.710403
G1 Z7.536 X6.886 Y15.263596
G1 Z7.544 X5.925 Y16.720855
G1 Z7.551 X4.770 Y18.096472
G1 Z7.557 X3.900 Y18.942989
G1 Z7.563 X2.437 Y18.364037
G1 Z7.571 X0.825 Y17.504867
G1 Z7.579 X-0.620 Y16.497230
G1 Z7.586 X-1.914 Y15.342415
G1 Z7.594 X-3.073 Y14.030705
G1 Z7.602 X-4.104 Y12.549375
G1 Z7.610 X-5.012 Y10.882708
G1 Z7.619 X-5.857 Y8.899841
G1 Z7.630 X-8.335 Y8.884241
G1 Z7.638 X-10.252 Y8.670787
G1 Z7.646 X-12.045 Y8.258707
G1 Z7.654 X-13.710 Y7.663119
G1 Z7.661 X-15.263 Y6.886312
G1 Z7.669 X-16.720 Y5.925570
G1 Z7.676 X-18.096 Y4.770188
G1 Z7.682 X-18.942 Y3.900705
G1 Z7.688 X-18.364 Y2.437752
G1 Z7.696 X-17.504 Y0.825582
G1 Z7.704 X-16.497 Y-0.620946
G1 Z7.711 X-15.342 Y-1.914131
G1 Z7.719 X-14.030 Y-3.073421
G1 Z7.727 X-12.549 Y-4.104091
G1 Z7.735 X-10.882 Y-5.012423
G1 Z7.744 X-8.899 Y-5.857557
G1 Z7.755 X-8.884 Y-8.335957
G1 Z7.763 X-8.670 Y-10.252503
G1 Z7.771 X-8.258 Y-12.045423
G1 Z7.779 X-7.663 Y-13.710834
G1 Z7.786 X-6.886 Y-15.263028
G1 Z7.794 X-5.925 Y-16.720286
G1 Z7.801 X-4.770 Y-18.096904
G1 Z7.807 X-3.902 Y-18.940403
G1 Z7.813 X-2.511 Y-18.380928
G1 Z7.813 X-2.414 Y-18.352637 F600.000
G1 Z7.821 X-0.825 Y-17.504289
G1 Z7.829 X0.620 Y-16.497653
G1 Z7.836 X1.914 Y-15.342838
G1 Z7.844 X3.073 Y-14.030128
G1 Z7.852 X4.104 Y-12.549798
G1 Z7.860 X5.012 Y-10.882130
G1 Z7.869 X5.857 Y-8.899264
G1 Z7.880 X8.335 Y-8.884664
G1 Z7.888 X10.252 Y-8.670210
G1 Z7.896 X12.045 Y-8.258130
G1 Z7.904 X13.710 Y-7.663541
G1 Z7.911 X15.263 Y-6.886735
G1 Z7.919 X16.720 Y-5.925993
G1 Z7.926 X18.096 Y-4.770611
G1 Z7.932 X18.942 Y-3.900127
G1 Z7.938 X18.364 Y-2.437175
G1 Z7.946 X17.504 Y-0.825005
G1 Z7.954 X16.497 Y0.620368
G1 Z7.961 X15.342 Y1.914554
G1 Z7.969 X14.030 Y3.073843
G1 Z7.977 X12.549 Y4.104513
G1 Z7.985 X10.882 Y5.012846
G1 Z7.994 X8.899 Y5.857979
G1 Z8.000 X8.884 Y7.246732
G1 Z8.002 X8.953 Y7.812703 F600.000
G1 Z8.004 X8.987 Y8.205473
G1 Z8.011 X8.801 Y9.777589
G1 Z8.013 X8.794 Y10.149199
G1 Z8.019 X8.451 Y11.601675
G1 Z8.021 X8.405 Y11.946121
G1 Z8.027 X7.913 Y13.293191
G1 Z8.028 X7.829 Y13.616533
G1 Z8.034 X7.191 Y14.872427
G1 Z8.036 X7.072 Y15.177728
G1 Z8.042 X6.285 Y16.354669
G1 Z8.043 X6.129 Y16.645988
G1 Z8.049 X5.187 Y17.752194
G1 Z8.051 X4.991 Y18.034607
G1 Z8.056 X4.126 Y18.865025
G1 Z8.061 X3.008 Y18.414491
G1 Z8.063 X2.662 Y18.313024
G1 Z8.069 X1.359 Y17.607429
G1 Z8.071 X1.040 Y17.473856
G1 Z8.077 X-0.126 Y16.649887
G1 Z8.078 X-0.415 Y16.484220
G1 Z8.084 X-1.459 Y15.540107
G1 Z8.086 X-1.723 Y15.345407
G1 Z8.092 X-2.655 Y14.275372
G1 Z8.093 X-2.896 Y14.048698
G1 Z8.100 X-3.723 Y12.843960
G1 Z8.101 X-3.944 Y12.581370
G1 Z8.108 X-4.670 Y11.229144
G1 Z8.109 X-4.873 Y10.926704
G1 Z8.116 X-5.425 Y9.605757
G1 Z8.119 X-5.765 Y8.975785
G1 Z8.127 X-7.812 Y8.953161
G1 Z8.129 X-8.205 Y8.987931
G1 Z8.136 X-9.777 Y8.801047
G1 Z8.138 X-10.149 Y8.794657
G1 Z8.144 X-11.601 Y8.451133
G1 Z8.146 X-11.946 Y8.405579
G1 Z8.152 X-13.293 Y7.913649
G1 Z8.153 X-13.616 Y7.829991
G1 Z8.159 X-14.872 Y7.191885
G1 Z8.161 X-15.177 Y7.072186
G1 Z8.167 X-16.354 Y6.285127
G1 Z8.168 X-16.645 Y6.129446
G1 Z8.174 X-17.752 Y5.187653
G1 Z8.176 X-18.034 Y4.991065
G1 Z8.181 X-18.865 Y4.126483
G1 Z8.186 X-18.414 Y3.008949
G1 Z8.188 X-18.313 Y2.662482
G1 Z8.194 X-17.607 Y1.359887
G1 Z8.196 X-17.473 Y1.040314
G1 Z8.202 X-16.649 Y-0.126345
G1 Z8.203 X-16.484 Y-0.415678
G1 Z8.209 X-15.540 Y-1.459565
G1 Z8.211 X-15.345 Y-1.723865
G1 Z8.217 X-14.275 Y-2.655830
G1 Z8.218 X-14.048 Y-2.896156
G1 Z8.225 X-12.843 Y-3.723418
G1 Z8.226 X-12.581 Y-3.944828
G1 Z8.233 X-11.229 Y-4.670602
G1 Z8.234 X-10.926 Y-4.873162
G1 Z8.241 X-9.605 Y-5.425215
G1 Z8.244 X-8.975 Y-5.765243
G1 Z8.252 X-8.953 Y-7.812619
G1 Z8.254 X-8.987 Y-8.205389
G1 Z8.261 X-8.801 Y-9.777506
G1 Z8.263 X-8.794 Y-10.149115
G1 Z8.269 X-8.451 Y-11.601592
G1 Z8.271 X-8.405 Y-11.946037
G1 Z8.277 X-7.913 Y-13.293107
G1 Z8.278 X-7.829 Y-13.616450
G1 Z8.284 X-7.191 Y-14.872343
G1 Z8.286 X-7.072 Y-15.177644
G1 Z8.292 X-6.285 Y-16.354585
G1 Z8.293 X-6.129 Y-16.645904
G1 Z8.299 X-5.187 Y-17.752111
G1 Z8.301 X-4.991 Y-18.034524
G1 Z8.306 X-4.126 Y-18.865941
G1 Z8.311 X-3.008 Y-18.414408
G1 Z8.313 X-2.662 Y-18.313940 F600.000
G1 Z8.319 X-1.359 Y-17.607345
G1 Z8.321 X-1.040 Y-17.473772
G1 Z8.327 X0.126 Y-16.649803
G1 Z8.328 X0.415 Y-16.484137
G1 Z8.334 X1.459 Y-15.540023
G1 Z8.336 X1.723 Y-15.345323
G1 Z8.342 X2.655 Y-14.275288
G1 Z8.343 X2.896 Y-14.048615
G1 Z8.350 X3.723 Y-12.843876
G1 Z8.351 X3.944 Y-12.581286
G1 Z8.358 X4.670 Y-11.229060
G1 Z8.359 X4.873 Y-10.926621
G1 Z8.366 X5.425 Y-9.605673
G1 Z8.369 X5.765 Y-8.975701
G1 Z8.377 X7.812 Y-8.953077
G1 Z8.379 X8.205 Y-8.987847
G1 Z8.386 X9.777 Y-8.801964
G1 Z8.388 X10.149 Y-8.794574
G1 Z8.394 X11.601 Y-8.451050
G1 Z8.396 X11.946 Y-8.405495
G1 Z8.402 X13.293 Y-7.913565
G1 Z8.403 X13.616 Y-7.829908
G1 Z8.409 X14.872 Y-7.191801
G1 Z8.411 X15.177 Y-7.072102
G1 Z8.417 X16.354 Y-6.285043
G1 Z8.418 X16.645 Y-6.129362
G1 Z8.424 X17.752 Y-5.187569
G1 Z8.426 X18.034 Y-4.991982
G1 Z8.431 X18.865 Y-4.126399
G1 Z8.436 X18.414 Y-3.008866
G1 Z8.438 X18.313 Y-2.662398
G1 Z8.444 X17.607 Y-1.359803
G1 Z8.446 X17.473 Y-1.040230
G1 Z8.452 X16.649 Y0.126262
G1 Z8.453 X16.484 Y0.415595
G1 Z8.459 X15.540 Y1.459481
G1 Z8.461 X15.345 Y1.723782
G1 Z8.467 X14.275 Y2.655746
G1 Z8.468 X14.048 Y2.896073
G1 Z8.475 X12.843 Y3.723334
G1 Z8.476 X12.581 Y3.944744
G1 Z8.483 X11.229 Y4.670518
G1 Z8.484 X10.926 Y4.873079
G1 Z8.491 X9.605 Y5.425131
G1 Z8.494 X8.975 Y5.765160
G1 Z8.500 X8.959 Y7.246564
G1 Z8.504 X9.091 Y8.077404 F600.000
G1 Z8.509 X8.937 Y9.382632
G1 Z8.512 X8.924 Y10.022130
G1 Z8.517 X8.640 Y11.227822
G1 Z8.520 X8.559 Y11.824051
G1 Z8.525 X8.151 Y12.941404
G1 Z8.528 X8.007 Y13.501464
G1 Z8.533 X7.477 Y14.543669
G1 Z8.535 X7.271 Y15.072659
G1 Z8.540 X6.618 Y16.048904
G1 Z8.543 X6.349 Y16.552919
G1 Z8.548 X5.567 Y17.471386
G1 Z8.550 X5.230 Y17.957538
G1 Z8.556 X4.359 Y18.792015
G1 Z8.560 X3.504 Y18.449484
G1 Z8.562 X2.907 Y18.274853
G1 Z8.568 X1.826 Y17.688486
G1 Z8.570 X1.275 Y17.456685
G1 Z8.575 X0.307 Y16.772005
G1 Z8.578 X-0.193 Y16.488049
G1 Z8.583 X-1.059 Y15.704249
G1 Z8.585 X-1.516 Y15.366236
G1 Z8.590 X-2.289 Y14.479501
G1 Z8.593 X-2.706 Y14.086527
G1 Z8.598 X-3.392 Y13.086041
G1 Z8.601 X-3.774 Y12.633199
G1 Z8.606 X-4.376 Y11.511141
G1 Z8.609 X-4.724 Y10.992533
G1 Z8.614 X-5.183 Y9.895879
G1 Z8.618 X-5.638 Y9.051614
G1 Z8.626 X-7.402 Y9.032005
G1 Z8.629 X-8.077 Y9.091760
G1 Z8.634 X-9.382 Y8.937988
G1 Z8.637 X-10.022 Y8.924486
G1 Z8.642 X-11.227 Y8.640179
G1 Z8.645 X-11.824 Y8.560408
G1 Z8.650 X-12.941 Y8.151760
G1 Z8.653 X-13.501 Y8.007820
G1 Z8.658 X-14.543 Y7.478026
G1 Z8.660 X-15.072 Y7.271015
G1 Z8.665 X-16.048 Y6.618260
G1 Z8.668 X-16.552 Y6.349275
G1 Z8.673 X-17.471 Y5.567742
G1 Z8.675 X-17.957 Y5.230894
G1 Z8.681 X-18.792 Y4.359371
G1 Z8.685 X-18.448 Y3.504840
G1 Z8.687 X-18.274 Y2.907209
G1 Z8.693 X-17.688 Y1.826842
G1 Z8.695 X-17.456 Y1.275041
G1 Z8.700 X-16.772 Y0.307361
G1 Z8.703 X-16.488 Y-0.193405
G1 Z8.708 X-15.704 Y-1.059605
G1 Z8.710 X-15.366 Y-1.516592
G1 Z8.715 X-14.479 Y-2.289857
G1 Z8.718 X-14.086 Y-2.706883
G1 Z8.723 X-13.086 Y-3.392397
G1 Z8.726 X-12.633 Y-3.774555
G1 Z8.731 X-11.511 Y-4.376497
G1 Z8.734 X-10.992 Y-4.724890
G1 Z8.739 X-9.895 Y-5.183235
G1 Z8.743 X-9.051 Y-5.638970
G1 Z8.751 X-9.032 Y-7.402361
G1 Z8.754 X-9.091 Y-8.077116
G1 Z8.759 X-8.937 Y-9.382345
G1 Z8.762 X-8.924 Y-10.022842
G1 Z8.767 X-8.640 Y-11.227535
G1 Z8.770 X-8.560 Y-11.824764
G1 Z8.775 X-8.151 Y-12.941117
G1 Z8.778 X-8.007 Y-13.501177
G1 Z8.783 X-7.477 Y-14.543382
G1 Z8.785 X-7.271 Y-15.072371
G1 Z8.790 X-6.618 Y-16.048616
G1 Z8.793 X-6.349 Y-16.552631
G1 Z8.798 X-5.567 Y-17.471099
G1 Z8.800 X-5.230 Y-17.957251
G1 Z8.806 X-4.359 Y-18.792727
G1 Z8.810 X-3.504 Y-18.449196
G1 Z8.812 X-2.907 Y-18.274566 F600.000
G1 Z8.818 X-1.826 Y-17.688199
G1 Z8.820 X-1.275 Y-17.456397
G1 Z8.825 X-0.307 Y-16.772718
G1 Z8.828 X0.193 Y-16.488762
G1 Z8.833 X1.059 Y-15.704961
G1 Z8.835 X1.516 Y-15.366949
G1 Z8.840 X2.289 Y-14.479214
G1 Z8.843 X2.706 Y-14.086240
G1 Z8.848 X3.392 Y-13.086753
G1 Z8.851 X3.774 Y-12.633911
G1 Z8.856 X4.376 Y-11.511854
G1 Z8.859 X4.724 Y-10.992246
G1 Z8.864 X5.183 Y-9.895591
G1 Z8.868 X5.638 Y-9.051327
G1 Z8.876 X7.402 Y-9.032717
G1 Z8.879 X8.077 Y-9.091473
G1 Z8.884 X9.382 Y-8.937701
G1 Z8.887 X10.022 Y-8.924199
G1 Z8.892 X11.227 Y-8.640891
G1 Z8.895 X11.824 Y-8.560120
G1 Z8.900 X12.941 Y-8.151473
G1 Z8.903 X13.501 Y-8.007533
G1 Z8.908 X14.543 Y-7.478738
G1 Z8.910 X15.072 Y-7.271728
G1 Z8.915 X16.048 Y-6.618972
G1 Z8.918 X16.552 Y-6.349987
G1 Z8.923 X17.471 Y-5.567455
G1 Z8.925 X17.957 Y-5.230607
G1 Z8.931 X18.792 Y-4.359083
G1 Z8.935 X18.448 Y-3.504553
G1 Z8.937 X18.274 Y-2.907922
G1 Z8.943 X17.688 Y-1.826555
G1 Z8.945 X17.456 Y-1.275753
G1 Z8.950 X16.772 Y-0.307074
G1 Z8.953 X16.488 Y0.193118
G1 Z8.958 X15.704 Y1.059317
G1 Z8.960 X15.366 Y1.516305
G1 Z8.965 X14.479 Y2.289570
G1 Z8.968 X14.086 Y2.706596
G1 Z8.973 X13.086 Y3.392110
G1 Z8.976 X12.633 Y3.774267
G1 Z8.981 X11.511 Y4.376210
G1 Z8.984 X10.992 Y4.724602
G1 Z8.989 X9.895 Y5.183947
G1 Z8.993 X9.051 Y5.638683
G1 Z9.000 X9.034 Y7.247985
G1 Z9.003 X9.195 Y7.949992 F600.000
G1 Z9.008 X9.072 Y8.987332
G1 Z9.012 X9.055 Y9.896718
G1 Z9.016 X8.828 Y10.854626
G1 Z9.019 X8.714 Y11.702639
G1 Z9.024 X8.390 Y12.590275
G1 Z9.027 X8.185 Y13.387052
G1 Z9.031 X7.764 Y14.214569
G1 Z9.035 X7.470 Y14.967246
G1 Z9.039 X6.952 Y15.743795
G1 Z9.042 X6.568 Y16.460506
G1 Z9.046 X5.947 Y17.189235
G1 Z9.050 X5.469 Y17.879126
G1 Z9.053 X4.875 Y18.449908
G1 Z9.055 X4.629 Y18.735557
G1 Z9.058 X4.001 Y18.483314
G1 Z9.062 X3.153 Y18.235519
G1 Z9.066 X2.293 Y17.769381
G1 Z9.070 X1.510 Y17.439351
G1 Z9.074 X0.741 Y16.896960
G1 Z9.077 X0.029 Y16.491715
G1 Z9.081 X-0.659 Y15.869228
G1 Z9.085 X-1.309 Y15.388902
G1 Z9.089 X-1.923 Y14.683468
G1 Z9.092 X-2.516 Y14.124194
G1 Z9.096 X-3.062 Y13.329959
G1 Z9.100 X-3.603 Y12.686865
G1 Z9.104 X-4.082 Y11.794976
G1 Z9.108 X-4.576 Y11.058200
G1 Z9.112 X-4.940 Y10.185838
G1 Z9.118 X-5.511 Y9.127280
G1 Z9.124 X-6.993 Y9.111686
G1 Z9.128 X-7.949 Y9.195426
G1 Z9.133 X-8.987 Y9.072767
G1 Z9.137 X-9.896 Y9.055152
G1 Z9.141 X-10.854 Y8.828061
G1 Z9.144 X-11.702 Y8.714074
G1 Z9.149 X-12.590 Y8.390709
G1 Z9.152 X-13.387 Y8.185487
G1 Z9.156 X-14.214 Y7.764003
G1 Z9.160 X-14.967 Y7.470681
G1 Z9.164 X-15.742 Y6.952230
G1 Z9.167 X-16.460 Y6.568941
G1 Z9.171 X-17.189 Y5.947669
G1 Z9.175 X-17.879 Y5.469561
G1 Z9.178 X-18.449 Y4.875342
G1 Z9.180 X-18.735 Y4.629992
G1 Z9.183 X-18.483 Y4.001749
G1 Z9.187 X-18.235 Y3.153954
G1 Z9.191 X-17.769 Y2.293816
G1 Z9.195 X-17.439 Y1.510786
G1 Z9.199 X-16.896 Y0.741395
G1 Z9.202 X-16.491 Y0.029150
G1 Z9.206 X-15.869 Y-0.659663
G1 Z9.210 X-15.388 Y-1.309337
G1 Z9.214 X-14.683 Y-1.923902
G1 Z9.217 X-14.124 Y-2.516628
G1 Z9.221 X-13.329 Y-3.062394
G1 Z9.225 X-12.686 Y-3.603300
G1 Z9.229 X-11.794 Y-4.082411
G1 Z9.233 X-11.058 Y-4.576634
G1 Z9.237 X-10.185 Y-4.940273
G1 Z9.243 X-9.127 Y-5.511715
G1 Z9.249 X-9.111 Y-6.993120
G1 Z9.253 X-9.195 Y-7.949861
G1 Z9.258 X-9.072 Y-8.987202
G1 Z9.262 X-9.055 Y-9.896587
G1 Z9.266 X-8.828 Y-10.854496
G1 Z9.269 X-8.714 Y-11.702509
G1 Z9.274 X-8.390 Y-12.590144
G1 Z9.277 X-8.185 Y-13.387922
G1 Z9.281 X-7.764 Y-14.214438
G1 Z9.285 X-7.470 Y-14.967116
G1 Z9.289 X-6.952 Y-15.743665
G1 Z9.292 X-6.568 Y-16.460376
G1 Z9.296 X-5.947 Y-17.189104
G1 Z9.300 X-5.469 Y-17.879996
G1 Z9.303 X-4.875 Y-18.449777
G1 Z9.305 X-4.629 Y-18.735427
G1 Z9.308 X-4.001 Y-18.483184
G1 Z9.312 X-3.153 Y-18.235389 F600.000
G1 Z9.316 X-2.293 Y-17.769251
G1 Z9.320 X-1.510 Y-17.439221
G1 Z9.324 X-0.741 Y-16.896830
G1 Z9.327 X-0.029 Y-16.491585
G1 Z9.331 X0.659 Y-15.869097
G1 Z9.335 X1.309 Y-15.388772
G1 Z9.339 X1.923 Y-14.683337
G1 Z9.342 X2.516 Y-14.124063
G1 Z9.346 X3.062 Y-13.329829
G1 Z9.350 X3.603 Y-12.686735
G1 Z9.354 X4.082 Y-11.794845
G1 Z9.358 X4.576 Y-11.058069
G1 Z9.362 X4.940 Y-10.185707
G1 Z9.368 X5.511 Y-9.127150
G1 Z9.374 X6.993 Y-9.111555
G1 Z9.378 X7.949 Y-9.195296
G1 Z9.383 X8.987 Y-9.072636
G1 Z9.387 X9.896 Y-9.055022
G1 Z9.391 X10.854 Y-8.828931
G1 Z9.394 X11.702 Y-8.714944
G1 Z9.399 X12.590 Y-8.390579
G1 Z9.402 X13.387 Y-8.185356
G1 Z9.406 X14.214 Y-7.764873
G1 Z9.410 X14.967 Y-7.470551
G1 Z9.414 X15.742 Y-6.952100
G1 Z9.417 X16.460 Y-6.568811
G1 Z9.421 X17.189 Y-5.947539
G1 Z9.425 X17.879 Y-5.469430
G1 Z9.428 X18.449 Y-4.875212
G1 Z9.430 X18.735 Y-4.629862
G1 Z9.433 X18.483 Y-4.001619
G1 Z9.437 X18.235 Y-3.153824
G1 Z9.441 X17.769 Y-2.293686
G1 Z9.445 X17.439 Y-1.510655
G1 Z9.449 X16.896 Y-0.741265
G1 Z9.452 X16.491 Y-0.029020
G1 Z9.456 X15.869 Y0.659532
G1 Z9.460 X15.388 Y1.309207
G1 Z9.464 X14.683 Y1.923772
G1 Z9.467 X14.124 Y2.516498
G1 Z9.471 X13.329 Y3.062264
G1 Z9.475 X12.686 Y3.603170
G1 Z9.479 X11.794 Y4.082280
G1 Z9.483 X11.058 Y4.576504
G1 Z9.487 X10.185 Y4.940142
G1 Z9.493 X9.127 Y5.511585
G1 Z9.499 X9.111 Y6.993990
G1 Z9.500 X9.133 Y7.239724
G1 Z9.503 X9.299 Y7.821899 F600.000
G1 Z9.506 X9.208 Y8.592351
G1 Z9.511 X9.185 Y9.770625
G1 Z9.514 X9.017 Y10.480750
G1 Z9.519 X8.869 Y11.581546
G1 Z9.522 X8.628 Y12.239465
G1 Z9.527 X8.362 Y13.272959
G1 Z9.530 X8.051 Y13.885788
G1 Z9.534 X7.669 Y14.862154
G1 Z9.537 X7.285 Y15.437007
G1 Z9.542 X6.787 Y16.367414
G1 Z9.545 X6.327 Y16.908403
G1 Z9.549 X5.707 Y17.801033
G1 Z9.552 X5.267 Y18.223320
G1 Z9.555 X4.883 Y18.672464
G1 Z9.556 X4.497 Y18.517385
G1 Z9.561 X3.398 Y18.195427
G1 Z9.564 X2.761 Y17.850517
G1 Z9.569 X1.745 Y17.422258
G1 Z9.572 X1.175 Y17.020157
G1 Z9.577 X0.251 Y16.494623
G1 Z9.580 X-0.259 Y16.033448
G1 Z9.584 X-1.102 Y15.409810
G1 Z9.587 X-1.557 Y14.887675
G1 Z9.592 X-2.326 Y14.162101
G1 Z9.595 X-2.731 Y13.572118
G1 Z9.600 X-3.433 Y12.739772
G1 Z9.603 X-3.788 Y12.076051
G1 Z9.608 X-4.427 Y11.123107
G1 Z9.611 X-4.698 Y10.476038
G1 Z9.617 X-5.384 Y9.203188
G1 Z9.622 X-6.583 Y9.190608
G1 Z9.628 X-7.821 Y9.299334
G1 Z9.631 X-8.592 Y9.208786
G1 Z9.636 X-9.770 Y9.185060
G1 Z9.639 X-10.480 Y9.017185
G1 Z9.644 X-11.581 Y8.869981
G1 Z9.647 X-12.238 Y8.628900
G1 Z9.652 X-13.272 Y8.362394
G1 Z9.655 X-13.885 Y8.051223
G1 Z9.659 X-14.862 Y7.669589
G1 Z9.662 X-15.437 Y7.285442
G1 Z9.667 X-16.367 Y6.787848
G1 Z9.670 X-16.908 Y6.327838
G1 Z9.674 X-17.801 Y5.707468
G1 Z9.677 X-18.223 Y5.267755
G1 Z9.680 X-18.672 Y4.883899
G1 Z9.681 X-18.517 Y4.497820
G1 Z9.686 X-18.195 Y3.398862
G1 Z9.689 X-17.850 Y2.761952
G1 Z9.694 X-17.422 Y1.745693
G1 Z9.697 X-17.020 Y1.175592
G1 Z9.702 X-16.494 Y0.251058
G1 Z9.705 X-16.033 Y-0.259883
G1 Z9.709 X-15.409 Y-1.102245
G1 Z9.712 X-14.887 Y-1.557110
G1 Z9.717 X-14.161 Y-2.326536
G1 Z9.720 X-13.572 Y-2.731553
G1 Z9.725 X-12.739 Y-3.433207
G1 Z9.728 X-12.076 Y-3.788486
G1 Z9.733 X-11.123 Y-4.427542
G1 Z9.736 X-10.476 Y-4.698473
G1 Z9.742 X-9.203 Y-5.384623
G1 Z9.747 X-9.190 Y-6.583042
G1 Z9.753 X-9.299 Y-7.821769
G1 Z9.756 X-9.208 Y-8.592221
G1 Z9.761 X-9.185 Y-9.770495
G1 Z9.764 X-9.017 Y-10.480620
G1 Z9.769 X-8.869 Y-11.581416
G1 Z9.772 X-8.628 Y-12.239335
G1 Z9.777 X-8.362 Y-13.272829
G1 Z9.780 X-8.051 Y-13.885657
G1 Z9.784 X-7.669 Y-14.862024
G1 Z9.787 X-7.285 Y-15.437877
G1 Z9.792 X-6.787 Y-16.367283
G1 Z9.795 X-6.327 Y-16.908273
G1 Z9.799 X-5.707 Y-17.801903
G1 Z9.802 X-5.267 Y-18.223190
G1 Z9.805 X-4.883 Y-18.672334
G1 Z9.806 X-4.497 Y-18.517255
G1 Z9.811 X-3.398 Y-18.195296 F600.000
G1 Z9.814 X-2.761 Y-17.850386
G1 Z9.819 X-1.745 Y-17.422128
G1 Z9.822 X-1.175 Y-17.020027
G1 Z9.827 X-0.251 Y-16.494493
G1 Z9.830 X0.259 Y-16.033318
G1 Z9.834 X1.102 Y-15.409680
G1 Z9.837 X1.557 Y-14.887545
G1 Z9.842 X2.326 Y-14.162971
G1 Z9.845 X2.731 Y-13.573988
G1 Z9.850 X3.433 Y-12.739642
G1 Z9.853 X3.788 Y-12.076921
G1 Z9.858 X4.427 Y-11.123977
G1 Z9.861 X4.698 Y-10.476908
G1 Z9.867 X5.384 Y-9.203058
G1 Z9.872 X6.583 Y-9.190477
G1 Z9.878 X7.821 Y-9.299204
G1 Z9.881 X8.592 Y-9.208656
G1 Z9.886 X9.770 Y-9.185930
G1 Z9.889 X10.480 Y-9.017055
G1 Z9.894 X11.581 Y-8.869851
G1 Z9.897 X12.239 Y-8.628769
G1 Z9.902 X13.272 Y-8.362264
G1 Z9.905 X13.885 Y-8.051092
G1 Z9.909 X14.862 Y-7.669459
G1 Z9.912 X15.437 Y-7.285311
G1 Z9.917 X16.367 Y-6.787718
G1 Z9.920 X16.908 Y-6.327707
G1 Z9.924 X17.801 Y-5.707338
G1 Z9.927 X18.223 Y-5.267625
G1 Z9.930 X18.672 Y-4.883769
G1 Z9.931 X18.517 Y-4.497690
G1 Z9.936 X18.195 Y-3.398731
G1 Z9.939 X17.850 Y-2.761821
G1 Z9.944 X17.422 Y-1.745563
G1 Z9.947 X17.020 Y-1.175462
G1 Z9.952 X16.494 Y-0.251928
G1 Z9.955 X16.033 Y0.259753
G1 Z9.959 X15.409 Y1.102114
G1 Z9.962 X14.887 Y1.557980
G1 Z9.967 X14.161 Y2.326406
G1 Z9.970 X13.572 Y2.731423
G1 Z9.975 X12.739 Y3.433077
G1 Z9.978 X12.076 Y3.788356
G1 Z9.983 X11.123 Y4.427412
G1 Z9.986 X10.476 Y4.698343
G1 Z9.992 X9.203 Y5.384492
G1 Z9.997 X9.190 Y6.583912
G1 Z10.000 X9.247 Y7.229464
G1 Z10.002 X9.403 Y7.693806 F600.000
G1 Z10.004 X9.343 Y8.197371
G1 Z10.010 X9.315 Y9.644532
G1 Z10.013 X9.205 Y10.107874
G1 Z10.018 X9.024 Y11.459454
G1 Z10.020 X8.867 Y11.887655
G1 Z10.026 X8.540 Y13.157867
G1 Z10.028 X8.337 Y13.556007
G1 Z10.034 X7.868 Y14.757061
G1 Z10.035 X7.618 Y15.131218
G1 Z10.041 X7.007 Y16.274321
G1 Z10.043 X6.707 Y16.627571
G1 Z10.049 X5.946 Y17.723941
G1 Z10.051 X5.659 Y17.998732
G1 Z10.054 X5.148 Y18.596255
G1 Z10.061 X3.644 Y18.156260
G1 Z10.063 X3.228 Y17.931579
G1 Z10.069 X1.979 Y17.405092
G1 Z10.071 X1.609 Y17.143279
G1 Z10.076 X0.473 Y16.497456
G1 Z10.078 X0.141 Y16.197594
G1 Z10.084 X-0.895 Y15.431643
G1 Z10.086 X-1.191 Y15.091809
G1 Z10.091 X-2.136 Y14.199934
G1 Z10.093 X-2.400 Y13.816204
G1 Z10.099 X-3.262 Y12.791606
G1 Z10.101 X-3.495 Y12.359053
G1 Z10.107 X-4.279 Y11.189941
G1 Z10.109 X-4.456 Y10.766164
G1 Z10.117 X-5.257 Y9.279021
G1 Z10.120 X-6.173 Y9.269456
G1 Z10.127 X-7.693 Y9.403167
G1 Z10.129 X-8.197 Y9.343732
G1 Z10.135 X-9.644 Y9.315893
G1 Z10.138 X-10.107 Y9.205235
G1 Z10.143 X-11.459 Y9.024815
G1 Z10.145 X-11.887 Y8.867016
G1 Z10.151 X-13.157 Y8.540228
G1 Z10.153 X-13.556 Y8.337368
G1 Z10.159 X-14.757 Y7.868422
G1 Z10.160 X-15.131 Y7.618579
G1 Z10.166 X-16.274 Y7.007682
G1 Z10.168 X-16.627 Y6.707932
G1 Z10.174 X-17.723 Y5.946302
G1 Z10.176 X-17.998 Y5.659093
G1 Z10.179 X-18.596 Y5.148616
G1 Z10.186 X-18.156 Y3.644621
G1 Z10.188 X-17.931 Y3.228939
G1 Z10.194 X-17.405 Y1.979453
G1 Z10.196 X-17.143 Y1.609640
G1 Z10.201 X-16.497 Y0.473817
G1 Z10.203 X-16.197 Y0.141955
G1 Z10.209 X-15.431 Y-0.895004
G1 Z10.211 X-15.091 Y-1.191170
G1 Z10.216 X-14.199 Y-2.136295
G1 Z10.218 X-13.816 Y-2.400565
G1 Z10.224 X-12.791 Y-3.262967
G1 Z10.226 X-12.359 Y-3.495414
G1 Z10.232 X-11.189 Y-4.279301
G1 Z10.234 X-10.766 Y-4.456525
G1 Z10.242 X-9.279 Y-5.257382
G1 Z10.245 X-9.269 Y-6.173817
G1 Z10.252 X-9.403 Y-7.693528
G1 Z10.254 X-9.343 Y-8.197093
G1 Z10.260 X-9.315 Y-9.644254
G1 Z10.263 X-9.205 Y-10.107596
G1 Z10.268 X-9.024 Y-11.459176
G1 Z10.270 X-8.867 Y-11.887377
G1 Z10.276 X-8.540 Y-13.157589
G1 Z10.278 X-8.337 Y-13.556729
G1 Z10.284 X-7.868 Y-14.757783
G1 Z10.285 X-7.618 Y-15.131940
G1 Z10.291 X-7.007 Y-16.274043
G1 Z10.293 X-6.707 Y-16.627293
G1 Z10.299 X-5.946 Y-17.723663
G1 Z10.301 X-5.659 Y-17.998454
G1 Z10.304 X-5.148 Y-18.596977
G1 Z10.311 X-3.644 Y-18.156982
G1 Z10.313 X-3.228 Y-17.931300 F600.000
G1 Z10.319 X-1.979 Y-17.405814
G1 Z10.321 X-1.609 Y-17.143001
G1 Z10.326 X-0.473 Y-16.497178
G1 Z10.328 X-0.141 Y-16.197316
G1 Z10.334 X0.895 Y-15.431365
G1 Z10.336 X1.191 Y-15.091531
G1 Z10.341 X2.136 Y-14.199656
G1 Z10.343 X2.400 Y-13.816926
G1 Z10.349 X3.262 Y-12.791328
G1 Z10.351 X3.495 Y-12.359775
G1 Z10.357 X4.279 Y-11.189662
G1 Z10.359 X4.456 Y-10.766886
G1 Z10.367 X5.257 Y-9.279743
G1 Z10.370 X6.173 Y-9.269178
G1 Z10.377 X7.693 Y-9.403889
G1 Z10.379 X8.197 Y-9.343454
G1 Z10.385 X9.644 Y-9.315615
G1 Z10.388 X10.107 Y-9.205957
G1 Z10.393 X11.459 Y-9.024537
G1 Z10.395 X11.887 Y-8.867738
G1 Z10.401 X13.157 Y-8.540950
G1 Z10.403 X13.556 Y-8.337090
G1 Z10.409 X14.757 Y-7.868144
G1 Z10.410 X15.131 Y-7.618301
G1 Z10.416 X16.274 Y-7.007404
G1 Z10.418 X16.627 Y-6.707654
G1 Z10.424 X17.723 Y-5.946023
G1 Z10.426 X17.998 Y-5.659815
G1 Z10.429 X18.596 Y-5.148338
G1 Z10.436 X18.156 Y-3.644343
G1 Z10.438 X17.931 Y-3.228661
G1 Z10.444 X17.405 Y-1.979175
G1 Z10.446 X17.143 Y-1.609362
G1 Z10.451 X16.497 Y-0.473539
G1 Z10.453 X16.197 Y-0.141677
G1 Z10.459 X15.431 Y0.895726
G1 Z10.461 X15.091 Y1.191892
G1 Z10.466 X14.199 Y2.136017
G1 Z10.468 X13.816 Y2.400287
G1 Z10.474 X12.791 Y3.262689
G1 Z10.476 X12.359 Y3.495136
G1 Z10.482 X11.189 Y4.279023
G1 Z10.484 X10.766 Y4.456247
G1 Z10.492 X9.279 Y5.257104
G1 Z10.495 X9.269 Y6.173539
G1 Z10.500 X9.361 Y7.219908
G1 Z10.502 X9.506 Y7.565418 F600.000
G1 Z10.503 X9.478 Y7.802095
G1 Z10.510 X9.445 Y9.517144
G1 Z10.511 X9.394 Y9.733702
G1 Z10.518 X9.178 Y11.337066
G1 Z10.519 X9.106 Y11.536549
G1 Z10.526 X8.717 Y13.043478
G1 Z10.526 X8.624 Y13.227930
G1 Z10.533 X8.067 Y14.652673
G1 Z10.534 X7.952 Y14.825134
G1 Z10.541 X7.226 Y16.181933
G1 Z10.541 X7.087 Y16.345444
G1 Z10.548 X6.185 Y17.645552
G1 Z10.549 X6.052 Y17.773849
G1 Z10.554 X5.384 Y18.553064
G1 Z10.560 X3.889 Y18.117997
G1 Z10.561 X3.695 Y18.012544
G1 Z10.568 X2.214 Y17.388829
G1 Z10.569 X2.042 Y17.267305
G1 Z10.576 X0.695 Y16.500193
G1 Z10.577 X0.541 Y16.362644
G1 Z10.583 X-0.688 Y15.452380
G1 Z10.584 X-0.825 Y15.295846
G1 Z10.591 X-1.946 Y14.237671
G1 Z10.592 X-2.069 Y14.059192
G1 Z10.599 X-3.092 Y12.844343
G1 Z10.600 X-3.201 Y12.641958
G1 Z10.607 X-4.130 Y11.255677
G1 Z10.608 X-4.213 Y11.056194
G1 Z10.616 X-5.130 Y9.355758
G1 Z10.619 X-5.763 Y9.349207
G1 Z10.627 X-7.565 Y9.507904
G1 Z10.628 X-7.802 Y9.478581
G1 Z10.635 X-9.517 Y9.445630
G1 Z10.636 X-9.733 Y9.394188
G1 Z10.643 X-11.337 Y9.178552
G1 Z10.644 X-11.536 Y9.106035
G1 Z10.651 X-13.043 Y8.717964
G1 Z10.651 X-13.227 Y8.624416
G1 Z10.658 X-14.652 Y8.067159
G1 Z10.659 X-14.825 Y7.952620
G1 Z10.666 X-16.181 Y7.226419
G1 Z10.666 X-16.345 Y7.087930
G1 Z10.673 X-17.645 Y6.185038
G1 Z10.674 X-17.773 Y6.052335
G1 Z10.679 X-18.553 Y5.384550
G1 Z10.685 X-18.117 Y3.889483
G1 Z10.686 X-18.012 Y3.695030
G1 Z10.693 X-17.388 Y2.214315
G1 Z10.694 X-17.267 Y2.042791
G1 Z10.701 X-16.500 Y0.695679
G1 Z10.702 X-16.362 Y0.541130
G1 Z10.708 X-15.452 Y-0.688866
G1 Z10.709 X-15.295 Y-0.825332
G1 Z10.716 X-14.237 Y-1.946157
G1 Z10.717 X-14.059 Y-2.069679
G1 Z10.724 X-12.844 Y-3.092829
G1 Z10.725 X-12.641 Y-3.201444
G1 Z10.732 X-11.255 Y-4.130163
G1 Z10.733 X-11.056 Y-4.213680
G1 Z10.741 X-9.355 Y-5.130244
G1 Z10.744 X-9.349 Y-5.763693
G1 Z10.752 X-9.507 Y-7.565390
G1 Z10.753 X-9.478 Y-7.802067
G1 Z10.760 X-9.445 Y-9.517116
G1 Z10.761 X-9.394 Y-9.733674
G1 Z10.768 X-9.178 Y-11.337038
G1 Z10.769 X-9.106 Y-11.536522
G1 Z10.776 X-8.717 Y-13.043451
G1 Z10.776 X-8.624 Y-13.227902
G1 Z10.783 X-8.067 Y-14.652645
G1 Z10.784 X-7.952 Y-14.825106
G1 Z10.791 X-7.226 Y-16.181905
G1 Z10.791 X-7.087 Y-16.345416
G1 Z10.798 X-6.185 Y-17.645525
G1 Z10.799 X-6.052 Y-17.773821
G1 Z10.804 X-5.384 Y-18.553036
G1 Z10.810 X-3.889 Y-18.117969
G1 Z10.811 X-3.695 Y-18.012516 F600.000
G1 Z10.818 X-2.214 Y-17.388801
G1 Z10.819 X-2.042 Y-17.267278
G1 Z10.826 X-0.695 Y-16.500165
G1 Z10.827 X-0.541 Y-16.362616
G1 Z10.833 X0.688 Y-15.452352
G1 Z10.834 X0.825 Y-15.295818
G1 Z10.841 X1.946 Y-14.237643
G1 Z10.842 X2.069 Y-14.059165
G1 Z10.849 X3.092 Y-12.844315
G1 Z10.850 X3.201 Y-12.641930
G1 Z10.857 X4.130 Y-11.255650
G1 Z10.858 X4.213 Y-11.056166
G1 Z10.866 X5.130 Y-9.355730
G1 Z10.869 X5.763 Y-9.349180
G1 Z10.877 X7.565 Y-9.507876
G1 Z10.878 X7.802 Y-9.478553
G1 Z10.885 X9.517 Y-9.445602
G1 Z10.886 X9.733 Y-9.394160
G1 Z10.893 X11.337 Y-9.178524
G1 Z10.894 X11.536 Y-9.106008
G1 Z10.901 X13.043 Y-8.717937
G1 Z10.901 X13.227 Y-8.624388
G1 Z10.908 X14.652 Y-8.067131
G1 Z10.909 X14.825 Y-7.952592
G1 Z10.916 X16.181 Y-7.226391
G1 Z10.916 X16.345 Y-7.087902
G1 Z10.923 X17.645 Y-6.185011
G1 Z10.924 X17.773 Y-6.052307
G1 Z10.929 X18.553 Y-5.384523
G1 Z10.935 X18.116 Y-3.889455
G1 Z10.936 X18.012 Y-3.695002
G1 Z10.943 X17.388 Y-2.214287
G1 Z10.944 X17.267 Y-2.042764
G1 Z10.951 X16.500 Y-0.695652
G1 Z10.952 X16.362 Y-0.541102
G1 Z10.958 X15.452 Y0.688838
G1 Z10.959 X15.295 Y0.825304
G1 Z10.966 X14.237 Y1.946130
G1 Z10.967 X14.059 Y2.069651
G1 Z10.974 X12.844 Y3.092801
G1 Z10.975 X12.641 Y3.201417
G1 Z10.982 X11.255 Y4.130136
G1 Z10.983 X11.056 Y4.213652
G1 Z10.991 X9.355 Y5.130216
G1 Z10.994 X9.349 Y5.763666
G1 Z11.000 X9.475 Y7.209852
G1 Z11.001 X9.613 Y7.464725 F600.000
G1 Z11.010 X9.575 Y9.419452
G1 Z11.017 X9.329 Y11.243376
G1 Z11.025 X8.888 Y12.955791
G1 Z11.033 X8.256 Y14.573988
G1 Z11.040 X7.433 Y16.113250
G1 Z11.048 X6.408 Y17.589873
G1 Z11.053 X5.619 Y18.511389
G1 Z11.060 X4.108 Y18.069444
G1 Z11.068 X2.424 Y17.360277
G1 Z11.075 X0.893 Y16.490644
G1 Z11.083 X-0.503 Y15.457833
G1 Z11.090 X-1.777 Y14.256127
G1 Z11.098 X-2.939 Y12.876801
G1 Z11.106 X-3.997 Y11.298138
G1 Z11.116 X-5.021 Y9.398290
G1 Z11.126 X-7.464 Y9.613514
G1 Z11.135 X-9.419 Y9.575242
G1 Z11.142 X-11.243 Y9.329166
G1 Z11.150 X-12.955 Y8.888581
G1 Z11.158 X-14.573 Y8.256778
G1 Z11.165 X-16.113 Y7.433040
G1 Z11.173 X-17.589 Y6.408662
G1 Z11.178 X-18.511 Y5.619179
G1 Z11.185 X-18.069 Y4.108234
G1 Z11.193 X-17.360 Y2.424067
G1 Z11.200 X-16.490 Y0.893434
G1 Z11.208 X-15.457 Y-0.503624
G1 Z11.215 X-14.256 Y-1.777917
G1 Z11.223 X-12.876 Y-2.939591
G1 Z11.231 X-11.298 Y-3.997928
G1 Z11.241 X-9.398 Y-5.021080
G1 Z11.251 X-9.613 Y-7.464304
G1 Z11.260 X-9.575 Y-9.419032
G1 Z11.267 X-9.329 Y-11.243956
G1 Z11.275 X-8.888 Y-12.955371
G1 Z11.283 X-8.256 Y-14.573568
G1 Z11.290 X-7.433 Y-16.113830
G1 Z11.298 X-6.408 Y-17.589452
G1 Z11.303 X-5.619 Y-18.511969
G1 Z11.310 X-4.108 Y-18.069023
G1 Z11.318 X-2.424 Y-17.360857 F600.000
G1 Z11.325 X-0.893 Y-16.490224
G1 Z11.333 X0.503 Y-15.457413
G1 Z11.340 X1.777 Y-14.256707
G1 Z11.348 X2.939 Y-12.876381
G1 Z11.356 X3.997 Y-11.298718
G1 Z11.366 X5.021 Y-9.398869
G1 Z11.376 X7.464 Y-9.613094
G1 Z11.385 X9.419 Y-9.575822
G1 Z11.392 X11.243 Y-9.329745
G1 Z11.400 X12.955 Y-8.888161
G1 Z11.408 X14.573 Y-8.256357
G1 Z11.415 X16.113 Y-7.433620
G1 Z11.423 X17.589 Y-6.408242
G1 Z11.428 X18.511 Y-5.619759
G1 Z11.435 X18.069 Y-4.108813
G1 Z11.443 X17.360 Y-2.424647
G1 Z11.450 X16.490 Y-0.893014
G1 Z11.458 X15.457 Y0.503203
G1 Z11.465 X14.256 Y1.777497
G1 Z11.473 X12.876 Y2.939171
G1 Z11.481 X11.298 Y3.997508
G1 Z11.491 X9.398 Y5.021659
G1 Z11.500 X9.589 Y7.199011
G1 Z11.501 X9.703 Y7.353226 F600.000
G1 Z11.508 X9.669 Y9.070284
G1 Z11.509 X9.688 Y9.307952
G1 Z11.516 X9.472 Y10.911318
G1 Z11.517 X9.464 Y11.132874
G1 Z11.524 X9.076 Y12.639800
G1 Z11.525 X9.044 Y12.848287
G1 Z11.531 X8.488 Y14.273022
G1 Z11.532 X8.432 Y14.473481
G1 Z11.539 X7.707 Y15.827267
G1 Z11.540 X7.627 Y16.021741
G1 Z11.547 X6.727 Y17.317815
G1 Z11.548 X6.620 Y17.509361
G1 Z11.553 X5.844 Y18.416749
G1 Z11.558 X4.550 Y18.038211
G1 Z11.559 X4.324 Y17.996828
G1 Z11.566 X2.842 Y17.372116
G1 Z11.567 X2.632 Y17.307660
G1 Z11.574 X1.285 Y16.541544
G1 Z11.575 X1.092 Y16.455024
G1 Z11.582 X-0.136 Y15.546752
G1 Z11.582 X-0.314 Y15.440211
G1 Z11.589 X-1.435 Y14.383024
G1 Z11.590 X-1.601 Y14.255502
G1 Z11.597 X-2.623 Y13.042636
G1 Z11.598 X-2.779 Y12.889174
G1 Z11.605 X-3.706 Y11.507861
G1 Z11.606 X-3.855 Y11.325508
G1 Z11.613 X-4.592 Y9.958412
G1 Z11.615 X-4.924 Y9.465589
G1 Z11.625 X-7.104 Y9.656955
G1 Z11.626 X-7.353 Y9.703735
G1 Z11.633 X-9.070 Y9.669793
G1 Z11.634 X-9.307 Y9.688461
G1 Z11.641 X-10.911 Y9.472827
G1 Z11.642 X-11.132 Y9.464383
G1 Z11.649 X-12.639 Y9.076309
G1 Z11.650 X-12.848 Y9.044796
G1 Z11.656 X-14.273 Y8.488531
G1 Z11.657 X-14.473 Y8.432990
G1 Z11.664 X-15.827 Y7.707776
G1 Z11.665 X-16.021 Y7.627250
G1 Z11.672 X-17.317 Y6.727324
G1 Z11.673 X-17.509 Y6.620869
G1 Z11.678 X-18.416 Y5.844258
G1 Z11.683 X-18.038 Y4.550720
G1 Z11.684 X-17.996 Y4.324337
G1 Z11.691 X-17.372 Y2.842625
G1 Z11.692 X-17.307 Y2.632169
G1 Z11.699 X-16.541 Y1.285053
G1 Z11.700 X-16.455 Y1.092533
G1 Z11.707 X-15.546 Y-0.136261
G1 Z11.707 X-15.440 Y-0.314720
G1 Z11.714 X-14.383 Y-1.435532
G1 Z11.715 X-14.255 Y-1.601011
G1 Z11.722 X-13.042 Y-2.623144
G1 Z11.723 X-12.889 Y-2.779683
G1 Z11.730 X-11.507 Y-3.706370
G1 Z11.731 X-11.325 Y-3.855017
G1 Z11.738 X-9.958 Y-4.592921
G1 Z11.740 X-9.465 Y-4.924098
G1 Z11.750 X-9.656 Y-7.104464
G1 Z11.751 X-9.703 Y-7.353244
G1 Z11.758 X-9.669 Y-9.070302
G1 Z11.759 X-9.688 Y-9.307970
G1 Z11.766 X-9.472 Y-10.911336
G1 Z11.767 X-9.464 Y-11.132892
G1 Z11.774 X-9.076 Y-12.639818
G1 Z11.775 X-9.044 Y-12.848304
G1 Z11.781 X-8.488 Y-14.273040
G1 Z11.782 X-8.432 Y-14.473499
G1 Z11.789 X-7.707 Y-15.827285
G1 Z11.790 X-7.627 Y-16.021759
G1 Z11.797 X-6.727 Y-17.317833
G1 Z11.798 X-6.620 Y-17.509378
G1 Z11.803 X-5.844 Y-18.417767
G1 Z11.808 X-4.550 Y-18.038229
G1 Z11.809 X-4.324 Y-17.996846 F600.000
G1 Z11.816 X-2.842 Y-17.372134
G1 Z11.817 X-2.632 Y-17.307677
G1 Z11.824 X-1.285 Y-16.541562
G1 Z11.825 X-1.092 Y-16.455042
G1 Z11.832 X0.136 Y-15.546770
G1 Z11.832 X0.314 Y-15.440229
G1 Z11.839 X1.435 Y-14.383041
G1 Z11.840 X1.601 Y-14.255520
G1 Z11.847 X2.623 Y-13.042653
G1 Z11.848 X2.779 Y-12.889192
G1 Z11.855 X3.706 Y-11.507879
G1 Z11.856 X3.855 Y-11.325526
G1 Z11.863 X4.592 Y-9.958430
G1 Z11.865 X4.924 Y-9.465607
G1 Z11.875 X7.104 Y-9.656973
G1 Z11.876 X7.353 Y-9.703753
G1 Z11.883 X9.070 Y-9.669810
G1 Z11.884 X9.307 Y-9.688479
G1 Z11.891 X10.911 Y-9.472844
G1 Z11.892 X11.132 Y-9.464400
G1 Z11.899 X12.639 Y-9.076327
G1 Z11.900 X12.848 Y-9.044813
G1 Z11.906 X14.273 Y-8.488549
G1 Z11.907 X14.473 Y-8.432008
G1 Z11.914 X15.827 Y-7.707794
G1 Z11.915 X16.021 Y-7.627268
G1 Z11.922 X17.316 Y-6.727341
G1 Z11.923 X17.509 Y-6.620887
G1 Z11.928 X18.416 Y-5.844276
G1 Z11.933 X18.038 Y-4.550737
G1 Z11.934 X17.996 Y-4.324355
G1 Z11.941 X17.372 Y-2.842643
G1 Z11.942 X17.307 Y-2.632186
G1 Z11.949 X16.541 Y-1.285071
G1 Z11.950 X16.455 Y-1.092551
G1 Z11.957 X15.546 Y0.136279
G1 Z11.957 X15.440 Y0.314738
G1 Z11.964 X14.383 Y1.435550
G1 Z11.965 X14.255 Y1.601029
G1 Z11.972 X13.042 Y2.623162
G1 Z11.973 X12.889 Y2.779701
G1 Z11.980 X11.507 Y3.706388
G1 Z11.981 X11.325 Y3.855035
G1 Z11.988 X9.958 Y4.592939
G1 Z11.990 X9.465 Y4.924116
G1 Z12.000 X9.671 Y7.183044
G1 Z12.006 X9.765 Y8.664590 F600.000
G1 Z12.009 X9.805 Y9.169146
G1 Z12.015 X9.623 Y10.521728
G1 Z12.017 X9.606 Y10.996067
G1 Z12.022 X9.279 Y12.266277
G1 Z12.024 X9.209 Y12.717480
G1 Z12.030 X8.741 Y13.917528
G1 Z12.032 X8.619 Y14.349675
G1 Z12.037 X8.009 Y15.490766
G1 Z12.039 X7.836 Y15.907934
G1 Z12.045 X7.078 Y16.999270
G1 Z12.047 X6.850 Y17.408554
G1 Z12.052 X6.068 Y18.322001
G1 Z12.057 X5.047 Y18.024467
G1 Z12.059 X4.564 Y17.933920
G1 Z12.065 X3.315 Y17.407437
G1 Z12.067 X2.864 Y17.267751
G1 Z12.072 X1.728 Y16.621926
G1 Z12.074 X1.313 Y16.436116
G1 Z12.080 X0.278 Y15.670157
G1 Z12.082 X-0.106 Y15.441303
G1 Z12.087 X-1.050 Y14.550416
G1 Z12.089 X-1.409 Y14.274594
G1 Z12.095 X-2.270 Y13.251980
G1 Z12.097 X-2.605 Y12.925265
G1 Z12.103 X-3.386 Y11.759122
G1 Z12.105 X-3.701 Y11.376600
G1 Z12.111 X-4.322 Y10.223797
G1 Z12.115 X-4.790 Y9.528681
G1 Z12.123 X-6.689 Y9.695062
G1 Z12.125 X-7.216 Y9.794827
G1 Z12.131 X-8.664 Y9.765997
G1 Z12.134 X-9.169 Y9.805553
G1 Z12.140 X-10.521 Y9.623135
G1 Z12.142 X-10.996 Y9.606474
G1 Z12.147 X-12.266 Y9.279684
G1 Z12.149 X-12.717 Y9.209887
G1 Z12.155 X-13.917 Y8.741935
G1 Z12.157 X-14.349 Y8.619082
G1 Z12.162 X-15.490 Y8.009173
G1 Z12.164 X-15.907 Y7.836341
G1 Z12.170 X-16.999 Y7.078677
G1 Z12.172 X-17.408 Y6.850961
G1 Z12.177 X-18.322 Y6.068408
G1 Z12.182 X-18.024 Y5.047874
G1 Z12.184 X-17.933 Y4.564327
G1 Z12.190 X-17.407 Y3.315844
G1 Z12.192 X-17.267 Y2.864158
G1 Z12.197 X-16.621 Y1.728333
G1 Z12.199 X-16.436 Y1.313523
G1 Z12.205 X-15.670 Y0.278564
G1 Z12.207 X-15.441 Y-0.106710
G1 Z12.212 X-14.550 Y-1.050823
G1 Z12.214 X-14.274 Y-1.409001
G1 Z12.220 X-13.251 Y-2.270387
G1 Z12.222 X-12.925 Y-2.605672
G1 Z12.228 X-11.759 Y-3.386529
G1 Z12.230 X-11.376 Y-3.701007
G1 Z12.236 X-10.223 Y-4.322204
G1 Z12.240 X-9.528 Y-4.790088
G1 Z12.248 X-9.695 Y-6.689469
G1 Z12.250 X-9.794 Y-7.216234
G1 Z12.256 X-9.765 Y-8.664404
G1 Z12.259 X-9.805 Y-9.169960
G1 Z12.265 X-9.623 Y-10.521543
G1 Z12.267 X-9.606 Y-10.996881
G1 Z12.272 X-9.279 Y-12.266091
G1 Z12.274 X-9.209 Y-12.717294
G1 Z12.280 X-8.741 Y-13.917342
G1 Z12.282 X-8.619 Y-14.349489
G1 Z12.287 X-8.009 Y-15.490580
G1 Z12.289 X-7.836 Y-15.907748
G1 Z12.295 X-7.078 Y-16.999084
G1 Z12.297 X-6.850 Y-17.408368
G1 Z12.302 X-6.068 Y-18.322815
G1 Z12.307 X-5.047 Y-18.024281
G1 Z12.309 X-4.564 Y-17.933734 F600.000
G1 Z12.315 X-3.315 Y-17.407251
G1 Z12.317 X-2.864 Y-17.267565
G1 Z12.322 X-1.728 Y-16.621740
G1 Z12.324 X-1.313 Y-16.436930
G1 Z12.330 X-0.278 Y-15.670972
G1 Z12.332 X0.106 Y-15.441117
G1 Z12.337 X1.050 Y-14.550230
G1 Z12.339 X1.409 Y-14.274408
G1 Z12.345 X2.270 Y-13.251794
G1 Z12.347 X2.605 Y-12.925079
G1 Z12.353 X3.386 Y-11.759936
G1 Z12.355 X3.701 Y-11.376414
G1 Z12.361 X4.322 Y-10.223611
G1 Z12.365 X4.790 Y-9.528495
G1 Z12.373 X6.689 Y-9.695876
G1 Z12.375 X7.216 Y-9.794641
G1 Z12.381 X8.664 Y-9.765811
G1 Z12.384 X9.169 Y-9.805367
G1 Z12.390 X10.521 Y-9.623950
G1 Z12.392 X10.996 Y-9.606288
G1 Z12.397 X12.266 Y-9.279498
G1 Z12.399 X12.717 Y-9.209701
G1 Z12.405 X13.917 Y-8.741749
G1 Z12.407 X14.349 Y-8.619896
G1 Z12.412 X15.490 Y-8.009987
G1 Z12.414 X15.907 Y-7.836155
G1 Z12.420 X16.999 Y-7.078491
G1 Z12.422 X17.408 Y-6.850775
G1 Z12.427 X18.322 Y-6.068222
G1 Z12.432 X18.024 Y-5.047688
G1 Z12.434 X17.933 Y-4.564141
G1 Z12.440 X17.407 Y-3.315658
G1 Z12.442 X17.267 Y-2.864972
G1 Z12.447 X16.621 Y-1.728147
G1 Z12.449 X16.436 Y-1.313337
G1 Z12.455 X15.670 Y-0.278379
G1 Z12.457 X15.441 Y0.106524
G1 Z12.462 X14.550 Y1.050637
G1 Z12.464 X14.274 Y1.409815
G1 Z12.470 X13.251 Y2.270201
G1 Z12.472 X12.925 Y2.605486
G1 Z12.478 X11.759 Y3.386343
G1 Z12.480 X11.376 Y3.701821
G1 Z12.486 X10.223 Y4.322018
G1 Z12.490 X9.528 Y4.790902
G1 Z12.498 X9.695 Y6.689283
G1 Z12.500 X9.784 Y7.162665
G1 Z12.505 X9.861 Y8.258345 F600.000
G1 Z12.508 X9.922 Y9.030788
G1 Z12.513 X9.774 Y10.131588
G1 Z12.516 X9.748 Y10.860709
G1 Z12.521 X9.482 Y11.893203
G1 Z12.524 X9.375 Y12.586122
G1 Z12.528 X8.993 Y13.562482
G1 Z12.531 X8.807 Y14.225317
G1 Z12.536 X8.310 Y15.154713
G1 Z12.539 X8.045 Y15.793576
G1 Z12.543 X7.428 Y16.682174
G1 Z12.546 X7.080 Y17.307196
G1 Z12.550 X6.475 Y18.013725
G1 Z12.552 X6.320 Y18.236627
G1 Z12.555 X5.545 Y18.009301
G1 Z12.558 X4.805 Y17.869589
G1 Z12.563 X3.788 Y17.441336
G1 Z12.566 X3.096 Y17.227421
G1 Z12.571 X2.172 Y16.702885
G1 Z12.574 X1.534 Y16.418786
G1 Z12.578 X0.693 Y15.795141
G1 Z12.581 X0.102 Y15.442972
G1 Z12.586 X-0.666 Y14.717387
G1 Z12.589 X-1.216 Y14.293264
G1 Z12.594 X-1.917 Y13.461902
G1 Z12.597 X-2.430 Y12.960935
G1 Z12.602 X-3.066 Y12.011961
G1 Z12.605 X-3.547 Y11.427270
G1 Z12.609 X-4.053 Y10.488761
G1 Z12.614 X-4.657 Y9.592350
G1 Z12.621 X-6.273 Y9.733747
G1 Z12.625 X-7.078 Y9.884496
G1 Z12.630 X-8.258 Y9.861780
G1 Z12.633 X-9.030 Y9.922222
G1 Z12.638 X-10.131 Y9.774022
G1 Z12.641 X-10.860 Y9.748144
G1 Z12.646 X-11.893 Y9.482637
G1 Z12.649 X-12.586 Y9.375557
G1 Z12.653 X-13.562 Y8.993917
G1 Z12.656 X-14.225 Y8.807751
G1 Z12.661 X-15.154 Y8.310147
G1 Z12.664 X-15.793 Y8.045011
G1 Z12.668 X-16.682 Y7.428608
G1 Z12.671 X-17.307 Y7.080631
G1 Z12.675 X-18.013 Y6.475159
G1 Z12.677 X-18.236 Y6.320062
G1 Z12.680 X-18.009 Y5.545736
G1 Z12.683 X-17.869 Y4.805024
G1 Z12.688 X-17.441 Y3.788771
G1 Z12.691 X-17.227 Y3.096856
G1 Z12.696 X-16.702 Y2.172320
G1 Z12.699 X-16.418 Y1.534220
G1 Z12.703 X-15.795 Y0.693576
G1 Z12.706 X-15.442 Y0.102407
G1 Z12.711 X-14.717 Y-0.666822
G1 Z12.714 X-14.293 Y-1.216698
G1 Z12.719 X-13.461 Y-1.917337
G1 Z12.722 X-12.960 Y-2.430370
G1 Z12.727 X-12.011 Y-3.066396
G1 Z12.730 X-11.427 Y-3.547704
G1 Z12.734 X-10.488 Y-4.053195
G1 Z12.739 X-9.591 Y-4.657785
G1 Z12.746 X-9.733 Y-6.273182
G1 Z12.750 X-9.884 Y-7.078931
G1 Z12.755 X-9.861 Y-8.258215
G1 Z12.758 X-9.922 Y-9.030657
G1 Z12.763 X-9.774 Y-10.131457
G1 Z12.766 X-9.748 Y-10.860579
G1 Z12.771 X-9.482 Y-11.893072
G1 Z12.774 X-9.375 Y-12.586992
G1 Z12.778 X-8.993 Y-13.562352
G1 Z12.781 X-8.807 Y-14.225186
G1 Z12.786 X-8.310 Y-15.154582
G1 Z12.789 X-8.045 Y-15.793446
G1 Z12.793 X-7.428 Y-16.682043
G1 Z12.796 X-7.080 Y-17.307065
G1 Z12.800 X-6.475 Y-18.013594
G1 Z12.802 X-6.320 Y-18.236497
G1 Z12.805 X-5.545 Y-18.009171
G1 Z12.808 X-4.805 Y-17.869459 F600.000
G1 Z12.813 X-3.788 Y-17.441206
G1 Z12.816 X-3.096 Y-17.227290
G1 Z12.821 X-2.172 Y-16.702755
G1 Z12.824 X-1.534 Y-16.418655
G1 Z12.828 X-0.693 Y-15.795010
G1 Z12.831 X-0.102 Y-15.442842
G1 Z12.836 X0.666 Y-14.717256
G1 Z12.839 X1.216 Y-14.293133
G1 Z12.844 X1.917 Y-13.461772
G1 Z12.847 X2.430 Y-12.960805
G1 Z12.852 X3.066 Y-12.011830
G1 Z12.855 X3.547 Y-11.427139
G1 Z12.859 X4.053 Y-10.488630
G1 Z12.864 X4.657 Y-9.592220
G1 Z12.871 X6.273 Y-9.733617
G1 Z12.875 X7.078 Y-9.884366
G1 Z12.880 X8.258 Y-9.861650
G1 Z12.883 X9.030 Y-9.922092
G1 Z12.888 X10.131 Y-9.774892
G1 Z12.891 X10.860 Y-9.748013
G1 Z12.896 X11.893 Y-9.482507
G1 Z12.899 X12.586 Y-9.375426
G1 Z12.903 X13.562 Y-8.993787
G1 Z12.906 X14.225 Y-8.807621
G1 Z12.911 X15.154 Y-8.310017
G1 Z12.914 X15.793 Y-8.045881
G1 Z12.918 X16.682 Y-7.428478
G1 Z12.921 X17.307 Y-7.080500
G1 Z12.925 X18.013 Y-6.475029
G1 Z12.927 X18.236 Y-6.320931
G1 Z12.930 X18.009 Y-5.545606
G1 Z12.933 X17.869 Y-4.805894
G1 Z12.938 X17.441 Y-3.788640
G1 Z12.941 X17.227 Y-3.096725
G1 Z12.946 X16.702 Y-2.172190
G1 Z12.949 X16.418 Y-1.534090
G1 Z12.953 X15.795 Y-0.693445
G1 Z12.956 X15.442 Y-0.102277
G1 Z12.961 X14.717 Y0.666691
G1 Z12.964 X14.293 Y1.216568
G1 Z12.969 X13.461 Y1.917207
G1 Z12.972 X12.960 Y2.430239
G1 Z12.977 X12.011 Y3.066265
G1 Z12.980 X11.427 Y3.547574
G1 Z12.984 X10.488 Y4.053065
G1 Z12.989 X9.591 Y4.657655
G1 Z12.996 X9.733 Y6.273052
G1 Z13.000 X9.884 Y7.078801
G1 Z13.000 X9.883 Y7.164404
G1 Z13.003 X9.957 Y7.851219 F600.000
G1 Z13.007 X10.039 Y8.892549
G1 Z13.011 X9.925 Y9.741566
G1 Z13.015 X9.890 Y10.724470
G1 Z13.019 X9.685 Y11.520247
G1 Z13.023 X9.540 Y12.454883
G1 Z13.027 X9.246 Y13.207556
G1 Z13.031 X8.995 Y14.101078
G1 Z13.034 X8.612 Y14.817779
G1 Z13.038 X8.254 Y15.680337
G1 Z13.042 X7.779 Y16.365196
G1 Z13.046 X7.310 Y17.206957
G1 Z13.049 X6.844 Y17.751991
G1 Z13.051 X6.567 Y18.147388
G1 Z13.053 X6.042 Y17.994227
G1 Z13.058 X5.045 Y17.806350
G1 Z13.061 X4.261 Y17.476326
G1 Z13.066 X3.328 Y17.187182
G1 Z13.069 X2.616 Y16.782936
G1 Z13.073 X1.756 Y16.399547
G1 Z13.077 X1.107 Y15.919215
G1 Z13.081 X0.310 Y15.443733
G1 Z13.084 X-0.282 Y14.884449
G1 Z13.088 X-1.023 Y14.312025
G1 Z13.092 X-1.564 Y13.670916
G1 Z13.096 X-2.255 Y12.996696
G1 Z13.100 X-2.747 Y12.263891
G1 Z13.104 X-3.393 Y11.478031
G1 Z13.108 X-3.784 Y10.753815
G1 Z13.113 X-4.523 Y9.655111
G1 Z13.119 X-5.858 Y9.772524
G1 Z13.124 X-6.940 Y9.975257
G1 Z13.128 X-7.851 Y9.957654
G1 Z13.132 X-8.892 Y10.040984
G1 Z13.136 X-9.741 Y9.925001
G1 Z13.140 X-10.724 Y9.890905
G1 Z13.144 X-11.520 Y9.685682
G1 Z13.148 X-12.454 Y9.540318
G1 Z13.152 X-13.207 Y9.246991
G1 Z13.156 X-14.101 Y8.995512
G1 Z13.159 X-14.817 Y8.612213
G1 Z13.163 X-15.680 Y8.254772
G1 Z13.167 X-16.365 Y7.779631
G1 Z13.171 X-17.206 Y7.310392
G1 Z13.174 X-17.751 Y6.844426
G1 Z13.176 X-18.147 Y6.567823
G1 Z13.178 X-17.994 Y6.042662
G1 Z13.183 X-17.806 Y5.045785
G1 Z13.186 X-17.476 Y4.261761
G1 Z13.191 X-17.187 Y3.328617
G1 Z13.194 X-16.782 Y2.616371
G1 Z13.198 X-16.399 Y1.756981
G1 Z13.202 X-15.919 Y1.107650
G1 Z13.206 X-15.443 Y0.310168
G1 Z13.209 X-14.884 Y-0.282884
G1 Z13.213 X-14.312 Y-1.023459
G1 Z13.217 X-13.670 Y-1.564351
G1 Z13.221 X-12.996 Y-2.255131
G1 Z13.225 X-12.263 Y-2.747326
G1 Z13.229 X-11.478 Y-3.393465
G1 Z13.233 X-10.753 Y-3.784250
G1 Z13.238 X-9.655 Y-4.523546
G1 Z13.244 X-9.772 Y-5.858959
G1 Z13.249 X-9.975 Y-6.941692
G1 Z13.253 X-9.957 Y-7.851089
G1 Z13.257 X-10.039 Y-8.892418
G1 Z13.261 X-9.925 Y-9.741436
G1 Z13.265 X-9.890 Y-10.724340
G1 Z13.269 X-9.685 Y-11.520117
G1 Z13.273 X-9.540 Y-12.454753
G1 Z13.277 X-9.246 Y-13.207425
G1 Z13.281 X-8.995 Y-14.101947
G1 Z13.284 X-8.612 Y-14.817648
G1 Z13.288 X-8.254 Y-15.680207
G1 Z13.292 X-7.779 Y-16.365066
G1 Z13.296 X-7.310 Y-17.206826
G1 Z13.299 X-6.844 Y-17.751861
G1 Z13.301 X-6.567 Y-18.147258
G1 Z13.303 X-6.042 Y-17.994097
G1 Z13.308 X-5.045 Y-17.806220 F600.000
G1 Z13.311 X-4.261 Y-17.476196
G1 Z13.316 X-3.328 Y-17.187051
G1 Z13.319 X-2.616 Y-16.782806
G1 Z13.323 X-1.756 Y-16.399416
G1 Z13.327 X-1.107 Y-15.919085
G1 Z13.331 X-0.310 Y-15.443603
G1 Z13.334 X0.282 Y-14.884319
G1 Z13.338 X1.023 Y-14.312894
G1 Z13.342 X1.564 Y-13.670786
G1 Z13.346 X2.255 Y-12.996566
G1 Z13.350 X2.747 Y-12.263761
G1 Z13.354 X3.393 Y-11.478900
G1 Z13.358 X3.784 Y-10.753685
G1 Z13.363 X4.523 Y-9.655981
G1 Z13.369 X5.858 Y-9.772394
G1 Z13.374 X6.940 Y-9.975127
G1 Z13.378 X7.851 Y-9.957524
G1 Z13.382 X8.892 Y-10.040853
G1 Z13.386 X9.741 Y-9.925870
G1 Z13.390 X10.724 Y-9.890775
G1 Z13.394 X11.520 Y-9.685552
G1 Z13.398 X12.454 Y-9.540187
G1 Z13.402 X13.207 Y-9.246860
G1 Z13.406 X14.101 Y-8.995382
G1 Z13.409 X14.817 Y-8.612083
G1 Z13.413 X15.680 Y-8.254642
G1 Z13.417 X16.365 Y-7.779501
G1 Z13.421 X17.206 Y-7.310261
G1 Z13.424 X17.751 Y-6.844296
G1 Z13.426 X18.147 Y-6.567692
G1 Z13.428 X17.994 Y-6.042532
G1 Z13.433 X17.806 Y-5.045655
G1 Z13.436 X17.476 Y-4.261631
G1 Z13.441 X17.187 Y-3.328486
G1 Z13.444 X16.782 Y-2.616241
G1 Z13.448 X16.399 Y-1.756851
G1 Z13.452 X15.919 Y-1.107520
G1 Z13.456 X15.443 Y-0.310038
G1 Z13.459 X14.884 Y0.282753
G1 Z13.463 X14.312 Y1.023329
G1 Z13.467 X13.670 Y1.564221
G1 Z13.471 X12.996 Y2.255000
G1 Z13.475 X12.263 Y2.747196
G1 Z13.479 X11.478 Y3.393335
G1 Z13.483 X10.753 Y3.784120
G1 Z13.488 X9.655 Y4.523416
G1 Z13.494 X9.772 Y5.858829
G1 Z13.499 X9.975 Y6.940562
G1 Z13.500 X9.971 Y7.166143
G1 Z13.501 X10.053 Y7.445093 F600.000
G1 Z13.507 X10.157 Y8.753310
G1 Z13.509 X10.076 Y9.351544
G1 Z13.515 X10.032 Y10.587231
G1 Z13.517 X9.888 Y11.147292
G1 Z13.522 X9.705 Y12.323644
G1 Z13.525 X9.499 Y12.852629
G1 Z13.530 X9.183 Y13.977839
G1 Z13.532 X8.914 Y14.480845
G1 Z13.537 X8.464 Y15.566098
G1 Z13.540 X8.129 Y16.048219
G1 Z13.545 X7.539 Y17.105718
G1 Z13.547 X7.212 Y17.488258
G1 Z13.550 X6.813 Y18.059149
G1 Z13.552 X6.539 Y17.979153
G1 Z13.557 X5.285 Y17.743111
G1 Z13.560 X4.733 Y17.511317
G1 Z13.565 X3.560 Y17.147943
G1 Z13.567 X3.059 Y16.863987
G1 Z13.573 X1.977 Y16.381307
G1 Z13.575 X1.521 Y16.043290
G1 Z13.580 X0.518 Y15.444494
G1 Z13.583 X0.102 Y15.051511
G1 Z13.588 X-0.831 Y14.331785
G1 Z13.590 X-1.211 Y13.879930
G1 Z13.595 X-2.080 Y13.032457
G1 Z13.598 X-2.427 Y12.515821
G1 Z13.604 X-3.239 Y11.529792
G1 Z13.606 X-3.514 Y11.018870
G1 Z13.613 X-4.389 Y9.718872
G1 Z13.617 X-5.443 Y9.811301
G1 Z13.623 X-6.803 Y10.066018
G1 Z13.626 X-7.445 Y10.053528
G1 Z13.632 X-8.753 Y10.157744
G1 Z13.634 X-9.351 Y10.076979
G1 Z13.640 X-10.587 Y10.032666
G1 Z13.642 X-11.147 Y9.888727
G1 Z13.647 X-12.323 Y9.706079
G1 Z13.650 X-12.852 Y9.499064
G1 Z13.655 X-13.977 Y9.183273
G1 Z13.657 X-14.480 Y8.914279
G1 Z13.662 X-15.566 Y8.464533
G1 Z13.665 X-16.048 Y8.129654
G1 Z13.670 X-17.105 Y7.539153
G1 Z13.672 X-17.488 Y7.212693
G1 Z13.675 X-18.059 Y6.813584
G1 Z13.677 X-17.979 Y6.539588
G1 Z13.682 X-17.743 Y5.285546
G1 Z13.685 X-17.511 Y4.733751
G1 Z13.690 X-17.147 Y3.560378
G1 Z13.692 X-16.863 Y3.059422
G1 Z13.698 X-16.381 Y1.977742
G1 Z13.700 X-16.043 Y1.521725
G1 Z13.705 X-15.444 Y0.518929
G1 Z13.708 X-15.051 Y0.102946
G1 Z13.713 X-14.331 Y-0.831220
G1 Z13.715 X-13.879 Y-1.211365
G1 Z13.720 X-13.032 Y-2.080892
G1 Z13.723 X-12.515 Y-2.427256
G1 Z13.729 X-11.529 Y-3.239226
G1 Z13.731 X-11.018 Y-3.514305
G1 Z13.738 X-9.718 Y-4.389307
G1 Z13.742 X-9.810 Y-5.443736
G1 Z13.748 X-10.066 Y-6.803453
G1 Z13.751 X-10.053 Y-7.445963
G1 Z13.757 X-10.157 Y-8.753179
G1 Z13.759 X-10.076 Y-9.351414
G1 Z13.765 X-10.032 Y-10.587101
G1 Z13.767 X-9.888 Y-11.148162
G1 Z13.772 X-9.705 Y-12.323514
G1 Z13.775 X-9.499 Y-12.852499
G1 Z13.780 X-9.183 Y-13.977708
G1 Z13.782 X-8.914 Y-14.480714
G1 Z13.787 X-8.464 Y-15.566968
G1 Z13.790 X-8.129 Y-16.048089
G1 Z13.795 X-7.539 Y-17.105587
G1 Z13.797 X-7.212 Y-17.488128
G1 Z13.800 X-6.813 Y-18.059019
G1 Z13.802 X-6.539 Y-17.979023
G1 Z13.807 X-5.285 Y-17.743981 F600.000
G1 Z13.810 X-4.733 Y-17.511186
G1 Z13.815 X-3.560 Y-17.147812
G1 Z13.817 X-3.059 Y-16.863857
G1 Z13.823 X-1.977 Y-16.381177
G1 Z13.825 X-1.521 Y-16.043160
G1 Z13.830 X-0.518 Y-15.444364
G1 Z13.833 X-0.102 Y-15.051381
G1 Z13.838 X0.831 Y-14.331655
G1 Z13.840 X1.211 Y-13.879800
G1 Z13.845 X2.080 Y-13.032327
G1 Z13.848 X2.427 Y-12.515691
G1 Z13.854 X3.239 Y-11.529661
G1 Z13.856 X3.514 Y-11.018740
G1 Z13.863 X4.389 Y-9.718742
G1 Z13.867 X5.443 Y-9.811171
G1 Z13.873 X6.803 Y-10.066888
G1 Z13.876 X7.445 Y-10.053398
G1 Z13.882 X8.753 Y-10.157614
G1 Z13.884 X9.351 Y-10.076849
G1 Z13.890 X10.587 Y-10.032536
G1 Z13.892 X11.147 Y-9.888596
G1 Z13.897 X12.323 Y-9.706948
G1 Z13.900 X12.852 Y-9.499934
G1 Z13.905 X13.977 Y-9.183143
G1 Z13.907 X14.480 Y-8.914149
G1 Z13.912 X15.566 Y-8.464403
G1 Z13.915 X16.048 Y-8.129523
G1 Z13.920 X17.105 Y-7.539022
G1 Z13.922 X17.488 Y-7.212562
G1 Z13.925 X18.059 Y-6.813453
G1 Z13.927 X17.979 Y-6.539457
G1 Z13.932 X17.743 Y-5.285416
G1 Z13.935 X17.511 Y-4.733621
G1 Z13.940 X17.147 Y-3.560247
G1 Z13.942 X16.863 Y-3.059292
G1 Z13.948 X16.381 Y-1.977612
G1 Z13.950 X16.043 Y-1.521595
G1 Z13.955 X15.443 Y-0.518799
G1 Z13.958 X15.051 Y-0.102815
G1 Z13.963 X14.331 Y0.831090
G1 Z13.965 X13.879 Y1.211235
G1 Z13.970 X13.032 Y2.080761
G1 Z13.973 X12.515 Y2.427126
G1 Z13.979 X11.529 Y3.239096
G1 Z13.981 X11.018 Y3.514175
G1 Z13.988 X9.718 Y4.389177
G1 Z13.992 X9.810 Y5.443605
G1 Z13.998 X10.066 Y6.803323
G1 Z14.000 X10.059 Y7.167883
G1 Z14.006 X10.274 Y8.615136 F600.000
G1 Z14.008 X10.227 Y8.961588
G1 Z14.014 X10.174 Y10.451057
G1 Z14.016 X10.091 Y10.775402
G1 Z14.022 X9.871 Y12.191470
G1 Z14.023 X9.752 Y12.496768
G1 Z14.029 X9.371 Y13.853665
G1 Z14.031 X9.215 Y14.143976
G1 Z14.037 X8.673 Y15.452924
G1 Z14.038 X8.479 Y15.731307
G1 Z14.045 X7.769 Y17.004544
G1 Z14.046 X7.580 Y17.226590
G1 Z14.050 X7.061 Y17.969957
G1 Z14.057 X5.526 Y17.680926
G1 Z14.058 X5.206 Y17.545361
G1 Z14.064 X3.792 Y17.107757
G1 Z14.066 X3.503 Y16.943092
G1 Z14.072 X2.198 Y16.362122
G1 Z14.073 X1.935 Y16.167418
G1 Z14.080 X0.726 Y15.445309
G1 Z14.081 X0.486 Y15.218627
G1 Z14.087 X-0.638 Y14.350600
G1 Z14.089 X-0.858 Y14.089997
G1 Z14.095 X-1.906 Y13.067271
G1 Z14.096 X-2.107 Y12.768805
G1 Z14.103 X-3.084 Y11.580606
G1 Z14.105 X-3.245 Y11.283978
G1 Z14.112 X-4.255 Y9.781687
G1 Z14.116 X-5.028 Y9.849131
G1 Z14.123 X-6.665 Y10.157833
G1 Z14.124 X-7.039 Y10.149456
G1 Z14.131 X-8.615 Y10.274559
G1 Z14.133 X-8.961 Y10.227011
G1 Z14.139 X-10.451 Y10.174480
G1 Z14.141 X-10.775 Y10.091825
G1 Z14.147 X-12.191 Y9.871893
G1 Z14.148 X-12.496 Y9.752191
G1 Z14.154 X-13.853 Y9.371088
G1 Z14.156 X-14.143 Y9.215399
G1 Z14.162 X-15.452 Y8.673347
G1 Z14.163 X-15.731 Y8.479730
G1 Z14.170 X-17.004 Y7.769967
G1 Z14.171 X-17.225 Y7.580013
G1 Z14.175 X-17.969 Y7.061380
G1 Z14.182 X-17.680 Y5.526349
G1 Z14.183 X-17.545 Y5.206784
G1 Z14.189 X-17.107 Y3.792181
G1 Z14.191 X-16.943 Y3.503515
G1 Z14.197 X-16.362 Y2.198545
G1 Z14.198 X-16.167 Y1.935842
G1 Z14.205 X-15.444 Y0.726732
G1 Z14.206 X-15.218 Y0.486050
G1 Z14.212 X-14.350 Y-0.638023
G1 Z14.214 X-14.089 Y-0.858421
G1 Z14.220 X-13.067 Y-1.906695
G1 Z14.221 X-12.768 Y-2.107228
G1 Z14.228 X-11.580 Y-3.084029
G1 Z14.230 X-11.283 Y-3.245402
G1 Z14.237 X-9.781 Y-4.255110
G1 Z14.241 X-9.849 Y-5.028554
G1 Z14.248 X-10.157 Y-6.665256
G1 Z14.249 X-10.149 Y-7.039879
G1 Z14.256 X-10.274 Y-8.615982
G1 Z14.258 X-10.227 Y-8.961434
G1 Z14.264 X-10.174 Y-10.451904
G1 Z14.266 X-10.091 Y-10.775248
G1 Z14.272 X-9.871 Y-12.191317
G1 Z14.273 X-9.752 Y-12.496615
G1 Z14.279 X-9.371 Y-13.853511
G1 Z14.281 X-9.215 Y-14.143822
G1 Z14.287 X-8.673 Y-15.452771
G1 Z14.288 X-8.479 Y-15.731154
G1 Z14.295 X-7.769 Y-17.004391
G1 Z14.296 X-7.580 Y-17.226436
G1 Z14.300 X-7.061 Y-17.969803
G1 Z14.307 X-5.526 Y-17.680772
G1 Z14.308 X-5.206 Y-17.545207 F600.000
G1 Z14.314 X-3.792 Y-17.107604
G1 Z14.316 X-3.503 Y-16.943938
G1 Z14.322 X-2.198 Y-16.362969
G1 Z14.323 X-1.935 Y-16.167265
G1 Z14.330 X-0.726 Y-15.445155
G1 Z14.331 X-0.486 Y-15.218473
G1 Z14.337 X0.638 Y-14.350447
G1 Z14.339 X0.858 Y-14.089844
G1 Z14.345 X1.906 Y-13.067118
G1 Z14.346 X2.107 Y-12.768652
G1 Z14.353 X3.084 Y-11.580453
G1 Z14.355 X3.245 Y-11.283825
G1 Z14.362 X4.255 Y-9.781534
G1 Z14.366 X5.028 Y-9.849978
G1 Z14.373 X6.665 Y-10.157680
G1 Z14.374 X7.039 Y-10.149302
G1 Z14.381 X8.615 Y-10.274406
G1 Z14.383 X8.961 Y-10.227858
G1 Z14.389 X10.451 Y-10.174327
G1 Z14.391 X10.775 Y-10.091671
G1 Z14.397 X12.191 Y-9.871740
