; generated by Slic3r 1.2.9 on 2017-09-22 at 13:37:05

; external perimeters extrusion width = 1.10mm
; perimeters extrusion width = 1.10mm
; infill extrusion width = 1.10mm
; solid infill extrusion width = 1.10mm
; top infill extrusion width = 1.10mm

H=2000
$AC_TIMER[1]=0

;General Config.--------------------
G641			;
G603			;
M55			;home mirror
G4F4			;necessary delay for positioning of the mirror				
M0			;wait for user-input

;Process Start-up-------------------
M56			;set canal 1 as laser-source
G4F4			;necessary delay for positioning of the mirror
M0			;wait for user-input
;START POWDER!!!
G4F15

M0

G54

G90 ; use absolute coordinates
G1 Z0.500 F600
G1 X1.123 Y-18.517 F600
ID=1 WHEN $AC_TIMER[1]>=0 DO M50
G1 X1.212 Y-18.4719 F600
G1 X2.606 Y-17.3291
G1 X3.826 Y-16.0594
G1 X4.871 Y-14.6730
G1 X5.751 Y-13.1619
G1 X6.473 Y-11.5079
G1 X7.039 Y-9.6952
G1 X7.480 Y-7.5855
G1 X9.908 Y-7.0876
G1 X11.746 Y-6.5031
G1 X13.425 Y-5.7501
G1 X14.941 Y-4.8413
G1 X16.313 Y-3.7766
G1 X17.555 Y-2.5494
G1 X18.679 Y-1.1482
G1 X19.339 Y-0.1309
G1 X18.487 Y1.1936
G1 X17.329 Y2.6066
G1 X16.059 Y3.8269
G1 X14.673 Y4.8715
G1 X13.161 Y5.7515
G1 X11.507 Y6.4734
G1 X9.695 Y7.0397
G1 X7.585 Y7.4800
G1 X7.087 Y9.9081
G1 X6.503 Y11.7467
G1 X5.750 Y13.4257
G1 X4.841 Y14.9418
G1 X3.776 Y16.3131
G1 X2.549 Y17.5550
G1 X1.148 Y18.6798
G1 X0.130 Y19.3394
G1 X-1.193 Y18.4872
G1 X-2.606 Y17.3292
G1 X-3.826 Y16.0595
G1 X-4.871 Y14.6730
G1 X-5.751 Y13.1610
G1 X-6.473 Y11.5070
G1 X-7.039 Y9.6952
G1 X-7.480 Y7.5856
G1 X-9.908 Y7.0876
G1 X-11.746 Y6.5032
G1 X-13.425 Y5.7502
G1 X-14.941 Y4.8414
G1 X-16.313 Y3.7767
G1 X-17.555 Y2.5495
G1 X-18.679 Y1.1483
G1 X-19.339 Y0.1300
G1 X-18.487 Y-1.1937
G1 X-17.329 Y-2.6067
G1 X-16.059 Y-3.8260
G1 X-14.673 Y-4.8716
G1 X-13.161 Y-5.7516
G1 X-11.507 Y-6.4735
G1 X-9.695 Y-7.0398
G1 X-7.585 Y-7.4801
G1 X-7.087 Y-9.9082
G1 X-6.503 Y-11.7468
G1 X-5.750 Y-13.4258
G1 X-4.841 Y-14.9419
G1 X-3.776 Y-16.3132
G1 X-2.549 Y-17.5551
G1 X-1.148 Y-18.6798
G1 X-0.132 Y-19.3377
G1 X0.746 Y-18.7633
ID=1 WHEN $AC_TIMER[1]>=0 DO M51
G1 X0.696 Y-17.788 F600
ID=1 WHEN $AC_TIMER[1]>=0 DO M50
G1 X2.033 Y-16.7083 F600
G1 X3.183 Y-15.5118
G1 X4.113 Y-14.2767
G1 X0.642 Y-15.2063
G1 X-3.816 Y-10.7483
G1 X-2.629 Y-6.3199
G1 X-7.087 Y-1.8628
G1 X-11.516 Y-3.04844
G1 X-15.974 Y1.41014
G1 X-15.446 Y3.38142
G1 X-15.756 Y3.14094
G1 X-16.927 Y1.98356
G1 X-17.994 Y0.65332
G1 X-18.228 Y0.29253
G1 X-16.676 Y0.70836
G1 X-12.218 Y-3.75005
G1 X-12.576 Y-5.08512
G1 X-11.212 Y-5.68266
G1 X-9.482 Y-6.22188
G1 X-6.870 Y-6.76826
G1 X-6.269 Y-9.69506
G1 X-5.713 Y-11.44502
G1 X-5.583 Y-11.73638
G1 X-4.518 Y-11.45081
G1 X-0.060 Y-15.90850
G1 X-0.624 Y-18.01350
G1 X-0.134 Y-18.33152
G1 X0.696 Y-17.78812
ID=1 WHEN $AC_TIMER[1]>=0 DO M51
G1 X6.695 Y-7.220 F600
ID=1 WHEN $AC_TIMER[1]>=0 DO M50
G1 X3.203 Y-3.7291 F600
G1 X4.390 Y0.7007
G1 X-0.068 Y5.1587
G1 X-4.497 Y3.9713
G1 X-7.289 Y6.7639
G1 X-8.453 Y6.5248
G1 X-5.199 Y3.2690
G1 X-6.385 Y-1.1606
G1 X-1.927 Y-5.6186
G1 X2.501 Y-4.4312
G1 X6.452 Y-8.3811
G1 X6.695 Y-7.2200
ID=1 WHEN $AC_TIMER[1]>=0 DO M51
G1 X14.464 Y-4.143 F600
ID=1 WHEN $AC_TIMER[1]>=0 DO M50
G1 X15.756 Y-3.1404 F600
G1 X16.927 Y-1.9837
G1 X17.994 Y-0.6532
G1 X18.287 Y-0.2013
G1 X14.681 Y-1.1678
G1 X10.223 Y3.2918
G1 X10.890 Y5.7828
G1 X9.482 Y6.2217
G1 X6.870 Y6.7685
G1 X6.269 Y9.6955
G1 X5.713 Y11.4451
G1 X5.553 Y11.8032
G1 X2.523 Y10.9911
G1 X-1.935 Y15.4490
G1 X-1.476 Y17.1642
G1 X-2.033 Y16.7088
G1 X-3.183 Y15.5113
G1 X-4.043 Y14.3706
G1 X-2.637 Y14.7473
G1 X1.821 Y10.2893
G1 X0.634 Y5.8609
G1 X5.092 Y1.4028
G1 X9.521 Y2.5894
G1 X13.979 Y-1.8694
G1 X13.160 Y-4.9257
G1 X14.464 Y-4.1439
ID=1 WHEN $AC_TIMER[1]>=0 DO M51
G1 Z1.000 F600
H=1800
G1 X0.643 Y-18.647 F600
ID=1 WHEN $AC_TIMER[1]>=0 DO M50
G1 X0.962 Y-18.4811 F600
G1 X2.103 Y-17.5348
G1 X2.389 Y-17.3413
G1 X3.372 Y-16.3046
G1 X3.623 Y-16.0878
G1 X4.463 Y-14.9566
G1 X4.683 Y-14.7144
G1 X5.389 Y-13.4831
G1 X5.581 Y-13.2136
G1 X6.158 Y-11.8709
G1 X6.323 Y-11.5707
G1 X6.771 Y-10.1023
G1 X6.911 Y-9.7652
G1 X7.195 Y-8.3625
G1 X7.405 Y-7.6782
G1 X9.409 Y-7.2570
G1 X9.801 Y-7.2149
G1 X11.307 Y-6.7256
G1 X11.669 Y-6.6455
G1 X13.027 Y-6.0262
G1 X13.356 Y-5.9136
G1 X14.581 Y-5.1677
G1 X14.882 Y-5.0239
G1 X15.989 Y-4.1514
G1 X16.265 Y-3.9753
G1 X17.266 Y-2.9735
G1 X17.521 Y-2.7643
G1 X18.423 Y-1.6241
G1 X18.662 Y-1.3773
G1 X19.307 Y-0.3670
G1 X18.647 Y0.6438
G1 X18.481 Y0.9629
G1 X17.534 Y2.1036
G1 X17.340 Y2.3891
G1 X16.304 Y3.3724
G1 X16.087 Y3.6236
G1 X14.956 Y4.4634
G1 X14.714 Y4.6832
G1 X13.483 Y5.3899
G1 X13.213 Y5.5814
G1 X11.870 Y6.1587
G1 X11.569 Y6.3235
G1 X10.102 Y6.7711
G1 X9.765 Y6.9110
G1 X8.362 Y7.1953
G1 X7.678 Y7.4050
G1 X7.257 Y9.4098
G1 X7.214 Y9.8016
G1 X6.725 Y11.3074
G1 X6.645 Y11.6693
G1 X6.026 Y13.0270
G1 X5.913 Y13.3564
G1 X5.167 Y14.5815
G1 X5.023 Y14.8827
G1 X4.151 Y15.9892
G1 X3.975 Y16.2651
G1 X2.973 Y17.2663
G1 X2.764 Y17.5211
G1 X1.624 Y18.4239
G1 X1.377 Y18.6621
G1 X0.367 Y19.3078
G1 X-0.643 Y18.6476
G1 X-0.962 Y18.4817
G1 X-2.103 Y17.5344
G1 X-2.389 Y17.3409
G1 X-3.372 Y16.3042
G1 X-3.623 Y16.0874
G1 X-4.463 Y14.9562
G1 X-4.683 Y14.7140
G1 X-5.389 Y13.4837
G1 X-5.581 Y13.2132
G1 X-6.157 Y11.8705
G1 X-6.323 Y11.5703
G1 X-6.771 Y10.1029
G1 X-6.911 Y9.7658
G1 X-7.195 Y8.3621
G1 X-7.405 Y7.6788
G1 X-9.409 Y7.2576
G1 X-9.801 Y7.2145
G1 X-11.307 Y6.7252
G1 X-11.669 Y6.6451
G1 X-13.027 Y6.0268
G1 X-13.356 Y5.9132
G1 X-14.581 Y5.1673
G1 X-14.882 Y5.0235
G1 X-15.989 Y4.1510
G1 X-16.265 Y3.9759
G1 X-17.266 Y2.9731
G1 X-17.521 Y2.7649
G1 X-18.423 Y1.6247
G1 X-18.662 Y1.3779
G1 X-19.307 Y0.3676
G1 X-18.647 Y-0.6434
G1 X-18.481 Y-0.9625
G1 X-17.534 Y-2.1032
G1 X-17.340 Y-2.3897
G1 X-16.304 Y-3.3720
G1 X-16.087 Y-3.6232
G1 X-14.956 Y-4.4630
G1 X-14.714 Y-4.6838
G1 X-13.483 Y-5.3895
G1 X-13.213 Y-5.5810
G1 X-11.870 Y-6.1583
G1 X-11.569 Y-6.3231
G1 X-10.102 Y-6.7717
G1 X-9.765 Y-6.9116
G1 X-8.362 Y-7.1959
G1 X-7.678 Y-7.4056
G1 X-7.257 Y-9.4094
G1 X-7.214 Y-9.8013
G1 X-6.725 Y-11.3070
G1 X-6.645 Y-11.6699
G1 X-6.026 Y-13.0276
G1 X-5.913 Y-13.3560
G1 X-5.167 Y-14.5812
G1 X-5.023 Y-14.8823
G1 X-4.151 Y-15.9898
G1 X-3.975 Y-16.2657
G1 X-2.973 Y-17.2669
G1 X-2.764 Y-17.5217
G1 X-1.624 Y-18.4235
G1 X-1.377 Y-18.6627
G1 X-0.367 Y-19.3074
G1 X0.266 Y-18.8942
ID=1 WHEN $AC_TIMER[1]>=0 DO M51
G1 X0.216 Y-17.918 F600
ID=1 WHEN $AC_TIMER[1]>=0 DO M50
G1 X0.493 Y-17.7744 F600
G1 X1.596 Y-16.8580
G1 X1.840 Y-16.6931
G1 X2.789 Y-15.6930
G1 X3.001 Y-15.5094
G1 X3.886 Y-14.3377
G1 X0.642 Y-15.2060
G1 X-0.149 Y-18.1578
G1 X0.216 Y-17.9185
ID=1 WHEN $AC_TIMER[1]>=0 DO M51
G1 X-0.317 Y-14.949 F600
ID=1 WHEN $AC_TIMER[1]>=0 DO M50
G1 X-3.559 Y-11.7076 F600
G1 X-1.927 Y-5.6186
G1 X2.501 Y-4.4312
G1 X4.133 Y1.6591
G1 X0.891 Y4.9017
G1 X2.523 Y10.9917
G1 X5.646 Y11.8278
G1 X5.241 Y12.7142
G1 X5.144 Y12.9963
G1 X4.425 Y14.1782
G1 X4.302 Y14.4335
G1 X3.462 Y15.5002
G1 X3.313 Y15.7337
G1 X2.348 Y16.6984
G1 X2.169 Y16.9167
G1 X1.068 Y17.7870
G1 X0.852 Y17.9961
G1 X0.372 Y18.3028
G1 X-0.216 Y17.9187
G1 X-0.493 Y17.7749
G1 X-0.886 Y17.4488
G1 X-1.678 Y14.4900
G1 X1.564 Y11.2486
G1 X-0.068 Y5.1586
G1 X-4.497 Y3.9712
G1 X-6.128 Y-2.1181
G1 X-2.886 Y-5.3617
G1 X-4.518 Y-11.4507
G1 X-5.676 Y-11.7616
G1 X-5.241 Y-12.7146
G1 X-5.144 Y-12.9966
G1 X-4.425 Y-14.1785
G1 X-4.302 Y-14.4338
G1 X-3.462 Y-15.5005
G1 X-3.313 Y-15.7330
G1 X-2.348 Y-16.6987
G1 X-2.169 Y-16.9160
G1 X-1.076 Y-17.7813
G1 X-0.317 Y-14.9498
ID=1 WHEN $AC_TIMER[1]>=0 DO M51
G1 X6.744 Y-6.954 F600
ID=1 WHEN $AC_TIMER[1]>=0 DO M50
G1 X9.276 Y-6.4223 F600
G1 X9.623 Y-6.3843
G1 X11.085 Y-5.9092
G1 X11.401 Y-5.8400
G1 X12.540 Y-5.3206
G1 X13.722 Y-0.9102
G1 X10.480 Y2.3328
G1 X11.327 Y5.4932
G1 X11.239 Y5.5424
G1 X10.382 Y5.8036
G1 X9.521 Y2.5894
G1 X5.092 Y1.4020
G1 X3.460 Y-4.6889
G1 X6.505 Y-7.7338
G1 X6.744 Y-6.9547
ID=1 WHEN $AC_TIMER[1]>=0 DO M51
G1 X14.178 Y-4.425 F600
ID=1 WHEN $AC_TIMER[1]>=0 DO M50
G1 X14.433 Y-4.3023 F600
G1 X15.500 Y-3.4620
G1 X15.733 Y-3.3135
G1 X16.698 Y-2.3482
G1 X16.916 Y-2.1695
G1 X17.787 Y-1.0688
G1 X17.996 Y-0.8529
G1 X18.302 Y-0.3726
G1 X18.205 Y-0.2235
G1 X14.681 Y-1.1676
G1 X13.736 Y-4.6942
G1 X14.178 Y-4.4257
ID=1 WHEN $AC_TIMER[1]>=0 DO M51
G1 X-2.637 Y14.747 F600
ID=1 WHEN $AC_TIMER[1]>=0 DO M50
G1 X-2.224 Y16.2885 F600
G1 X-2.789 Y15.6934
G1 X-3.001 Y15.5098
G1 X-3.799 Y14.4353
G1 X-2.637 Y14.7471
ID=1 WHEN $AC_TIMER[1]>=0 DO M51
G1 X-16.676 Y0.708 F600
ID=1 WHEN $AC_TIMER[1]>=0 DO M50
G1 X-16.067 Y2.9791 F600
G1 X-16.698 Y2.3489
G1 X-16.916 Y2.1692
G1 X-17.787 Y1.0686
G1 X-17.996 Y0.8527
G1 X-18.302 Y0.3723
G1 X-18.247 Y0.2877
G1 X-16.676 Y0.7086
ID=1 WHEN $AC_TIMER[1]>=0 DO M51
G1 X-11.516 Y-3.048 F600
ID=1 WHEN $AC_TIMER[1]>=0 DO M50
G1 X-7.087 Y-1.8626 F600
G1 X-5.456 Y4.2286
G1 X-7.932 Y6.7058
G1 X-9.276 Y6.4220
G1 X-9.623 Y6.3840
G1 X-11.085 Y5.9099
G1 X-11.401 Y5.8407
G1 X-12.714 Y5.2413
G1 X-12.996 Y5.1444
G1 X-14.178 Y4.4253
G1 X-14.433 Y4.3026
G1 X-14.753 Y4.0506
G1 X-15.717 Y0.4514
G1 X-12.475 Y-2.7910
G1 X-12.988 Y-4.7066
G1 X-12.797 Y-4.8419
G1 X-12.079 Y-5.1496
G1 X-11.516 Y-3.0481
ID=1 WHEN $AC_TIMER[1]>=0 DO M51
G1 Z1.500 F600
G1 X0.163 Y-18.778 F600
ID=1 WHEN $AC_TIMER[1]>=0 DO M50
G1 X0.714 Y-18.4907 F600
G1 X1.660 Y-17.7042
G1 X2.155 Y-17.3708
G1 X2.971 Y-16.5101
G1 X3.406 Y-16.1333
G1 X4.103 Y-15.1964
G1 X4.484 Y-14.7750
G1 X5.070 Y-13.7547
G1 X5.402 Y-13.2871
G1 X5.881 Y-12.1737
G1 X6.166 Y-11.6542
G1 X6.538 Y-10.4367
G1 X6.778 Y-9.8597
G1 X7.014 Y-8.6944
G1 X7.295 Y-7.7778
G1 X9.023 Y-7.4141
G1 X9.695 Y-7.3414
G1 X10.946 Y-6.9354
G1 X11.571 Y-6.7970
G1 X12.697 Y-6.2835
G1 X13.267 Y-6.0881
G1 X14.283 Y-5.4706
G1 X14.804 Y-5.2194
G1 X15.723 Y-4.4961
G1 X16.201 Y-4.1919
G1 X17.031 Y-3.3606
G1 X17.473 Y-2.9978
G1 X18.221 Y-2.0518
G1 X18.632 Y-1.6268
G1 X19.282 Y-0.6094
G1 X18.777 Y0.1636
G1 X18.490 Y0.7143
G1 X17.704 Y1.6608
G1 X17.370 Y2.1554
G1 X16.510 Y2.9717
G1 X16.133 Y3.4069
G1 X15.196 Y4.1031
G1 X14.775 Y4.4846
G1 X13.754 Y5.0703
G1 X13.287 Y5.4027
G1 X12.173 Y5.8813
G1 X11.654 Y6.1668
G1 X10.436 Y6.5383
G1 X9.859 Y6.7783
G1 X8.694 Y7.0140
G1 X7.777 Y7.2954
G1 X7.414 Y9.0237
G1 X7.341 Y9.6950
G1 X6.935 Y10.9461
G1 X6.797 Y11.5716
G1 X6.283 Y12.6971
G1 X6.088 Y13.2677
G1 X5.470 Y14.2832
G1 X5.219 Y14.8040
G1 X4.496 Y15.7237
G1 X4.191 Y16.2015
G1 X3.360 Y17.0312
G1 X2.997 Y17.4734
G1 X2.051 Y18.2214
G1 X1.626 Y18.6324
G1 X0.609 Y19.2820
G1 X-0.163 Y18.7782
G1 X-0.714 Y18.4909
G1 X-1.660 Y17.7044
G1 X-2.155 Y17.3700
G1 X-2.971 Y16.5103
G1 X-3.406 Y16.1335
G1 X-4.103 Y15.1967
G1 X-4.484 Y14.7752
G1 X-5.070 Y13.7549
G1 X-5.402 Y13.2873
G1 X-5.881 Y12.1739
G1 X-6.166 Y11.6544
G1 X-6.538 Y10.4369
G1 X-6.778 Y9.8599
G1 X-7.014 Y8.6947
G1 X-7.295 Y7.7770
G1 X-9.023 Y7.4143
G1 X-9.695 Y7.3416
G1 X-10.946 Y6.9357
G1 X-11.571 Y6.7972
G1 X-12.697 Y6.2837
G1 X-13.267 Y6.0883
G1 X-14.283 Y5.4709
G1 X-14.804 Y5.2196
G1 X-15.723 Y4.4964
G1 X-16.201 Y4.1911
G1 X-17.031 Y3.3608
G1 X-17.473 Y2.9971
G1 X-18.221 Y2.0510
G1 X-18.632 Y1.6260
G1 X-19.282 Y0.6097
G1 X-18.777 Y-0.1638
G1 X-18.490 Y-0.7145
G1 X-17.704 Y-1.6601
G1 X-17.370 Y-2.1557
G1 X-16.510 Y-2.9719
G1 X-16.133 Y-3.4061
G1 X-15.196 Y-4.1033
G1 X-14.775 Y-4.4848
G1 X-13.754 Y-5.0705
G1 X-13.287 Y-5.4029
G1 X-12.173 Y-5.8815
G1 X-11.654 Y-6.1661
G1 X-10.436 Y-6.5385
G1 X-9.859 Y-6.7785
G1 X-8.694 Y-7.0143
G1 X-7.777 Y-7.2956
G1 X-7.414 Y-9.0239
G1 X-7.341 Y-9.6952
G1 X-6.935 Y-10.9463
G1 X-6.797 Y-11.5718
G1 X-6.283 Y-12.6973
G1 X-6.088 Y-13.2670
G1 X-5.470 Y-14.2835
G1 X-5.219 Y-14.8042
G1 X-4.496 Y-15.7230
G1 X-4.191 Y-16.2017
G1 X-3.360 Y-17.0314
G1 X-2.997 Y-17.4737
G1 X-2.051 Y-18.2217
G1 X-1.626 Y-18.6326
G1 X-0.609 Y-19.2823
G1 X-0.214 Y-19.0245
ID=1 WHEN $AC_TIMER[1]>=0 DO M51
G1 X-0.264 Y-18.049 F600
ID=1 WHEN $AC_TIMER[1]>=0 DO M50
G1 X0.244 Y-17.7832 F600
G1 X1.153 Y-17.0297
G1 X1.606 Y-16.7229
G1 X2.387 Y-15.8998
G1 X2.784 Y-15.5562
G1 X3.164 Y-15.0445
G1 X-0.060 Y-15.9083
G1 X-0.683 Y-18.2334
G1 X-0.614 Y-18.2779
G1 X-0.264 Y-18.0493
ID=1 WHEN $AC_TIMER[1]>=0 DO M51
G1 X4.089 Y-13.769 F600
ID=1 WHEN $AC_TIMER[1]>=0 DO M50
G1 X4.358 Y-13.2987 F600
G1 X4.662 Y-12.8717
G1 X5.122 Y-11.8021
G1 X5.385 Y-11.3240
G1 X5.743 Y-10.1509
G1 X5.967 Y-9.6112
G1 X6.195 Y-8.4862
G1 X6.445 Y-7.6727
G1 X3.460 Y-4.6884
G1 X-2.629 Y-6.3193
G1 X-3.816 Y-10.7489
G1 X-5.981 Y-11.3286
G1 X-5.563 Y-12.2444
G1 X-3.559 Y-11.7079
G1 X-0.317 Y-14.9495
G1 X4.089 Y-13.7694
ID=1 WHEN $AC_TIMER[1]>=0 DO M51
G1 X3.203 Y-3.729 F600
ID=1 WHEN $AC_TIMER[1]>=0 DO M50
G1 X4.390 Y0.7006 F600
G1 X10.480 Y2.3326
G1 X13.722 Y-0.9102
G1 X17.814 Y0.1867
G1 X17.783 Y0.2448
G1 X17.029 Y1.1534
G1 X16.722 Y1.6066
G1 X15.899 Y2.3874
G1 X15.556 Y2.7848
G1 X14.659 Y3.4502
G1 X14.276 Y3.7983
G1 X13.298 Y4.3587
G1 X12.871 Y4.6628
G1 X11.802 Y5.1221
G1 X11.324 Y5.3850
G1 X10.825 Y5.5376
G1 X10.223 Y3.2917
G1 X4.133 Y1.6597
G1 X0.891 Y4.9013
G1 X-5.199 Y3.2692
G1 X-6.385 Y-1.1608
G1 X-12.475 Y-2.7918
G1 X-15.717 Y0.4514
G1 X-17.848 Y-0.1204
G1 X-17.783 Y-0.2447
G1 X-17.029 Y-1.1532
G1 X-16.722 Y-1.6064
G1 X-15.899 Y-2.3873
G1 X-15.556 Y-2.7847
G1 X-14.659 Y-3.4501
G1 X-14.276 Y-3.7982
G1 X-13.298 Y-4.3585
G1 X-12.871 Y-4.6626
G1 X-12.505 Y-4.8208
G1 X-12.218 Y-3.7504
G1 X-6.128 Y-2.1184
G1 X-2.886 Y-5.3610
G1 X3.203 Y-3.7299
ID=1 WHEN $AC_TIMER[1]>=0 DO M51
G1 X0.634 Y5.860 F600
ID=1 WHEN $AC_TIMER[1]>=0 DO M50
G1 X1.821 Y10.2896 F600
G1 X5.950 Y11.3955
G1 X5.532 Y12.3113
G1 X1.564 Y11.2481
G1 X-1.678 Y14.4907
G1 X-4.038 Y13.8572
G1 X-4.358 Y13.2986
G1 X-4.662 Y12.8717
G1 X-5.122 Y11.8020
G1 X-5.385 Y11.3240
G1 X-5.743 Y10.1509
G1 X-5.967 Y9.6111
G1 X-6.195 Y8.4862
G1 X-6.635 Y7.0531
G1 X-7.995 Y6.7682
G1 X-5.456 Y4.2282
G1 X0.634 Y5.8601
ID=1 WHEN $AC_TIMER[1]>=0 DO M51
G1 X-1.935 Y15.449 F600
ID=1 WHEN $AC_TIMER[1]>=0 DO M50
G1 X-1.591 Y16.7322 F600
G1 X-2.387 Y15.8996
G1 X-2.784 Y15.5560
G1 X-3.094 Y15.1384
G1 X-1.935 Y15.4491
ID=1 WHEN $AC_TIMER[1]>=0 DO M51
G1 X-15.974 Y1.410 F600
ID=1 WHEN $AC_TIMER[1]>=0 DO M50
G1 X-15.352 Y3.7321 F600
G1 X-15.669 Y3.5295
G1 X-16.464 Y2.7347
G1 X-16.867 Y2.4035
G1 X-17.585 Y1.4950
G1 X-17.966 Y1.1019
G1 X-18.139 Y0.8300
G1 X-15.974 Y1.4101
ID=1 WHEN $AC_TIMER[1]>=0 DO M51
G1 X13.880 Y-4.727 F600
ID=1 WHEN $AC_TIMER[1]>=0 DO M50
G1 X14.355 Y-4.4990 F600
G1 X15.233 Y-3.8089
G1 X15.669 Y-3.5292
G1 X16.464 Y-2.7344
G1 X16.867 Y-2.4031
G1 X17.585 Y-1.4957
G1 X17.966 Y-1.1016
G1 X18.197 Y-0.7390
G1 X13.979 Y-1.8697
G1 X13.083 Y-5.2128
G1 X13.880 Y-4.7279
ID=1 WHEN $AC_TIMER[1]>=0 DO M51
G1 Z2.000 F600
G1 X-0.317 Y-18.908 F600
ID=1 WHEN $AC_TIMER[1]>=0 DO M50
G1 X0.466 Y-18.4992 F600
G1 X1.218 Y-17.8757
G1 X1.922 Y-17.3993
G1 X2.570 Y-16.7166
G1 X3.189 Y-16.1798
G1 X3.743 Y-15.4353
G1 X4.286 Y-14.8375
G1 X4.751 Y-14.0253
G1 X5.223 Y-13.3616
G1 X5.604 Y-12.4755
G1 X6.009 Y-11.7397
G1 X6.305 Y-10.7702
G1 X6.645 Y-9.9522
G1 X6.833 Y-9.0253
G1 X7.186 Y-7.8763
G1 X8.636 Y-7.5722
G1 X9.590 Y-7.4679
G1 X10.585 Y-7.1443
G1 X11.473 Y-6.9505
G1 X12.368 Y-6.5417
G1 X13.178 Y-6.2646
G1 X13.985 Y-5.7725
G1 X14.726 Y-5.4159
G1 X15.456 Y-4.8419
G1 X16.137 Y-4.4064
G1 X16.797 Y-3.7466
G1 X17.425 Y-3.2303
G1 X18.020 Y-2.4795
G1 X18.602 Y-1.8753
G1 X19.045 Y-1.1818
G1 X19.279 Y-0.8854
G1 X18.908 Y-0.3175
G1 X18.499 Y0.4667
G1 X17.875 Y1.2181
G1 X17.399 Y1.9228
G1 X16.715 Y2.5701
G1 X16.179 Y3.1893
G1 X15.435 Y3.7438
G1 X14.837 Y4.2860
G1 X14.025 Y4.7518
G1 X13.361 Y5.2231
G1 X12.475 Y5.6049
G1 X11.739 Y6.0092
G1 X10.770 Y6.3056
G1 X9.952 Y6.6457
G1 X9.025 Y6.8338
G1 X7.876 Y7.1868
G1 X7.572 Y8.6366
G1 X7.467 Y9.5904
G1 X7.144 Y10.5857
G1 X6.950 Y11.4730
G1 X6.541 Y12.3682
G1 X6.263 Y13.1781
G1 X5.772 Y13.9850
G1 X5.415 Y14.7264
G1 X4.841 Y15.4564
G1 X4.406 Y16.1379
G1 X3.746 Y16.7970
G1 X3.230 Y17.4258
G1 X2.479 Y18.0200
G1 X1.875 Y18.6028
G1 X1.181 Y19.0462
G1 X0.885 Y19.2799
G1 X0.317 Y18.9089
G1 X-0.466 Y18.4991
G1 X-1.218 Y17.8756
G1 X-1.922 Y17.3993
G1 X-2.570 Y16.7165
G1 X-3.189 Y16.1797
G1 X-3.743 Y15.4353
G1 X-4.286 Y14.8374
G1 X-4.751 Y14.0253
G1 X-5.223 Y13.3615
G1 X-5.604 Y12.4754
G1 X-6.009 Y11.7397
G1 X-6.305 Y10.7701
G1 X-6.645 Y9.9521
G1 X-6.833 Y9.0253
G1 X-7.186 Y7.8762
G1 X-8.636 Y7.5721
G1 X-9.590 Y7.4678
G1 X-10.585 Y7.1442
G1 X-11.473 Y6.9504
G1 X-12.368 Y6.5417
G1 X-13.178 Y6.2646
G1 X-13.985 Y5.7725
G1 X-14.726 Y5.4159
G1 X-15.456 Y4.8418
G1 X-16.137 Y4.4063
G1 X-16.797 Y3.7465
G1 X-17.425 Y3.2303
G1 X-18.020 Y2.4795
G1 X-18.602 Y1.8752
G1 X-19.045 Y1.1817
G1 X-19.279 Y0.8854
G1 X-18.908 Y0.3174
G1 X-18.499 Y-0.4666
G1 X-17.875 Y-1.2181
G1 X-17.399 Y-1.9227
G1 X-16.716 Y-2.5700
G1 X-16.179 Y-3.1892
G1 X-15.435 Y-3.7437
G1 X-14.837 Y-4.2869
G1 X-14.025 Y-4.7517
G1 X-13.361 Y-5.2230
G1 X-12.475 Y-5.6049
G1 X-11.739 Y-6.0091
G1 X-10.770 Y-6.3056
G1 X-9.952 Y-6.6456
G1 X-9.025 Y-6.8337
G1 X-7.876 Y-7.1867
G1 X-7.572 Y-8.6366
G1 X-7.467 Y-9.5903
G1 X-7.144 Y-10.5857
G1 X-6.950 Y-11.4739
G1 X-6.541 Y-12.3681
G1 X-6.263 Y-13.1780
G1 X-5.772 Y-13.9859
G1 X-5.415 Y-14.7263
G1 X-4.841 Y-15.4563
G1 X-4.406 Y-16.1378
G1 X-3.746 Y-16.7970
G1 X-3.230 Y-17.4258
G1 X-2.479 Y-18.0209
G1 X-1.875 Y-18.6027
G1 X-1.181 Y-19.0462
G1 X-0.885 Y-19.2798
G1 X-0.694 Y-19.1549
ID=1 WHEN $AC_TIMER[1]>=0 DO M51
G1 X-0.004 Y-17.793 F600
ID=1 WHEN $AC_TIMER[1]>=0 DO M50
G1 X0.711 Y-17.1994 F600
G1 X1.373 Y-16.7517
G1 X1.986 Y-16.1055
G1 X2.567 Y-15.6029
G1 X3.090 Y-14.8987
G1 X3.508 Y-14.4388
G1 X0.642 Y-15.2061
G1 X-3.816 Y-10.7481
G1 X-2.629 Y-6.3197
G1 X-7.087 Y-1.8627
G1 X-11.516 Y-3.04853
G1 X-15.974 Y1.41022
G1 X-15.295 Y3.94336
G1 X-15.605 Y3.74517
G1 X-16.229 Y3.12014
G1 X-16.819 Y2.63677
G1 X-17.384 Y1.92364
G1 X-17.936 Y1.35051
G1 X-18.252 Y0.85666
G1 X-17.978 Y0.35953
G1 X-16.676 Y0.70815
G1 X-12.218 Y-3.75084
G1 X-12.469 Y-4.68802
G1 X-12.105 Y-4.84590
G1 X-11.409 Y-5.22867
G1 X-10.484 Y-5.51055
G1 X-9.704 Y-5.83588
G1 X-8.817 Y-6.01443
G1 X-7.153 Y-6.52568
G1 X-6.737 Y-8.50363
G1 X-6.638 Y-9.41281
G1 X-6.329 Y-10.36406
G1 X-6.145 Y-11.20448
G1 X-5.867 Y-11.81239
G1 X-4.518 Y-11.45048
G1 X-0.060 Y-15.90818
G1 X-0.656 Y-18.13388
G1 X-0.004 Y-17.79351
ID=1 WHEN $AC_TIMER[1]>=0 DO M51
G1 X6.525 Y-7.153 F600
ID=1 WHEN $AC_TIMER[1]>=0 DO M50
G1 X6.610 Y-7.1357 F600
G1 X3.203 Y-3.7292
G1 X4.390 Y0.7008
G1 X-0.068 Y5.1588
G1 X-4.497 Y3.9714
G1 X-7.478 Y6.9531
G1 X-8.503 Y6.7378
G1 X-8.651 Y6.7217
G1 X-5.199 Y3.2697
G1 X-6.385 Y-1.1603
G1 X-1.927 Y-5.6183
G1 X2.501 Y-4.4319
G1 X6.219 Y-8.1499
G1 X6.525 Y-7.1534
ID=1 WHEN $AC_TIMER[1]>=0 DO M51
G1 X13.582 Y-5.030 F600
ID=1 WHEN $AC_TIMER[1]>=0 DO M50
G1 X14.277 Y-4.6956 F600
G1 X14.967 Y-4.1538
G1 X15.605 Y-3.7458
G1 X16.229 Y-3.1205
G1 X16.819 Y-2.6368
G1 X17.384 Y-1.9235
G1 X17.936 Y-1.3502
G1 X18.252 Y-0.8566
G1 X17.943 Y-0.2935
G1 X14.681 Y-1.1672
G1 X10.223 Y3.2911
G1 X10.792 Y5.4162
G1 X10.484 Y5.5103
G1 X9.704 Y5.8347
G1 X8.817 Y6.0141
G1 X7.153 Y6.5257
G1 X6.737 Y8.5032
G1 X6.638 Y9.4120
G1 X6.329 Y10.3645
G1 X6.145 Y11.2046
G1 X5.837 Y11.8794
G1 X2.523 Y10.9916
G1 X-1.935 Y15.4495
G1 X-1.670 Y16.4387
G1 X-1.986 Y16.1053
G1 X-2.567 Y15.6027
G1 X-3.090 Y14.8984
G1 X-3.418 Y14.5385
G1 X-2.637 Y14.7479
G1 X1.821 Y10.2899
G1 X0.634 Y5.8605
G1 X5.092 Y1.4024
G1 X9.521 Y2.5890
G1 X13.979 Y-1.8690
G1 X13.044 Y-5.3573
G1 X13.582 Y-5.0303
ID=1 WHEN $AC_TIMER[1]>=0 DO M51
G1 Z2.500 F600
G1 X-0.798 Y-19.038 F600
ID=1 WHEN $AC_TIMER[1]>=0 DO M50
G1 X0.217 Y-18.5097 F600
G1 X0.775 Y-18.0451
G1 X1.688 Y-17.4288
G1 X2.169 Y-16.9211
G1 X2.972 Y-16.2263
G1 X3.382 Y-15.6742
G1 X4.087 Y-14.8980
G1 X4.432 Y-14.2979
G1 X5.045 Y-13.4351
G1 X5.327 Y-12.7783
G1 X5.852 Y-11.8243
G1 X6.072 Y-11.1046
G1 X6.512 Y-10.0467
G1 X6.652 Y-9.3572
G1 X7.076 Y-7.9768
G1 X8.250 Y-7.7293
G1 X9.485 Y-7.5944
G1 X10.224 Y-7.3541
G1 X11.374 Y-7.1020
G1 X12.039 Y-6.7990
G1 X13.088 Y-6.4392
G1 X13.687 Y-6.0744
G1 X14.649 Y-5.6124
G1 X15.189 Y-5.1867
G1 X16.073 Y-4.6229
G1 X16.562 Y-4.1336
G1 X17.377 Y-3.4649
G1 X17.818 Y-2.9062
G1 X18.572 Y-2.1258
G1 X18.901 Y-1.6109
G1 X19.266 Y-1.1469
G1 X19.038 Y-0.7985
G1 X18.508 Y0.2172
G1 X18.045 Y0.7756
G1 X17.428 Y1.6883
G1 X16.921 Y2.1696
G1 X16.226 Y2.9728
G1 X15.674 Y3.3827
G1 X14.898 Y4.0875
G1 X14.296 Y4.4324
G1 X13.435 Y5.0456
G1 X12.778 Y5.3277
G1 X11.824 Y5.8527
G1 X11.104 Y6.0721
G1 X10.046 Y6.5122
G1 X9.357 Y6.6527
G1 X7.976 Y7.0763
G1 X7.729 Y8.2507
G1 X7.594 Y9.4859
G1 X7.354 Y10.2246
G1 X7.102 Y11.3745
G1 X6.799 Y12.0394
G1 X6.439 Y13.0886
G1 X6.074 Y13.6879
G1 X5.612 Y14.6499
G1 X5.186 Y15.1892
G1 X4.622 Y16.0734
G1 X4.133 Y16.5621
G1 X3.464 Y17.3773
G1 X2.906 Y17.8187
G1 X2.125 Y18.5723
G1 X1.610 Y18.9013
G1 X1.146 Y19.2664
G1 X0.798 Y19.0389
G1 X-0.217 Y18.5096
G1 X-0.775 Y18.0451
G1 X-1.688 Y17.4288
G1 X-2.169 Y16.9211
G1 X-2.972 Y16.2263
G1 X-3.382 Y15.6742
G1 X-4.087 Y14.8989
G1 X-4.432 Y14.2969
G1 X-5.045 Y13.4351
G1 X-5.327 Y12.7782
G1 X-5.852 Y11.8242
G1 X-6.072 Y11.1045
G1 X-6.512 Y10.0467
G1 X-6.652 Y9.3572
G1 X-7.076 Y7.9767
G1 X-8.250 Y7.7292
G1 X-9.485 Y7.5944
G1 X-10.224 Y7.3540
G1 X-11.374 Y7.1020
G1 X-12.039 Y6.7999
G1 X-13.088 Y6.4391
G1 X-13.687 Y6.0743
G1 X-14.649 Y5.6124
G1 X-15.189 Y5.1866
G1 X-16.073 Y4.6228
G1 X-16.562 Y4.1335
G1 X-17.377 Y3.4648
G1 X-17.818 Y2.9061
G1 X-18.572 Y2.1258
G1 X-18.901 Y1.6108
G1 X-19.266 Y1.1469
G1 X-19.038 Y0.7984
G1 X-18.508 Y-0.2171
G1 X-18.045 Y-0.7755
G1 X-17.428 Y-1.6883
G1 X-16.921 Y-2.1695
G1 X-16.226 Y-2.9727
G1 X-15.674 Y-3.3826
G1 X-14.898 Y-4.0874
G1 X-14.296 Y-4.4324
G1 X-13.435 Y-5.0455
G1 X-12.778 Y-5.3277
G1 X-11.824 Y-5.8527
G1 X-11.104 Y-6.0720
G1 X-10.046 Y-6.5121
G1 X-9.357 Y-6.6526
G1 X-7.976 Y-7.0762
G1 X-7.729 Y-8.2507
G1 X-7.594 Y-9.4858
G1 X-7.354 Y-10.2245
G1 X-7.102 Y-11.3744
G1 X-6.799 Y-12.0394
G1 X-6.439 Y-13.0886
G1 X-6.074 Y-13.6878
G1 X-5.612 Y-14.6498
G1 X-5.186 Y-15.1891
G1 X-4.622 Y-16.0733
G1 X-4.133 Y-16.5620
G1 X-3.464 Y-17.3773
G1 X-2.906 Y-17.8186
G1 X-2.125 Y-18.5722
G1 X-1.610 Y-18.9013
G1 X-1.173 Y-19.2459
ID=1 WHEN $AC_TIMER[1]>=0 DO M51
G1 X0.268 Y-17.369 F600
ID=1 WHEN $AC_TIMER[1]>=0 DO M50
G1 X1.139 Y-16.7803 F600
G1 X1.585 Y-16.3102
G1 X2.350 Y-15.6486
G1 X2.730 Y-15.1377
G1 X3.319 Y-14.4896
G1 X0.642 Y-15.2065
G1 X0.003 Y-17.5890
G1 X0.268 Y-17.3699
ID=1 WHEN $AC_TIMER[1]>=0 DO M51
G1 X-0.317 Y-14.949 F600
ID=1 WHEN $AC_TIMER[1]>=0 DO M50
G1 X-3.559 Y-11.7076 F600
G1 X-1.927 Y-5.6186
G1 X2.501 Y-4.4312
G1 X4.133 Y1.6591
G1 X0.891 Y4.9017
G1 X2.523 Y10.9917
G1 X5.951 Y11.9099
G1 X5.670 Y12.7287
G1 X5.332 Y13.2847
G1 X4.892 Y14.1999
G1 X4.498 Y14.7004
G1 X3.960 Y15.5411
G1 X3.507 Y15.9943
G1 X2.869 Y16.7711
G1 X2.350 Y17.1820
G1 X1.599 Y17.9065
G1 X1.088 Y18.2382
G1 X0.253 Y17.8029
G1 X-0.268 Y17.3694
G1 X-1.048 Y16.8423
G1 X-1.678 Y14.4904
G1 X1.564 Y11.2480
G1 X-0.068 Y5.1589
G1 X-4.497 Y3.9715
G1 X-6.128 Y-2.1185
G1 X-2.886 Y-5.3611
G1 X-4.518 Y-11.4500
G1 X-5.975 Y-11.8419
G1 X-5.670 Y-12.7288
G1 X-5.332 Y-13.2847
G1 X-4.892 Y-14.1990
G1 X-4.498 Y-14.7004
G1 X-3.960 Y-15.5411
G1 X-3.507 Y-15.9943
G1 X-2.869 Y-16.7711
G1 X-2.350 Y-17.1820
G1 X-1.599 Y-17.9066
G1 X-1.181 Y-18.1741
G1 X-0.317 Y-14.9491
ID=1 WHEN $AC_TIMER[1]>=0 DO M51
G1 X6.415 Y-7.252 F600
ID=1 WHEN $AC_TIMER[1]>=0 DO M50
G1 X8.117 Y-6.8951 F600
G1 X9.307 Y-6.7653
G1 X10.003 Y-6.5391
G1 X11.106 Y-6.2970
G1 X11.726 Y-6.0148
G1 X12.418 Y-5.7775
G1 X13.722 Y-0.9101
G1 X10.480 Y2.3327
G1 X11.235 Y5.1505
G1 X10.819 Y5.2771
G1 X10.299 Y5.4932
G1 X9.521 Y2.5896
G1 X5.092 Y1.4022
G1 X3.460 Y-4.6881
G1 X6.324 Y-7.5516
G1 X6.415 Y-7.2521
ID=1 WHEN $AC_TIMER[1]>=0 DO M51
G1 X14.199 Y-4.892 F600
ID=1 WHEN $AC_TIMER[1]>=0 DO M50
G1 X14.700 Y-4.4985 F600
G1 X15.541 Y-3.9602
G1 X15.994 Y-3.5074
G1 X16.771 Y-2.8692
G1 X17.182 Y-2.3500
G1 X17.906 Y-1.5996
G1 X18.238 Y-1.0883
G1 X17.838 Y-0.3215
G1 X14.681 Y-1.1675
G1 X13.606 Y-5.1774
G1 X14.199 Y-4.8925
ID=1 WHEN $AC_TIMER[1]>=0 DO M51
G1 X-11.516 Y-3.048 F600
ID=1 WHEN $AC_TIMER[1]>=0 DO M50
G1 X-7.087 Y-1.8626 F600
G1 X-5.456 Y4.2286
G1 X-8.122 Y6.8942
G1 X-9.307 Y6.7653
G1 X-10.003 Y6.5391
G1 X-11.106 Y6.2979
G1 X-11.726 Y6.0148
G1 X-12.728 Y5.6707
G1 X-13.284 Y5.3326
G1 X-14.199 Y4.8929
G1 X-14.615 Y4.5651
G1 X-15.717 Y0.4518
G1 X-12.475 Y-2.7914
G1 X-12.895 Y-4.3586
G1 X-12.407 Y-4.5681
G1 X-11.986 Y-4.8003
G1 X-11.516 Y-3.0489
ID=1 WHEN $AC_TIMER[1]>=0 DO M51
G1 X-16.676 Y0.708 F600
ID=1 WHEN $AC_TIMER[1]>=0 DO M50
G1 X-15.901 Y3.6008 F600
G1 X-16.771 Y2.8690
G1 X-17.182 Y2.3508
G1 X-17.906 Y1.5994
G1 X-18.238 Y1.0881
G1 X-17.872 Y0.3872
G1 X-16.676 Y0.7087
ID=1 WHEN $AC_TIMER[1]>=0 DO M51
G1 X-2.637 Y14.747 F600
ID=1 WHEN $AC_TIMER[1]>=0 DO M50
G1 X-2.421 Y15.5530 F600
G1 X-2.730 Y15.1374
G1 X-3.229 Y14.5883
G1 X-2.637 Y14.7472
ID=1 WHEN $AC_TIMER[1]>=0 DO M51
G1 Z3.000 F600
G1 X-0.031 Y-18.518 F600
ID=1 WHEN $AC_TIMER[1]>=0 DO M50
G1 X0.333 Y-18.2153 F600
G1 X1.455 Y-17.4571
G1 X1.768 Y-17.1274
G1 X2.755 Y-16.2726
G1 X3.022 Y-15.9139
G1 X3.888 Y-14.9603
G1 X4.113 Y-14.5684
G1 X4.866 Y-13.5104
G1 X5.050 Y-13.0819
G1 X5.696 Y-11.9096
G1 X5.839 Y-11.4398
G1 X6.380 Y-10.1390
G1 X6.471 Y-9.6899
G1 X6.966 Y-8.0751
G1 X7.864 Y-7.8871
G1 X9.379 Y-7.7217
G1 X9.863 Y-7.5647
G1 X11.276 Y-7.2543
G1 X11.709 Y-7.0560
G1 X12.999 Y-6.6145
G1 X13.389 Y-6.3771
G1 X14.571 Y-5.8087
G1 X14.923 Y-5.5312
G1 X16.009 Y-4.8382
G1 X16.327 Y-4.5194
G1 X17.328 Y-3.6972
G1 X17.616 Y-3.3337
G1 X18.542 Y-2.3741
G1 X18.757 Y-2.0387
G1 X19.243 Y-1.4215
G1 X18.518 Y-0.0310
G1 X18.215 Y0.3334
G1 X17.457 Y1.4552
G1 X17.127 Y1.7685
G1 X16.272 Y2.7557
G1 X15.913 Y3.0229
G1 X14.959 Y3.8883
G1 X14.568 Y4.1134
G1 X13.510 Y4.8665
G1 X13.081 Y5.0509
G1 X11.909 Y5.6966
G1 X11.439 Y5.8399
G1 X10.139 Y6.3801
G1 X9.689 Y6.4719
G1 X8.075 Y6.9661
G1 X7.887 Y7.8642
G1 X7.721 Y9.3797
G1 X7.564 Y9.8637
G1 X7.254 Y11.2764
G1 X7.056 Y11.7090
G1 X6.614 Y12.9995
G1 X6.377 Y13.3891
G1 X5.808 Y14.5718
G1 X5.531 Y14.9233
G1 X4.838 Y16.0092
G1 X4.519 Y16.3274
G1 X3.697 Y17.3282
G1 X3.333 Y17.6167
G1 X2.374 Y18.5422
G1 X2.038 Y18.7578
G1 X1.421 Y19.2436
G1 X0.031 Y18.5181
G1 X-0.333 Y18.2154
G1 X-1.455 Y17.4572
G1 X-1.768 Y17.1275
G1 X-2.755 Y16.2727
G1 X-3.022 Y15.9130
G1 X-3.888 Y14.9594
G1 X-4.113 Y14.5684
G1 X-4.866 Y13.5105
G1 X-5.050 Y13.0819
G1 X-5.696 Y11.9096
G1 X-5.839 Y11.4399
G1 X-6.380 Y10.1391
G1 X-6.471 Y9.6890
G1 X-6.966 Y8.0752
G1 X-7.864 Y7.8872
G1 X-9.379 Y7.7218
G1 X-9.863 Y7.5648
G1 X-11.276 Y7.2544
G1 X-11.709 Y7.0561
G1 X-12.999 Y6.6145
G1 X-13.389 Y6.3771
G1 X-14.571 Y5.8088
G1 X-14.923 Y5.5313
G1 X-16.009 Y4.8383
G1 X-16.327 Y4.5195
G1 X-17.328 Y3.6972
G1 X-17.616 Y3.3338
G1 X-18.542 Y2.3742
G1 X-18.757 Y2.0388
G1 X-19.243 Y1.4216
G1 X-18.518 Y0.0311
G1 X-18.215 Y-0.3335
G1 X-17.457 Y-1.4553
G1 X-17.127 Y-1.7685
G1 X-16.272 Y-2.7557
G1 X-15.913 Y-3.0220
G1 X-14.959 Y-3.8884
G1 X-14.568 Y-4.1135
G1 X-13.510 Y-4.8665
G1 X-13.081 Y-5.0500
G1 X-11.909 Y-5.6967
G1 X-11.439 Y-5.8399
G1 X-10.139 Y-6.3801
G1 X-9.689 Y-6.4710
G1 X-8.075 Y-6.9662
G1 X-7.887 Y-7.8642
G1 X-7.721 Y-9.3798
G1 X-7.564 Y-9.8638
G1 X-7.254 Y-11.2764
G1 X-7.056 Y-11.7091
G1 X-6.614 Y-12.9996
G1 X-6.377 Y-13.3892
G1 X-5.808 Y-14.5718
G1 X-5.531 Y-14.9234
G1 X-4.838 Y-16.0093
G1 X-4.519 Y-16.3275
G1 X-3.697 Y-17.3283
G1 X-3.333 Y-17.6168
G1 X-2.374 Y-18.5422
G1 X-2.038 Y-18.7578
G1 X-1.421 Y-19.2436
G1 X-0.430 Y-18.7262
ID=1 WHEN $AC_TIMER[1]>=0 DO M51
G1 X-0.501 Y-17.811 F600
ID=1 WHEN $AC_TIMER[1]>=0 DO M50
G1 X-0.174 Y-17.5405 F600
G1 X0.906 Y-16.8099
G1 X1.184 Y-16.5168
G1 X2.133 Y-15.6952
G1 X2.370 Y-15.3767
G1 X2.513 Y-15.2191
G1 X-0.060 Y-15.9085
G1 X-0.581 Y-17.8533
G1 X-0.501 Y-17.8118
ID=1 WHEN $AC_TIMER[1]>=0 DO M51
G1 X3.541 Y-13.916 F600
ID=1 WHEN $AC_TIMER[1]>=0 DO M50
G1 X4.126 Y-13.0943 F600
G1 X4.291 Y-12.7104
G1 X4.914 Y-11.5795
G1 X5.044 Y-11.1532
G1 X5.569 Y-9.8917
G1 X5.652 Y-9.4819
G1 X6.263 Y-7.4917
G1 X3.460 Y-4.6880
G1 X-2.629 Y-6.3199
G1 X-3.816 Y-10.7485
G1 X-6.268 Y-11.4053
G1 X-5.946 Y-12.3470
G1 X-3.559 Y-11.7071
G1 X-0.317 Y-14.9497
G1 X3.541 Y-13.9165
ID=1 WHEN $AC_TIMER[1]>=0 DO M51
G1 X3.203 Y-3.729 F600
ID=1 WHEN $AC_TIMER[1]>=0 DO M50
G1 X4.390 Y0.7006 F600
G1 X10.480 Y2.3326
G1 X13.722 Y-0.9102
G1 X17.376 Y0.0693
G1 X16.809 Y0.9060
G1 X16.516 Y1.1849
G1 X15.695 Y2.1333
G1 X15.376 Y2.3708
G1 X14.460 Y3.2028
G1 X14.112 Y3.4015
G1 X13.094 Y4.1262
G1 X12.710 Y4.2914
G1 X11.579 Y4.9145
G1 X11.153 Y5.0442
G1 X10.739 Y5.2160
G1 X10.223 Y3.2919
G1 X4.133 Y1.6599
G1 X0.891 Y4.9015
G1 X-5.199 Y3.2694
G1 X-6.385 Y-1.1600
G1 X-12.475 Y-2.7910
G1 X-15.717 Y0.4516
G1 X-17.419 Y-0.0055
G1 X-16.809 Y-0.9061
G1 X-16.516 Y-1.1849
G1 X-15.695 Y-2.1333
G1 X-15.376 Y-2.3708
G1 X-14.460 Y-3.2028
G1 X-14.112 Y-3.4015
G1 X-13.094 Y-4.1263
G1 X-12.710 Y-4.2914
G1 X-12.408 Y-4.4570
G1 X-12.218 Y-3.7502
G1 X-6.128 Y-2.1181
G1 X-2.886 Y-5.3617
G1 X3.203 Y-3.7297
ID=1 WHEN $AC_TIMER[1]>=0 DO M51
G1 X0.634 Y5.860 F600
ID=1 WHEN $AC_TIMER[1]>=0 DO M50
G1 X1.821 Y10.2896 F600
G1 X6.245 Y11.4747
G1 X5.922 Y12.4154
G1 X1.564 Y11.2489
G1 X-1.678 Y14.4905
G1 X-3.475 Y14.0088
G1 X-4.126 Y13.0949
G1 X-4.291 Y12.7101
G1 X-4.914 Y11.5792
G1 X-5.044 Y11.1539
G1 X-5.569 Y9.8914
G1 X-5.652 Y9.4816
G1 X-6.306 Y7.3524
G1 X-7.731 Y7.0520
G1 X-8.226 Y6.9984
G1 X-5.456 Y4.2282
G1 X0.634 Y5.8602
ID=1 WHEN $AC_TIMER[1]>=0 DO M51
G1 X-1.935 Y15.449 F600
ID=1 WHEN $AC_TIMER[1]>=0 DO M50
G1 X-1.790 Y15.9920 F600
G1 X-2.133 Y15.6951
G1 X-2.423 Y15.3187
G1 X-1.935 Y15.4491
ID=1 WHEN $AC_TIMER[1]>=0 DO M51
G1 X-15.974 Y1.410 F600
ID=1 WHEN $AC_TIMER[1]>=0 DO M50
G1 X-15.182 Y4.3649 F600
G1 X-15.477 Y4.1765
G1 X-15.760 Y3.8932
G1 X-16.723 Y3.1024
G1 X-16.980 Y2.7775
G1 X-17.877 Y1.8489
G1 X-18.068 Y1.5494
G1 X-18.242 Y1.3274
G1 X-18.002 Y0.8665
G1 X-15.974 Y1.4106
ID=1 WHEN $AC_TIMER[1]>=0 DO M51
G1 X12.986 Y-5.635 F600
ID=1 WHEN $AC_TIMER[1]>=0 DO M50
G1 X14.122 Y-5.0889 F600
G1 X14.434 Y-4.8436
G1 X15.477 Y-4.1761
G1 X15.760 Y-3.8938
G1 X16.723 Y-3.1021
G1 X16.980 Y-2.7771
G1 X17.877 Y-1.8485
G1 X18.068 Y-1.5490
G1 X18.242 Y-1.3270
G1 X17.967 Y-0.8013
G1 X13.979 Y-1.8698
G1 X12.967 Y-5.6466
G1 X12.986 Y-5.6354
ID=1 WHEN $AC_TIMER[1]>=0 DO M51
G1 Z3.500 F600
G1 X-0.279 Y-18.527 F600
ID=1 WHEN $AC_TIMER[1]>=0 DO M50
G1 X-0.109 Y-18.3863 F600
G1 X1.221 Y-17.4861
G1 X1.366 Y-17.3334
G1 X2.538 Y-16.3196
G1 X2.662 Y-16.1523
G1 X3.689 Y-15.0213
G1 X3.794 Y-14.8395
G1 X4.687 Y-13.5844
G1 X4.773 Y-13.3841
G1 X5.539 Y-11.9946
G1 X5.606 Y-11.7738
G1 X6.247 Y-10.2330
G1 X6.290 Y-10.0203
G1 X6.857 Y-8.1751
G1 X7.478 Y-8.0447
G1 X9.274 Y-7.8487
G1 X9.502 Y-7.7740
G1 X11.177 Y-7.4063
G1 X11.380 Y-7.3147
G1 X12.910 Y-6.7905
G1 X13.091 Y-6.6794
G1 X14.493 Y-6.0057
G1 X14.656 Y-5.8775
G1 X15.945 Y-5.0532
G1 X16.092 Y-4.9069
G1 X17.280 Y-3.9302
G1 X17.414 Y-3.7619
G1 X18.512 Y-2.6231
G1 X18.612 Y-2.4673
G1 X19.247 Y-1.6602
G1 X18.527 Y-0.2795
G1 X18.386 Y-0.1098
G1 X17.486 Y1.2217
G1 X17.333 Y1.3660
G1 X16.319 Y2.5382
G1 X16.152 Y2.6628
G1 X15.021 Y3.6898
G1 X14.839 Y3.7940
G1 X13.584 Y4.6870
G1 X13.384 Y4.7737
G1 X11.994 Y5.5391
G1 X11.773 Y5.6063
G1 X10.233 Y6.2476
G1 X10.020 Y6.2908
G1 X8.175 Y6.8577
G1 X8.044 Y7.4783
G1 X7.848 Y9.2743
G1 X7.774 Y9.5026
G1 X7.406 Y11.1779
G1 X7.314 Y11.3803
G1 X6.790 Y12.9100
G1 X6.679 Y13.0910
G1 X6.005 Y14.4933
G1 X5.877 Y14.6560
G1 X5.053 Y15.9458
G1 X4.906 Y16.0925
G1 X3.930 Y17.2807
G1 X3.761 Y17.4144
G1 X2.623 Y18.5127
G1 X2.467 Y18.6128
G1 X1.660 Y19.2478
G1 X0.279 Y18.5271
G1 X0.109 Y18.3864
G1 X-1.221 Y17.4862
G1 X-1.366 Y17.3335
G1 X-2.538 Y16.3197
G1 X-2.662 Y16.1524
G1 X-3.689 Y15.0214
G1 X-3.794 Y14.8396
G1 X-4.687 Y13.5845
G1 X-4.773 Y13.3842
G1 X-5.539 Y11.9947
G1 X-5.606 Y11.7739
G1 X-6.247 Y10.2331
G1 X-6.290 Y10.0204
G1 X-6.857 Y8.1752
G1 X-7.478 Y8.0448
G1 X-9.274 Y7.8488
G1 X-9.502 Y7.7741
G1 X-11.177 Y7.4064
G1 X-11.380 Y7.3148
G1 X-12.910 Y6.7906
G1 X-13.091 Y6.6795
G1 X-14.493 Y6.0058
G1 X-14.656 Y5.8776
G1 X-15.945 Y5.0533
G1 X-16.092 Y4.9060
G1 X-17.280 Y3.9303
G1 X-17.414 Y3.7610
G1 X-18.512 Y2.6232
G1 X-18.612 Y2.4674
G1 X-19.247 Y1.6603
G1 X-18.527 Y0.2796
G1 X-18.386 Y0.1099
G1 X-17.486 Y-1.2218
G1 X-17.333 Y-1.3661
G1 X-16.319 Y-2.5383
G1 X-16.152 Y-2.6629
G1 X-15.021 Y-3.6899
G1 X-14.839 Y-3.7941
G1 X-13.584 Y-4.6871
G1 X-13.384 Y-4.7738
G1 X-11.994 Y-5.5392
G1 X-11.773 Y-5.6064
G1 X-10.233 Y-6.2477
G1 X-10.020 Y-6.2909
G1 X-8.175 Y-6.8577
G1 X-8.044 Y-7.4784
G1 X-7.848 Y-9.2744
G1 X-7.774 Y-9.5027
G1 X-7.406 Y-11.1770
G1 X-7.314 Y-11.3804
G1 X-6.790 Y-12.9101
G1 X-6.679 Y-13.0911
G1 X-6.005 Y-14.4934
G1 X-5.877 Y-14.6561
G1 X-5.053 Y-15.9458
G1 X-4.906 Y-16.0925
G1 X-3.930 Y-17.2808
G1 X-3.761 Y-17.4145
G1 X-2.623 Y-18.5128
G1 X-2.467 Y-18.6129
G1 X-1.660 Y-19.2479
G1 X-0.678 Y-18.7352
ID=1 WHEN $AC_TIMER[1]>=0 DO M51
G1 X0.672 Y-16.839 F600
ID=1 WHEN $AC_TIMER[1]>=0 DO M50
G1 X0.783 Y-16.7229 F600
G1 X1.916 Y-15.7413
G1 X2.009 Y-15.6151
G1 X2.940 Y-14.5905
G1 X0.642 Y-15.2064
G1 X-3.816 Y-10.7484
G1 X-2.629 Y-6.3190
G1 X-7.087 Y-1.8629
G1 X-11.516 Y-3.0485
G1 X-15.974 Y1.4105
G1 X-15.126 Y4.5757
G1 X-15.413 Y4.3929
G1 X-15.525 Y4.2801
G1 X-16.675 Y3.3369
G1 X-16.778 Y3.2051
G1 X-17.847 Y2.0983
G1 X-18.247 Y1.5672
G1 X-17.820 Y0.7495
G1 X-17.604 Y0.4598
G1 X-16.676 Y0.7083
G1 X-12.218 Y-3.7502
G1 X-12.382 Y-4.3626
G1 X-11.664 Y-4.7575
G1 X-11.487 Y-4.8111
G1 X-9.985 Y-5.4367
G1 X-9.812 Y-5.4713
G1 X-7.451 Y-6.1967
G1 X-7.210 Y-7.3459
G1 X-7.018 Y-9.0960
G1 X-6.958 Y-9.2814
G1 X-6.601 Y-10.9096
G1 X-6.529 Y-11.0670
G1 X-6.240 Y-11.9127
G1 X-4.518 Y-11.4504
G1 X-0.060 Y-15.9084
G1 X-0.527 Y-17.6492
G1 X0.672 Y-16.8395
ID=1 WHEN $AC_TIMER[1]>=0 DO M51
G1 X6.196 Y-7.451 F600
ID=1 WHEN $AC_TIMER[1]>=0 DO M50
G1 X6.799 Y-7.3246 F600
G1 X3.203 Y-3.7291
G1 X4.390 Y0.7007
G1 X-0.068 Y5.1587
G1 X-4.497 Y3.9713
G1 X-7.697 Y7.1712
G1 X-8.962 Y7.0331
G1 X-5.199 Y3.2697
G1 X-6.385 Y-1.1603
G1 X-1.927 Y-5.6183
G1 X2.501 Y-4.4319
G1 X6.038 Y-7.9675
G1 X6.196 Y-7.4515
ID=1 WHEN $AC_TIMER[1]>=0 DO M51
G1 X14.044 Y-5.285 F600
ID=1 WHEN $AC_TIMER[1]>=0 DO M50
G1 X14.167 Y-5.1880 F600
G1 X15.413 Y-4.3922
G1 X15.525 Y-4.2804
G1 X16.675 Y-3.3362
G1 X16.778 Y-3.2054
G1 X17.847 Y-2.0986
G1 X18.247 Y-1.5675
G1 X17.820 Y-0.7498
G1 X17.561 Y-0.3969
G1 X14.681 Y-1.1676
G1 X10.223 Y3.2915
G1 X10.716 Y5.1320
G1 X9.985 Y5.4363
G1 X9.812 Y5.4719
G1 X7.451 Y6.1963
G1 X7.210 Y7.3455
G1 X7.018 Y9.0966
G1 X6.958 Y9.2811
G1 X6.601 Y10.9093
G1 X6.529 Y11.0677
G1 X6.216 Y11.9803
G1 X2.523 Y10.9914
G1 X-1.935 Y15.4494
G1 X-1.839 Y15.8085
G1 X-2.850 Y14.6903
G1 X-2.637 Y14.7473
G1 X1.821 Y10.2893
G1 X0.634 Y5.8609
G1 X5.092 Y1.4028
G1 X9.521 Y2.5894
G1 X13.979 Y-1.8694
G1 X12.919 Y-5.8268
G1 X14.044 Y-5.2857
ID=1 WHEN $AC_TIMER[1]>=0 DO M51
G1 Z4.000 F600
G1 X-0.504 Y-18.524 F600
ID=1 WHEN $AC_TIMER[1]>=0 DO M50
G1 X1.010 Y-17.5004 F600
G1 X2.342 Y-16.3471
G1 X3.509 Y-15.0620
G1 X4.524 Y-13.6364
G1 X5.395 Y-12.0557
G1 X6.124 Y-10.3014
G1 X6.758 Y-8.2380
G1 X9.196 Y-7.9720
G1 X11.106 Y-7.5539
G1 X12.847 Y-6.9562
G1 X14.440 Y-6.1908
G1 X15.904 Y-5.2545
G1 X17.253 Y-4.1467
G1 X18.501 Y-2.8539
G1 X19.252 Y-1.8999
G1 X18.524 Y-0.5040
G1 X17.500 Y1.0104
G1 X16.347 Y2.3421
G1 X15.062 Y3.5090
G1 X13.636 Y4.5244
G1 X12.055 Y5.3958
G1 X10.301 Y6.1244
G1 X8.238 Y6.7580
G1 X7.972 Y9.1961
G1 X7.553 Y11.1069
G1 X6.956 Y12.8473
G1 X6.190 Y14.4408
G1 X5.254 Y15.9045
G1 X4.146 Y17.2537
G1 X2.853 Y18.5019
G1 X1.899 Y19.2529
G1 X0.504 Y18.5240
G1 X-1.010 Y17.5004
G1 X-2.342 Y16.3471
G1 X-3.509 Y15.0621
G1 X-4.524 Y13.6364
G1 X-5.395 Y12.0558
G1 X-6.124 Y10.3015
G1 X-6.758 Y8.2380
G1 X-9.196 Y7.9721
G1 X-11.106 Y7.5539
G1 X-12.847 Y6.9563
G1 X-14.440 Y6.1908
G1 X-15.904 Y5.2545
G1 X-17.253 Y4.1467
G1 X-18.501 Y2.8539
G1 X-19.252 Y1.8999
G1 X-18.524 Y0.5041
G1 X-17.500 Y-1.0104
G1 X-16.347 Y-2.3422
G1 X-15.062 Y-3.5091
G1 X-13.636 Y-4.5244
G1 X-12.055 Y-5.3958
G1 X-10.301 Y-6.1245
G1 X-8.238 Y-6.7581
G1 X-7.972 Y-9.1961
G1 X-7.553 Y-11.1069
G1 X-6.956 Y-12.8473
G1 X-6.190 Y-14.4408
G1 X-5.254 Y-15.9045
G1 X-4.146 Y-17.2538
G1 X-2.853 Y-18.5019
G1 X-1.899 Y-19.2510
G1 X-0.903 Y-18.7329
ID=1 WHEN $AC_TIMER[1]>=0 DO M51
G1 X-1.104 Y-17.885 F600
ID=1 WHEN $AC_TIMER[1]>=0 DO M50
G1 X-1.806 Y-18.2510 F600
G1 X-2.298 Y-17.8644
G1 X-3.525 Y-16.6802
G1 X-4.570 Y-15.4078
G1 X-5.451 Y-14.0286
G1 X-6.174 Y-12.5264
G1 X-6.373 Y-11.9479
G1 X-4.518 Y-11.4501
G1 X-2.886 Y-5.3610
G1 X-6.128 Y-2.1186
G1 X-4.497 Y3.97106
G1 X-0.068 Y5.15802
G1 X1.564 Y11.24871
G1 X-1.678 Y14.49067
G1 X-1.219 Y16.20321
G1 X-0.496 Y16.82939
G1 X0.937 Y17.79883
G1 X1.806 Y18.25168
G1 X2.297 Y17.86559
G1 X3.525 Y16.68039
G1 X4.570 Y15.40705
G1 X5.451 Y14.02893
G1 X6.174 Y12.52601
G1 X6.349 Y12.01686
G1 X2.523 Y10.99101
G1 X0.891 Y4.90171
G1 X4.133 Y1.65967
G1 X2.501 Y-4.43137
G1 X-1.927 Y-5.61833
G1 X-3.559 Y-11.70702
G1 X-0.317 Y-14.94998
G1 X-1.104 Y-17.88540
ID=1 WHEN $AC_TIMER[1]>=0 DO M51
G1 X0.496 Y-16.829 F600
ID=1 WHEN $AC_TIMER[1]>=0 DO M50
G1 X0.143 Y-17.06829 F600
G1 X0.642 Y-15.20660
G1 X2.751 Y-14.64195
G1 X1.751 Y-15.74241
G1 X0.496 Y-16.82900
ID=1 WHEN $AC_TIMER[1]>=0 DO M51
G1 X9.059 Y-7.138 F600
ID=1 WHEN $AC_TIMER[1]>=0 DO M50
G1 X6.221 Y-7.4482 F600
G1 X3.460 Y-4.6882
G1 X5.092 Y1.4022
G1 X9.521 Y2.5898
G1 X10.231 Y5.2400
G1 X11.156 Y4.8552
G1 X10.480 Y2.3326
G1 X13.722 Y-0.9102
G1 X12.290 Y-6.2556
G1 X10.878 Y-6.7398
G1 X9.059 Y-7.1380
ID=1 WHEN $AC_TIMER[1]>=0 DO M51
G1 X14.028 Y-5.451 F600
ID=1 WHEN $AC_TIMER[1]>=0 DO M50
G1 X13.460 Y-5.7252 F600
G1 X14.681 Y-1.1673
G1 X17.452 Y-0.4257
G1 X17.798 Y-0.9375
G1 X18.251 Y-1.8060
G1 X17.865 Y-2.2972
G1 X16.680 Y-3.5251
G1 X15.407 Y-4.5707
G1 X14.028 Y-5.4515
ID=1 WHEN $AC_TIMER[1]>=0 DO M51
G1 X-11.516 Y-3.048 F600
ID=1 WHEN $AC_TIMER[1]>=0 DO M50
G1 X-11.908 Y-4.5123 F600
G1 X-12.804 Y-4.0193
G1 X-12.475 Y-2.7917
G1 X-15.717 Y0.4513
G1 X-14.449 Y5.1828
G1 X-14.028 Y5.4517
G1 X-12.526 Y6.1745
G1 X-10.878 Y6.7399
G1 X-9.059 Y7.1381
G1 X-8.434 Y7.2061
G1 X-5.456 Y4.2283
G1 X-7.087 Y-1.8623
G1 X-11.516 Y-3.0489
ID=1 WHEN $AC_TIMER[1]>=0 DO M51
G1 X-16.676 Y0.708 F600
ID=1 WHEN $AC_TIMER[1]>=0 DO M50
G1 X-17.495 Y0.4882 F600
G1 X-17.798 Y0.9372
G1 X-18.251 Y1.8066
G1 X-17.865 Y2.2978
G1 X-16.680 Y3.5258
G1 X-15.707 Y4.3247
G1 X-16.676 Y0.7085
ID=1 WHEN $AC_TIMER[1]>=0 DO M51
G1 X-2.637 Y14.747 F600
ID=1 WHEN $AC_TIMER[1]>=0 DO M50
G1 X-2.661 Y14.7405 F600
G1 X-2.630 Y14.7757
G1 X-2.637 Y14.7474
ID=1 WHEN $AC_TIMER[1]>=0 DO M51
G1 Z4.500 F600
G1 X-0.942 Y-18.579 F600
ID=1 WHEN $AC_TIMER[1]>=0 DO M50
G1 X-0.729 Y-18.4941 F600
G1 X0.603 Y-17.5925
G1 X0.795 Y-17.4883
G1 X1.968 Y-16.4733
G1 X2.139 Y-16.3527
G1 X3.167 Y-15.2201
G1 X3.321 Y-15.0824
G1 X4.214 Y-13.8262
G1 X4.352 Y-13.6685
G1 X5.117 Y-12.2794
G1 X5.241 Y-12.0997
G1 X5.881 Y-10.5610
G1 X5.991 Y-10.3551
G1 X6.447 Y-8.8701
G1 X6.676 Y-8.3222
G1 X8.853 Y-8.0845
G1 X9.105 Y-8.0828
G1 X10.783 Y-7.7142
G1 X11.018 Y-7.6864
G1 X12.550 Y-7.1616
G1 X12.765 Y-7.1106
G1 X14.168 Y-6.4358
G1 X14.366 Y-6.3638
G1 X15.655 Y-5.5390
G1 X15.840 Y-5.4463
G1 X17.028 Y-4.4705
G1 X17.201 Y-4.3543
G1 X18.297 Y-3.2193
G1 X18.464 Y-3.0772
G1 X19.203 Y-2.1380
G1 X18.579 Y-0.9429
G1 X18.494 Y-0.7290
G1 X17.592 Y0.6034
G1 X17.488 Y0.7952
G1 X16.473 Y1.9682
G1 X16.352 Y2.1396
G1 X15.220 Y3.1670
G1 X15.081 Y3.3213
G1 X13.826 Y4.2141
G1 X13.668 Y4.3524
G1 X12.279 Y5.1174
G1 X12.099 Y5.2416
G1 X10.561 Y5.8810
G1 X10.355 Y5.9910
G1 X8.870 Y6.4470
G1 X8.322 Y6.6761
G1 X8.084 Y8.8534
G1 X8.082 Y9.1057
G1 X7.714 Y10.7831
G1 X7.686 Y11.0183
G1 X7.161 Y12.5505
G1 X7.110 Y12.7655
G1 X6.435 Y14.1687
G1 X6.363 Y14.3668
G1 X5.539 Y15.6559
G1 X5.446 Y15.8402
G1 X4.470 Y17.0284
G1 X4.354 Y17.2012
G1 X3.219 Y18.2972
G1 X3.077 Y18.4642
G1 X2.138 Y19.2030
G1 X0.942 Y18.5798
G1 X0.729 Y18.4949
G1 X-0.603 Y17.5924
G1 X-0.795 Y17.4881
G1 X-1.968 Y16.4731
G1 X-2.139 Y16.3526
G1 X-3.167 Y15.2209
G1 X-3.321 Y15.0822
G1 X-4.214 Y13.8261
G1 X-4.352 Y13.6684
G1 X-5.117 Y12.2793
G1 X-5.241 Y12.0995
G1 X-5.881 Y10.5619
G1 X-5.991 Y10.3550
G1 X-6.447 Y8.8709
G1 X-6.676 Y8.3220
G1 X-8.853 Y8.0843
G1 X-9.105 Y8.0827
G1 X-10.783 Y7.7141
G1 X-11.018 Y7.6863
G1 X-12.550 Y7.1614
G1 X-12.765 Y7.1104
G1 X-14.168 Y6.4356
G1 X-14.366 Y6.3637
G1 X-15.655 Y5.5398
G1 X-15.840 Y5.4461
G1 X-17.028 Y4.4703
G1 X-17.201 Y4.3541
G1 X-18.297 Y3.2191
G1 X-18.464 Y3.0771
G1 X-19.203 Y2.1389
G1 X-18.579 Y0.9428
G1 X-18.494 Y0.7299
G1 X-17.592 Y-0.6033
G1 X-17.488 Y-0.7950
G1 X-16.473 Y-1.9681
G1 X-16.352 Y-2.1395
G1 X-15.220 Y-3.1678
G1 X-15.081 Y-3.3212
G1 X-13.826 Y-4.2140
G1 X-13.668 Y-4.3523
G1 X-12.279 Y-5.1172
G1 X-12.099 Y-5.2414
G1 X-10.561 Y-5.8818
G1 X-10.355 Y-5.9919
G1 X-8.870 Y-6.4478
G1 X-8.322 Y-6.6760
G1 X-8.084 Y-8.8532
G1 X-8.082 Y-9.1056
G1 X-7.714 Y-10.7830
G1 X-7.686 Y-11.0182
G1 X-7.161 Y-12.5503
G1 X-7.110 Y-12.7653
G1 X-6.435 Y-14.1685
G1 X-6.363 Y-14.3666
G1 X-5.539 Y-15.6557
G1 X-5.446 Y-15.8401
G1 X-4.470 Y-17.0283
G1 X-4.354 Y-17.2010
G1 X-3.219 Y-18.2970
G1 X-3.077 Y-18.4640
G1 X-2.138 Y-19.2038
G1 X-1.341 Y-18.7877
ID=1 WHEN $AC_TIMER[1]>=0 DO M51
G1 X0.164 Y-16.870 F600
ID=1 WHEN $AC_TIMER[1]>=0 DO M50
G1 X0.313 Y-16.7903 F600
G1 X1.447 Y-15.8080
G1 X1.577 Y-15.7166
G1 X1.873 Y-15.3908
G1 X-0.060 Y-15.9081
G1 X-0.425 Y-17.2691
G1 X0.164 Y-16.8705
ID=1 WHEN $AC_TIMER[1]>=0 DO M51
G1 X3.014 Y-14.057 F600
ID=1 WHEN $AC_TIMER[1]>=0 DO M50
G1 X3.551 Y-13.3034 F600
G1 X3.656 Y-13.1824
G1 X4.398 Y-11.8350
G1 X4.496 Y-11.6946
G1 X5.117 Y-10.1994
G1 X5.209 Y-10.0298
G1 X5.653 Y-8.5830
G1 X6.090 Y-7.5378
G1 X6.288 Y-7.5160
G1 X3.460 Y-4.6884
G1 X-2.629 Y-6.3193
G1 X-3.816 Y-10.7480
G1 X-6.628 Y-11.5024
G1 X-6.319 Y-12.4475
G1 X-3.559 Y-11.7075
G1 X-0.317 Y-14.9491
G1 X3.014 Y-14.0579
ID=1 WHEN $AC_TIMER[1]>=0 DO M51
G1 X3.203 Y-3.729 F600
ID=1 WHEN $AC_TIMER[1]>=0 DO M50
G1 X4.390 Y0.7006 F600
G1 X10.480 Y2.3326
G1 X13.722 Y-0.9102
G1 X17.003 Y-0.0312
G1 X16.790 Y0.3132
G1 X15.808 Y1.4478
G1 X15.716 Y1.5774
G1 X14.622 Y2.5700
G1 X14.517 Y2.6869
G1 X13.303 Y3.5514
G1 X13.182 Y3.6564
G1 X11.835 Y4.3980
G1 X11.694 Y4.4966
G1 X10.661 Y4.9251
G1 X10.223 Y3.2915
G1 X4.133 Y1.6595
G1 X0.891 Y4.9011
G1 X-5.199 Y3.2690
G1 X-6.385 Y-1.1606
G1 X-12.475 Y-2.7916
G1 X-15.717 Y0.4512
G1 X-17.046 Y0.0950
G1 X-16.790 Y-0.3138
G1 X-15.808 Y-1.4474
G1 X-15.716 Y-1.5770
G1 X-14.622 Y-2.5706
G1 X-14.517 Y-2.6865
G1 X-13.303 Y-3.5510
G1 X-13.182 Y-3.6560
G1 X-12.320 Y-4.1319
G1 X-12.218 Y-3.7509
G1 X-6.128 Y-2.1188
G1 X-2.886 Y-5.3614
G1 X3.203 Y-3.7294
ID=1 WHEN $AC_TIMER[1]>=0 DO M51
G1 X10.643 Y-6.881 F600
ID=1 WHEN $AC_TIMER[1]>=0 DO M50
G1 X10.830 Y-6.8591 F600
G1 X11.294 Y-6.7007
G1 X10.506 Y-6.9119
G1 X10.643 Y-6.8817
ID=1 WHEN $AC_TIMER[1]>=0 DO M51
G1 X13.840 Y-5.657 F600
ID=1 WHEN $AC_TIMER[1]>=0 DO M50
G1 X13.990 Y-5.6023 F600
G1 X15.236 Y-4.8066
G1 X15.375 Y-4.7355
G1 X16.524 Y-3.7921
G1 X16.657 Y-3.7034
G1 X17.719 Y-2.6039
G1 X17.853 Y-2.4899
G1 X18.202 Y-2.0456
G1 X17.812 Y-1.2967
G1 X17.744 Y-1.1288
G1 X17.591 Y-0.9017
G1 X13.979 Y-1.8697
G1 X12.834 Y-6.1418
G1 X13.840 Y-5.6572
ID=1 WHEN $AC_TIMER[1]>=0 DO M51
G1 X0.634 Y5.860 F600
ID=1 WHEN $AC_TIMER[1]>=0 DO M50
G1 X1.821 Y10.2896 F600
G1 X6.605 Y11.5714
G1 X6.294 Y12.5156
G1 X1.564 Y11.2484
G1 X-1.678 Y14.4900
G1 X-2.948 Y14.1493
G1 X-3.551 Y13.3036
G1 X-3.656 Y13.1826
G1 X-4.398 Y11.8352
G1 X-4.496 Y11.6949
G1 X-5.117 Y10.1996
G1 X-5.209 Y10.0290
G1 X-5.653 Y8.5833
G1 X-6.090 Y7.5370
G1 X-8.501 Y7.2744
G1 X-5.456 Y4.2280
G1 X0.634 Y5.8600
ID=1 WHEN $AC_TIMER[1]>=0 DO M51
G1 X-15.974 Y1.410 F600
ID=1 WHEN $AC_TIMER[1]>=0 DO M50
G1 X-15.029 Y4.9383 F600
G1 X-15.375 Y4.7356
G1 X-16.524 Y3.7923
G1 X-16.657 Y3.7036
G1 X-17.719 Y2.6031
G1 X-17.853 Y2.4890
G1 X-18.202 Y2.0457
G1 X-17.812 Y1.2968
G1 X-17.744 Y1.1289
G1 X-17.634 Y0.9650
G1 X-15.974 Y1.4108
ID=1 WHEN $AC_TIMER[1]>=0 DO M51
G1 Z5.000 F600
G1 X-1.433 Y-18.662 F600
ID=1 WHEN $AC_TIMER[1]>=0 DO M50
G1 X-0.978 Y-18.4787 F600
G1 X0.146 Y-17.7190
G1 X0.560 Y-17.4949
G1 X1.548 Y-16.6398
G1 X1.919 Y-16.3773
G1 X2.785 Y-15.4230
G1 X3.117 Y-15.1230
G1 X3.870 Y-14.0659
G1 X4.167 Y-13.7251
G1 X4.812 Y-12.5533
G1 X5.076 Y-12.1683
G1 X5.616 Y-10.8715
G1 X5.850 Y-10.4368
G1 X6.234 Y-9.1830
G1 X6.557 Y-8.4108
G1 X8.453 Y-8.2036
G1 X8.988 Y-8.1984
G1 X10.403 Y-7.8870
G1 X10.906 Y-7.8280
G1 X12.197 Y-7.3858
G1 X12.659 Y-7.2762
G1 X13.842 Y-6.7077
G1 X14.270 Y-6.5515
G1 X15.356 Y-5.8577
G1 X15.755 Y-5.6549
G1 X16.756 Y-4.8325
G1 X17.130 Y-4.5829
G1 X18.054 Y-3.6240
G1 X18.410 Y-3.3229
G1 X19.154 Y-2.3766
G1 X18.662 Y-1.4337
G1 X18.478 Y-0.9785
G1 X17.719 Y0.1467
G1 X17.494 Y0.5606
G1 X16.639 Y1.5486
G1 X16.377 Y1.9191
G1 X15.423 Y2.7857
G1 X15.123 Y3.1178
G1 X14.065 Y3.8706
G1 X13.724 Y4.1679
G1 X12.553 Y4.8120
G1 X12.168 Y5.0760
G1 X10.871 Y5.6162
G1 X10.436 Y5.8505
G1 X9.183 Y6.2347
G1 X8.410 Y6.5576
G1 X8.203 Y8.4533
G1 X8.198 Y8.9882
G1 X7.887 Y10.4038
G1 X7.828 Y10.9068
G1 X7.385 Y12.1976
G1 X7.276 Y12.6599
G1 X6.707 Y13.8424
G1 X6.551 Y14.2702
G1 X5.857 Y15.3565
G1 X5.654 Y15.7557
G1 X4.832 Y16.7563
G1 X4.582 Y17.1306
G1 X3.624 Y18.0547
G1 X3.322 Y18.4106
G1 X2.376 Y19.1543
G1 X1.433 Y18.6625
G1 X0.978 Y18.4782
G1 X-0.146 Y17.7194
G1 X-0.560 Y17.4943
G1 X-1.548 Y16.6393
G1 X-1.919 Y16.3778
G1 X-2.785 Y15.4234
G1 X-3.117 Y15.1235
G1 X-3.870 Y14.0653
G1 X-4.167 Y13.7256
G1 X-4.812 Y12.5537
G1 X-5.076 Y12.1687
G1 X-5.616 Y10.8719
G1 X-5.850 Y10.4362
G1 X-6.234 Y9.1834
G1 X-6.557 Y8.4103
G1 X-8.453 Y8.2030
G1 X-8.988 Y8.1989
G1 X-10.403 Y7.8875
G1 X-10.906 Y7.8285
G1 X-12.197 Y7.3853
G1 X-12.659 Y7.2766
G1 X-13.842 Y6.7071
G1 X-14.270 Y6.5519
G1 X-15.356 Y5.8572
G1 X-15.755 Y5.6544
G1 X-16.756 Y4.8320
G1 X-17.130 Y4.5823
G1 X-18.054 Y3.6244
G1 X-18.410 Y3.3223
G1 X-19.154 Y2.3760
G1 X-18.662 Y1.4332
G1 X-18.478 Y0.9789
G1 X-17.719 Y-0.1462
G1 X-17.494 Y-0.5601
G1 X-16.639 Y-1.5480
G1 X-16.377 Y-1.9195
G1 X-15.423 Y-2.7852
G1 X-15.123 Y-3.1172
G1 X-14.065 Y-3.8700
G1 X-13.724 Y-4.1673
G1 X-12.553 Y-4.8124
G1 X-12.168 Y-5.0765
G1 X-10.871 Y-5.6167
G1 X-10.436 Y-5.8509
G1 X-9.183 Y-6.2341
G1 X-8.410 Y-6.5570
G1 X-8.203 Y-8.4537
G1 X-8.198 Y-8.9886
G1 X-7.887 Y-10.4032
G1 X-7.828 Y-10.9062
G1 X-7.385 Y-12.1970
G1 X-7.276 Y-12.6594
G1 X-6.707 Y-13.8429
G1 X-6.551 Y-14.2706
G1 X-5.857 Y-15.3569
G1 X-5.654 Y-15.7551
G1 X-4.832 Y-16.7567
G1 X-4.582 Y-17.1301
G1 X-3.624 Y-18.0541
G1 X-3.322 Y-18.4100
G1 X-2.376 Y-19.1547
G1 X-1.832 Y-18.8709
ID=1 WHEN $AC_TIMER[1]>=0 DO M51
G1 X-0.293 Y-16.997 F600
ID=1 WHEN $AC_TIMER[1]>=0 DO M50
G1 X0.077 Y-16.7965 F600
G1 X1.028 Y-15.9740
G1 X1.356 Y-15.7417
G1 X2.240 Y-14.7788
G1 X0.642 Y-15.2069
G1 X-3.816 Y-10.7488
G1 X-2.629 Y-6.3194
G1 X-7.087 Y-1.8624
G1 X-11.516 Y-3.0480
G1 X-15.974 Y1.4100
G1 X-14.986 Y5.0996
G1 X-15.290 Y4.9446
G1 X-16.252 Y4.1547
G1 X-16.586 Y3.9306
G1 X-17.476 Y3.0092
G1 X-17.799 Y2.7341
G1 X-18.153 Y2.2837
G1 X-17.894 Y1.7860
G1 X-17.729 Y1.3768
G1 X-17.185 Y0.5718
G1 X-16.676 Y0.7088
G1 X-12.218 Y-3.7508
G1 X-12.284 Y-3.9971
G1 X-12.110 Y-4.0930
G1 X-11.763 Y-4.3314
G1 X-10.509 Y-4.8530
G1 X-10.109 Y-5.0676
G1 X-8.895 Y-5.4401
G1 X-7.626 Y-5.9716
G1 X-7.360 Y-8.4029
G1 X-7.355 Y-8.8929
G1 X-7.054 Y-10.2636
G1 X-7.000 Y-10.7176
G1 X-6.565 Y-11.9990
G1 X-4.518 Y-11.4502
G1 X-0.060 Y-15.9082
G1 X-0.365 Y-17.0458
G1 X-0.293 Y-16.9979
ID=1 WHEN $AC_TIMER[1]>=0 DO M51
G1 X5.971 Y-7.626 F600
ID=1 WHEN $AC_TIMER[1]>=0 DO M50
G1 X6.989 Y-7.5141 F600
G1 X3.203 Y-3.7293
G1 X4.390 Y0.7009
G1 X-0.068 Y5.1589
G1 X-4.497 Y3.9715
G1 X-7.936 Y7.4113
G1 X-8.402 Y7.3603
G1 X-8.892 Y7.3553
G1 X-9.214 Y7.2845
G1 X-5.199 Y3.2695
G1 X-6.385 Y-1.1601
G1 X-1.927 Y-5.6181
G1 X2.501 Y-4.4317
G1 X5.890 Y-7.8197
G1 X5.971 Y-7.6261
ID=1 WHEN $AC_TIMER[1]>=0 DO M51
G1 X13.513 Y-5.929 F600
ID=1 WHEN $AC_TIMER[1]>=0 DO M50
G1 X13.893 Y-5.7900 F600
G1 X14.937 Y-5.1235
G1 X15.290 Y-4.9442
G1 X16.252 Y-4.1543
G1 X16.586 Y-3.9302
G1 X17.476 Y-3.0098
G1 X17.799 Y-2.7346
G1 X18.153 Y-2.2832
G1 X17.894 Y-1.7866
G1 X17.729 Y-1.3763
G1 X17.142 Y-0.5082
G1 X14.681 Y-1.1674
G1 X10.223 Y3.2914
G1 X10.628 Y4.8030
G1 X10.109 Y5.0679
G1 X8.895 Y5.4404
G1 X7.626 Y5.9719
G1 X7.360 Y8.4022
G1 X7.355 Y8.8922
G1 X7.054 Y10.2639
G1 X7.000 Y10.7179
G1 X6.548 Y12.0690
G1 X2.523 Y10.9916
G1 X-1.771 Y15.2846
G1 X-2.188 Y14.8253
G1 X-2.465 Y14.5755
G1 X1.821 Y10.2896
G1 X0.634 Y5.8602
G1 X5.092 Y1.4022
G1 X9.521 Y2.5898
G1 X13.979 Y-1.8697
G1 X12.799 Y-6.2737
G1 X13.513 Y-5.9293
ID=1 WHEN $AC_TIMER[1]>=0 DO M51
G1 Z5.500 F600
G1 X-1.924 Y-18.744 F600
ID=1 WHEN $AC_TIMER[1]>=0 DO M50
G1 X-1.226 Y-18.4633 F600
G1 X-0.311 Y-17.8454
G1 X0.325 Y-17.5005
G1 X1.129 Y-16.8043
G1 X1.698 Y-16.4020
G1 X2.403 Y-15.6269
G1 X2.913 Y-15.1656
G1 X3.525 Y-14.3045
G1 X3.981 Y-13.7818
G1 X4.507 Y-12.8271
G1 X4.912 Y-12.2379
G1 X5.351 Y-11.1819
G1 X5.708 Y-10.5164
G1 X6.022 Y-9.4959
G1 X6.438 Y-8.4995
G1 X8.053 Y-8.3226
G1 X8.871 Y-8.3131
G1 X10.024 Y-8.0619
G1 X10.793 Y-7.9707
G1 X11.844 Y-7.6101
G1 X12.553 Y-7.4428
G1 X13.515 Y-6.9796
G1 X14.173 Y-6.7391
G1 X15.057 Y-6.1745
G1 X15.670 Y-5.8635
G1 X16.484 Y-5.1946
G1 X17.060 Y-4.8095
G1 X17.811 Y-4.0307
G1 X18.356 Y-3.5675
G1 X18.931 Y-2.8367
G1 X19.118 Y-2.6416
G1 X18.744 Y-1.9245
G1 X18.463 Y-1.2268
G1 X17.845 Y-0.3119
G1 X17.500 Y0.3250
G1 X16.804 Y1.1298
G1 X16.402 Y1.6984
G1 X15.626 Y2.4034
G1 X15.165 Y2.9131
G1 X14.304 Y3.5250
G1 X13.781 Y3.9812
G1 X12.827 Y4.5075
G1 X12.237 Y4.9124
G1 X11.181 Y5.3514
G1 X10.516 Y5.7088
G1 X9.495 Y6.0224
G1 X8.499 Y6.4389
G1 X8.322 Y8.0531
G1 X8.313 Y8.8715
G1 X8.061 Y10.0243
G1 X7.970 Y10.7931
G1 X7.610 Y11.8446
G1 X7.442 Y12.5533
G1 X6.979 Y13.5151
G1 X6.739 Y14.1736
G1 X6.174 Y15.0570
G1 X5.862 Y15.6700
G1 X5.194 Y16.4840
G1 X4.809 Y17.0600
G1 X4.030 Y17.8111
G1 X3.567 Y18.3560
G1 X2.836 Y18.9312
G1 X2.641 Y19.1181
G1 X1.924 Y18.7440
G1 X1.226 Y18.4633
G1 X0.311 Y17.8454
G1 X-0.325 Y17.5004
G1 X-1.129 Y16.8043
G1 X-1.698 Y16.4029
G1 X-2.403 Y15.6268
G1 X-2.913 Y15.1656
G1 X-3.525 Y14.3045
G1 X-3.981 Y13.7817
G1 X-4.507 Y12.8270
G1 X-4.912 Y12.2379
G1 X-5.351 Y11.1819
G1 X-5.708 Y10.5163
G1 X-6.022 Y9.4958
G1 X-6.438 Y8.4994
G1 X-8.053 Y8.3226
G1 X-8.871 Y8.3130
G1 X-10.024 Y8.0618
G1 X-10.793 Y7.9706
G1 X-11.844 Y7.6100
G1 X-12.553 Y7.4428
G1 X-13.515 Y6.9795
G1 X-14.173 Y6.7390
G1 X-15.057 Y6.1745
G1 X-15.670 Y5.8635
G1 X-16.484 Y5.1945
G1 X-17.060 Y4.8095
G1 X-17.811 Y4.0306
G1 X-18.356 Y3.5674
G1 X-18.931 Y2.8367
G1 X-19.118 Y2.6415
G1 X-18.744 Y1.9244
G1 X-18.463 Y1.2268
G1 X-17.845 Y0.3119
G1 X-17.500 Y-0.3259
G1 X-16.804 Y-1.1298
G1 X-16.402 Y-1.6984
G1 X-15.626 Y-2.4033
G1 X-15.165 Y-2.9131
G1 X-14.304 Y-3.5259
G1 X-13.781 Y-3.9812
G1 X-12.827 Y-4.5075
G1 X-12.237 Y-4.9123
G1 X-11.181 Y-5.3514
G1 X-10.516 Y-5.7088
G1 X-9.495 Y-6.0223
G1 X-8.499 Y-6.4389
G1 X-8.322 Y-8.0531
G1 X-8.313 Y-8.8715
G1 X-8.061 Y-10.0243
G1 X-7.970 Y-10.7931
G1 X-7.610 Y-11.8445
G1 X-7.442 Y-12.5532
G1 X-6.979 Y-13.5150
G1 X-6.739 Y-14.1735
G1 X-6.174 Y-15.0570
G1 X-5.862 Y-15.6700
G1 X-5.194 Y-16.4840
G1 X-4.809 Y-17.0609
G1 X-4.030 Y-17.8111
G1 X-3.567 Y-18.3569
G1 X-2.836 Y-18.9312
G1 X-2.641 Y-19.1180
G1 X-2.323 Y-18.9529
ID=1 WHEN $AC_TIMER[1]>=0 DO M51
G1 X-2.277 Y-17.977 F600
ID=1 WHEN $AC_TIMER[1]>=0 DO M50
G1 X-2.522 Y-18.1046 F600
G1 X-2.979 Y-17.7451
G1 X-3.414 Y-17.2339
G1 X-4.158 Y-16.5155
G1 X-4.515 Y-15.9810
G1 X-5.152 Y-15.2065
G1 X-5.441 Y-14.6370
G1 X-5.978 Y-13.7977
G1 X-6.201 Y-13.1874
G1 X-6.642 Y-12.2709
G1 X-6.698 Y-12.0340
G1 X-4.518 Y-11.4505
G1 X-2.886 Y-5.3615
G1 X-6.128 Y-2.1181
G1 X-4.497 Y3.97100
G1 X-0.068 Y5.15896
G1 X1.564 Y11.24866
G1 X-1.678 Y14.49062
G1 X-1.420 Y15.45363
G1 X-1.136 Y15.76634
G1 X-0.608 Y16.13972
G1 X0.158 Y16.80286
G1 X0.750 Y17.12313
G1 X1.624 Y17.71424
G1 X2.277 Y17.97768
G1 X2.522 Y18.10404
G1 X2.979 Y17.74589
G1 X3.414 Y17.23307
G1 X4.158 Y16.51564
G1 X4.515 Y15.98178
G1 X5.152 Y15.20623
G1 X5.441 Y14.63799
G1 X5.978 Y13.79705
G1 X6.201 Y13.18763
G1 X6.642 Y12.27007
G1 X6.681 Y12.10599
G1 X2.523 Y10.99128
G1 X0.891 Y4.90197
G1 X4.133 Y1.65993
G1 X2.501 Y-4.43163
G1 X-1.927 Y-5.61859
G1 X-3.559 Y-11.70728
G1 X-0.317 Y-14.94924
G1 X-0.932 Y-17.24623
G1 X-1.624 Y-17.71486
G1 X-2.277 Y-17.97729
ID=1 WHEN $AC_TIMER[1]>=0 DO M51
G1 X0.608 Y-16.139 F600
ID=1 WHEN $AC_TIMER[1]>=0 DO M50
G1 X0.327 Y-16.3833 F600
G1 X0.642 Y-15.2064
G1 X2.016 Y-14.8383
G1 X1.806 Y-15.0280
G1 X1.136 Y-15.7662
G1 X0.608 Y-16.1390
ID=1 WHEN $AC_TIMER[1]>=0 DO M51
G1 X8.002 Y-7.479 F600
ID=1 WHEN $AC_TIMER[1]>=0 DO M50
G1 X6.424 Y-7.6518 F600
G1 X3.460 Y-4.6888
G1 X5.092 Y1.4028
G1 X9.521 Y2.5894
G1 X10.150 Y4.9382
G1 X10.819 Y4.5880
G1 X11.058 Y4.4896
G1 X10.480 Y2.3327
G1 X13.722 Y-0.9103
G1 X12.180 Y-6.6633
G1 X11.610 Y-6.7981
G1 X10.604 Y-7.1424
G1 X9.883 Y-7.2282
G1 X8.775 Y-7.4711
G1 X8.002 Y-7.4796
ID=1 WHEN $AC_TIMER[1]>=0 DO M51
G1 X13.796 Y-5.978 F600
ID=1 WHEN $AC_TIMER[1]>=0 DO M50
G1 X13.348 Y-6.1424 F600
G1 X14.681 Y-1.1677
G1 X17.011 Y-0.5435
G1 X17.123 Y-0.7506
G1 X17.714 Y-1.6248
G1 X17.977 Y-2.2771
G1 X18.104 Y-2.5228
G1 X17.745 Y-2.9793
G1 X17.233 Y-3.4141
G1 X16.515 Y-4.1588
G1 X15.981 Y-4.5152
G1 X15.206 Y-5.1527
G1 X14.637 Y-5.4413
G1 X13.796 Y-5.9789
ID=1 WHEN $AC_TIMER[1]>=0 DO M51
G1 X-11.516 Y-3.048 F600
ID=1 WHEN $AC_TIMER[1]>=0 DO M50
G1 X-11.817 Y-4.1735 F600
G1 X-12.384 Y-3.7885
G1 X-12.696 Y-3.6166
G1 X-12.475 Y-2.7919
G1 X-15.717 Y0.4515
G1 X-14.327 Y5.6392
G1 X-13.797 Y5.9782
G1 X-13.187 Y6.2019
G1 X-12.270 Y6.6424
G1 X-11.610 Y6.7988
G1 X-10.604 Y7.1421
G1 X-9.883 Y7.2289
G1 X-8.775 Y7.4718
G1 X-8.697 Y7.4711
G1 X-5.456 Y4.2282
G1 X-7.087 Y-1.8621
G1 X-11.516 Y-3.0487
ID=1 WHEN $AC_TIMER[1]>=0 DO M51
G1 X-16.676 Y0.708 F600
ID=1 WHEN $AC_TIMER[1]>=0 DO M50
G1 X-17.046 Y0.6091 F600
G1 X-17.123 Y0.7509
G1 X-17.714 Y1.6240
G1 X-17.977 Y2.2774
G1 X-18.104 Y2.5221
G1 X-17.745 Y2.9796
G1 X-17.233 Y3.4143
G1 X-16.515 Y4.1580
G1 X-15.981 Y4.5155
G1 X-15.564 Y4.8582
G1 X-16.676 Y0.7089
ID=1 WHEN $AC_TIMER[1]>=0 DO M51
G1 Z6.000 F600
G1 X-2.415 Y-18.827 F600
ID=1 WHEN $AC_TIMER[1]>=0 DO M50
G1 X-1.474 Y-18.4480 F600
G1 X-0.769 Y-17.9719
G1 X0.089 Y-17.5061
G1 X0.709 Y-16.9709
G1 X1.478 Y-16.4276
G1 X2.021 Y-15.8298
G1 X2.709 Y-15.2063
G1 X3.181 Y-14.5431
G1 X3.796 Y-13.8374
G1 X4.201 Y-13.1029
G1 X4.747 Y-12.3065
G1 X5.087 Y-11.4914
G1 X5.567 Y-10.5960
G1 X5.809 Y-9.8088
G1 X6.320 Y-8.5871
G1 X7.653 Y-8.4417
G1 X8.753 Y-8.4297
G1 X9.644 Y-8.2347
G1 X10.680 Y-8.1123
G1 X11.491 Y-7.8343
G1 X12.447 Y-7.6084
G1 X13.189 Y-7.2515
G1 X14.076 Y-6.9277
G1 X14.757 Y-6.4923
G1 X15.585 Y-6.0712
G1 X16.213 Y-5.5556
G1 X16.989 Y-5.0371
G1 X17.569 Y-4.4364
G1 X18.301 Y-3.8121
G1 X18.745 Y-3.2488
G1 X19.080 Y-2.9002
G1 X18.827 Y-2.4155
G1 X18.448 Y-1.4744
G1 X17.971 Y-0.7694
G1 X17.506 Y0.0896
G1 X16.970 Y0.7094
G1 X16.427 Y1.4781
G1 X15.829 Y2.0213
G1 X15.206 Y2.7097
G1 X14.543 Y3.1816
G1 X13.837 Y3.7969
G1 X13.102 Y4.2014
G1 X12.306 Y4.7470
G1 X11.491 Y5.0879
G1 X10.596 Y5.5675
G1 X9.808 Y5.8093
G1 X8.587 Y6.3205
G1 X8.441 Y7.6532
G1 X8.429 Y8.7532
G1 X8.234 Y9.6442
G1 X8.112 Y10.6808
G1 X7.834 Y11.4918
G1 X7.608 Y12.4479
G1 X7.251 Y13.1899
G1 X6.927 Y14.0762
G1 X6.492 Y14.7578
G1 X6.071 Y15.5857
G1 X5.555 Y16.2131
G1 X5.037 Y16.9896
G1 X4.436 Y17.5699
G1 X3.812 Y18.3026
G1 X3.248 Y18.7453
G1 X2.900 Y19.0807
G1 X2.415 Y18.8270
G1 X1.474 Y18.4489
G1 X0.769 Y17.9719
G1 X-0.089 Y17.5061
G1 X-0.709 Y16.9708
G1 X-1.478 Y16.4275
G1 X-2.021 Y15.8297
G1 X-2.709 Y15.2062
G1 X-3.181 Y14.5431
G1 X-3.796 Y13.8373
G1 X-4.201 Y13.1028
G1 X-4.747 Y12.3065
G1 X-5.087 Y11.4913
G1 X-5.567 Y10.5969
G1 X-5.809 Y9.8087
G1 X-6.320 Y8.5870
G1 X-7.653 Y8.4417
G1 X-8.753 Y8.4296
G1 X-9.644 Y8.2346
G1 X-10.680 Y8.1122
G1 X-11.491 Y7.8343
G1 X-12.447 Y7.6084
G1 X-13.189 Y7.2514
G1 X-14.076 Y6.9277
G1 X-14.757 Y6.4923
G1 X-15.585 Y6.0711
G1 X-16.213 Y5.5555
G1 X-16.989 Y5.0371
G1 X-17.569 Y4.4363
G1 X-18.301 Y3.8120
G1 X-18.745 Y3.2488
G1 X-19.080 Y2.9002
G1 X-18.827 Y2.4154
G1 X-18.448 Y1.4744
G1 X-17.971 Y0.7693
G1 X-17.506 Y-0.0895
G1 X-16.970 Y-0.7093
G1 X-16.427 Y-1.4780
G1 X-15.829 Y-2.0212
G1 X-15.206 Y-2.7097
G1 X-14.543 Y-3.1816
G1 X-13.837 Y-3.7968
G1 X-13.102 Y-4.2013
G1 X-12.306 Y-4.7479
G1 X-11.491 Y-5.0878
G1 X-10.596 Y-5.5674
G1 X-9.808 Y-5.8092
G1 X-8.587 Y-6.3205
G1 X-8.441 Y-7.6532
G1 X-8.429 Y-8.7531
G1 X-8.234 Y-9.6441
G1 X-8.112 Y-10.6807
G1 X-7.834 Y-11.4918
G1 X-7.608 Y-12.4479
G1 X-7.251 Y-13.1899
G1 X-6.927 Y-14.0761
G1 X-6.492 Y-14.7577
G1 X-6.071 Y-15.5856
G1 X-5.555 Y-16.2130
G1 X-5.037 Y-16.9896
G1 X-4.436 Y-17.5698
G1 X-3.812 Y-18.3025
G1 X-3.248 Y-18.7453
G1 X-2.900 Y-19.0806
G1 X-2.814 Y-19.0359
ID=1 WHEN $AC_TIMER[1]>=0 DO M51
G1 X0.188 Y-16.305 F600
ID=1 WHEN $AC_TIMER[1]>=0 DO M50
G1 X0.915 Y-15.7919 F600
G1 X1.088 Y-15.6015
G1 X-0.060 Y-15.9081
G1 X-0.273 Y-16.7049
G1 X0.188 Y-16.3058
ID=1 WHEN $AC_TIMER[1]>=0 DO M51
G1 X2.368 Y-14.230 F600
ID=1 WHEN $AC_TIMER[1]>=0 DO M50
G1 X2.518 Y-14.0202 F600
G1 X3.101 Y-13.3511
G1 X3.482 Y-12.6583
G1 X4.002 Y-11.9014
G1 X4.323 Y-11.1296
G1 X4.785 Y-10.2696
G1 X5.015 Y-9.5207
G1 X5.733 Y-7.8025
G1 X6.492 Y-7.7194
G1 X3.460 Y-4.6888
G1 X-2.629 Y-6.3198
G1 X-3.816 Y-10.7484
G1 X-6.944 Y-11.5864
G1 X-6.808 Y-12.1641
G1 X-6.632 Y-12.5306
G1 X-3.559 Y-11.7071
G1 X-0.317 Y-14.9497
G1 X2.368 Y-14.2307
ID=1 WHEN $AC_TIMER[1]>=0 DO M51
G1 X8.657 Y-7.587 F600
ID=1 WHEN $AC_TIMER[1]>=0 DO M50
G1 X9.503 Y-7.4011 F600
G1 X10.491 Y-7.2847
G1 X11.257 Y-7.0226
G1 X12.164 Y-6.8084
G1 X12.861 Y-6.4732
G1 X13.700 Y-6.1666
G1 X14.338 Y-5.7584
G1 X15.121 Y-5.3608
G1 X15.709 Y-4.8777
G1 X16.445 Y-4.3858
G1 X16.990 Y-3.8205
G1 X17.691 Y-3.2242
G1 X18.056 Y-2.7603
G1 X17.699 Y-1.8729
G1 X17.249 Y-1.2079
G1 X17.148 Y-1.0201
G1 X13.979 Y-1.8698
G1 X12.792 Y-6.2984
G1 X7.956 Y-7.5943
G1 X8.657 Y-7.5870
ID=1 WHEN $AC_TIMER[1]>=0 DO M51
G1 X3.203 Y-3.729 F600
ID=1 WHEN $AC_TIMER[1]>=0 DO M50
G1 X4.390 Y0.7006 F600
G1 X10.480 Y2.3326
G1 X13.722 Y-0.9102
G1 X16.590 Y-0.1425
G1 X16.305 Y0.1882
G1 X15.791 Y0.9151
G1 X15.231 Y1.4246
G1 X14.642 Y2.0756
G1 X14.020 Y2.5181
G1 X13.351 Y3.1011
G1 X12.658 Y3.4823
G1 X11.901 Y4.0023
G1 X11.129 Y4.3236
G1 X10.579 Y4.6190
G1 X10.223 Y3.2914
G1 X4.133 Y1.6594
G1 X0.891 Y4.9010
G1 X-5.199 Y3.2699
G1 X-6.385 Y-1.1605
G1 X-12.475 Y-2.7915
G1 X-15.717 Y0.4511
G1 X-16.643 Y0.2033
G1 X-16.305 Y-0.1886
G1 X-15.791 Y-0.9155
G1 X-15.231 Y-1.4249
G1 X-14.642 Y-2.0750
G1 X-14.020 Y-2.5185
G1 X-13.351 Y-3.1014
G1 X-12.658 Y-3.4826
G1 X-12.226 Y-3.7790
G1 X-12.218 Y-3.7501
G1 X-6.128 Y-2.1180
G1 X-2.886 Y-5.3616
G1 X3.203 Y-3.7296
ID=1 WHEN $AC_TIMER[1]>=0 DO M51
G1 X0.634 Y5.860 F600
ID=1 WHEN $AC_TIMER[1]>=0 DO M50
G1 X1.821 Y10.2896 F600
G1 X6.928 Y11.6570
G1 X6.808 Y12.1648
G1 X6.600 Y12.5971
G1 X1.564 Y11.2488
G1 X-1.678 Y14.4904
G1 X-2.302 Y14.3239
G1 X-2.518 Y14.0200
G1 X-3.101 Y13.3510
G1 X-3.482 Y12.6582
G1 X-4.002 Y11.9012
G1 X-4.323 Y11.1295
G1 X-4.785 Y10.2694
G1 X-5.015 Y9.5205
G1 X-5.733 Y7.8024
G1 X-7.602 Y7.5986
G1 X-8.657 Y7.5877
G1 X-9.503 Y7.4018
G1 X-10.491 Y7.2844
G1 X-11.257 Y7.0223
G1 X-12.164 Y6.8081
G1 X-12.861 Y6.4739
G1 X-13.700 Y6.1663
G1 X-13.797 Y6.1043
G1 X-8.698 Y7.4702
G1 X-5.456 Y4.2288
G1 X0.634 Y5.8608
ID=1 WHEN $AC_TIMER[1]>=0 DO M51
G1 X-15.974 Y1.410 F600
ID=1 WHEN $AC_TIMER[1]>=0 DO M50
G1 X-14.883 Y5.4818 F600
G1 X-15.121 Y5.3608
G1 X-15.709 Y4.8778
G1 X-16.445 Y4.3858
G1 X-16.990 Y3.8206
G1 X-17.691 Y3.2242
G1 X-18.056 Y2.7603
G1 X-17.699 Y1.8720
G1 X-17.183 Y1.0864
G1 X-15.974 Y1.4104
ID=1 WHEN $AC_TIMER[1]>=0 DO M51
G1 Z6.500 F600
G1 X-2.905 Y-18.909 F600
ID=1 WHEN $AC_TIMER[1]>=0 DO M50
G1 X-1.722 Y-18.4336 F600
G1 X-1.226 Y-18.0974
G1 X-0.146 Y-17.5127
G1 X0.290 Y-17.1354
G1 X1.257 Y-16.4512
G1 X1.639 Y-16.0317
G1 X2.505 Y-15.2489
G1 X2.837 Y-14.7828
G1 X3.611 Y-13.8930
G1 X3.896 Y-13.3767
G1 X4.583 Y-12.3751
G1 X4.822 Y-11.8018
G1 X5.426 Y-10.6766
G1 X5.596 Y-10.1207
G1 X6.201 Y-8.6757
G1 X7.253 Y-8.5608
G1 X8.636 Y-8.5453
G1 X9.264 Y-8.4085
G1 X10.567 Y-8.2549
G1 X11.138 Y-8.0586
G1 X12.341 Y-7.7740
G1 X12.863 Y-7.5234
G1 X13.980 Y-7.1153
G1 X14.458 Y-6.8091
G1 X15.500 Y-6.2798
G1 X15.941 Y-5.9176
G1 X16.918 Y-5.2647
G1 X17.326 Y-4.8411
G1 X18.247 Y-4.0577
G1 X18.559 Y-3.6619
G1 X19.041 Y-3.1598
G1 X18.909 Y-2.9055
G1 X18.433 Y-1.7221
G1 X18.097 Y-1.2268
G1 X17.512 Y-0.1462
G1 X17.135 Y0.2909
G1 X16.451 Y1.2577
G1 X16.031 Y1.6392
G1 X15.248 Y2.5054
G1 X14.782 Y2.8372
G1 X13.893 Y3.6115
G1 X13.376 Y3.8962
G1 X12.375 Y4.5836
G1 X11.801 Y4.8223
G1 X10.676 Y5.4261
G1 X10.120 Y5.5962
G1 X8.675 Y6.2012
G1 X8.560 Y7.2533
G1 X8.545 Y8.6368
G1 X8.408 Y9.2640
G1 X8.254 Y10.5674
G1 X8.058 Y11.1381
G1 X7.774 Y12.3415
G1 X7.523 Y12.8638
G1 X7.115 Y13.9808
G1 X6.809 Y14.4586
G1 X6.279 Y15.5003
G1 X5.917 Y15.9411
G1 X5.264 Y16.9182
G1 X4.841 Y17.3265
G1 X4.057 Y18.2472
G1 X3.661 Y18.5594
G1 X3.159 Y19.0413
G1 X2.905 Y18.9090
G1 X1.722 Y18.4335
G1 X1.226 Y18.0973
G1 X0.146 Y17.5127
G1 X-0.290 Y17.1353
G1 X-1.257 Y16.4512
G1 X-1.639 Y16.0316
G1 X-2.505 Y15.2488
G1 X-2.837 Y14.7827
G1 X-3.611 Y13.8930
G1 X-3.896 Y13.3766
G1 X-4.583 Y12.3751
G1 X-4.822 Y11.8018
G1 X-5.426 Y10.6766
G1 X-5.596 Y10.1206
G1 X-6.201 Y8.6756
G1 X-7.253 Y8.5608
G1 X-8.636 Y8.5453
G1 X-9.264 Y8.4085
G1 X-10.567 Y8.2549
G1 X-11.138 Y8.0586
G1 X-12.341 Y7.7740
G1 X-12.863 Y7.5233
G1 X-13.980 Y7.1153
G1 X-14.458 Y6.8090
G1 X-15.500 Y6.2797
G1 X-15.941 Y5.9176
G1 X-16.918 Y5.2647
G1 X-17.326 Y4.8410
G1 X-18.247 Y4.0577
G1 X-18.559 Y3.6619
G1 X-19.041 Y3.1598
G1 X-18.909 Y2.9054
G1 X-18.433 Y1.7220
G1 X-18.097 Y1.2268
G1 X-17.512 Y0.1462
G1 X-17.135 Y-0.2908
G1 X-16.451 Y-1.2576
G1 X-16.031 Y-1.6391
G1 X-15.248 Y-2.5053
G1 X-14.782 Y-2.8372
G1 X-13.893 Y-3.6114
G1 X-13.376 Y-3.8961
G1 X-12.375 Y-4.5836
G1 X-11.801 Y-4.8222
G1 X-10.676 Y-5.4260
G1 X-10.120 Y-5.5961
G1 X-8.675 Y-6.2011
G1 X-8.560 Y-7.2532
G1 X-8.545 Y-8.6367
G1 X-8.408 Y-9.2649
G1 X-8.254 Y-10.5673
G1 X-8.058 Y-11.1380
G1 X-7.774 Y-12.3415
G1 X-7.523 Y-12.8638
G1 X-7.115 Y-13.9808
G1 X-6.809 Y-14.4585
G1 X-6.279 Y-15.5002
G1 X-5.917 Y-15.9411
G1 X-5.264 Y-16.9182
G1 X-4.841 Y-17.3265
G1 X-4.057 Y-18.2471
G1 X-3.661 Y-18.5594
G1 X-3.277 Y-18.9289
ID=1 WHEN $AC_TIMER[1]>=0 DO M51
G1 X0.695 Y-15.816 F600
ID=1 WHEN $AC_TIMER[1]>=0 DO M50
G1 X1.042 Y-15.4337 F600
G1 X1.567 Y-14.9580
G1 X0.642 Y-15.2066
G1 X-3.816 Y-10.7485
G1 X-2.629 Y-6.3191
G1 X-7.087 Y-1.8621
G1 X-11.516 Y-3.0487
G1 X-15.974 Y1.4106
G1 X-14.832 Y5.6735
G1 X-15.036 Y5.5690
G1 X-15.438 Y5.2394
G1 X-16.374 Y4.6130
G1 X-16.747 Y4.2269
G1 X-17.636 Y3.4694
G1 X-18.034 Y2.9907
G1 X-17.684 Y2.1208
G1 X-17.375 Y1.6646
G1 X-16.834 Y0.6653
G1 X-16.676 Y0.7082
G1 X-12.482 Y-3.4869
G1 X-11.970 Y-3.8381
G1 X-11.439 Y-4.0592
G1 X-10.349 Y-4.6432
G1 X-9.833 Y-4.8026
G1 X-7.890 Y-5.6142
G1 X-7.717 Y-7.2029
G1 X-7.702 Y-8.5405
G1 X-7.575 Y-9.1249
G1 X-7.426 Y-10.3782
G1 X-7.246 Y-10.9038
G1 X-6.952 Y-12.1038
G1 X-4.518 Y-11.4504
G1 X-0.060 Y-15.9084
G1 X-0.206 Y-16.4529
G1 X0.695 Y-15.8162
ID=1 WHEN $AC_TIMER[1]>=0 DO M51
G1 X7.192 Y-7.718 F600
ID=1 WHEN $AC_TIMER[1]>=0 DO M50
G1 X3.203 Y-3.7292 F600
G1 X4.390 Y0.7008
G1 X-0.068 Y5.1588
G1 X-4.497 Y3.9714
G1 X-8.231 Y7.7060
G1 X-8.540 Y7.7029
G1 X-9.124 Y7.5753
G1 X-9.464 Y7.5348
G1 X-5.199 Y3.2692
G1 X-6.385 Y-1.1608
G1 X-1.927 Y-5.6188
G1 X2.501 Y-4.4314
G1 X5.927 Y-7.8569
G1 X7.192 Y-7.7189
ID=1 WHEN $AC_TIMER[1]>=0 DO M51
G1 X13.603 Y-6.354 F600
ID=1 WHEN $AC_TIMER[1]>=0 DO M50
G1 X14.039 Y-6.0760 F600
G1 X15.036 Y-5.5692
G1 X15.438 Y-5.2395
G1 X16.374 Y-4.6132
G1 X16.747 Y-4.2260
G1 X17.636 Y-3.4696
G1 X18.034 Y-2.9909
G1 X17.684 Y-2.1200
G1 X17.375 Y-1.6648
G1 X16.814 Y-0.6298
G1 X16.791 Y-0.6026
G1 X14.681 Y-1.1677
G1 X10.223 Y3.2917
G1 X10.556 Y4.5336
G1 X10.349 Y4.6439
G1 X9.833 Y4.8022
G1 X7.890 Y5.6148
G1 X7.717 Y7.2026
G1 X7.702 Y8.5402
G1 X7.575 Y9.1245
G1 X7.426 Y10.3788
G1 X7.246 Y10.9035
G1 X6.974 Y12.0586
G1 X6.920 Y12.1690
G1 X2.523 Y10.9918
G1 X-1.503 Y15.0166
G1 X-1.871 Y14.6848
G1 X-2.163 Y14.2730
G1 X1.821 Y10.2893
G1 X0.634 Y5.8609
G1 X5.092 Y1.4029
G1 X9.521 Y2.5895
G1 X13.979 Y-1.8694
G1 X12.792 Y-6.2980
G1 X13.050 Y-6.5562
G1 X13.603 Y-6.3547
ID=1 WHEN $AC_TIMER[1]>=0 DO M51
G1 Z7.000 F600
G1 X-1.970 Y-18.418 F600
ID=1 WHEN $AC_TIMER[1]>=0 DO M50
G1 X-1.683 Y-18.2246 F600
G1 X-0.381 Y-17.5181
G1 X-0.130 Y-17.3017
G1 X1.037 Y-16.4766
G1 X1.257 Y-16.2344
G1 X2.301 Y-15.2893
G1 X2.493 Y-15.0202
G1 X3.425 Y-13.9504
G1 X3.590 Y-13.6503
G1 X4.419 Y-12.4446
G1 X4.557 Y-12.1111
G1 X5.284 Y-10.7560
G1 X5.384 Y-10.4334
G1 X6.082 Y-8.7631
G1 X6.853 Y-8.6797
G1 X8.519 Y-8.6617
G1 X8.884 Y-8.5811
G1 X10.454 Y-8.3963
G1 X10.784 Y-8.2827
G1 X12.235 Y-7.9405
G1 X12.536 Y-7.7950
G1 X13.883 Y-7.3037
G1 X14.159 Y-7.1267
G1 X15.415 Y-6.4882
G1 X15.670 Y-6.2794
G1 X16.847 Y-5.4912
G1 X17.083 Y-5.2476
G1 X18.193 Y-4.3031
G1 X18.373 Y-4.0738
G1 X19.001 Y-3.4194
G1 X18.418 Y-1.9703
G1 X18.224 Y-1.6839
G1 X17.518 Y-0.3815
G1 X17.301 Y-0.1300
G1 X16.476 Y1.0379
G1 X16.234 Y1.2577
G1 X15.289 Y2.3016
G1 X15.020 Y2.4935
G1 X13.950 Y3.4257
G1 X13.650 Y3.5906
G1 X12.444 Y4.4199
G1 X12.111 Y4.5574
G1 X10.756 Y5.2843
G1 X10.433 Y5.3847
G1 X8.763 Y6.0824
G1 X8.679 Y6.8530
G1 X8.661 Y8.5190
G1 X8.581 Y8.8845
G1 X8.396 Y10.4546
G1 X8.282 Y10.7840
G1 X7.940 Y12.2358
G1 X7.795 Y12.5364
G1 X7.303 Y13.8831
G1 X7.126 Y14.1590
G1 X6.488 Y15.4155
G1 X6.279 Y15.6708
G1 X5.491 Y16.8475
G1 X5.247 Y17.0839
G1 X4.303 Y18.1935
G1 X4.073 Y18.3731
G1 X3.419 Y19.0017
G1 X1.970 Y18.4186
G1 X1.683 Y18.2242
G1 X0.381 Y17.5188
G1 X0.130 Y17.3014
G1 X-1.037 Y16.4763
G1 X-1.257 Y16.2340
G1 X-2.301 Y15.2899
G1 X-2.493 Y15.0208
G1 X-3.425 Y13.9501
G1 X-3.590 Y13.6509
G1 X-4.419 Y12.4442
G1 X-4.557 Y12.1117
G1 X-5.284 Y10.7567
G1 X-5.384 Y10.4330
G1 X-6.082 Y8.7637
G1 X-6.853 Y8.6793
G1 X-8.519 Y8.6614
G1 X-8.884 Y8.5818
G1 X-10.454 Y8.3960
G1 X-10.784 Y8.2823
G1 X-12.235 Y7.9401
G1 X-12.536 Y7.7957
G1 X-13.883 Y7.3034
G1 X-14.159 Y7.1263
G1 X-15.415 Y6.4888
G1 X-15.670 Y6.2791
G1 X-16.847 Y5.4918
G1 X-17.083 Y5.2472
G1 X-18.193 Y4.3038
G1 X-18.373 Y4.0735
G1 X-19.001 Y3.4190
G1 X-18.418 Y1.9709
G1 X-18.224 Y1.6836
G1 X-17.518 Y0.3811
G1 X-17.301 Y0.1307
G1 X-16.476 Y-1.0376
G1 X-16.234 Y-1.2573
G1 X-15.289 Y-2.3013
G1 X-15.020 Y-2.4932
G1 X-13.950 Y-3.4254
G1 X-13.650 Y-3.5902
G1 X-12.444 Y-4.4195
G1 X-12.111 Y-4.5570
G1 X-10.756 Y-5.2840
G1 X-10.433 Y-5.3843
G1 X-8.763 Y-6.0821
G1 X-8.679 Y-6.8536
G1 X-8.661 Y-8.5197
G1 X-8.581 Y-8.8841
G1 X-8.396 Y-10.4543
G1 X-8.282 Y-10.7846
G1 X-7.940 Y-12.2354
G1 X-7.795 Y-12.5360
G1 X-7.303 Y-13.8837
G1 X-7.126 Y-14.1596
G1 X-6.488 Y-15.4152
G1 X-6.279 Y-15.6704
G1 X-5.491 Y-16.8471
G1 X-5.247 Y-17.0835
G1 X-4.303 Y-18.1931
G1 X-4.073 Y-18.3738
G1 X-3.419 Y-19.0014
G1 X-2.388 Y-18.5863
ID=1 WHEN $AC_TIMER[1]>=0 DO M51
G1 X-2.369 Y-17.669 F600
ID=1 WHEN $AC_TIMER[1]>=0 DO M50
G1 X-3.229 Y-18.0152 F600
G1 X-3.519 Y-17.7360
G1 X-3.715 Y-17.5826
G1 X-4.631 Y-16.5051
G1 X-4.840 Y-16.3030
G1 X-5.600 Y-15.1663
G1 X-5.777 Y-14.9510
G1 X-6.393 Y-13.7401
G1 X-6.542 Y-13.5072
G1 X-7.054 Y-12.1307
G1 X-4.518 Y-11.4503
G1 X-2.886 Y-5.3612
G1 X-6.128 Y-2.1188
G1 X-4.497 Y3.97118
G1 X-0.068 Y5.15814
G1 X1.564 Y11.24883
G1 X-1.678 Y14.49079
G1 X-1.599 Y14.78740
G1 X-0.660 Y15.63629
G1 X-0.474 Y15.84169
G1 X0.651 Y16.63640
G1 X0.864 Y16.82022
G1 X2.121 Y17.50263
G1 X2.369 Y17.66959
G1 X3.229 Y18.01569
G1 X3.519 Y17.73696
G1 X3.715 Y17.58243
G1 X4.631 Y16.50578
G1 X4.840 Y16.30317
G1 X5.600 Y15.16619
G1 X5.777 Y14.95177
G1 X6.393 Y13.74017
G1 X6.542 Y13.50759
G1 X6.984 Y12.29799
G1 X6.952 Y12.17771
G1 X2.523 Y10.99167
G1 X0.891 Y4.90137
G1 X4.133 Y1.65933
G1 X2.501 Y-4.43102
G1 X-1.927 Y-5.61898
G1 X-3.559 Y-11.70768
G1 X-0.317 Y-14.94964
G1 X-0.805 Y-16.76991
G1 X-0.864 Y-16.82043
G1 X-2.121 Y-17.50285
G1 X-2.369 Y-17.66981
ID=1 WHEN $AC_TIMER[1]>=0 DO M51
G1 X0.474 Y-15.841 F600
ID=1 WHEN $AC_TIMER[1]>=0 DO M50
G1 X0.642 Y-15.2068 F600
G1 X1.343 Y-15.0182
G1 X0.660 Y-15.6368
G1 X0.474 Y-15.8418
ID=1 WHEN $AC_TIMER[1]>=0 DO M51
G1 X6.802 Y-7.836 F600
ID=1 WHEN $AC_TIMER[1]>=0 DO M50
G1 X6.627 Y-7.8555 F600
G1 X3.460 Y-4.6885
G1 X5.092 Y1.4025
G1 X9.521 Y2.5891
G1 X10.066 Y4.6225
G1 X10.430 Y4.5026
G1 X10.982 Y4.2067
G1 X10.480 Y2.3329
G1 X13.722 Y-0.9105
G1 X12.090 Y-7.0004
G1 X9.737 Y-7.6310
G1 X8.744 Y-7.7485
G1 X8.423 Y-7.8180
G1 X6.802 Y-7.8362
ID=1 WHEN $AC_TIMER[1]>=0 DO M51
G1 X13.507 Y-6.542 F600
ID=1 WHEN $AC_TIMER[1]>=0 DO M50
G1 X13.212 Y-6.6504 F600
G1 X14.681 Y-1.1677
G1 X16.631 Y-0.6458
G1 X16.820 Y-0.8640
G1 X17.502 Y-2.1211
G1 X17.669 Y-2.3698
G1 X18.015 Y-3.2297
G1 X17.736 Y-3.5195
G1 X17.582 Y-3.7151
G1 X16.505 Y-4.6316
G1 X16.303 Y-4.8405
G1 X15.166 Y-5.6008
G1 X14.951 Y-5.7775
G1 X13.740 Y-6.3935
G1 X13.507 Y-6.5427
ID=1 WHEN $AC_TIMER[1]>=0 DO M51
G1 X-11.516 Y-3.048 F600
ID=1 WHEN $AC_TIMER[1]>=0 DO M50
G1 X-11.720 Y-3.8094 F600
G1 X-12.039 Y-3.6730
G1 X-12.607 Y-3.2836
G1 X-12.475 Y-2.7913
G1 X-15.717 Y0.4519
G1 X-14.186 Y6.1668
G1 X-13.740 Y6.3933
G1 X-13.507 Y6.5424
G1 X-12.208 Y7.0163
G1 X-12.080 Y7.0786
G1 X-10.550 Y7.4710
G1 X-10.238 Y7.5712
G1 X-8.616 Y7.7765
G1 X-8.698 Y7.4708
G1 X-5.456 Y4.2284
G1 X-7.087 Y-1.8623
G1 X-11.516 Y-3.0489
ID=1 WHEN $AC_TIMER[1]>=0 DO M51
G1 X-16.676 Y0.708 F600
ID=1 WHEN $AC_TIMER[1]>=0 DO M50
G1 X-16.820 Y0.8643 F600
G1 X-17.502 Y2.1214
G1 X-17.669 Y2.3691
G1 X-18.015 Y3.2290
G1 X-17.736 Y3.5198
G1 X-17.582 Y3.7154
G1 X-16.505 Y4.6319
G1 X-16.303 Y4.8408
G1 X-15.408 Y5.4384
G1 X-16.676 Y0.7084
ID=1 WHEN $AC_TIMER[1]>=0 DO M51
G1 Z7.500 F600
G1 X-2.195 Y-18.393 F600
ID=1 WHEN $AC_TIMER[1]>=0 DO M50
G1 X-0.596 Y-17.5137 F600
G1 X0.835 Y-16.4881
G1 X2.115 Y-15.3156
G1 X3.256 Y-13.9886
G1 X4.268 Y-12.4946
G1 X5.154 Y-10.8158
G1 X5.960 Y-8.8523
G1 X6.453 Y-8.7981
G1 X8.427 Y-8.7774
G1 X10.365 Y-8.5356
G1 X12.152 Y-8.1006
G1 X13.809 Y-7.4837
G1 X15.351 Y-6.6860
G1 X16.796 Y-5.7069
G1 X18.157 Y-4.5336
G1 X18.991 Y-3.6523
G1 X18.394 Y-2.1961
G1 X17.513 Y-0.5961
G1 X16.488 Y0.8354
G1 X15.315 Y2.1159
G1 X13.988 Y3.2569
G1 X12.494 Y4.2689
G1 X10.815 Y5.1541
G1 X8.852 Y5.9607
G1 X8.798 Y6.4534
G1 X8.777 Y8.4278
G1 X8.535 Y10.3659
G1 X8.100 Y12.1529
G1 X7.483 Y13.8090
G1 X6.686 Y15.3514
G1 X5.706 Y16.7962
G1 X4.533 Y18.1570
G1 X3.652 Y18.9917
G1 X2.196 Y18.3944
G1 X0.596 Y17.5134
G1 X-0.835 Y16.4887
G1 X-2.115 Y15.3153
G1 X-3.256 Y13.9882
G1 X-4.268 Y12.4942
G1 X-5.154 Y10.8155
G1 X-5.960 Y8.8520
G1 X-6.453 Y8.7987
G1 X-8.427 Y8.7771
G1 X-10.365 Y8.5352
G1 X-12.152 Y8.1002
G1 X-13.809 Y7.4834
G1 X-15.351 Y6.6867
G1 X-16.796 Y5.7065
G1 X-18.157 Y4.5333
G1 X-18.991 Y3.6520
G1 X-18.394 Y2.1967
G1 X-17.513 Y0.5967
G1 X-16.488 Y-0.8350
G1 X-15.315 Y-2.1156
G1 X-13.988 Y-3.2566
G1 X-12.494 Y-4.2685
G1 X-10.815 Y-5.1548
G1 X-8.852 Y-5.9603
G1 X-8.798 Y-6.4531
G1 X-8.777 Y-8.4274
G1 X-8.535 Y-10.3656
G1 X-8.100 Y-12.1526
G1 X-7.483 Y-13.8097
G1 X-6.686 Y-15.3510
G1 X-5.706 Y-16.7969
G1 X-4.533 Y-18.1576
G1 X-3.661 Y-18.9832
G1 X-2.612 Y-18.5616
ID=1 WHEN $AC_TIMER[1]>=0 DO M51
G1 X0.303 Y-15.831 F600
ID=1 WHEN $AC_TIMER[1]>=0 DO M50
G1 X0.334 Y-15.8031 F600
G1 X-0.060 Y-15.9087
G1 X-0.121 Y-16.1356
G1 X0.303 Y-15.8314
ID=1 WHEN $AC_TIMER[1]>=0 DO M51
G1 X1.806 Y-14.381 F600
ID=1 WHEN $AC_TIMER[1]>=0 DO M50
G1 X2.584 Y-13.4757 F600
G1 X3.543 Y-12.0591
G1 X4.389 Y-10.4574
G1 X5.370 Y-8.0675
G1 X6.402 Y-7.9554
G1 X8.370 Y-7.9342
G1 X10.212 Y-7.7048
G1 X11.904 Y-7.2928
G1 X13.466 Y-6.7102
G1 X14.919 Y-5.9597
G1 X16.282 Y-5.0359
G1 X17.574 Y-3.9215
G1 X18.004 Y-3.4683
G1 X17.632 Y-2.5613
G1 X16.831 Y-1.1053
G1 X13.979 Y-1.8694
G1 X12.792 Y-6.2980
G1 X6.702 Y-7.9300
G1 X3.460 Y-4.6886
G1 X-2.629 Y-6.3195
G1 X-3.816 Y-10.7481
G1 X-7.343 Y-11.6934
G1 X-7.292 Y-11.9049
G1 X-7.020 Y-12.6350
G1 X-3.559 Y-11.7079
G1 X-0.317 Y-14.9495
G1 X1.806 Y-14.3816
ID=1 WHEN $AC_TIMER[1]>=0 DO M51
G1 X3.203 Y-3.729 F600
ID=1 WHEN $AC_TIMER[1]>=0 DO M50
G1 X4.390 Y0.7006 F600
G1 X10.480 Y2.3326
G1 X13.722 Y-0.9102
G1 X16.221 Y-0.2419
G1 X15.831 Y0.3034
G1 X14.727 Y1.5081
G1 X13.475 Y2.5848
G1 X12.059 Y3.5432
G1 X10.510 Y4.3618
G1 X10.223 Y3.2912
G1 X4.133 Y1.6592
G1 X0.891 Y4.9018
G1 X-5.199 Y3.2697
G1 X-6.385 Y-1.1603
G1 X-12.475 Y-2.7913
G1 X-15.717 Y0.4519
G1 X-16.266 Y0.3049
G1 X-15.831 Y-0.3038
G1 X-14.727 Y-1.5086
G1 X-13.475 Y-2.5842
G1 X-12.059 Y-3.5437
G1 X-11.853 Y-3.6529
G1 X-6.128 Y-2.1181
G1 X-2.886 Y-5.3617
G1 X3.203 Y-3.7297
ID=1 WHEN $AC_TIMER[1]>=0 DO M51
G1 X-15.974 Y1.410 F600
ID=1 WHEN $AC_TIMER[1]>=0 DO M50
G1 X-14.787 Y5.8396 F600
G1 X-8.698 Y7.4706
G1 X-5.456 Y4.2282
G1 X0.634 Y5.8601
G1 X1.821 Y10.2897
G1 X7.326 Y11.7640
G1 X7.292 Y11.9046
G1 X6.995 Y12.7038
G1 X1.564 Y11.2487
G1 X-1.678 Y14.4903
G1 X-1.722 Y14.4780
G1 X-2.584 Y13.4750
G1 X-3.543 Y12.0594
G1 X-4.389 Y10.4577
G1 X-5.370 Y8.0678
G1 X-6.402 Y7.9557
G1 X-8.370 Y7.9345
G1 X-10.212 Y7.7041
G1 X-11.904 Y7.2921
G1 X-13.466 Y6.7105
G1 X-14.919 Y5.9599
G1 X-16.282 Y5.0352
G1 X-17.574 Y3.9217
G1 X-18.004 Y3.4686
G1 X-17.632 Y2.5616
G1 X-16.867 Y1.1711
G1 X-15.974 Y1.4100
ID=1 WHEN $AC_TIMER[1]>=0 DO M51
G1 Z8.000 F600
G1 X-2.511 Y-18.380 F600
ID=1 WHEN $AC_TIMER[1]>=0 DO M50
G1 X-2.414 Y-18.3529 F600
G1 X-0.825 Y-17.5041
G1 X0.620 Y-16.4974
G1 X1.914 Y-15.3420
G1 X3.073 Y-14.0300
G1 X4.104 Y-12.5499
G1 X5.012 Y-10.8822
G1 X5.857 Y-8.8995
G1 X8.335 Y-8.8846
G1 X10.252 Y-8.6702
G1 X12.045 Y-8.2582
G1 X13.710 Y-7.6633
G1 X15.263 Y-6.8866
G1 X16.720 Y-5.9255
G1 X18.096 Y-4.7703
G1 X18.942 Y-3.9009
G1 X18.364 Y-2.4377
G1 X17.504 Y-0.8257
G1 X16.497 Y0.6200
G1 X15.342 Y1.9145
G1 X14.030 Y3.0735
G1 X12.549 Y4.1045
G1 X10.882 Y5.0127
G1 X8.899 Y5.8571
G1 X8.884 Y8.3351
G1 X8.670 Y10.2527
G1 X8.258 Y12.0457
G1 X7.663 Y13.7109
G1 X6.886 Y15.2632
G1 X5.925 Y16.7200
G1 X4.770 Y18.0968
G1 X3.900 Y18.9425
G1 X2.437 Y18.3642
G1 X0.825 Y17.5042
G1 X-0.620 Y16.4975
G1 X-1.914 Y15.3421
G1 X-3.073 Y14.0301
G1 X-4.104 Y12.5490
G1 X-5.012 Y10.8823
G1 X-5.857 Y8.8996
G1 X-8.335 Y8.8847
G1 X-10.252 Y8.6703
G1 X-12.045 Y8.2583
G1 X-13.710 Y7.6634
G1 X-15.263 Y6.8867
G1 X-16.720 Y5.9256
G1 X-18.096 Y4.7703
G1 X-18.942 Y3.9000
G1 X-18.364 Y2.4378
G1 X-17.504 Y0.8258
G1 X-16.497 Y-0.6201
G1 X-15.342 Y-1.9146
G1 X-14.030 Y-3.0736
G1 X-12.549 Y-4.1046
G1 X-10.882 Y-5.0128
G1 X-8.899 Y-5.8572
G1 X-8.884 Y-8.3352
G1 X-8.670 Y-10.2528
G1 X-8.258 Y-12.0458
G1 X-7.663 Y-13.7100
G1 X-6.886 Y-15.2633
G1 X-5.925 Y-16.7201
G1 X-4.770 Y-18.0969
G1 X-3.902 Y-18.9408
G1 X-2.929 Y-18.5483
ID=1 WHEN $AC_TIMER[1]>=0 DO M51
G1 X0.096 Y-15.834 F600
ID=1 WHEN $AC_TIMER[1]>=0 DO M50
G1 X0.866 Y-15.1464 F600
G1 X0.642 Y-15.2065
G1 X-3.816 Y-10.7485
G1 X-2.629 Y-6.3191
G1 X-7.087 Y-1.8620
G1 X-11.516 Y-3.0486
G1 X-15.974 Y1.4106
G1 X-14.787 Y5.8392
G1 X-14.998 Y6.0507
G1 X-16.215 Y5.2488
G1 X-17.521 Y4.1514
G1 X-17.957 Y3.7033
G1 X-17.597 Y2.7913
G1 X-16.783 Y1.2663
G1 X-15.834 Y-0.0968
G1 X-15.513 Y-0.4559
G1 X-13.957 Y-2.0113
G1 X-13.508 Y-2.4085
G1 X-12.105 Y-3.3859
G1 X-10.514 Y-4.2522
G1 X-8.059 Y-5.2980
G1 X-8.040 Y-8.2859
G1 X-7.836 Y-10.1115
G1 X-7.447 Y-11.8085
G1 X-7.308 Y-12.1981
G1 X-4.518 Y-11.4501
G1 X-0.060 Y-15.9081
G1 X-0.071 Y-15.9519
G1 X0.096 Y-15.8348
ID=1 WHEN $AC_TIMER[1]>=0 DO M51
G1 X7.519 Y-8.045 F600
ID=1 WHEN $AC_TIMER[1]>=0 DO M50
G1 X3.203 Y-3.7290 F600
G1 X4.390 Y0.7006
G1 X-0.068 Y5.1585
G1 X-4.497 Y3.9711
G1 X-8.537 Y8.0128
G1 X-10.110 Y7.8362
G1 X-11.808 Y7.4472
G1 X-13.377 Y6.8856
G1 X-14.046 Y6.5513
G1 X-9.657 Y7.7270
G1 X-5.199 Y3.2690
G1 X-6.385 Y-1.1606
G1 X-1.927 Y-5.6186
G1 X2.501 Y-4.4312
G1 X6.124 Y-8.0537
G1 X7.519 Y-8.0454
ID=1 WHEN $AC_TIMER[1]>=0 DO M51
G1 X8.285 Y-8.040 F600
ID=1 WHEN $AC_TIMER[1]>=0 DO M50
G1 X10.110 Y-7.8360 F600
G1 X11.808 Y-7.4470
G1 X12.345 Y-7.2554
G1 X12.090 Y-7.0005
G1 X8.207 Y-8.0414
G1 X8.285 Y-8.0404
ID=1 WHEN $AC_TIMER[1]>=0 DO M51
G1 X14.840 Y-6.154 F600
ID=1 WHEN $AC_TIMER[1]>=0 DO M50
G1 X16.215 Y-5.2482 F600
G1 X17.521 Y-4.1518
G1 X17.957 Y-3.7036
G1 X17.597 Y-2.7917
G1 X16.783 Y-1.2667
G1 X16.394 Y-0.7081
G1 X14.681 Y-1.1679
G1 X10.223 Y3.2918
G1 X10.484 Y4.2650
G1 X8.059 Y5.2980
G1 X8.040 Y8.2850
G1 X7.836 Y10.1116
G1 X7.485 Y11.6444
G1 X6.952 Y12.1779
G1 X2.523 Y10.9915
G1 X-1.271 Y14.7851
G1 X-1.934 Y14.0442
G1 X1.821 Y10.2894
G1 X0.634 Y5.8600
G1 X5.092 Y1.4029
G1 X9.521 Y2.5895
G1 X13.979 Y-1.8695
G1 X12.792 Y-6.2981
G1 X13.379 Y-6.8856
G1 X14.840 Y-6.1540
ID=1 WHEN $AC_TIMER[1]>=0 DO M51
G1 Z8.500 F600
G1 X-3.008 Y-18.414 F600
ID=1 WHEN $AC_TIMER[1]>=0 DO M50
G1 X-2.662 Y-18.3133 F600
G1 X-1.359 Y-17.6078
G1 X-1.040 Y-17.4734
G1 X0.126 Y-16.6496
G1 X0.415 Y-16.4849
G1 X1.459 Y-15.5406
G1 X1.723 Y-15.3456
G1 X2.655 Y-14.2751
G1 X2.896 Y-14.0487
G1 X3.723 Y-12.8439
G1 X3.944 Y-12.5818
G1 X4.670 Y-11.2293
G1 X4.873 Y-10.9263
G1 X5.425 Y-9.6055
G1 X5.765 Y-8.9754
G1 X7.812 Y-8.9530
G1 X8.205 Y-8.9870
G1 X9.777 Y-8.8016
G1 X10.149 Y-8.7946
G1 X11.601 Y-8.4512
G1 X11.946 Y-8.4057
G1 X13.293 Y-7.9138
G1 X13.616 Y-7.8290
G1 X14.872 Y-7.1914
G1 X15.177 Y-7.0725
G1 X16.354 Y-6.2855
G1 X16.645 Y-6.1294
G1 X17.752 Y-5.1871
G1 X18.034 Y-4.9914
G1 X18.865 Y-4.1262
G1 X18.414 Y-3.0088
G1 X18.313 Y-2.6621
G1 X17.607 Y-1.3596
G1 X17.473 Y-1.0402
G1 X16.649 Y0.1264
G1 X16.484 Y0.4157
G1 X15.540 Y1.4594
G1 X15.345 Y1.7234
G1 X14.275 Y2.6559
G1 X14.048 Y2.8965
G1 X12.843 Y3.7237
G1 X12.581 Y3.9446
G1 X11.229 Y4.6701
G1 X10.926 Y4.8731
G1 X9.605 Y5.4253
G1 X8.975 Y5.7652
G1 X8.953 Y7.8128
G1 X8.987 Y8.2058
G1 X8.801 Y9.7774
G1 X8.794 Y10.1494
G1 X8.451 Y11.6010
G1 X8.405 Y11.9465
G1 X7.913 Y13.2936
G1 X7.829 Y13.6168
G1 X7.191 Y14.8722
G1 X7.072 Y15.1773
G1 X6.285 Y16.3543
G1 X6.129 Y16.6453
G1 X5.187 Y17.7529
G1 X4.991 Y18.0342
G1 X4.126 Y18.8650
G1 X3.008 Y18.4146
G1 X2.662 Y18.3139
G1 X1.359 Y17.6074
G1 X1.040 Y17.4730
G1 X-0.126 Y16.6492
G1 X-0.415 Y16.4845
G1 X-1.459 Y15.5402
G1 X-1.723 Y15.3452
G1 X-2.655 Y14.2757
G1 X-2.896 Y14.0483
G1 X-3.723 Y12.8435
G1 X-3.944 Y12.5814
G1 X-4.670 Y11.2299
G1 X-4.873 Y10.9269
G1 X-5.425 Y9.6052
G1 X-5.765 Y8.9750
G1 X-7.812 Y8.9536
G1 X-8.205 Y8.9876
G1 X-9.777 Y8.8012
G1 X-10.149 Y8.7942
G1 X-11.601 Y8.4518
G1 X-11.946 Y8.4053
G1 X-13.293 Y7.9134
G1 X-13.616 Y7.8296
G1 X-14.872 Y7.1910
G1 X-15.177 Y7.0721
G1 X-16.354 Y6.2851
G1 X-16.645 Y6.1291
G1 X-17.752 Y5.1877
G1 X-18.034 Y4.9910
G1 X-18.865 Y4.1268
G1 X-18.414 Y3.0084
G1 X-18.313 Y2.6627
G1 X-17.607 Y1.3592
G1 X-17.473 Y1.0408
G1 X-16.649 Y-0.1260
G1 X-16.484 Y-0.4153
G1 X-15.540 Y-1.4590
G1 X-15.345 Y-1.7230
G1 X-14.275 Y-2.6555
G1 X-14.048 Y-2.8961
G1 X-12.843 Y-3.7233
G1 X-12.581 Y-3.9442
G1 X-11.229 Y-4.6707
G1 X-10.926 Y-4.8737
G1 X-9.605 Y-5.4259
G1 X-8.975 Y-5.7658
G1 X-8.953 Y-7.8124
G1 X-8.987 Y-8.2054
G1 X-8.801 Y-9.7770
G1 X-8.794 Y-10.1490
G1 X-8.451 Y-11.6016
G1 X-8.405 Y-11.9461
G1 X-7.913 Y-13.2932
G1 X-7.829 Y-13.6164
G1 X-7.191 Y-14.8728
G1 X-7.072 Y-15.1779
G1 X-6.285 Y-16.3540
G1 X-6.129 Y-16.6459
G1 X-5.187 Y-17.7525
G1 X-4.991 Y-18.0348
G1 X-4.126 Y-18.8656
G1 X-3.425 Y-18.5822
ID=1 WHEN $AC_TIMER[1]>=0 DO M51
G1 X-3.284 Y-17.616 F600
ID=1 WHEN $AC_TIMER[1]>=0 DO M50
G1 X-3.935 Y-17.8780 F600
G1 X-4.346 Y-17.4847
G1 X-4.518 Y-17.2379
G1 X-5.428 Y-16.1671
G1 X-5.560 Y-15.9196
G1 X-6.319 Y-14.7851
G1 X-6.420 Y-14.5268
G1 X-7.035 Y-13.3163
G1 X-7.106 Y-13.0428
G1 X-7.405 Y-12.2246
G1 X-4.518 Y-11.4503
G1 X-2.886 Y-5.3612
G1 X-6.128 Y-2.1188
G1 X-4.497 Y3.97138
G1 X-0.068 Y5.15834
G1 X1.564 Y11.24803
G1 X-1.502 Y14.31451
G1 X-1.147 Y14.72249
G1 X-0.924 Y14.88696
G1 X0.082 Y15.79724
G1 X0.327 Y15.93600
G1 X1.452 Y16.73177
G1 X1.724 Y16.84650
G1 X2.985 Y17.52915
G1 X3.284 Y17.61608
G1 X3.935 Y17.87836
G1 X4.346 Y17.48433
G1 X4.518 Y17.23745
G1 X5.428 Y16.16707
G1 X5.560 Y15.91981
G1 X6.319 Y14.78567
G1 X6.420 Y14.52613
G1 X7.035 Y13.31649
G1 X7.151 Y12.92045
G1 X6.952 Y12.17743
G1 X2.523 Y10.99139
G1 X0.891 Y4.90108
G1 X4.133 Y1.65904
G1 X2.501 Y-4.43174
G1 X-1.927 Y-5.61870
G1 X-3.559 Y-11.70739
G1 X-0.317 Y-14.94935
G1 X-0.641 Y-16.15819
G1 X-1.452 Y-16.73198
G1 X-1.724 Y-16.84670
G1 X-2.985 Y-17.52935
G1 X-3.284 Y-17.61628
ID=1 WHEN $AC_TIMER[1]>=0 DO M51
G1 X7.844 Y-8.109 F600
ID=1 WHEN $AC_TIMER[1]>=0 DO M50
G1 X6.651 Y-8.1219 F600
G1 X6.702 Y-7.9301
G1 X3.460 Y-4.6888
G1 X5.092 Y1.4027
G1 X9.521 Y2.5893
G1 X9.992 Y4.3497
G1 X10.524 Y4.1265
G1 X10.897 Y3.8905
G1 X10.480 Y2.3323
G1 X13.722 Y-0.9109
G1 X12.090 Y-7.0008
G1 X7.926 Y-8.1168
G1 X7.844 Y-8.1095
ID=1 WHEN $AC_TIMER[1]>=0 DO M51
G1 X13.316 Y-7.035 F600
ID=1 WHEN $AC_TIMER[1]>=0 DO M50
G1 X13.093 Y-7.0935 F600
G1 X14.681 Y-1.1671
G1 X16.235 Y-0.7512
G1 X16.731 Y-1.4524
G1 X16.846 Y-1.7247
G1 X17.529 Y-2.9852
G1 X17.616 Y-3.2845
G1 X17.878 Y-3.9353
G1 X17.484 Y-4.3460
G1 X17.237 Y-4.5182
G1 X16.167 Y-5.4284
G1 X15.919 Y-5.5609
G1 X14.785 Y-6.3194
G1 X14.526 Y-6.4201
G1 X13.316 Y-7.0356
ID=1 WHEN $AC_TIMER[1]>=0 DO M51
G1 X-11.516 Y-3.048 F600
ID=1 WHEN $AC_TIMER[1]>=0 DO M50
G1 X-11.636 Y-3.4940 F600
G1 X-12.104 Y-3.2426
G1 X-12.512 Y-2.9280
G1 X-12.475 Y-2.7910
G1 X-15.717 Y0.4516
G1 X-14.085 Y6.5416
G1 X-9.657 Y7.7272
G1 X-9.591 Y7.9745
G1 X-8.529 Y8.0999
G1 X-8.698 Y7.4702
G1 X-5.456 Y4.2288
G1 X-7.087 Y-1.8627
G1 X-11.516 Y-3.0483
ID=1 WHEN $AC_TIMER[1]>=0 DO M51
G1 X-15.257 Y6.003 F600
ID=1 WHEN $AC_TIMER[1]>=0 DO M50
G1 X-16.547 Y1.1913 F600
G1 X-16.731 Y1.4520
G1 X-16.846 Y1.7242
G1 X-17.529 Y2.9858
G1 X-17.616 Y3.2841
G1 X-17.878 Y3.9359
G1 X-17.484 Y4.3466
G1 X-17.237 Y4.5188
G1 X-16.167 Y5.4280
G1 X-15.919 Y5.5604
G1 X-15.257 Y6.0039
ID=1 WHEN $AC_TIMER[1]>=0 DO M51
G1 Z9.000 F600
G1 X-3.504 Y-18.449 F600
ID=1 WHEN $AC_TIMER[1]>=0 DO M50
G1 X-2.907 Y-18.2749 F600
G1 X-1.826 Y-17.6882
G1 X-1.275 Y-17.4561
G1 X-0.307 Y-16.7721
G1 X0.193 Y-16.4885
G1 X1.059 Y-15.7045
G1 X1.516 Y-15.3662
G1 X2.289 Y-14.4797
G1 X2.706 Y-14.0863
G1 X3.392 Y-13.0867
G1 X3.774 Y-12.6335
G1 X4.376 Y-11.5117
G1 X4.724 Y-10.9929
G1 X5.183 Y-9.8955
G1 X5.638 Y-9.0510
G1 X7.402 Y-9.0321
G1 X8.077 Y-9.0916
G1 X9.382 Y-8.9374
G1 X10.022 Y-8.9242
G1 X11.227 Y-8.6405
G1 X11.824 Y-8.5604
G1 X12.941 Y-8.1517
G1 X13.501 Y-8.0076
G1 X14.543 Y-7.4772
G1 X15.072 Y-7.2711
G1 X16.048 Y-6.6186
G1 X16.552 Y-6.3491
G1 X17.471 Y-5.5678
G1 X17.957 Y-5.2300
G1 X18.792 Y-4.3597
G1 X18.448 Y-3.5046
G1 X18.274 Y-2.9075
G1 X17.688 Y-1.8268
G1 X17.456 Y-1.2757
G1 X16.772 Y-0.3077
G1 X16.488 Y0.1931
G1 X15.704 Y1.0591
G1 X15.366 Y1.5168
G1 X14.479 Y2.2893
G1 X14.086 Y2.7069
G1 X13.086 Y3.3923
G1 X12.633 Y3.7741
G1 X11.511 Y4.3763
G1 X10.992 Y4.7245
G1 X9.895 Y5.1831
G1 X9.051 Y5.6386
G1 X9.032 Y7.4027
G1 X9.091 Y8.0772
G1 X8.937 Y9.3821
G1 X8.924 Y10.0228
G1 X8.640 Y11.2271
G1 X8.559 Y11.8240
G1 X8.151 Y12.9413
G1 X8.007 Y13.5013
G1 X7.477 Y14.5438
G1 X7.271 Y15.0727
G1 X6.618 Y16.0482
G1 X6.349 Y16.5527
G1 X5.567 Y17.4714
G1 X5.230 Y17.9576
G1 X4.359 Y18.7923
G1 X3.504 Y18.4492
G1 X2.907 Y18.2741
G1 X1.826 Y17.6885
G1 X1.275 Y17.4563
G1 X0.307 Y16.7723
G1 X-0.193 Y16.4887
G1 X-1.059 Y15.7047
G1 X-1.516 Y15.3664
G1 X-2.289 Y14.4799
G1 X-2.706 Y14.0865
G1 X-3.392 Y13.0869
G1 X-3.774 Y12.6337
G1 X-4.376 Y11.5119
G1 X-4.724 Y10.9922
G1 X-5.183 Y9.8957
G1 X-5.638 Y9.0512
G1 X-7.402 Y9.0323
G1 X-8.077 Y9.0918
G1 X-9.382 Y8.9377
G1 X-10.022 Y8.9244
G1 X-11.227 Y8.6407
G1 X-11.824 Y8.5606
G1 X-12.941 Y8.1519
G1 X-13.501 Y8.0079
G1 X-14.543 Y7.4774
G1 X-15.072 Y7.2713
G1 X-16.048 Y6.6188
G1 X-16.552 Y6.3493
G1 X-17.471 Y5.5671
G1 X-17.957 Y5.2303
G1 X-18.792 Y4.3599
G1 X-18.448 Y3.5048
G1 X-18.274 Y2.9077
G1 X-17.688 Y1.8261
G1 X-17.456 Y1.2759
G1 X-16.772 Y0.3079
G1 X-16.488 Y-0.1934
G1 X-15.704 Y-1.0593
G1 X-15.366 Y-1.5160
G1 X-14.479 Y-2.2895
G1 X-14.086 Y-2.7062
G1 X-13.086 Y-3.3925
G1 X-12.633 Y-3.7743
G1 X-11.511 Y-4.3765
G1 X-10.992 Y-4.7248
G1 X-9.895 Y-5.1833
G1 X-9.051 Y-5.6388
G1 X-9.032 Y-7.4029
G1 X-9.091 Y-8.0775
G1 X-8.937 Y-9.3823
G1 X-8.924 Y-10.0221
G1 X-8.640 Y-11.2273
G1 X-8.559 Y-11.8242
G1 X-8.151 Y-12.9415
G1 X-8.007 Y-13.5015
G1 X-7.477 Y-14.5430
G1 X-7.271 Y-15.0729
G1 X-6.618 Y-16.0484
G1 X-6.349 Y-16.5529
G1 X-5.567 Y-17.4717
G1 X-5.230 Y-17.9579
G1 X-4.359 Y-18.7925
G1 X-3.922 Y-18.6175
ID=1 WHEN $AC_TIMER[1]>=0 DO M51
G1 X1.088 Y-14.573 F600
ID=1 WHEN $AC_TIMER[1]>=0 DO M50
G1 X1.680 Y-13.8938 F600
G1 X2.062 Y-13.5341
G1 X2.720 Y-12.5752
G1 X3.072 Y-12.1573
G1 X3.652 Y-11.0760
G1 X3.978 Y-10.5905
G1 X4.420 Y-9.5313
G1 X5.131 Y-8.2125
G1 X7.435 Y-8.1882
G1 X8.064 Y-8.2438
G1 X9.324 Y-8.0948
G1 X9.916 Y-8.0835
G1 X13.201 Y-7.2138
G1 X14.197 Y-6.7075
G1 X14.680 Y-6.5189
G1 X15.614 Y-5.8949
G1 X16.075 Y-5.6479
G1 X16.956 Y-4.8982
G1 X17.406 Y-4.5854
G1 X17.806 Y-4.1689
G1 X17.650 Y-3.7811
G1 X17.489 Y-3.2300
G1 X16.927 Y-2.1923
G1 X16.714 Y-1.6878
G1 X16.387 Y-1.2249
G1 X13.979 Y-1.8695
G1 X12.792 Y-6.2981
G1 X6.702 Y-7.9300
G1 X3.460 Y-4.6886
G1 X-2.629 Y-6.3196
G1 X-3.816 Y-10.7482
G1 X-7.676 Y-11.7834
G1 X-7.337 Y-12.7191
G1 X-3.559 Y-11.7075
G1 X-0.317 Y-14.9491
G1 X1.088 Y-14.5734
ID=1 WHEN $AC_TIMER[1]>=0 DO M51
G1 X3.203 Y-3.729 F600
ID=1 WHEN $AC_TIMER[1]>=0 DO M50
G1 X4.390 Y0.7006 F600
G1 X10.480 Y2.3326
G1 X13.722 Y-0.9102
G1 X15.824 Y-0.3474
G1 X15.051 Y0.5244
G1 X14.743 Y0.9407
G1 X13.893 Y1.6808
G1 X13.534 Y2.0622
G1 X12.574 Y2.7202
G1 X12.157 Y3.0724
G1 X11.076 Y3.6521
G1 X10.590 Y3.9786
G1 X10.425 Y4.0460
G1 X10.223 Y3.2915
G1 X4.133 Y1.6595
G1 X0.891 Y4.9011
G1 X-5.199 Y3.2690
G1 X-6.385 Y-1.1606
G1 X-12.475 Y-2.7916
G1 X-15.717 Y0.4512
G1 X-15.861 Y0.4129
G1 X-15.800 Y0.3041
G1 X-15.051 Y-0.5243
G1 X-14.743 Y-0.9406
G1 X-13.893 Y-1.6807
G1 X-13.534 Y-2.0621
G1 X-12.574 Y-2.7201
G1 X-12.157 Y-3.0723
G1 X-11.334 Y-3.5130
G1 X-6.128 Y-2.1185
G1 X-2.886 Y-5.3611
G1 X3.203 Y-3.7290
ID=1 WHEN $AC_TIMER[1]>=0 DO M51
G1 X-15.974 Y1.410 F600
ID=1 WHEN $AC_TIMER[1]>=0 DO M50
G1 X-14.787 Y5.8396 F600
G1 X-8.698 Y7.4706
G1 X-5.456 Y4.2282
G1 X0.634 Y5.8601
G1 X1.821 Y10.2897
G1 X7.651 Y11.8513
G1 X7.319 Y12.7905
G1 X1.564 Y11.2482
G1 X-1.402 Y14.2130
G1 X-1.680 Y13.8936
G1 X-2.062 Y13.5349
G1 X-2.720 Y12.5750
G1 X-3.072 Y12.1572
G1 X-3.652 Y11.0768
G1 X-3.978 Y10.5903
G1 X-4.420 Y9.5312
G1 X-5.131 Y8.2123
G1 X-7.435 Y8.1880
G1 X-8.064 Y8.2437
G1 X-9.324 Y8.0946
G1 X-9.916 Y8.0833
G1 X-11.074 Y7.8095
G1 X-11.466 Y7.7562
G1 X-11.833 Y7.6582
G1 X-12.691 Y7.3456
G1 X-13.201 Y7.2138
G1 X-14.197 Y6.7075
G1 X-14.680 Y6.5189
G1 X-15.614 Y5.8949
G1 X-16.075 Y5.6479
G1 X-16.956 Y4.8982
G1 X-17.406 Y4.5853
G1 X-17.806 Y4.1689
G1 X-17.650 Y3.7810
G1 X-17.489 Y3.2300
G1 X-16.927 Y2.1923
G1 X-16.714 Y1.6877
G1 X-16.432 Y1.2876
G1 X-15.974 Y1.4102
ID=1 WHEN $AC_TIMER[1]>=0 DO M51
G1 Z9.500 F600
G1 X-4.001 Y-18.483 F600
ID=1 WHEN $AC_TIMER[1]>=0 DO M50
G1 X-3.153 Y-18.2355 F600
G1 X-2.293 Y-17.7697
G1 X-1.510 Y-17.4397
G1 X-0.741 Y-16.8966
G1 X-0.029 Y-16.4911
G1 X0.659 Y-15.8694
G1 X1.309 Y-15.3888
G1 X1.923 Y-14.6833
G1 X2.516 Y-14.1249
G1 X3.062 Y-13.3295
G1 X3.603 Y-12.6861
G1 X4.082 Y-11.7942
G1 X4.576 Y-11.0585
G1 X4.940 Y-10.1854
G1 X5.511 Y-9.1276
G1 X6.993 Y-9.1112
G1 X7.949 Y-9.1952
G1 X8.987 Y-9.0723
G1 X9.896 Y-9.0558
G1 X10.854 Y-8.8287
G1 X11.702 Y-8.7140
G1 X12.590 Y-8.3905
G1 X13.387 Y-8.1853
G1 X14.214 Y-7.7649
G1 X14.967 Y-7.4707
G1 X15.742 Y-6.9526
G1 X16.460 Y-6.5687
G1 X17.189 Y-5.9475
G1 X17.879 Y-5.4696
G1 X18.449 Y-4.8758
G1 X18.735 Y-4.6298
G1 X18.483 Y-4.0015
G1 X18.235 Y-3.1530
G1 X17.769 Y-2.2932
G1 X17.439 Y-1.5101
G1 X16.896 Y-0.7411
G1 X16.491 Y-0.0296
G1 X15.869 Y0.6598
G1 X15.388 Y1.3093
G1 X14.683 Y1.9238
G1 X14.124 Y2.5164
G1 X13.329 Y3.0620
G1 X12.686 Y3.6036
G1 X11.794 Y4.0826
G1 X11.058 Y4.5760
G1 X10.185 Y4.9408
G1 X9.127 Y5.5111
G1 X9.111 Y6.9936
G1 X9.195 Y7.9497
G1 X9.072 Y8.9877
G1 X9.055 Y9.8963
G1 X8.828 Y10.8542
G1 X8.714 Y11.7025
G1 X8.390 Y12.5900
G1 X8.185 Y13.3877
G1 X7.764 Y14.2144
G1 X7.470 Y14.9672
G1 X6.952 Y15.7421
G1 X6.568 Y16.4602
G1 X5.947 Y17.1890
G1 X5.469 Y17.8791
G1 X4.875 Y18.4493
G1 X4.629 Y18.7352
G1 X4.001 Y18.4830
G1 X3.153 Y18.2355
G1 X2.293 Y17.7696
G1 X1.510 Y17.4396
G1 X0.741 Y16.8966
G1 X0.029 Y16.4911
G1 X-0.659 Y15.8693
G1 X-1.309 Y15.3888
G1 X-1.923 Y14.6833
G1 X-2.516 Y14.1249
G1 X-3.062 Y13.3294
G1 X-3.603 Y12.6860
G1 X-4.082 Y11.7941
G1 X-4.576 Y11.0585
G1 X-4.940 Y10.1853
G1 X-5.511 Y9.1276
G1 X-6.993 Y9.1111
G1 X-7.949 Y9.1952
G1 X-8.987 Y9.0722
G1 X-9.896 Y9.0558
G1 X-10.854 Y8.8287
G1 X-11.702 Y8.7149
G1 X-12.590 Y8.3905
G1 X-13.387 Y8.1852
G1 X-14.214 Y7.7649
G1 X-14.967 Y7.4707
G1 X-15.742 Y6.9526
G1 X-16.460 Y6.5686
G1 X-17.189 Y5.9475
G1 X-17.879 Y5.4696
G1 X-18.449 Y4.8758
G1 X-18.735 Y4.6297
G1 X-18.483 Y4.0014
G1 X-18.235 Y3.1530
G1 X-17.769 Y2.2931
G1 X-17.439 Y1.5101
G1 X-16.896 Y0.7411
G1 X-16.491 Y0.0296
G1 X-15.869 Y-0.6598
G1 X-15.388 Y-1.3093
G1 X-14.683 Y-1.9238
G1 X-14.124 Y-2.5164
G1 X-13.329 Y-3.0629
G1 X-12.686 Y-3.6035
G1 X-11.794 Y-4.0826
G1 X-11.058 Y-4.5760
G1 X-10.185 Y-4.9408
G1 X-9.127 Y-5.5111
G1 X-9.111 Y-6.9936
G1 X-9.195 Y-7.9497
G1 X-9.072 Y-8.9877
G1 X-9.055 Y-9.8963
G1 X-8.828 Y-10.8542
G1 X-8.714 Y-11.7024
G1 X-8.390 Y-12.5900
G1 X-8.185 Y-13.3877
G1 X-7.764 Y-14.2144
G1 X-7.470 Y-14.9672
G1 X-6.952 Y-15.7420
G1 X-6.568 Y-16.4601
G1 X-5.947 Y-17.1890
G1 X-5.469 Y-17.8791
G1 X-4.875 Y-18.4493
G1 X-4.629 Y-18.7352
G1 X-4.418 Y-18.6519
ID=1 WHEN $AC_TIMER[1]>=0 DO M51
G1 X0.124 Y-15.215 F600
ID=1 WHEN $AC_TIMER[1]>=0 DO M50
G1 X0.427 Y-14.9916 F600
G1 X-3.816 Y-10.7487
G1 X-2.629 Y-6.3193
G1 X-7.087 Y-1.8622
G1 X-11.516 Y-3.0488
G1 X-15.974 Y1.4108
G1 X-14.787 Y5.8394
G1 X-15.229 Y6.2808
G1 X-15.982 Y5.8679
G1 X-16.674 Y5.2783
G1 X-17.328 Y4.8243
G1 X-17.734 Y4.4018
G1 X-17.450 Y3.4764
G1 X-17.007 Y2.6596
G1 X-16.697 Y1.9222
G1 X-16.183 Y1.1947
G1 X-15.803 Y0.5264
G1 X-15.215 Y-0.1249
G1 X-14.764 Y-0.7339
G1 X-14.097 Y-1.3140
G1 X-13.572 Y-1.8724
G1 X-12.818 Y-2.3906
G1 X-12.210 Y-2.9016
G1 X-11.358 Y-3.3581
G1 X-10.656 Y-3.8298
G1 X-9.822 Y-4.1789
G1 X-8.289 Y-5.0048
G1 X-8.267 Y-7.0259
G1 X-8.347 Y-7.9361
G1 X-8.229 Y-8.9292
G1 X-8.213 Y-9.7907
G1 X-7.998 Y-10.7006
G1 X-7.890 Y-11.4995
G1 X-7.606 Y-12.2787
G1 X-4.518 Y-11.4503
G1 X-0.337 Y-15.6325
G1 X0.124 Y-15.2154
ID=1 WHEN $AC_TIMER[1]>=0 DO M51
G1 X8.929 Y-8.229 F600
ID=1 WHEN $AC_TIMER[1]>=0 DO M50
G1 X9.790 Y-8.2135 F600
G1 X10.700 Y-7.9983
G1 X11.499 Y-7.8903
G1 X12.339 Y-7.5835
G1 X12.605 Y-7.5151
G1 X12.090 Y-7.0001
G1 X7.661 Y-8.1877
G1 X3.203 Y-3.7296
G1 X4.390 Y0.7002
G1 X-0.068 Y5.1582
G1 X-4.497 Y3.9718
G1 X-8.773 Y8.2487
G1 X-8.929 Y8.2298
G1 X-9.790 Y8.2133
G1 X-10.700 Y7.9981
G1 X-11.499 Y7.8901
G1 X-12.339 Y7.5834
G1 X-13.087 Y7.3913
G1 X-13.869 Y6.9932
G1 X-14.350 Y6.8052
G1 X-14.085 Y6.5419
G1 X-9.657 Y7.7275
G1 X-5.199 Y3.2695
G1 X-6.385 Y-1.1601
G1 X-1.927 Y-5.6181
G1 X2.501 Y-4.4317
G1 X6.345 Y-8.2743
G1 X7.025 Y-8.2679
G1 X7.936 Y-8.3471
G1 X8.929 Y-8.2293
ID=1 WHEN $AC_TIMER[1]>=0 DO M51
G1 X13.869 Y-6.993 F600
ID=1 WHEN $AC_TIMER[1]>=0 DO M50
G1 X14.575 Y-6.7173 F600
G1 X15.308 Y-6.2277
G1 X15.982 Y-5.8673
G1 X16.674 Y-5.2786
G1 X17.328 Y-4.8247
G1 X17.734 Y-4.4012
G1 X17.450 Y-3.4767
G1 X17.007 Y-2.6599
G1 X16.697 Y-1.9225
G1 X16.183 Y-1.1941
G1 X15.971 Y-0.8222
G1 X14.681 Y-1.1671
G1 X10.223 Y3.2910
G1 X10.396 Y3.9384
G1 X9.822 Y4.1788
G1 X8.289 Y5.0047
G1 X8.267 Y7.0258
G1 X8.347 Y7.9360
G1 X8.229 Y8.9292
G1 X8.213 Y9.7907
G1 X7.998 Y10.7005
G1 X7.931 Y11.1985
G1 X6.952 Y12.1777
G1 X2.523 Y10.9913
G1 X-0.974 Y14.4877
G1 X-1.314 Y14.0970
G1 X-1.661 Y13.7708
G1 X1.821 Y10.2892
G1 X0.634 Y5.8608
G1 X5.092 Y1.4028
G1 X9.521 Y2.5894
G1 X13.979 Y-1.8693
G1 X12.792 Y-6.2989
G1 X13.616 Y-7.1227
G1 X13.869 Y-6.9939
ID=1 WHEN $AC_TIMER[1]>=0 DO M51
G1 Z10.000 F600
G1 X-4.497 Y-18.517 F600
ID=1 WHEN $AC_TIMER[1]>=0 DO M50
G1 X-3.398 Y-18.1951 F600
G1 X-2.761 Y-17.8501
G1 X-1.745 Y-17.4223
G1 X-1.175 Y-17.0202
G1 X-0.251 Y-16.4948
G1 X0.259 Y-16.0333
G1 X1.102 Y-15.4094
G1 X1.557 Y-14.8870
G1 X2.326 Y-14.1626
G1 X2.731 Y-13.5723
G1 X3.433 Y-12.7397
G1 X3.788 Y-12.0766
G1 X4.427 Y-11.1232
G1 X4.698 Y-10.4763
G1 X5.384 Y-9.2033
G1 X6.583 Y-9.1902
G1 X7.821 Y-9.2999
G1 X8.592 Y-9.2081
G1 X9.770 Y-9.1855
G1 X10.480 Y-9.0170
G1 X11.581 Y-8.8696
G1 X12.238 Y-8.6284
G1 X13.272 Y-8.3629
G1 X13.885 Y-8.0517
G1 X14.862 Y-7.6693
G1 X15.437 Y-7.2856
G1 X16.367 Y-6.7873
G1 X16.908 Y-6.3272
G1 X17.801 Y-5.7073
G1 X18.223 Y-5.2679
G1 X18.672 Y-4.8834
G1 X18.517 Y-4.4975
G1 X18.195 Y-3.3986
G1 X17.850 Y-2.7616
G1 X17.422 Y-1.7458
G1 X17.020 Y-1.1756
G1 X16.494 Y-0.2512
G1 X16.033 Y0.2597
G1 X15.409 Y1.1029
G1 X14.887 Y1.5575
G1 X14.161 Y2.3260
G1 X13.572 Y2.7318
G1 X12.739 Y3.4332
G1 X12.076 Y3.7881
G1 X11.123 Y4.4276
G1 X10.476 Y4.6987
G1 X9.203 Y5.3847
G1 X9.190 Y6.5837
G1 X9.299 Y7.8213
G1 X9.208 Y8.5926
G1 X9.185 Y9.7709
G1 X9.017 Y10.4805
G1 X8.869 Y11.5811
G1 X8.628 Y12.2399
G1 X8.362 Y13.2724
G1 X8.051 Y13.8852
G1 X7.669 Y14.8628
G1 X7.285 Y15.4371
G1 X6.787 Y16.3678
G1 X6.327 Y16.9087
G1 X5.707 Y17.8018
G1 X5.267 Y18.2234
G1 X4.883 Y18.6729
G1 X4.497 Y18.5170
G1 X3.398 Y18.1951
G1 X2.761 Y17.8501
G1 X1.745 Y17.4222
G1 X1.175 Y17.0201
G1 X0.251 Y16.4947
G1 X-0.259 Y16.0332
G1 X-1.102 Y15.4094
G1 X-1.557 Y14.8879
G1 X-2.326 Y14.1625
G1 X-2.731 Y13.5722
G1 X-3.433 Y12.7397
G1 X-3.788 Y12.0766
G1 X-4.427 Y11.1231
G1 X-4.698 Y10.4762
G1 X-5.384 Y9.2032
G1 X-6.583 Y9.1902
G1 X-7.821 Y9.2998
G1 X-8.592 Y9.2080
G1 X-9.770 Y9.1854
G1 X-10.480 Y9.0179
G1 X-11.581 Y8.8696
G1 X-12.238 Y8.6284
G1 X-13.272 Y8.3628
G1 X-13.885 Y8.0517
G1 X-14.862 Y7.6693
G1 X-15.437 Y7.2856
G1 X-16.367 Y6.7873
G1 X-16.908 Y6.3272
G1 X-17.801 Y5.7072
G1 X-18.223 Y5.2679
G1 X-18.672 Y4.8833
G1 X-18.517 Y4.4974
G1 X-18.195 Y3.3986
G1 X-17.850 Y2.7616
G1 X-17.422 Y1.7457
G1 X-17.020 Y1.1756
G1 X-16.494 Y0.2512
G1 X-16.033 Y-0.2597
G1 X-15.409 Y-1.1029
G1 X-14.887 Y-1.5574
G1 X-14.161 Y-2.3260
G1 X-13.572 Y-2.7317
G1 X-12.739 Y-3.4331
G1 X-12.076 Y-3.7880
G1 X-11.123 Y-4.4276
G1 X-10.476 Y-4.6987
G1 X-9.203 Y-5.3847
G1 X-9.190 Y-6.5837
G1 X-9.299 Y-7.8213
G1 X-9.208 Y-8.5925
G1 X-9.185 Y-9.7709
G1 X-9.017 Y-10.4804
G1 X-8.869 Y-11.5810
G1 X-8.628 Y-12.2399
G1 X-8.362 Y-13.2723
G1 X-8.051 Y-13.8852
G1 X-7.669 Y-14.8628
G1 X-7.285 Y-15.4371
G1 X-6.787 Y-16.3677
G1 X-6.327 Y-16.9087
G1 X-5.707 Y-17.8017
G1 X-5.267 Y-18.2234
G1 X-4.905 Y-18.6469
ID=1 WHEN $AC_TIMER[1]>=0 DO M51
G1 X-3.721 Y-17.411 F600
ID=1 WHEN $AC_TIMER[1]>=0 DO M50
G1 X-4.626 Y-17.6757 F600
G1 X-5.062 Y-17.2504
G1 X-5.658 Y-16.3933
G1 X-6.086 Y-15.8898
G1 X-6.561 Y-15.0020
G1 X-6.917 Y-14.4708
G1 X-7.280 Y-13.5409
G1 X-7.568 Y-12.9720
G1 X-7.738 Y-12.3138
G1 X-4.518 Y-11.4506
G1 X-2.886 Y-5.3616
G1 X-6.128 Y-2.1182
G1 X-4.497 Y3.97111
G1 X-0.068 Y5.15807
G1 X1.564 Y11.24877
G1 X-1.227 Y14.03890
G1 X-0.948 Y14.30182
G1 X-0.526 Y14.78694
G1 X0.276 Y15.37901
G1 X0.748 Y15.80669
G1 X1.628 Y16.30777
G1 X2.157 Y16.68021
G1 X3.126 Y17.08809
G1 X3.721 Y17.41159
G1 X4.626 Y17.67576
G1 X5.062 Y17.25053
G1 X5.658 Y16.39383
G1 X6.086 Y15.88928
G1 X6.561 Y15.00290
G1 X6.917 Y14.47088
G1 X7.304 Y13.49272
G1 X6.952 Y12.17729
G1 X2.523 Y10.99125
G1 X0.891 Y4.90194
G1 X4.133 Y1.65990
G1 X2.501 Y-4.43160
G1 X-1.927 Y-5.61856
G1 X-3.559 Y-11.70726
G1 X-0.317 Y-14.94922
G1 X-0.482 Y-15.56500
G1 X-0.748 Y-15.80620
G1 X-1.628 Y-16.30728
G1 X-2.157 Y-16.68073
G1 X-3.126 Y-17.08861
G1 X-3.721 Y-17.41111
ID=1 WHEN $AC_TIMER[1]>=0 DO M51
G1 X7.661 Y-8.187 F600
ID=1 WHEN $AC_TIMER[1]>=0 DO M50
G1 X7.596 Y-8.4323 F600
G1 X6.591 Y-8.3464
G1 X6.702 Y-7.9301
G1 X3.460 Y-4.6887
G1 X5.092 Y1.4027
G1 X9.521 Y2.5893
G1 X9.911 Y4.0442
G1 X10.112 Y3.9364
G1 X10.722 Y3.6808
G1 X10.823 Y3.6133
G1 X10.480 Y2.3326
G1 X13.722 Y-0.9102
G1 X12.090 Y-7.0001
G1 X7.661 Y-8.1877
ID=1 WHEN $AC_TIMER[1]>=0 DO M51
G1 X13.540 Y-7.280 F600
ID=1 WHEN $AC_TIMER[1]>=0 DO M50
G1 X13.229 Y-7.4374 F600
G1 X13.049 Y-7.2574
G1 X14.681 Y-1.1674
G1 X15.864 Y-0.8506
G1 X16.307 Y-1.6280
G1 X16.680 Y-2.1575
G1 X17.088 Y-3.1262
G1 X17.411 Y-3.7212
G1 X17.675 Y-4.6260
G1 X17.250 Y-5.0627
G1 X16.393 Y-5.6587
G1 X15.889 Y-6.0861
G1 X15.002 Y-6.5613
G1 X14.470 Y-6.9171
G1 X13.540 Y-7.2802
ID=1 WHEN $AC_TIMER[1]>=0 DO M51
G1 X-11.516 Y-3.048 F600
ID=1 WHEN $AC_TIMER[1]>=0 DO M50
G1 X-11.539 Y-3.1335 F600
G1 X-12.262 Y-2.7317
G1 X-13.061 Y-2.0595
G1 X-13.530 Y-1.7362
G1 X-14.914 Y-0.3528
G1 X-15.379 Y0.2760
G1 X-15.676 Y0.6045
G1 X-14.085 Y6.5419
G1 X-9.657 Y7.7275
G1 X-9.491 Y8.3464
G1 X-8.456 Y8.3746
G1 X-8.698 Y7.4707
G1 X-5.456 Y4.2283
G1 X-7.087 Y-1.8622
G1 X-11.516 Y-3.0488
ID=1 WHEN $AC_TIMER[1]>=0 DO M51
G1 X-15.125 Y6.495 F600
ID=1 WHEN $AC_TIMER[1]>=0 DO M50
G1 X-16.396 Y1.7541 F600
G1 X-16.680 Y2.1572
G1 X-17.088 Y3.1260
G1 X-17.411 Y3.7210
G1 X-17.675 Y4.6267
G1 X-17.250 Y5.0624
G1 X-16.393 Y5.6584
G1 X-15.889 Y6.0869
G1 X-15.125 Y6.4959
ID=1 WHEN $AC_TIMER[1]>=0 DO M51
G1 Z10.500 F600
G1 X-3.644 Y-18.156 F600
ID=1 WHEN $AC_TIMER[1]>=0 DO M50
G1 X-3.228 Y-17.9318 F600
G1 X-1.979 Y-17.4051
G1 X-1.609 Y-17.1439
G1 X-0.473 Y-16.4976
G1 X-0.141 Y-16.1974
