; Generated by RP3 on 2019-02-11
; Job 0 - LMD

; General Config.--------------------
$ac_timer[1]=0
G91   ; relative positioning
G64   ;
M55   ; home mirror
G4F4  ; necessary delay for positioning of the mirror
M0    ; wait for user-input

; Process Start-up--------------------
M56   ; set canal 1 as laser-source
G4F4  ; necessary delay for positioning of the mirror
M0    ; wait for user-input
; START POWDER!!!
G4F10
M0
G54   ; set process starting point (machine zero)

; Laser On and Path------------------
H1=63
H2=5.6
G90   ; use absolute coordinates

; Layer 1
G1 Z1.300 F1500
X23.85 Y23.85 F1500
ID=1 WHEN $AC_TIMER[1]>=0 DO M50
X1.150 Y23.850 F300
X1.150 Y1.150
X23.850 Y1.150
X23.850 Y23.750
ID=1 WHEN $AC_TIMER[1]>=0 DO M51

; Inicio do trecho do raster
X21.895 Y5.18936 F1500
ID=1 WHEN $AC_TIMER[1]>=0 DO M50
X19.811 Y3.105 F300
ID=1 WHEN $AC_TIMER[1]>=0 DO M51
X17.0458 Y3.105 F1500
ID=1 WHEN $AC_TIMER[1]>=0 DO M50
X21.895 Y7.954 F300
ID=1 WHEN $AC_TIMER[1]>=0 DO M51
X21.895 Y10.7189 F1500
ID=1 WHEN $AC_TIMER[1]>=0 DO M50
X14.281 Y3.105 F300
ID=1 WHEN $AC_TIMER[1]>=0 DO M51
X11.5163 Y3.105 F1500
ID=1 WHEN $AC_TIMER[1]>=0 DO M50
X21.895 Y13.484 F300
ID=1 WHEN $AC_TIMER[1]>=0 DO M51
X21.895 Y16.2485 F1500
ID=1 WHEN $AC_TIMER[1]>=0 DO M50
X8.751 Y3.105 F300
ID=1 WHEN $AC_TIMER[1]>=0 DO M51
X5.9867 Y3.105 F1500
ID=1 WHEN $AC_TIMER[1]>=0 DO M50
X21.895 Y19.013 F300
ID=1 WHEN $AC_TIMER[1]>=0 DO M51
X21.895 Y21.7781 F1500
ID=1 WHEN $AC_TIMER[1]>=0 DO M50
X3.222 Y3.105 F300
ID=1 WHEN $AC_TIMER[1]>=0 DO M51
X3.105 Y5.75288 F1500
ID=1 WHEN $AC_TIMER[1]>=0 DO M50
X19.247 Y21.895 F300
ID=1 WHEN $AC_TIMER[1]>=0 DO M51
X16.4823 Y21.895 F1500
ID=1 WHEN $AC_TIMER[1]>=0 DO M50
X3.105 Y8.518 F300
ID=1 WHEN $AC_TIMER[1]>=0 DO M51
X3.105 Y11.2825 F1500
ID=1 WHEN $AC_TIMER[1]>=0 DO M50
X13.718 Y21.895 F300
ID=1 WHEN $AC_TIMER[1]>=0 DO M51
X10.9528 Y21.895 F1500
ID=1 WHEN $AC_TIMER[1]>=0 DO M50
X3.105 Y14.047 F300
ID=1 WHEN $AC_TIMER[1]>=0 DO M51
X3.105 Y16.812 F1500
ID=1 WHEN $AC_TIMER[1]>=0 DO M50
X8.188 Y21.895 F300
ID=1 WHEN $AC_TIMER[1]>=0 DO M51
X5.42319 Y21.895 F1500
ID=1 WHEN $AC_TIMER[1]>=0 DO M50
X3.105 Y19.577 F300
ID=1 WHEN $AC_TIMER[1]>=0 DO M51
; Final do trecho do raster

; Layer 2
G1 Z2.600 F1500
X23.85 Y23.85 F1500
ID=1 WHEN $AC_TIMER[1]>=0 DO M50
X1.150 Y23.850 F300
X1.150 Y1.150
X23.850 Y1.150
X23.850 Y23.750
ID=1 WHEN $AC_TIMER[1]>=0 DO M51

; Inicio do trecho do raster
X19.8106 Y21.895 F1500
ID=1 WHEN $AC_TIMER[1]>=0 DO M50
X21.895 Y19.811 F300
ID=1 WHEN $AC_TIMER[1]>=0 DO M51
X21.895 Y17.0459 F1500
ID=1 WHEN $AC_TIMER[1]>=0 DO M50
X17.046 Y21.895 F300
ID=1 WHEN $AC_TIMER[1]>=0 DO M51
X14.2811 Y21.895 F1500
ID=1 WHEN $AC_TIMER[1]>=0 DO M50
X21.895 Y14.281 F300
ID=1 WHEN $AC_TIMER[1]>=0 DO M51
X21.895 Y11.5163 F1500
ID=1 WHEN $AC_TIMER[1]>=0 DO M50
X11.516 Y21.895 F300
ID=1 WHEN $AC_TIMER[1]>=0 DO M51
X8.7515 Y21.895 F1500
ID=1 WHEN $AC_TIMER[1]>=0 DO M50
X21.895 Y8.751 F300
ID=1 WHEN $AC_TIMER[1]>=0 DO M51
X21.895 Y5.98671 F1500
ID=1 WHEN $AC_TIMER[1]>=0 DO M50
X5.987 Y21.895 F300
ID=1 WHEN $AC_TIMER[1]>=0 DO M51
X3.22192 Y21.895 F1500
ID=1 WHEN $AC_TIMER[1]>=0 DO M50
X21.895 Y3.222 F300
ID=1 WHEN $AC_TIMER[1]>=0 DO M51
X19.2471 Y3.105 F1500
ID=1 WHEN $AC_TIMER[1]>=0 DO M50
X3.105 Y19.247 F300
ID=1 WHEN $AC_TIMER[1]>=0 DO M51
X3.105 Y16.4823 F1500
ID=1 WHEN $AC_TIMER[1]>=0 DO M50
X16.482 Y3.105 F300
ID=1 WHEN $AC_TIMER[1]>=0 DO M51
X13.7176 Y3.105 F1500
ID=1 WHEN $AC_TIMER[1]>=0 DO M50
X3.105 Y13.718 F300
ID=1 WHEN $AC_TIMER[1]>=0 DO M51
X3.105 Y10.9528 F1500
ID=1 WHEN $AC_TIMER[1]>=0 DO M50
X10.953 Y3.105 F300
ID=1 WHEN $AC_TIMER[1]>=0 DO M51
X8.18798 Y3.105 F1500
ID=1 WHEN $AC_TIMER[1]>=0 DO M50
X3.105 Y8.188 F300
ID=1 WHEN $AC_TIMER[1]>=0 DO M51
X3.105 Y5.4232 F1500
ID=1 WHEN $AC_TIMER[1]>=0 DO M50
X5.423 Y3.105 F300
ID=1 WHEN $AC_TIMER[1]>=0 DO M51
; Final do trecho do raster

; Layer 3
G1 Z3.900 F1500
X23.85 Y23.85 F1500
ID=1 WHEN $AC_TIMER[1]>=0 DO M50
X1.150 Y23.850 F300
X1.150 Y1.150
X23.850 Y1.150
X23.850 Y23.750
ID=1 WHEN $AC_TIMER[1]>=0 DO M51

; Inicio do trecho do raster
X3.105 Y19.8106 F1500
ID=1 WHEN $AC_TIMER[1]>=0 DO M50
X5.189 Y21.895 F300
ID=1 WHEN $AC_TIMER[1]>=0 DO M51
X7.95415 Y21.895 F1500
ID=1 WHEN $AC_TIMER[1]>=0 DO M50
X3.105 Y17.046 F300
ID=1 WHEN $AC_TIMER[1]>=0 DO M51
X3.105 Y14.2811 F1500
ID=1 WHEN $AC_TIMER[1]>=0 DO M50
X10.719 Y21.895 F300
ID=1 WHEN $AC_TIMER[1]>=0 DO M51
X13.4837 Y21.895 F1500
ID=1 WHEN $AC_TIMER[1]>=0 DO M50
X3.105 Y11.516 F300
ID=1 WHEN $AC_TIMER[1]>=0 DO M51
X3.105 Y8.75149 F1500
ID=1 WHEN $AC_TIMER[1]>=0 DO M50
X16.249 Y21.895 F300
ID=1 WHEN $AC_TIMER[1]>=0 DO M51
X19.0133 Y21.895 F1500
ID=1 WHEN $AC_TIMER[1]>=0 DO M50
X3.105 Y5.987 F300
ID=1 WHEN $AC_TIMER[1]>=0 DO M51
X3.105 Y3.22191 F1500
ID=1 WHEN $AC_TIMER[1]>=0 DO M50
X21.778 Y21.895 F300
ID=1 WHEN $AC_TIMER[1]>=0 DO M51
X21.895 Y19.2471 F1500
ID=1 WHEN $AC_TIMER[1]>=0 DO M50
X5.753 Y3.105 F300
ID=1 WHEN $AC_TIMER[1]>=0 DO M51
X8.51766 Y3.105 F1500
ID=1 WHEN $AC_TIMER[1]>=0 DO M50
X21.895 Y16.482 F300
ID=1 WHEN $AC_TIMER[1]>=0 DO M51
X21.895 Y13.7175 F1500
ID=1 WHEN $AC_TIMER[1]>=0 DO M50
X11.282 Y3.105 F300
ID=1 WHEN $AC_TIMER[1]>=0 DO M51
X14.0472 Y3.105 F1500
ID=1 WHEN $AC_TIMER[1]>=0 DO M50
X21.895 Y10.953 F300
ID=1 WHEN $AC_TIMER[1]>=0 DO M51
X21.895 Y8.18797 F1500
ID=1 WHEN $AC_TIMER[1]>=0 DO M50
X16.812 Y3.105 F300
ID=1 WHEN $AC_TIMER[1]>=0 DO M51
X19.5768 Y3.105 F1500
ID=1 WHEN $AC_TIMER[1]>=0 DO M50
X21.895 Y5.423 F300
ID=1 WHEN $AC_TIMER[1]>=0 DO M51
; Final do trecho do raster

; Layer 4
G1 Z5.200 F1500
X23.85 Y23.85 F1500
ID=1 WHEN $AC_TIMER[1]>=0 DO M50
X1.150 Y23.850 F300
X1.150 Y1.150
X23.850 Y1.150
X23.850 Y23.750
ID=1 WHEN $AC_TIMER[1]>=0 DO M51

; Inicio do trecho do raster
X5.18936 Y3.105 F1500
ID=1 WHEN $AC_TIMER[1]>=0 DO M50
X3.105 Y5.189 F300
ID=1 WHEN $AC_TIMER[1]>=0 DO M51
X3.105 Y7.95415 F1500
ID=1 WHEN $AC_TIMER[1]>=0 DO M50
X7.954 Y3.105 F300
ID=1 WHEN $AC_TIMER[1]>=0 DO M51
X10.7189 Y3.105 F1500
ID=1 WHEN $AC_TIMER[1]>=0 DO M50
X3.105 Y10.719 F300
ID=1 WHEN $AC_TIMER[1]>=0 DO M51
X3.105 Y13.4837 F1500
ID=1 WHEN $AC_TIMER[1]>=0 DO M50
X13.484 Y3.105 F300
ID=1 WHEN $AC_TIMER[1]>=0 DO M51
X16.2485 Y3.105 F1500
ID=1 WHEN $AC_TIMER[1]>=0 DO M50
X3.105 Y16.249 F300
ID=1 WHEN $AC_TIMER[1]>=0 DO M51
X3.105 Y19.0133 F1500
ID=1 WHEN $AC_TIMER[1]>=0 DO M50
X19.013 Y3.105 F300
ID=1 WHEN $AC_TIMER[1]>=0 DO M51
X21.7781 Y3.105 F1500
ID=1 WHEN $AC_TIMER[1]>=0 DO M50
X3.105 Y21.778 F300
ID=1 WHEN $AC_TIMER[1]>=0 DO M51
X5.75288 Y21.895 F1500
ID=1 WHEN $AC_TIMER[1]>=0 DO M50
X21.895 Y5.753 F300
ID=1 WHEN $AC_TIMER[1]>=0 DO M51
X21.895 Y8.51766 F1500
ID=1 WHEN $AC_TIMER[1]>=0 DO M50
X8.518 Y21.895 F300
ID=1 WHEN $AC_TIMER[1]>=0 DO M51
X11.2825 Y21.895 F1500
ID=1 WHEN $AC_TIMER[1]>=0 DO M50
X21.895 Y11.282 F300
ID=1 WHEN $AC_TIMER[1]>=0 DO M51
X21.895 Y14.0472 F1500
ID=1 WHEN $AC_TIMER[1]>=0 DO M50
X14.047 Y21.895 F300
ID=1 WHEN $AC_TIMER[1]>=0 DO M51
X16.812 Y21.895 F1500
ID=1 WHEN $AC_TIMER[1]>=0 DO M50
X21.895 Y16.812 F300
ID=1 WHEN $AC_TIMER[1]>=0 DO M51
X21.895 Y19.5768 F1500
ID=1 WHEN $AC_TIMER[1]>=0 DO M50
X19.577 Y21.895 F300
ID=1 WHEN $AC_TIMER[1]>=0 DO M51
; Final do trecho do raster

; Layer 5
G1 Z6.500 F1500
X23.85 Y23.85 F1500
ID=1 WHEN $AC_TIMER[1]>=0 DO M50
X1.150 Y23.850 F300
X1.150 Y1.150
X23.850 Y1.150
X23.850 Y23.750
ID=1 WHEN $AC_TIMER[1]>=0 DO M51

; Inicio do trecho do raster
X21.895 Y5.18936 F1500
ID=1 WHEN $AC_TIMER[1]>=0 DO M50
X19.811 Y3.105 F300
ID=1 WHEN $AC_TIMER[1]>=0 DO M51
X17.0459 Y3.105 F1500
ID=1 WHEN $AC_TIMER[1]>=0 DO M50
X21.895 Y7.954 F300
ID=1 WHEN $AC_TIMER[1]>=0 DO M51
X21.895 Y10.7189 F1500
ID=1 WHEN $AC_TIMER[1]>=0 DO M50
X14.281 Y3.105 F300
ID=1 WHEN $AC_TIMER[1]>=0 DO M51
X11.5163 Y3.105 F1500
ID=1 WHEN $AC_TIMER[1]>=0 DO M50
X21.895 Y13.484 F300
ID=1 WHEN $AC_TIMER[1]>=0 DO M51
X21.895 Y16.2485 F1500
ID=1 WHEN $AC_TIMER[1]>=0 DO M50
X8.751 Y3.105 F300
ID=1 WHEN $AC_TIMER[1]>=0 DO M51
X5.9867 Y3.105 F1500
ID=1 WHEN $AC_TIMER[1]>=0 DO M50
X21.895 Y19.013 F300
ID=1 WHEN $AC_TIMER[1]>=0 DO M51
X21.895 Y21.7781 F1500
ID=1 WHEN $AC_TIMER[1]>=0 DO M50
X3.222 Y3.105 F300
ID=1 WHEN $AC_TIMER[1]>=0 DO M51
X3.105 Y5.75287 F1500
ID=1 WHEN $AC_TIMER[1]>=0 DO M50
X19.247 Y21.895 F300
ID=1 WHEN $AC_TIMER[1]>=0 DO M51
X16.4823 Y21.895 F1500
ID=1 WHEN $AC_TIMER[1]>=0 DO M50
X3.105 Y8.518 F300
ID=1 WHEN $AC_TIMER[1]>=0 DO M51
X3.105 Y11.2824 F1500
ID=1 WHEN $AC_TIMER[1]>=0 DO M50
X13.718 Y21.895 F300
ID=1 WHEN $AC_TIMER[1]>=0 DO M51
X10.9528 Y21.895 F1500
ID=1 WHEN $AC_TIMER[1]>=0 DO M50
X3.105 Y14.047 F300
ID=1 WHEN $AC_TIMER[1]>=0 DO M51
X3.105 Y16.812 F1500
ID=1 WHEN $AC_TIMER[1]>=0 DO M50
X8.188 Y21.895 F300
ID=1 WHEN $AC_TIMER[1]>=0 DO M51
X5.42319 Y21.895 F1500
ID=1 WHEN $AC_TIMER[1]>=0 DO M50
X3.105 Y19.577 F300
ID=1 WHEN $AC_TIMER[1]>=0 DO M51
; Final do trecho do raster

; Layer 6
G1 Z7.800 F1500
X23.85 Y23.85 F1500
ID=1 WHEN $AC_TIMER[1]>=0 DO M50
X1.150 Y23.850 F300
X1.150 Y1.150
X23.850 Y1.150
X23.850 Y23.750
ID=1 WHEN $AC_TIMER[1]>=0 DO M51

; Inicio do trecho do raster
X19.8106 Y21.895 F1500
ID=1 WHEN $AC_TIMER[1]>=0 DO M50
X21.895 Y19.811 F300
ID=1 WHEN $AC_TIMER[1]>=0 DO M51
X21.895 Y17.0459 F1500
ID=1 WHEN $AC_TIMER[1]>=0 DO M50
X17.046 Y21.895 F300
ID=1 WHEN $AC_TIMER[1]>=0 DO M51
X14.2811 Y21.895 F1500
ID=1 WHEN $AC_TIMER[1]>=0 DO M50
X21.895 Y14.281 F300
ID=1 WHEN $AC_TIMER[1]>=0 DO M51
X21.895 Y11.5163 F1500
ID=1 WHEN $AC_TIMER[1]>=0 DO M50
X11.516 Y21.895 F300
ID=1 WHEN $AC_TIMER[1]>=0 DO M51
X8.7515 Y21.895 F1500
ID=1 WHEN $AC_TIMER[1]>=0 DO M50
X21.895 Y8.751 F300
ID=1 WHEN $AC_TIMER[1]>=0 DO M51
X21.895 Y5.98671 F1500
ID=1 WHEN $AC_TIMER[1]>=0 DO M50
X5.987 Y21.895 F300
ID=1 WHEN $AC_TIMER[1]>=0 DO M51
X3.22192 Y21.895 F1500
ID=1 WHEN $AC_TIMER[1]>=0 DO M50
X21.895 Y3.222 F300
ID=1 WHEN $AC_TIMER[1]>=0 DO M51
X19.2471 Y3.105 F1500
ID=1 WHEN $AC_TIMER[1]>=0 DO M50
X3.105 Y19.247 F300
ID=1 WHEN $AC_TIMER[1]>=0 DO M51
X3.105 Y16.4823 F1500
ID=1 WHEN $AC_TIMER[1]>=0 DO M50
X16.482 Y3.105 F300
ID=1 WHEN $AC_TIMER[1]>=0 DO M51
X13.7176 Y3.105 F1500
ID=1 WHEN $AC_TIMER[1]>=0 DO M50
X3.105 Y13.718 F300
ID=1 WHEN $AC_TIMER[1]>=0 DO M51
X3.105 Y10.9528 F1500
ID=1 WHEN $AC_TIMER[1]>=0 DO M50
X10.953 Y3.105 F300
ID=1 WHEN $AC_TIMER[1]>=0 DO M51
X8.18798 Y3.105 F1500
ID=1 WHEN $AC_TIMER[1]>=0 DO M50
X3.105 Y8.188 F300
ID=1 WHEN $AC_TIMER[1]>=0 DO M51
X3.105 Y5.4232 F1500
ID=1 WHEN $AC_TIMER[1]>=0 DO M50
X5.423 Y3.105 F300
ID=1 WHEN $AC_TIMER[1]>=0 DO M51
; Final do trecho do raster

; Layer 7
G1 Z9.100 F1500
X23.85 Y23.85 F1500
ID=1 WHEN $AC_TIMER[1]>=0 DO M50
X1.150 Y23.850 F300
X1.150 Y1.150
X23.850 Y1.150
X23.850 Y23.750
ID=1 WHEN $AC_TIMER[1]>=0 DO M51

; Inicio do trecho do raster
X3.105 Y19.8106 F1500
ID=1 WHEN $AC_TIMER[1]>=0 DO M50
X5.189 Y21.895 F300
ID=1 WHEN $AC_TIMER[1]>=0 DO M51
X7.95415 Y21.895 F1500
ID=1 WHEN $AC_TIMER[1]>=0 DO M50
X3.105 Y17.046 F300
ID=1 WHEN $AC_TIMER[1]>=0 DO M51
X3.105 Y14.2811 F1500
ID=1 WHEN $AC_TIMER[1]>=0 DO M50
X10.719 Y21.895 F300
ID=1 WHEN $AC_TIMER[1]>=0 DO M51
X13.4837 Y21.895 F1500
ID=1 WHEN $AC_TIMER[1]>=0 DO M50
X3.105 Y11.516 F300
ID=1 WHEN $AC_TIMER[1]>=0 DO M51
X3.105 Y8.75149 F1500
ID=1 WHEN $AC_TIMER[1]>=0 DO M50
X16.249 Y21.895 F300
ID=1 WHEN $AC_TIMER[1]>=0 DO M51
X19.0133 Y21.895 F1500
ID=1 WHEN $AC_TIMER[1]>=0 DO M50
X3.105 Y5.987 F300
ID=1 WHEN $AC_TIMER[1]>=0 DO M51
X3.105 Y3.22191 F1500
ID=1 WHEN $AC_TIMER[1]>=0 DO M50
X21.778 Y21.895 F300
ID=1 WHEN $AC_TIMER[1]>=0 DO M51
X21.895 Y19.2471 F1500
ID=1 WHEN $AC_TIMER[1]>=0 DO M50
X5.753 Y3.105 F300
ID=1 WHEN $AC_TIMER[1]>=0 DO M51
X8.51766 Y3.105 F1500
ID=1 WHEN $AC_TIMER[1]>=0 DO M50
X21.895 Y16.482 F300
ID=1 WHEN $AC_TIMER[1]>=0 DO M51
X21.895 Y13.7175 F1500
ID=1 WHEN $AC_TIMER[1]>=0 DO M50
X11.282 Y3.105 F300
ID=1 WHEN $AC_TIMER[1]>=0 DO M51
X14.0472 Y3.105 F1500
ID=1 WHEN $AC_TIMER[1]>=0 DO M50
X21.895 Y10.953 F300
ID=1 WHEN $AC_TIMER[1]>=0 DO M51
X21.895 Y8.18797 F1500
ID=1 WHEN $AC_TIMER[1]>=0 DO M50
X16.812 Y3.105 F300
ID=1 WHEN $AC_TIMER[1]>=0 DO M51
X19.5768 Y3.105 F1500
ID=1 WHEN $AC_TIMER[1]>=0 DO M50
X21.895 Y5.423 F300
ID=1 WHEN $AC_TIMER[1]>=0 DO M51
; Final do trecho do raster

; Layer 8
G1 Z10.400 F1500
X23.85 Y23.85 F1500
ID=1 WHEN $AC_TIMER[1]>=0 DO M50
X1.150 Y23.850 F300
X1.150 Y1.150
X23.850 Y1.150
X23.850 Y23.750
ID=1 WHEN $AC_TIMER[1]>=0 DO M51

; Inicio do trecho do raster
X5.18936 Y3.105 F1500
ID=1 WHEN $AC_TIMER[1]>=0 DO M50
X3.105 Y5.189 F300
ID=1 WHEN $AC_TIMER[1]>=0 DO M51
X3.105 Y7.95415 F1500
ID=1 WHEN $AC_TIMER[1]>=0 DO M50
X7.954 Y3.105 F300
ID=1 WHEN $AC_TIMER[1]>=0 DO M51
X10.7189 Y3.105 F1500
ID=1 WHEN $AC_TIMER[1]>=0 DO M50
X3.105 Y10.719 F300
ID=1 WHEN $AC_TIMER[1]>=0 DO M51
X3.105 Y13.4837 F1500
ID=1 WHEN $AC_TIMER[1]>=0 DO M50
X13.484 Y3.105 F300
ID=1 WHEN $AC_TIMER[1]>=0 DO M51
X16.2485 Y3.105 F1500
ID=1 WHEN $AC_TIMER[1]>=0 DO M50
X3.105 Y16.249 F300
ID=1 WHEN $AC_TIMER[1]>=0 DO M51
X3.105 Y19.0133 F1500
ID=1 WHEN $AC_TIMER[1]>=0 DO M50
X19.013 Y3.105 F300
ID=1 WHEN $AC_TIMER[1]>=0 DO M51
X21.7781 Y3.105 F1500
ID=1 WHEN $AC_TIMER[1]>=0 DO M50
X3.105 Y21.778 F300
ID=1 WHEN $AC_TIMER[1]>=0 DO M51
X5.75288 Y21.895 F1500
ID=1 WHEN $AC_TIMER[1]>=0 DO M50
X21.895 Y5.753 F300
ID=1 WHEN $AC_TIMER[1]>=0 DO M51
X21.895 Y8.51766 F1500
ID=1 WHEN $AC_TIMER[1]>=0 DO M50
X8.518 Y21.895 F300
ID=1 WHEN $AC_TIMER[1]>=0 DO M51
X11.2825 Y21.895 F1500
ID=1 WHEN $AC_TIMER[1]>=0 DO M50
X21.895 Y11.282 F300
ID=1 WHEN $AC_TIMER[1]>=0 DO M51
X21.895 Y14.0472 F1500
ID=1 WHEN $AC_TIMER[1]>=0 DO M50
X14.047 Y21.895 F300
ID=1 WHEN $AC_TIMER[1]>=0 DO M51
X16.812 Y21.895 F1500
ID=1 WHEN $AC_TIMER[1]>=0 DO M50
X21.895 Y16.812 F300
ID=1 WHEN $AC_TIMER[1]>=0 DO M51
X21.895 Y19.5768 F1500
ID=1 WHEN $AC_TIMER[1]>=0 DO M50
X19.577 Y21.895 F300
ID=1 WHEN $AC_TIMER[1]>=0 DO M51
; Final do trecho do raster

M0
; TURN OFF POWDER!!!
M0
; End of Programm--------------------
G4F5
M55   ; home mirror
M30   ; program end