; Generated by RP3 on 2019-02-11
; Job 0 - LMD

; General Config.--------------------
$ac_timer[1]=0
G91   ; relative positioning
G64   ;
M55   ; home mirror
G4F4  ; necessary delay for positioning of the mirror
M0    ; wait for user-input

; Process Start-up--------------------
M56   ; set canal 1 as laser-source
G4F4  ; necessary delay for positioning of the mirror
M0    ; wait for user-input
; START POWDER!!!
G4F5
M0
G54   ; set process starting point (machine zero)

; Laser On and Path------------------
H1=63
H2=5.6
G90   ; use absolute coordinates

; Layer 1
G1 Z0.600 F1500
X10.4873 Y26.7269 F1500
ID=1 WHEN $AC_TIMER[1]>=0 DO M50
X9.557 Y25.999 F800
X8.698 Y25.187
X7.932 Y24.292
X7.250 Y23.324
X6.681 Y22.296
X6.219 Y21.205
X5.860 Y20.081
X5.630 Y18.933
X5.510 Y17.750
X5.510 Y16.571
X5.630 Y15.397
X5.860 Y14.238
X6.219 Y13.116
X6.681 Y12.035
X7.250 Y11.006
X7.934 Y10.036
X8.700 Y9.132
X9.554 Y8.323
X10.486 Y7.604
X11.490 Y6.977
X12.551 Y6.461
X13.658 Y6.045
X14.798 Y5.751
X15.961 Y5.576
X17.140 Y5.511
X18.320 Y5.576
X19.492 Y5.751
X20.622 Y6.045
X21.740 Y6.461
X22.798 Y6.976
X23.792 Y7.603
X24.726 Y8.323
X25.582 Y9.134
X26.356 Y10.036
X27.028 Y11.004
X27.599 Y12.035
X28.061 Y13.116
X28.420 Y14.238
X28.663 Y15.438
X28.770 Y16.567
X28.770 Y17.754
X28.659 Y18.933
X28.421 Y20.078
X28.061 Y21.205
X27.599 Y22.296
X27.028 Y23.326
X26.357 Y24.292
X25.584 Y25.185
X24.723 Y25.999
X23.792 Y26.727
X22.798 Y27.344
X21.740 Y27.868
X20.626 Y28.274
X19.488 Y28.570
X18.320 Y28.754
X17.140 Y28.809
X15.961 Y28.754
X14.802 Y28.570
X13.655 Y28.274
X12.548 Y27.868
X11.528 Y27.372
X10.572 Y26.780
ID=1 WHEN $AC_TIMER[1]>=0 DO M51
X11.1532 Y17.1106 F1500
ID=1 WHEN $AC_TIMER[1]>=0 DO M50
X11.154 Y17.281 F800
X11.234 Y18.151
X11.265 Y18.321
X11.495 Y19.161
X11.555 Y19.324
X11.915 Y20.084
X12.000 Y20.229
X12.520 Y20.969
X12.636 Y21.106
X13.256 Y21.716
X13.388 Y21.825
X14.098 Y22.315
X14.244 Y22.399
X15.044 Y22.769
X15.209 Y22.828
X16.049 Y23.048
X16.221 Y23.077
X17.091 Y23.147
X17.252 Y23.147
X18.092 Y23.077
X18.276 Y23.044
X19.136 Y22.804
X19.290 Y22.747
X20.080 Y22.377
X20.238 Y22.284
X20.948 Y21.774
X21.064 Y21.676
X21.684 Y21.066
X21.808 Y20.917
X22.298 Y20.197
X22.377 Y20.060
X22.747 Y19.270
X22.808 Y19.101
X23.028 Y18.261
X23.057 Y18.089
X23.127 Y17.219
X23.127 Y17.059
X23.057 Y16.209
X23.024 Y16.024
X22.784 Y15.164
X22.727 Y15.010
X22.357 Y14.220
X22.264 Y14.062
X21.754 Y13.352
X21.644 Y13.224
X21.024 Y12.614
X20.900 Y12.511
X20.190 Y12.011
X20.039 Y11.923
X19.269 Y11.563
X19.093 Y11.500
X18.223 Y11.280
X18.074 Y11.254
X17.234 Y11.174
X17.050 Y11.174
X16.189 Y11.253
X16.019 Y11.282
X15.179 Y11.502
X15.015 Y11.561
X14.924 Y11.614
X14.230 Y11.929
X14.066 Y12.024
X13.336 Y12.544
X13.204 Y12.656
X12.594 Y13.276
X12.493 Y13.397
X12.003 Y14.087
X11.913 Y14.240
X11.543 Y15.030
X11.483 Y15.197
X11.253 Y16.067
X11.223 Y16.241
X11.161 Y17.011
ID=1 WHEN $AC_TIMER[1]>=0 DO M51

; Inicio do trecho do raster
X26.049 Y12.7097 F1500
ID=1 WHEN $AC_TIMER[1]>=0 DO M50
X21.609 Y8.269 F800
ID=1 WHEN $AC_TIMER[1]>=0 DO M51
X18.2225 Y7.2632 F1500
ID=1 WHEN $AC_TIMER[1]>=0 DO M50
X27.033 Y16.074 F800
ID=1 WHEN $AC_TIMER[1]>=0 DO M51
X27.0156 Y18.4365 F1500
ID=1 WHEN $AC_TIMER[1]>=0 DO M50
X24.735 Y16.156 F800
ID=1 WHEN $AC_TIMER[1]>=0 DO M51
X18.1509 Y9.57179 F1500
ID=1 WHEN $AC_TIMER[1]>=0 DO M50
X15.871 Y7.292 F800
ID=1 WHEN $AC_TIMER[1]>=0 DO M51
X13.9373 Y7.73828 F1500
ID=1 WHEN $AC_TIMER[1]>=0 DO M50
X15.811 Y9.612 F800
ID=1 WHEN $AC_TIMER[1]>=0 DO M51
X24.694 Y18.495 F1500
ID=1 WHEN $AC_TIMER[1]>=0 DO M50
X26.563 Y20.364 F800
ID=1 WHEN $AC_TIMER[1]>=0 DO M51
X25.8318 Y22.0129 F1500
ID=1 WHEN $AC_TIMER[1]>=0 DO M50
X24.119 Y20.300 F800
ID=1 WHEN $AC_TIMER[1]>=0 DO M51
X14.0041 Y10.1852 F1500
ID=1 WHEN $AC_TIMER[1]>=0 DO M50
X12.284 Y8.465 F800
ID=1 WHEN $AC_TIMER[1]>=0 DO M51
X10.8714 Y9.43259 F1500
ID=1 WHEN $AC_TIMER[1]>=0 DO M50
X12.510 Y11.071 F800
ID=1 WHEN $AC_TIMER[1]>=0 DO M51
X23.2412 Y21.8024 F1500
ID=1 WHEN $AC_TIMER[1]>=0 DO M50
X24.873 Y23.434 F800
ID=1 WHEN $AC_TIMER[1]>=0 DO M51
X23.7046 Y24.6459 F1500
ID=1 WHEN $AC_TIMER[1]>=0 DO M50
X22.079 Y23.020 F800
ID=1 WHEN $AC_TIMER[1]>=0 DO M51
X11.2816 Y12.2229 F1500
ID=1 WHEN $AC_TIMER[1]>=0 DO M50
X9.660 Y10.602 F800
ID=1 WHEN $AC_TIMER[1]>=0 DO M51
X8.64331 Y11.9648 F1500
ID=1 WHEN $AC_TIMER[1]>=0 DO M50
X10.331 Y13.653 F800
ID=1 WHEN $AC_TIMER[1]>=0 DO M51
X20.6439 Y23.9654 F1500
ID=1 WHEN $AC_TIMER[1]>=0 DO M50
X22.331 Y25.653 F800
ID=1 WHEN $AC_TIMER[1]>=0 DO M51
X20.7397 Y26.4413 F1500
ID=1 WHEN $AC_TIMER[1]>=0 DO M50
X18.911 Y24.613 F800
ID=1 WHEN $AC_TIMER[1]>=0 DO M51
X9.69386 Y15.3954 F1500
ID=1 WHEN $AC_TIMER[1]>=0 DO M50
X7.859 Y13.561 F800
ID=1 WHEN $AC_TIMER[1]>=0 DO M51
X7.34087 Y15.4226 F1500
ID=1 WHEN $AC_TIMER[1]>=0 DO M50
X9.492 Y17.574 F800
ID=1 WHEN $AC_TIMER[1]>=0 DO M51
X16.7202 Y24.8019 F1500
ID=1 WHEN $AC_TIMER[1]>=0 DO M50
X18.880 Y26.962 F800
ID=1 WHEN $AC_TIMER[1]>=0 DO M51
X16.6387 Y27.1006 F1500
ID=1 WHEN $AC_TIMER[1]>=0 DO M50
X13.376 Y23.838 F800
ID=1 WHEN $AC_TIMER[1]>=0 DO M51
X10.4536 Y20.9154 F1500
ID=1 WHEN $AC_TIMER[1]>=0 DO M50
X7.193 Y17.655 F800
ID=1 WHEN $AC_TIMER[1]>=0 DO M51
X7.81439 Y20.6563 F1500
ID=1 WHEN $AC_TIMER[1]>=0 DO M50
X13.630 Y26.472 F800
ID=1 WHEN $AC_TIMER[1]>=0 DO M51
; Final do trecho do raster

; Layer 2
G1 Z1.200 F1500
X23.1268 Y17.2394 F1500
ID=1 WHEN $AC_TIMER[1]>=0 DO M50
X23.127 Y17.081 F800
X23.057 Y16.211
X23.031 Y16.052
X22.990 Y15.940
X22.798 Y15.201
X22.737 Y15.030
X22.367 Y14.240
X22.276 Y14.085
X21.726 Y13.315
X21.614 Y13.184
X21.044 Y12.624
X20.920 Y12.521
X20.210 Y12.021
X20.060 Y11.933
X19.270 Y11.563
X19.101 Y11.502
X18.261 Y11.282
X18.101 Y11.254
X17.231 Y11.174
X17.049 Y11.174
X16.179 Y11.254
X16.019 Y11.282
X15.179 Y11.502
X15.010 Y11.563
X14.220 Y11.933
X14.070 Y12.021
X13.360 Y12.521
X13.230 Y12.630
X12.610 Y13.250
X12.501 Y13.380
X12.001 Y14.090
X11.913 Y14.240
X11.543 Y15.030
X11.482 Y15.199
X11.262 Y16.039
X11.234 Y16.199
X11.154 Y17.069
X11.154 Y17.251
X11.234 Y18.121
X11.262 Y18.281
X11.482 Y19.121
X11.543 Y19.290
X11.913 Y20.080
X11.997 Y20.225
X12.497 Y20.945
X12.620 Y21.090
X13.300 Y21.750
X13.433 Y21.858
X14.153 Y22.348
X14.298 Y22.430
X15.018 Y22.760
X15.169 Y22.815
X16.009 Y23.045
X16.197 Y23.077
X17.147 Y23.147
X17.307 Y23.146
X18.097 Y23.076
X18.271 Y23.045
X19.111 Y22.815
X19.276 Y22.754
X20.136 Y22.344
X20.293 Y22.250
X20.993 Y21.740
X21.110 Y21.640
X21.670 Y21.080
X21.783 Y20.945
X22.283 Y20.225
X22.367 Y20.080
X22.737 Y19.290
X22.795 Y19.131
X23.025 Y18.291
X23.057 Y18.109
X23.119 Y17.339
ID=1 WHEN $AC_TIMER[1]>=0 DO M51
X23.9555 Y7.37476 F1500
ID=1 WHEN $AC_TIMER[1]>=0 DO M50
X24.916 Y8.114 F800
X25.792 Y8.944
X26.576 Y9.856
X27.268 Y10.853
X27.850 Y11.906
X28.331 Y13.025
X28.690 Y14.167
X28.930 Y15.357
X29.050 Y16.559
X29.050 Y17.771
X28.930 Y18.972
X28.690 Y20.153
X28.331 Y21.305
X27.850 Y22.414
X27.268 Y23.476
X26.577 Y24.462
X25.790 Y25.378
X24.914 Y26.218
X23.955 Y26.955
X22.928 Y27.594
X21.849 Y28.129
X20.715 Y28.544
X19.539 Y28.849
X18.351 Y29.033
X17.140 Y29.089
X15.929 Y29.033
X14.741 Y28.849
X13.567 Y28.544
X12.441 Y28.129
X11.351 Y27.593
X10.327 Y26.956
X9.378 Y26.220
X8.498 Y25.376
X7.703 Y24.462
X7.022 Y23.476
X6.431 Y22.414
X5.959 Y21.305
X5.589 Y20.150
X5.350 Y18.972
X5.230 Y17.771
X5.230 Y16.559
X5.350 Y15.357
X5.589 Y14.171
X5.959 Y13.025
X6.431 Y11.906
X7.022 Y10.853
X7.705 Y9.856
X8.496 Y8.946
X9.376 Y8.112
X10.326 Y7.374
X11.351 Y6.737
X12.441 Y6.201
X13.567 Y5.786
X14.741 Y5.481
X15.933 Y5.296
X17.140 Y5.231
X18.347 Y5.296
X19.539 Y5.481
X20.715 Y5.786
X21.849 Y6.201
X22.928 Y6.736
X23.871 Y7.322
ID=1 WHEN $AC_TIMER[1]>=0 DO M51

; Inicio do trecho do raster
X26.4981 Y21.3009 F1500
ID=1 WHEN $AC_TIMER[1]>=0 DO M50
X21.253 Y26.546 F800
ID=1 WHEN $AC_TIMER[1]>=0 DO M51
X18.0567 Y27.3622 F1500
ID=1 WHEN $AC_TIMER[1]>=0 DO M50
X27.326 Y18.092 F800
ID=1 WHEN $AC_TIMER[1]>=0 DO M51
X27.2787 Y15.7601 F1500
ID=1 WHEN $AC_TIMER[1]>=0 DO M50
X24.724 Y18.315 F800
ID=1 WHEN $AC_TIMER[1]>=0 DO M51
X18.2968 Y24.742 F1500
ID=1 WHEN $AC_TIMER[1]>=0 DO M50
X15.738 Y27.301 F800
ID=1 WHEN $AC_TIMER[1]>=0 DO M51
X13.8162 Y26.8424 F1500
ID=1 WHEN $AC_TIMER[1]>=0 DO M50
X15.925 Y24.734 F800
ID=1 WHEN $AC_TIMER[1]>=0 DO M51
X24.718 Y15.9407 F1500
ID=1 WHEN $AC_TIMER[1]>=0 DO M50
X26.822 Y13.837 F800
ID=1 WHEN $AC_TIMER[1]>=0 DO M51
X26.0855 Y12.193 F1500
ID=1 WHEN $AC_TIMER[1]>=0 DO M50
X24.164 Y14.114 F800
ID=1 WHEN $AC_TIMER[1]>=0 DO M51
X14.094 Y24.1845 F1500
ID=1 WHEN $AC_TIMER[1]>=0 DO M50
X12.162 Y26.116 F800
ID=1 WHEN $AC_TIMER[1]>=0 DO M51
X10.7466 Y25.1518 F1500
ID=1 WHEN $AC_TIMER[1]>=0 DO M50
X12.583 Y23.315 F800
ID=1 WHEN $AC_TIMER[1]>=0 DO M51
X23.2871 Y12.6113 F1500
ID=1 WHEN $AC_TIMER[1]>=0 DO M50
X25.136 Y10.763 F800
ID=1 WHEN $AC_TIMER[1]>=0 DO M51
X23.9764 Y9.54184 F1500
ID=1 WHEN $AC_TIMER[1]>=0 DO M50
X22.155 Y11.363 F800
ID=1 WHEN $AC_TIMER[1]>=0 DO M51
X11.3411 Y22.1772 F1500
ID=1 WHEN $AC_TIMER[1]>=0 DO M50
X9.525 Y23.993 F800
ID=1 WHEN $AC_TIMER[1]>=0 DO M51
X8.49299 Y22.6452 F1500
ID=1 WHEN $AC_TIMER[1]>=0 DO M50
X10.379 Y20.759 F800
ID=1 WHEN $AC_TIMER[1]>=0 DO M51
X20.743 Y10.3952 F1500
ID=1 WHEN $AC_TIMER[1]>=0 DO M50
X22.615 Y8.523 F800
ID=1 WHEN $AC_TIMER[1]>=0 DO M51
X21.0552 Y7.70282 F1500
ID=1 WHEN $AC_TIMER[1]>=0 DO M50
X19.015 Y9.743 F800
ID=1 WHEN $AC_TIMER[1]>=0 DO M51
X9.72257 Y19.0355 F1500
ID=1 WHEN $AC_TIMER[1]>=0 DO M50
X7.688 Y21.070 F800
ID=1 WHEN $AC_TIMER[1]>=0 DO M51
X7.12465 Y19.2533 F1500
ID=1 WHEN $AC_TIMER[1]>=0 DO M50
X9.486 Y16.892 F800
ID=1 WHEN $AC_TIMER[1]>=0 DO M51
X16.878 Y9.49991 F1500
ID=1 WHEN $AC_TIMER[1]>=0 DO M50
X19.237 Y7.141 F800
ID=1 WHEN $AC_TIMER[1]>=0 DO M51
X17.0776 Y6.92015 F1500
ID=1 WHEN $AC_TIMER[1]>=0 DO M50
X13.651 Y10.346 F800
ID=1 WHEN $AC_TIMER[1]>=0 DO M51
X10.3193 Y13.6785 F1500
ID=1 WHEN $AC_TIMER[1]>=0 DO M50
X6.913 Y17.085 F800
ID=1 WHEN $AC_TIMER[1]>=0 DO M51
X7.31528 Y14.3024 F1500
ID=1 WHEN $AC_TIMER[1]>=0 DO M50
X14.278 Y7.340 F800
ID=1 WHEN $AC_TIMER[1]>=0 DO M51
; Final do trecho do raster

; Layer 3
G1 Z1.800 F1500
X11.1542 Y17.0693 F1500
ID=1 WHEN $AC_TIMER[1]>=0 DO M50
X11.154 Y17.251 F800
X11.234 Y18.121
X11.262 Y18.281
X11.482 Y19.121
X11.543 Y19.290
X11.913 Y20.080
X11.997 Y20.225
X12.497 Y20.945
X12.616 Y21.086
X13.236 Y21.696
X13.360 Y21.799
X14.070 Y22.299
X14.220 Y22.387
X15.010 Y22.757
X15.169 Y22.815
X16.009 Y23.045
X16.191 Y23.077
X17.061 Y23.147
X17.219 Y23.147
X18.089 Y23.077
X18.271 Y23.045
X19.111 Y22.815
X19.270 Y22.757
X20.060 Y22.387
X20.210 Y22.299
X20.920 Y21.799
X21.044 Y21.696
X21.664 Y21.086
X21.783 Y20.945
X22.283 Y20.225
X22.367 Y20.080
X22.737 Y19.290
X22.795 Y19.131
X23.025 Y18.291
X23.057 Y18.109
X23.127 Y17.239
X23.127 Y17.081
X23.057 Y16.211
X23.025 Y16.029
X22.795 Y15.189
X22.737 Y15.030
X22.367 Y14.240
X22.279 Y14.090
X21.779 Y13.380
X21.670 Y13.250
X21.050 Y12.630
X20.920 Y12.521
X20.210 Y12.021
X20.060 Y11.933
X19.270 Y11.563
X19.101 Y11.502
X18.261 Y11.282
X18.101 Y11.254
X17.231 Y11.174
X17.049 Y11.174
X16.179 Y11.254
X16.019 Y11.282
X15.179 Y11.502
X15.010 Y11.563
X14.220 Y11.933
X14.070 Y12.021
X13.360 Y12.521
X13.230 Y12.630
X12.610 Y13.250
X12.501 Y13.380
X12.001 Y14.090
X11.913 Y14.240
X11.543 Y15.030
X11.482 Y15.199
X11.262 Y16.039
X11.234 Y16.199
X11.163 Y16.970
ID=1 WHEN $AC_TIMER[1]>=0 DO M51
X10.166 Y7.14379 F1500
ID=1 WHEN $AC_TIMER[1]>=0 DO M50
X11.221 Y6.487 F800
X12.330 Y5.941
X13.488 Y5.515
X14.680 Y5.201
X15.910 Y5.016
X17.140 Y4.951
X18.380 Y5.016
X19.599 Y5.201
X20.793 Y5.516
X21.961 Y5.942
X23.067 Y6.486
X24.112 Y7.143
X25.095 Y7.903
X25.992 Y8.754
X26.795 Y9.686
X27.498 Y10.703
X28.100 Y11.787
X28.591 Y12.925
X28.961 Y14.099
X29.210 Y15.308
X29.330 Y16.538
X29.330 Y17.782
X29.210 Y19.011
X28.960 Y20.222
X28.590 Y21.406
X28.100 Y22.543
X27.499 Y23.625
X26.795 Y24.634
X25.991 Y25.578
X25.095 Y26.427
X24.115 Y27.185
X23.070 Y27.833
X21.958 Y28.380
X20.793 Y28.814
X19.603 Y29.119
X18.380 Y29.304
X17.140 Y29.369
X15.910 Y29.304
X14.677 Y29.118
X13.488 Y28.814
X12.334 Y28.380
X11.218 Y27.832
X10.164 Y27.184
X9.185 Y26.427
X8.289 Y25.578
X7.485 Y24.634
X6.781 Y23.625
X6.180 Y22.543
X5.690 Y21.406
X5.320 Y20.222
X5.070 Y19.012
X4.950 Y17.782
X4.950 Y16.538
X5.070 Y15.308
X5.319 Y14.103
X5.695 Y12.911
X6.180 Y11.787
X6.782 Y10.703
X7.485 Y9.686
X8.288 Y8.754
X9.185 Y7.903
X10.087 Y7.205
ID=1 WHEN $AC_TIMER[1]>=0 DO M51

; Inicio do trecho do raster
X12.5348 Y26.6038 F1500
ID=1 WHEN $AC_TIMER[1]>=0 DO M50
X7.663 Y21.732 F800
ID=1 WHEN $AC_TIMER[1]>=0 DO M51
X6.70041 Y18.3893 F1500
ID=1 WHEN $AC_TIMER[1]>=0 DO M50
X15.914 Y27.603 F800
ID=1 WHEN $AC_TIMER[1]>=0 DO M51
X18.3043 Y27.6131 F1500
ID=1 WHEN $AC_TIMER[1]>=0 DO M50
X15.276 Y24.585 F800
ID=1 WHEN $AC_TIMER[1]>=0 DO M51
X9.72106 Y19.0298 F1500
ID=1 WHEN $AC_TIMER[1]>=0 DO M50
X6.693 Y16.002 F800
ID=1 WHEN $AC_TIMER[1]>=0 DO M51
X7.10547 Y14.0341 F1500
ID=1 WHEN $AC_TIMER[1]>=0 DO M50
X9.524 Y16.452 F800
ID=1 WHEN $AC_TIMER[1]>=0 DO M51
X17.8521 Y24.7808 F1500
ID=1 WHEN $AC_TIMER[1]>=0 DO M50
X20.280 Y27.208 F800
ID=1 WHEN $AC_TIMER[1]>=0 DO M51
X21.9564 Y26.5049 F1500
ID=1 WHEN $AC_TIMER[1]>=0 DO M50
X19.803 Y24.351 F800
ID=1 WHEN $AC_TIMER[1]>=0 DO M51
X9.94774 Y14.4963 F1500
ID=1 WHEN $AC_TIMER[1]>=0 DO M50
X7.796 Y12.344 F800
ID=1 WHEN $AC_TIMER[1]>=0 DO M51
X8.70787 Y10.8763 F1500
ID=1 WHEN $AC_TIMER[1]>=0 DO M50
X10.763 Y12.931 F800
ID=1 WHEN $AC_TIMER[1]>=0 DO M51
X21.3706 Y23.539 F1500
ID=1 WHEN $AC_TIMER[1]>=0 DO M50
X23.424 Y25.592 F800
ID=1 WHEN $AC_TIMER[1]>=0 DO M51
X24.6969 Y24.4852 F1500
ID=1 WHEN $AC_TIMER[1]>=0 DO M50
X22.666 Y22.455 F800
ID=1 WHEN $AC_TIMER[1]>=0 DO M51
X11.8469 Y11.6352 F1500
ID=1 WHEN $AC_TIMER[1]>=0 DO M50
X9.826 Y9.614 F800
ID=1 WHEN $AC_TIMER[1]>=0 DO M51
X11.1231 Y8.53124 F1500
ID=1 WHEN $AC_TIMER[1]>=0 DO M50
X13.185 Y10.593 F800
ID=1 WHEN $AC_TIMER[1]>=0 DO M51
X23.7069 Y21.1151 F1500
ID=1 WHEN $AC_TIMER[1]>=0 DO M50
X25.764 Y23.172 F800
ID=1 WHEN $AC_TIMER[1]>=0 DO M51
X26.6433 Y21.6714 F1500
ID=1 WHEN $AC_TIMER[1]>=0 DO M50
X24.445 Y19.473 F800
ID=1 WHEN $AC_TIMER[1]>=0 DO M51
X14.8312 Y9.85923 F1500
ID=1 WHEN $AC_TIMER[1]>=0 DO M50
X12.638 Y7.666 F800
ID=1 WHEN $AC_TIMER[1]>=0 DO M51
X14.3742 Y7.02216 F1500
ID=1 WHEN $AC_TIMER[1]>=0 DO M50
X16.854 Y9.502 F800
ID=1 WHEN $AC_TIMER[1]>=0 DO M51
X24.7946 Y17.4425 F1500
ID=1 WHEN $AC_TIMER[1]>=0 DO M50
X27.287 Y19.935 F800
ID=1 WHEN $AC_TIMER[1]>=0 DO M51
X27.6278 Y17.8957 F1500
ID=1 WHEN $AC_TIMER[1]>=0 DO M50
X24.388 Y14.656 F800
ID=1 WHEN $AC_TIMER[1]>=0 DO M51
X19.6469 Y9.91468 F1500
ID=1 WHEN $AC_TIMER[1]>=0 DO M50
X16.407 Y6.675 F800
ID=1 WHEN $AC_TIMER[1]>=0 DO M51
X18.9111 Y6.79883 F1500
ID=1 WHEN $AC_TIMER[1]>=0 DO M50
X27.510 Y15.397 F800
ID=1 WHEN $AC_TIMER[1]>=0 DO M51
X26.0268 Y11.5344 F1500
ID=1 WHEN $AC_TIMER[1]>=0 DO M50
X22.795 Y8.302 F800
ID=1 WHEN $AC_TIMER[1]>=0 DO M51
; Final do trecho do raster

; Layer 4
G1 Z2.400 F1500
X11.1542 Y17.0693 F1500
ID=1 WHEN $AC_TIMER[1]>=0 DO M50
X11.154 Y17.251 F800
X11.234 Y18.121
X11.262 Y18.281
X11.482 Y19.121
X11.543 Y19.290
X11.913 Y20.080
X11.997 Y20.225
X12.497 Y20.945
X12.616 Y21.086
X13.236 Y21.696
X13.360 Y21.799
X14.070 Y22.299
X14.220 Y22.387
X15.010 Y22.757
X15.169 Y22.815
X16.009 Y23.045
X16.191 Y23.077
X17.061 Y23.147
X17.219 Y23.147
X18.089 Y23.077
X18.271 Y23.045
X19.111 Y22.815
X19.270 Y22.757
X20.060 Y22.387
X20.210 Y22.299
X20.920 Y21.799
X21.044 Y21.696
X21.664 Y21.086
X21.783 Y20.945
X22.283 Y20.225
X22.367 Y20.080
X22.737 Y19.290
X22.795 Y19.131
X23.025 Y18.291
X23.057 Y18.109
X23.127 Y17.239
X23.127 Y17.081
X23.057 Y16.211
X23.025 Y16.029
X22.795 Y15.189
X22.737 Y15.030
X22.367 Y14.240
X22.279 Y14.090
X21.779 Y13.380
X21.670 Y13.250
X21.050 Y12.630
X20.920 Y12.521
X20.210 Y12.021
X20.060 Y11.933
X19.270 Y11.563
X19.101 Y11.502
X18.261 Y11.282
X18.101 Y11.254
X17.231 Y11.174
X17.049 Y11.174
X16.179 Y11.254
X16.019 Y11.282
X15.179 Y11.502
X15.010 Y11.563
X14.220 Y11.933
X14.070 Y12.021
X13.360 Y12.521
X13.230 Y12.630
X12.610 Y13.250
X12.501 Y13.380
X12.001 Y14.090
X11.913 Y14.240
X11.543 Y15.030
X11.482 Y15.199
X11.262 Y16.039
X11.234 Y16.199
X11.163 Y16.970
ID=1 WHEN $AC_TIMER[1]>=0 DO M51
X11.0793 Y6.2477 F1500
ID=1 WHEN $AC_TIMER[1]>=0 DO M50
X12.222 Y5.690 F800
X13.408 Y5.246
X14.630 Y4.931
X15.882 Y4.736
X17.140 Y4.671
X18.398 Y4.736
X19.651 Y4.931
X20.883 Y5.246
X22.067 Y5.690
X23.199 Y6.247
X24.273 Y6.914
X25.277 Y7.694
X25.962 Y8.332
X26.184 Y8.555
X27.017 Y9.518
X27.738 Y10.553
X28.350 Y11.666
X28.851 Y12.826
X29.230 Y14.027
X29.480 Y15.269
X29.610 Y16.531
X29.610 Y17.799
X29.480 Y19.051
X29.230 Y20.293
X28.851 Y21.495
X28.350 Y22.664
X27.739 Y23.766
X27.016 Y24.804
X26.191 Y25.767
X25.274 Y26.638
X24.273 Y27.416
X23.199 Y28.083
X22.070 Y28.639
X20.883 Y29.075
X19.651 Y29.399
X18.402 Y29.584
X17.140 Y29.649
X15.878 Y29.584
X14.630 Y29.399
X13.408 Y29.075
X12.219 Y28.638
X11.079 Y28.082
X10.007 Y27.416
X9.006 Y26.638
X8.089 Y25.767
X7.264 Y24.804
X6.541 Y23.766
X5.930 Y22.664
X5.429 Y21.495
X5.050 Y20.293
X4.800 Y19.051
X4.670 Y17.799
X4.670 Y16.531
X4.800 Y15.269
X5.050 Y14.027
X5.429 Y12.826
X5.930 Y11.666
X6.542 Y10.553
X7.263 Y9.518
X8.087 Y8.564
X9.006 Y7.692
X10.007 Y6.914
X10.994 Y6.300
ID=1 WHEN $AC_TIMER[1]>=0 DO M51

; Inicio do trecho do raster
X7.62574 Y12.0752 F1500
ID=1 WHEN $AC_TIMER[1]>=0 DO M50
X12.058 Y7.643 F800
ID=1 WHEN $AC_TIMER[1]>=0 DO M51
X15.5976 Y6.48352 F1500
ID=1 WHEN $AC_TIMER[1]>=0 DO M50
X6.455 Y15.626 F800
ID=1 WHEN $AC_TIMER[1]>=0 DO M51
X6.39025 Y18.071 F1500
ID=1 WHEN $AC_TIMER[1]>=0 DO M50
X9.939 Y14.522 F800
ID=1 WHEN $AC_TIMER[1]>=0 DO M51
X14.5007 Y9.96053 F1500
ID=1 WHEN $AC_TIMER[1]>=0 DO M50
X18.057 Y6.404 F800
ID=1 WHEN $AC_TIMER[1]>=0 DO M51
X20.0669 Y6.77441 F1500
ID=1 WHEN $AC_TIMER[1]>=0 DO M50
X17.341 Y9.501 F800
ID=1 WHEN $AC_TIMER[1]>=0 DO M51
X9.47737 Y17.364 F1500
ID=1 WHEN $AC_TIMER[1]>=0 DO M50
X6.751 Y20.090 F800
ID=1 WHEN $AC_TIMER[1]>=0 DO M51
X7.40013 Y21.8213 F1500
ID=1 WHEN $AC_TIMER[1]>=0 DO M50
X9.821 Y19.401 F800
ID=1 WHEN $AC_TIMER[1]>=0 DO M51
X19.3839 Y9.83754 F1500
ID=1 WHEN $AC_TIMER[1]>=0 DO M50
X21.791 Y7.430 F800
ID=1 WHEN $AC_TIMER[1]>=0 DO M51
X23.307 Y8.29454 F1500
ID=1 WHEN $AC_TIMER[1]>=0 DO M50
X21.043 Y10.558 F800
ID=1 WHEN $AC_TIMER[1]>=0 DO M51
X10.5402 Y21.0613 F1500
ID=1 WHEN $AC_TIMER[1]>=0 DO M50
X8.282 Y23.320 F800
ID=1 WHEN $AC_TIMER[1]>=0 DO M51
X9.34368 Y24.638 F1500
ID=1 WHEN $AC_TIMER[1]>=0 DO M50
X11.568 Y22.414 F800
ID=1 WHEN $AC_TIMER[1]>=0 DO M51
X22.3881 Y11.5936 F1500
ID=1 WHEN $AC_TIMER[1]>=0 DO M50
X24.609 Y9.372 F800
ID=1 WHEN $AC_TIMER[1]>=0 DO M51
X25.7369 Y10.6249 F1500
ID=1 WHEN $AC_TIMER[1]>=0 DO M50
X23.483 Y12.879 F800
ID=1 WHEN $AC_TIMER[1]>=0 DO M51
X12.8603 Y23.5015 F1500
ID=1 WHEN $AC_TIMER[1]>=0 DO M50
X10.609 Y25.753 F800
ID=1 WHEN $AC_TIMER[1]>=0 DO M51
X12.0558 Y26.6861 F1500
ID=1 WHEN $AC_TIMER[1]>=0 DO M50
X14.413 Y24.329 F800
ID=1 WHEN $AC_TIMER[1]>=0 DO M51
X24.307 Y14.4349 F1500
ID=1 WHEN $AC_TIMER[1]>=0 DO M50
X26.659 Y12.083 F800
ID=1 WHEN $AC_TIMER[1]>=0 DO M51
X27.3764 Y13.7457 F1500
ID=1 WHEN $AC_TIMER[1]>=0 DO M50
X24.754 Y16.368 F800
ID=1 WHEN $AC_TIMER[1]>=0 DO M51
X16.3459 Y24.7762 F1500
ID=1 WHEN $AC_TIMER[1]>=0 DO M50
X13.724 Y27.398 F800
ID=1 WHEN $AC_TIMER[1]>=0 DO M51
X15.6532 Y27.849 F1500
ID=1 WHEN $AC_TIMER[1]>=0 DO M50
X18.880 Y24.622 F800
ID=1 WHEN $AC_TIMER[1]>=0 DO M51
X24.5965 Y18.9057 F1500
ID=1 WHEN $AC_TIMER[1]>=0 DO M50
X27.830 Y15.672 F800
ID=1 WHEN $AC_TIMER[1]>=0 DO M51
X27.8988 Y17.9835 F1500
ID=1 WHEN $AC_TIMER[1]>=0 DO M50
X17.961 Y27.921 F800
ID=1 WHEN $AC_TIMER[1]>=0 DO M51
X21.0377 Y27.2248 F1500
ID=1 WHEN $AC_TIMER[1]>=0 DO M50
X27.209 Y21.054 F800
ID=1 WHEN $AC_TIMER[1]>=0 DO M51
; Final do trecho do raster

; Layer 5
G1 Z3.000 F1500
X11.1542 Y17.0693 F1500
ID=1 WHEN $AC_TIMER[1]>=0 DO M50
X11.154 Y17.251 F800
X11.234 Y18.121
X11.262 Y18.281
X11.482 Y19.121
X11.543 Y19.290
X11.913 Y20.080
X11.997 Y20.225
X12.497 Y20.945
X12.616 Y21.086
X13.236 Y21.696
X13.360 Y21.799
X14.070 Y22.299
X14.220 Y22.387
X15.010 Y22.757
X15.169 Y22.815
X16.009 Y23.045
X16.191 Y23.077
X17.061 Y23.147
X17.219 Y23.147
X18.089 Y23.077
X18.271 Y23.045
X19.111 Y22.815
X19.270 Y22.757
X20.060 Y22.387
X20.210 Y22.299
X20.920 Y21.799
X21.044 Y21.696
X21.664 Y21.086
X21.783 Y20.945
X22.283 Y20.225
X22.367 Y20.080
X22.737 Y19.290
X22.795 Y19.131
X23.025 Y18.291
X23.057 Y18.109
X23.127 Y17.239
X23.127 Y17.081
X23.057 Y16.211
X23.013 Y15.990
X22.952 Y15.796
X22.799 Y15.203
X22.737 Y15.030
X22.367 Y14.240
X22.279 Y14.090
X21.779 Y13.380
X21.670 Y13.250
X21.050 Y12.630
X20.920 Y12.521
X20.210 Y12.021
X20.060 Y11.933
X19.270 Y11.563
X19.101 Y11.502
X18.261 Y11.282
X18.101 Y11.254
X17.231 Y11.174
X17.049 Y11.174
X16.179 Y11.254
X16.019 Y11.282
X15.179 Y11.502
X15.010 Y11.563
X14.220 Y11.933
X14.070 Y12.021
X13.360 Y12.521
X13.230 Y12.630
X12.610 Y13.250
X12.501 Y13.380
X12.001 Y14.090
X11.913 Y14.240
X11.543 Y15.030
X11.482 Y15.199
X11.262 Y16.039
X11.234 Y16.199
X11.163 Y16.970
ID=1 WHEN $AC_TIMER[1]>=0 DO M51
X10.9401 Y5.99748 F1500
ID=1 WHEN $AC_TIMER[1]>=0 DO M50
X12.108 Y5.432 F800
X13.316 Y4.986
X14.573 Y4.660
X15.853 Y4.456
X17.140 Y4.391
X18.427 Y4.456
X19.707 Y4.660
X20.965 Y4.986
X22.182 Y5.432
X23.339 Y5.997
X24.433 Y6.683
X25.455 Y7.472
X26.392 Y8.363
X27.236 Y9.347
X27.978 Y10.414
X28.600 Y11.536
X29.111 Y12.725
X29.500 Y13.959
X29.760 Y15.229
X29.890 Y16.520
X29.890 Y17.810
X29.760 Y19.100
X29.501 Y20.360
X29.111 Y21.595
X28.599 Y22.785
X27.977 Y23.918
X27.237 Y24.981
X26.393 Y25.955
X25.453 Y26.849
X24.433 Y27.647
X23.339 Y28.324
X22.179 Y28.899
X20.965 Y29.344
X19.711 Y29.669
X18.430 Y29.864
X17.140 Y29.929
X15.850 Y29.864
X14.569 Y29.669
X13.316 Y29.344
X12.111 Y28.899
X10.940 Y28.323
X9.847 Y27.647
X8.827 Y26.849
X7.887 Y25.955
X7.043 Y24.981
X6.303 Y23.918
X5.681 Y22.785
X5.169 Y21.595
X4.779 Y20.360
X4.520 Y19.100
X4.390 Y17.810
X4.390 Y16.520
X4.520 Y15.229
X4.780 Y13.959
X5.169 Y12.725
X5.680 Y11.536
X6.302 Y10.414
X7.044 Y9.347
X7.888 Y8.363
X8.825 Y7.472
X9.847 Y6.683
X10.855 Y6.051
ID=1 WHEN $AC_TIMER[1]>=0 DO M51

; Inicio do trecho do raster
X22.7853 Y7.63624 F1500
ID=1 WHEN $AC_TIMER[1]>=0 DO M50
X26.665 Y11.516 F800
ID=1 WHEN $AC_TIMER[1]>=0 DO M51
X28.0536 Y15.2847 F1500
ID=1 WHEN $AC_TIMER[1]>=0 DO M50
X19.025 Y6.256 F800
ID=1 WHEN $AC_TIMER[1]>=0 DO M51
X16.4975 Y6.10874 F1500
ID=1 WHEN $AC_TIMER[1]>=0 DO M50
X20.828 Y10.440 F800
ID=1 WHEN $AC_TIMER[1]>=0 DO M51
X23.8568 Y13.468 F1500
ID=1 WHEN $AC_TIMER[1]>=0 DO M50
X28.199 Y17.810 F800
ID=1 WHEN $AC_TIMER[1]>=0 DO M51
X27.8825 Y19.8738 F1500
ID=1 WHEN $AC_TIMER[1]>=0 DO M50
X24.791 Y16.783 F800
ID=1 WHEN $AC_TIMER[1]>=0 DO M51
X17.5248 Y9.51617 F1500
ID=1 WHEN $AC_TIMER[1]>=0 DO M50
X14.442 Y6.433 F800
ID=1 WHEN $AC_TIMER[1]>=0 DO M51
X12.6622 Y7.03363 F1500
ID=1 WHEN $AC_TIMER[1]>=0 DO M50
X15.349 Y9.720 F800
ID=1 WHEN $AC_TIMER[1]>=0 DO M51
X24.5834 Y18.9548 F1500
ID=1 WHEN $AC_TIMER[1]>=0 DO M50
X27.262 Y21.634 F800
ID=1 WHEN $AC_TIMER[1]>=0 DO M51
X26.4355 Y23.187 F1500
ID=1 WHEN $AC_TIMER[1]>=0 DO M50
X23.938 Y20.690 F800
ID=1 WHEN $AC_TIMER[1]>=0 DO M51
X13.6131 Y10.3646 F1500
ID=1 WHEN $AC_TIMER[1]>=0 DO M50
X11.120 Y7.871 F800
ID=1 WHEN $AC_TIMER[1]>=0 DO M51
X9.76735 Y8.89904 F1500
ID=1 WHEN $AC_TIMER[1]>=0 DO M50
X12.183 Y11.315 F800
ID=1 WHEN $AC_TIMER[1]>=0 DO M51
X22.9902 Y22.1219 F1500
ID=1 WHEN $AC_TIMER[1]>=0 DO M50
X25.400 Y24.532 F800
ID=1 WHEN $AC_TIMER[1]>=0 DO M51
X24.1892 Y25.701 F1500
ID=1 WHEN $AC_TIMER[1]>=0 DO M50
X21.754 Y23.266 F800
ID=1 WHEN $AC_TIMER[1]>=0 DO M51
X11.0321 Y12.544 F1500
ID=1 WHEN $AC_TIMER[1]>=0 DO M50
X8.603 Y10.115 F800
ID=1 WHEN $AC_TIMER[1]>=0 DO M51
X7.61828 Y11.5102 F1500
ID=1 WHEN $AC_TIMER[1]>=0 DO M50
X10.151 Y14.043 F800
ID=1 WHEN $AC_TIMER[1]>=0 DO M51
X20.2581 Y24.15 F1500
ID=1 WHEN $AC_TIMER[1]>=0 DO M50
X22.791 Y26.683 F800
ID=1 WHEN $AC_TIMER[1]>=0 DO M51
X21.195 Y27.467 F1500
ID=1 WHEN $AC_TIMER[1]>=0 DO M50
X18.449 Y24.721 F800
ID=1 WHEN $AC_TIMER[1]>=0 DO M51
X9.58728 Y15.8593 F1500
ID=1 WHEN $AC_TIMER[1]>=0 DO M50
X6.836 Y13.108 F800
ID=1 WHEN $AC_TIMER[1]>=0 DO M51
X6.29533 Y14.9475 F1500
ID=1 WHEN $AC_TIMER[1]>=0 DO M50
X9.557 Y18.209 F800
ID=1 WHEN $AC_TIMER[1]>=0 DO M51
X16.106 Y24.7582 F1500
ID=1 WHEN $AC_TIMER[1]>=0 DO M50
X19.367 Y28.019 F800
ID=1 WHEN $AC_TIMER[1]>=0 DO M51
X17.2079 Y28.2402 F1500
ID=1 WHEN $AC_TIMER[1]>=0 DO M50
X6.073 Y17.105 F800
ID=1 WHEN $AC_TIMER[1]>=0 DO M51
X6.38093 Y19.7933 F1500
ID=1 WHEN $AC_TIMER[1]>=0 DO M50
X14.500 Y27.912 F800
ID=1 WHEN $AC_TIMER[1]>=0 DO M51
; Final do trecho do raster

; Layer 6
G1 Z3.600 F1500
X11.1542 Y17.0693 F1500
ID=1 WHEN $AC_TIMER[1]>=0 DO M50
X11.154 Y17.251 F800
X11.234 Y18.121
X11.262 Y18.281
X11.482 Y19.121
X11.543 Y19.290
X11.913 Y20.080
X11.997 Y20.225
X12.497 Y20.945
X12.616 Y21.086
X13.236 Y21.696
X13.360 Y21.799
X14.070 Y22.299
X14.220 Y22.387
X15.010 Y22.757
X15.169 Y22.815
X16.009 Y23.045
X16.191 Y23.077
X17.061 Y23.147
X17.219 Y23.147
X18.089 Y23.077
X18.271 Y23.045
X19.111 Y22.815
X19.270 Y22.757
X20.060 Y22.387
X20.210 Y22.299
X20.920 Y21.799
X21.044 Y21.696
X21.664 Y21.086
X21.783 Y20.945
X22.283 Y20.225
X22.367 Y20.080
X22.737 Y19.290
X22.795 Y19.131
X23.025 Y18.291
X23.057 Y18.109
X23.127 Y17.239
X23.127 Y17.081
X23.057 Y16.211
X23.025 Y16.029
X22.795 Y15.189
X22.737 Y15.030
X22.367 Y14.240
X22.279 Y14.090
X21.779 Y13.380
X21.670 Y13.250
X21.050 Y12.630
X20.920 Y12.521
X20.210 Y12.021
X20.060 Y11.933
X19.270 Y11.563
X19.101 Y11.502
X18.261 Y11.282
X18.101 Y11.254
X17.231 Y11.174
X17.049 Y11.174
X16.179 Y11.254
X16.019 Y11.282
X15.179 Y11.502
X15.010 Y11.563
X14.220 Y11.933
X14.070 Y12.021
X13.360 Y12.521
X13.230 Y12.630
X12.610 Y13.250
X12.501 Y13.380
X12.001 Y14.090
X11.913 Y14.240
X11.543 Y15.030
X11.482 Y15.199
X11.262 Y16.039
X11.234 Y16.199
X11.163 Y16.970
ID=1 WHEN $AC_TIMER[1]>=0 DO M51
X10.8118 Y5.7561 F1500
ID=1 WHEN $AC_TIMER[1]>=0 DO M50
X11.991 Y5.171 F800
X13.236 Y4.716
X14.519 Y4.381
X15.821 Y4.186
X17.140 Y4.112
X18.459 Y4.186
X19.771 Y4.381
X21.044 Y4.716
X22.289 Y5.171
X23.468 Y5.756
X24.596 Y6.455
X25.645 Y7.263
X26.600 Y8.171
X27.456 Y9.176
X28.220 Y10.266
X28.860 Y11.416
X29.380 Y12.633
X29.770 Y13.888
X30.040 Y15.190
X30.170 Y16.499
X30.170 Y17.821
X30.040 Y19.140
X29.770 Y20.432
X29.379 Y21.698
X28.860 Y22.914
X28.220 Y24.064
X27.456 Y25.154
X26.600 Y26.159
X25.649 Y27.063
X24.992 Y27.557
X24.588 Y27.880
X23.471 Y28.572
X22.289 Y29.149
X21.044 Y29.614
X19.771 Y29.939
X18.459 Y30.144
X17.140 Y30.209
X15.821 Y30.144
X14.519 Y29.939
X13.236 Y29.614
X11.991 Y29.149
X10.809 Y28.572
X9.686 Y27.876
X8.646 Y27.069
X7.688 Y26.157
X6.824 Y25.154
X6.072 Y24.066
X5.430 Y22.914
X4.909 Y21.695
X4.509 Y20.429
X4.240 Y19.140
X4.110 Y17.821
X4.110 Y16.499
X4.240 Y15.190
X4.509 Y13.891
X4.909 Y12.636
X5.430 Y11.416
X6.072 Y10.264
X6.824 Y9.176
X7.688 Y8.173
X8.646 Y7.261
X9.686 Y6.454
X10.727 Y5.809
ID=1 WHEN $AC_TIMER[1]>=0 DO M51

; Inicio do trecho do raster
X23.9212 Y26.2579 F1500
ID=1 WHEN $AC_TIMER[1]>=0 DO M50
X26.280 Y23.899 F800
ID=1 WHEN $AC_TIMER[1]>=0 DO M51
X28.2316 Y19.5675 F1500
ID=1 WHEN $AC_TIMER[1]>=0 DO M50
X19.537 Y28.262 F800
ID=1 WHEN $AC_TIMER[1]>=0 DO M51
X16.9066 Y28.5123 F1500
ID=1 WHEN $AC_TIMER[1]>=0 DO M50
X28.487 Y16.932 F800
ID=1 WHEN $AC_TIMER[1]>=0 DO M51
X28.2402 Y14.7985 F1500
ID=1 WHEN $AC_TIMER[1]>=0 DO M50
X24.724 Y18.315 F800
ID=1 WHEN $AC_TIMER[1]>=0 DO M51
X18.297 Y24.7418 F1500
ID=1 WHEN $AC_TIMER[1]>=0 DO M50
X14.772 Y28.267 F800
ID=1 WHEN $AC_TIMER[1]>=0 DO M51
X12.9485 Y27.7101 F1500
ID=1 WHEN $AC_TIMER[1]>=0 DO M50
X15.924 Y24.734 F800
ID=1 WHEN $AC_TIMER[1]>=0 DO M51
X24.7164 Y15.9422 F1500
ID=1 WHEN $AC_TIMER[1]>=0 DO M50
X27.692 Y12.966 F800
ID=1 WHEN $AC_TIMER[1]>=0 DO M51
X26.9082 Y11.3703 F1500
ID=1 WHEN $AC_TIMER[1]>=0 DO M50
X24.164 Y14.114 F800
ID=1 WHEN $AC_TIMER[1]>=0 DO M51
X14.096 Y24.1825 F1500
ID=1 WHEN $AC_TIMER[1]>=0 DO M50
X11.351 Y26.928 F800
ID=1 WHEN $AC_TIMER[1]>=0 DO M51
X9.94908 Y25.9493 F1500
ID=1 WHEN $AC_TIMER[1]>=0 DO M50
X12.587 Y23.312 F800
ID=1 WHEN $AC_TIMER[1]>=0 DO M51
X23.2899 Y12.6085 F1500
ID=1 WHEN $AC_TIMER[1]>=0 DO M50
X25.925 Y9.974 F800
ID=1 WHEN $AC_TIMER[1]>=0 DO M51
X24.7674 Y8.75089 F1500
ID=1 WHEN $AC_TIMER[1]>=0 DO M50
X22.155 Y11.363 F800
ID=1 WHEN $AC_TIMER[1]>=0 DO M51
X11.3406 Y22.1777 F1500
ID=1 WHEN $AC_TIMER[1]>=0 DO M50
X8.730 Y24.788 F800
ID=1 WHEN $AC_TIMER[1]>=0 DO M51
X7.69033 Y23.4478 F1500
ID=1 WHEN $AC_TIMER[1]>=0 DO M50
X10.379 Y20.759 F800
ID=1 WHEN $AC_TIMER[1]>=0 DO M51
X20.743 Y10.3952 F1500
ID=1 WHEN $AC_TIMER[1]>=0 DO M50
X23.427 Y7.711 F800
ID=1 WHEN $AC_TIMER[1]>=0 DO M51
X21.9008 Y6.85727 F1500
ID=1 WHEN $AC_TIMER[1]>=0 DO M50
X19.015 Y9.743 F800
ID=1 WHEN $AC_TIMER[1]>=0 DO M51
X9.72257 Y19.0355 F1500
ID=1 WHEN $AC_TIMER[1]>=0 DO M50
X6.836 Y21.922 F800
ID=1 WHEN $AC_TIMER[1]>=0 DO M51
X6.19596 Y20.182 F1500
ID=1 WHEN $AC_TIMER[1]>=0 DO M50
X9.486 Y16.892 F800
ID=1 WHEN $AC_TIMER[1]>=0 DO M51
X16.878 Y9.49991 F1500
ID=1 WHEN $AC_TIMER[1]>=0 DO M50
X20.155 Y6.222 F800
ID=1 WHEN $AC_TIMER[1]>=0 DO M51
X18.144 Y5.8538 F1500
ID=1 WHEN $AC_TIMER[1]>=0 DO M50
X13.651 Y10.346 F800
ID=1 WHEN $AC_TIMER[1]>=0 DO M51
X10.3193 Y13.6785 F1500
ID=1 WHEN $AC_TIMER[1]>=0 DO M50
X5.835 Y18.163 F800
ID=1 WHEN $AC_TIMER[1]>=0 DO M51
X5.87653 Y15.7411 F1500
ID=1 WHEN $AC_TIMER[1]>=0 DO M50
X15.714 Y5.904 F800
ID=1 WHEN $AC_TIMER[1]>=0 DO M51
X12.3813 Y6.85623 F1500
ID=1 WHEN $AC_TIMER[1]>=0 DO M50
X6.842 Y12.396 F800
ID=1 WHEN $AC_TIMER[1]>=0 DO M51
; Final do trecho do raster

; Layer 7
G1 Z4.200 F1500
X11.1542 Y17.0693 F1500
ID=1 WHEN $AC_TIMER[1]>=0 DO M50
X11.154 Y17.251 F800
X11.234 Y18.121
X11.262 Y18.281
X11.482 Y19.121
X11.543 Y19.290
X11.913 Y20.080
X11.997 Y20.225
X12.497 Y20.945
X12.616 Y21.086
X13.236 Y21.696
X13.360 Y21.799
X14.070 Y22.299
X14.220 Y22.387
X15.010 Y22.757
X15.169 Y22.815
X16.009 Y23.045
X16.191 Y23.077
X17.061 Y23.147
X17.219 Y23.147
X18.089 Y23.077
X18.271 Y23.045
X19.111 Y22.815
X19.270 Y22.757
X20.060 Y22.387
X20.210 Y22.299
X20.920 Y21.799
X21.044 Y21.696
X21.664 Y21.086
X21.783 Y20.945
X22.283 Y20.225
X22.367 Y20.080
X22.737 Y19.290
X22.795 Y19.131
X23.025 Y18.291
X23.057 Y18.109
X23.127 Y17.239
X23.127 Y17.081
X23.057 Y16.211
X23.025 Y16.029
X22.795 Y15.189
X22.737 Y15.030
X22.367 Y14.240
X22.279 Y14.090
X21.779 Y13.380
X21.670 Y13.250
X21.050 Y12.630
X20.920 Y12.521
X20.210 Y12.021
X20.060 Y11.933
X19.270 Y11.563
X19.101 Y11.502
X18.261 Y11.282
X18.101 Y11.254
X17.231 Y11.174
X17.049 Y11.174
X16.179 Y11.254
X16.019 Y11.282
X15.179 Y11.502
X15.010 Y11.563
X14.220 Y11.933
X14.070 Y12.021
X13.360 Y12.521
X13.230 Y12.630
X12.610 Y13.250
X12.501 Y13.380
X12.001 Y14.090
X11.913 Y14.240
X11.543 Y15.030
X11.482 Y15.199
X11.262 Y16.039
X11.234 Y16.199
X11.163 Y16.970
ID=1 WHEN $AC_TIMER[1]>=0 DO M51
X10.6725 Y5.50591 F1500
ID=1 WHEN $AC_TIMER[1]>=0 DO M50
X11.881 Y4.911 F800
X13.144 Y4.447
X14.458 Y4.111
X15.793 Y3.906
X17.140 Y3.832
X18.487 Y3.906
X19.822 Y4.111
X21.136 Y4.447
X22.394 Y4.909
X23.055 Y5.244
X23.613 Y5.510
X24.753 Y6.223
X25.824 Y7.052
X26.800 Y7.982
X27.679 Y9.010
X28.097 Y9.596
X28.447 Y10.110
X29.111 Y11.298
X29.640 Y12.533
X30.040 Y13.817
X30.310 Y15.140
X30.450 Y16.491
X30.450 Y17.839
X30.310 Y19.179
X30.040 Y20.504
X29.640 Y21.798
X29.111 Y23.032
X28.450 Y24.214
X27.676 Y25.324
X26.800 Y26.348
X25.824 Y27.278
X24.755 Y28.105
X23.610 Y28.813
X22.397 Y29.410
X21.133 Y29.884
X19.822 Y30.219
X18.491 Y30.424
X17.140 Y30.489
X15.789 Y30.424
X14.458 Y30.219
X13.147 Y29.884
X11.883 Y29.410
X10.670 Y28.813
X9.525 Y28.105
X8.456 Y27.278
X7.480 Y26.348
X6.604 Y25.324
X5.832 Y24.216
X5.179 Y23.032
X4.639 Y21.795
X4.240 Y20.504
X3.970 Y19.179
X3.830 Y17.839
X3.830 Y16.491
X3.970 Y15.140
X4.240 Y13.817
X4.639 Y12.536
X5.179 Y11.298
X5.832 Y10.114
X6.604 Y9.006
X7.480 Y7.982
X8.456 Y7.052
X9.527 Y6.223
X10.588 Y5.559
ID=1 WHEN $AC_TIMER[1]>=0 DO M51

; Inicio do trecho do raster
X8.48526 Y24.9344 F1500
ID=1 WHEN $AC_TIMER[1]>=0 DO M50
X9.481 Y25.930 F800
ID=1 WHEN $AC_TIMER[1]>=0 DO M51
X14.3973 Y28.4663 F1500
ID=1 WHEN $AC_TIMER[1]>=0 DO M50
X5.836 Y19.905 F800
ID=1 WHEN $AC_TIMER[1]>=0 DO M51
X5.513 Y17.2019 F1500
ID=1 WHEN $AC_TIMER[1]>=0 DO M50
X17.114 Y28.803 F800
ID=1 WHEN $AC_TIMER[1]>=0 DO M51
X19.2892 Y28.598 F1500
ID=1 WHEN $AC_TIMER[1]>=0 DO M50
X15.276 Y24.585 F800
ID=1 WHEN $AC_TIMER[1]>=0 DO M51
X9.72106 Y19.0298 F1500
ID=1 WHEN $AC_TIMER[1]>=0 DO M50
X5.712 Y15.021 F800
ID=1 WHEN $AC_TIMER[1]>=0 DO M51
X6.21317 Y13.1418 F1500
ID=1 WHEN $AC_TIMER[1]>=0 DO M50
X9.524 Y16.452 F800
ID=1 WHEN $AC_TIMER[1]>=0 DO M51
X17.8521 Y24.7808 F1500
ID=1 WHEN $AC_TIMER[1]>=0 DO M50
X21.151 Y28.080 F800
ID=1 WHEN $AC_TIMER[1]>=0 DO M51
X22.7914 Y27.3399 F1500
ID=1 WHEN $AC_TIMER[1]>=0 DO M50
X19.803 Y24.351 F800
ID=1 WHEN $AC_TIMER[1]>=0 DO M51
X9.94774 Y14.4963 F1500
ID=1 WHEN $AC_TIMER[1]>=0 DO M50
X6.976 Y11.524 F800
ID=1 WHEN $AC_TIMER[1]>=0 DO M51
X7.90899 Y10.0774 F1500
ID=1 WHEN $AC_TIMER[1]>=0 DO M50
X10.763 Y12.931 F800
ID=1 WHEN $AC_TIMER[1]>=0 DO M51
X21.3706 Y23.539 F1500
ID=1 WHEN $AC_TIMER[1]>=0 DO M50
X24.222 Y26.390 F800
ID=1 WHEN $AC_TIMER[1]>=0 DO M51
X25.4868 Y25.2751 F1500
ID=1 WHEN $AC_TIMER[1]>=0 DO M50
X22.666 Y22.455 F800
ID=1 WHEN $AC_TIMER[1]>=0 DO M51
X11.8469 Y11.6352 F1500
ID=1 WHEN $AC_TIMER[1]>=0 DO M50
X9.036 Y8.824 F800
ID=1 WHEN $AC_TIMER[1]>=0 DO M51
X10.3252 Y7.73342 F1500
ID=1 WHEN $AC_TIMER[1]>=0 DO M50
X13.185 Y10.593 F800
ID=1 WHEN $AC_TIMER[1]>=0 DO M51
X23.7069 Y21.1151 F1500
ID=1 WHEN $AC_TIMER[1]>=0 DO M50
X26.566 Y23.974 F800
ID=1 WHEN $AC_TIMER[1]>=0 DO M51
X27.4771 Y22.5051 F1500
ID=1 WHEN $AC_TIMER[1]>=0 DO M50
X24.445 Y19.473 F800
ID=1 WHEN $AC_TIMER[1]>=0 DO M51
X14.8312 Y9.85923 F1500
ID=1 WHEN $AC_TIMER[1]>=0 DO M50
X11.799 Y6.827 F800
ID=1 WHEN $AC_TIMER[1]>=0 DO M51
X13.4715 Y6.11943 F1500
ID=1 WHEN $AC_TIMER[1]>=0 DO M50
X16.854 Y9.502 F800
ID=1 WHEN $AC_TIMER[1]>=0 DO M51
X24.7946 Y17.4425 F1500
ID=1 WHEN $AC_TIMER[1]>=0 DO M50
X28.178 Y20.826 F800
ID=1 WHEN $AC_TIMER[1]>=0 DO M51
X28.6459 Y18.9137 F1500
ID=1 WHEN $AC_TIMER[1]>=0 DO M50
X24.388 Y14.656 F800
ID=1 WHEN $AC_TIMER[1]>=0 DO M51
X19.6469 Y9.91468 F1500
ID=1 WHEN $AC_TIMER[1]>=0 DO M50
X15.401 Y5.669 F800
ID=1 WHEN $AC_TIMER[1]>=0 DO M51
X17.6579 Y5.54564 F1500
ID=1 WHEN $AC_TIMER[1]>=0 DO M50
X28.767 Y16.655 F800
ID=1 WHEN $AC_TIMER[1]>=0 DO M51
X28.2626 Y13.7702 F1500
ID=1 WHEN $AC_TIMER[1]>=0 DO M50
X20.518 Y6.026 F800
ID=1 WHEN $AC_TIMER[1]>=0 DO M51
; Final do trecho do raster

; Layer 8
G1 Z4.800 F1500
X10.5429 Y29.0643 F1500
ID=1 WHEN $AC_TIMER[1]>=0 DO M50
X9.366 Y28.326 F800
X8.275 Y27.487
X7.279 Y26.538
X6.383 Y25.492
X5.590 Y24.364
X4.921 Y23.155
X4.380 Y21.887
X3.970 Y20.572
X3.690 Y19.219
X3.550 Y17.850
X3.550 Y16.470
X3.690 Y15.101
X3.970 Y13.748
X4.380 Y12.433
X4.920 Y11.167
X5.590 Y9.967
X6.383 Y8.838
X7.279 Y7.792
X8.277 Y6.841
X9.366 Y5.994
X10.540 Y5.267
X11.773 Y4.660
X13.068 Y4.175
X14.398 Y3.831
X15.761 Y3.626
X17.140 Y3.551
X18.519 Y3.626
X19.882 Y3.831
X21.212 Y4.175
X22.508 Y4.660
X23.749 Y5.267
X24.913 Y5.993
X26.003 Y6.841
X27.003 Y7.794
X27.907 Y8.838
X28.689 Y9.965
X29.360 Y11.167
X29.900 Y12.432
X30.310 Y13.748
X30.590 Y15.101
X30.730 Y16.470
X30.730 Y17.850
X30.590 Y19.219
X30.310 Y20.572
X29.900 Y21.888
X29.359 Y23.155
X28.688 Y24.367
X27.907 Y25.492
X27.003 Y26.536
X26.005 Y27.487
X24.913 Y28.327
X23.747 Y29.064
X22.511 Y29.668
X21.215 Y30.144
X19.879 Y30.490
X18.519 Y30.704
X17.140 Y30.769
X15.761 Y30.704
X14.401 Y30.490
X13.065 Y30.144
X11.770 Y29.669
X10.633 Y29.108
ID=1 WHEN $AC_TIMER[1]>=0 DO M51
X11.1542 Y17.0693 F1500
ID=1 WHEN $AC_TIMER[1]>=0 DO M50
X11.154 Y17.251 F800
X11.234 Y18.121
X11.262 Y18.281
X11.482 Y19.121
X11.543 Y19.290
X11.913 Y20.080
X11.997 Y20.225
X12.497 Y20.945
X12.616 Y21.086
X13.236 Y21.696
X13.360 Y21.799
X14.070 Y22.299
X14.220 Y22.387
X15.010 Y22.757
X15.169 Y22.815
X16.009 Y23.045
X16.191 Y23.077
X17.061 Y23.147
X17.219 Y23.147
X18.089 Y23.077
X18.271 Y23.045
X19.111 Y22.815
X19.270 Y22.757
X20.060 Y22.387
X20.210 Y22.299
X20.920 Y21.799
X21.044 Y21.696
X21.664 Y21.086
X21.783 Y20.945
X22.283 Y20.225
X22.367 Y20.080
X22.737 Y19.290
X22.795 Y19.131
X23.025 Y18.291
X23.057 Y18.109
X23.127 Y17.239
X23.127 Y17.081
X23.057 Y16.211
X23.019 Y16.008
X22.799 Y15.205
X22.737 Y15.030
X22.367 Y14.240
X22.279 Y14.090
X21.779 Y13.380
X21.670 Y13.250
X21.050 Y12.630
X20.920 Y12.521
X20.210 Y12.021
X20.060 Y11.933
X19.270 Y11.563
X19.101 Y11.502
X18.261 Y11.282
X18.101 Y11.254
X17.231 Y11.174
X17.049 Y11.174
X16.179 Y11.254
X16.019 Y11.282
X15.179 Y11.502
X15.010 Y11.563
X14.220 Y11.933
X14.070 Y12.021
X13.360 Y12.521
X13.230 Y12.630
X12.610 Y13.250
X12.501 Y13.380
X12.001 Y14.090
X11.913 Y14.240
X11.543 Y15.030
X11.482 Y15.199
X11.262 Y16.039
X11.234 Y16.199
X11.163 Y16.970
ID=1 WHEN $AC_TIMER[1]>=0 DO M51

; Inicio do trecho do raster
X5.63283 Y14.0681 F1500
ID=1 WHEN $AC_TIMER[1]>=0 DO M50
X14.038 Y5.663 F800
ID=1 WHEN $AC_TIMER[1]>=0 DO M51
X16.8273 Y5.25381 F1500
ID=1 WHEN $AC_TIMER[1]>=0 DO M50
X5.233 Y16.848 F800
ID=1 WHEN $AC_TIMER[1]>=0 DO M51
X5.37989 Y19.0813 F1500
ID=1 WHEN $AC_TIMER[1]>=0 DO M50
X9.939 Y14.522 F800
ID=1 WHEN $AC_TIMER[1]>=0 DO M51
X14.5007 Y9.96053 F1500
ID=1 WHEN $AC_TIMER[1]>=0 DO M50
X19.053 Y5.408 F800
ID=1 WHEN $AC_TIMER[1]>=0 DO M51
X20.9623 Y5.87903 F1500
ID=1 WHEN $AC_TIMER[1]>=0 DO M50
X17.341 Y9.501 F800
ID=1 WHEN $AC_TIMER[1]>=0 DO M51
X9.47737 Y17.364 F1500
ID=1 WHEN $AC_TIMER[1]>=0 DO M50
X5.860 Y20.981 F800
ID=1 WHEN $AC_TIMER[1]>=0 DO M51
X6.56728 Y22.6542 F1500
ID=1 WHEN $AC_TIMER[1]>=0 DO M50
X9.821 Y19.401 F800
ID=1 WHEN $AC_TIMER[1]>=0 DO M51
X19.3839 Y9.83754 F1500
ID=1 WHEN $AC_TIMER[1]>=0 DO M50
X22.629 Y6.593 F800
ID=1 WHEN $AC_TIMER[1]>=0 DO M51
X24.1048 Y7.49675 F1500
ID=1 WHEN $AC_TIMER[1]>=0 DO M50
X21.043 Y10.558 F800
ID=1 WHEN $AC_TIMER[1]>=0 DO M51
X10.5402 Y21.0613 F1500
ID=1 WHEN $AC_TIMER[1]>=0 DO M50
X7.478 Y24.123 F800
ID=1 WHEN $AC_TIMER[1]>=0 DO M51
X8.5539 Y25.4278 F1500
ID=1 WHEN $AC_TIMER[1]>=0 DO M50
X11.568 Y22.414 F800
ID=1 WHEN $AC_TIMER[1]>=0 DO M51
X22.3881 Y11.5936 F1500
ID=1 WHEN $AC_TIMER[1]>=0 DO M50
X25.395 Y8.587 F800
ID=1 WHEN $AC_TIMER[1]>=0 DO M51
X26.536 Y9.82584 F1500
ID=1 WHEN $AC_TIMER[1]>=0 DO M50
X23.483 Y12.879 F800
ID=1 WHEN $AC_TIMER[1]>=0 DO M51
X12.8603 Y23.5015 F1500
ID=1 WHEN $AC_TIMER[1]>=0 DO M50
X9.814 Y26.548 F800
ID=1 WHEN $AC_TIMER[1]>=0 DO M51
X11.232 Y27.5099 F1500
ID=1 WHEN $AC_TIMER[1]>=0 DO M50
X14.413 Y24.329 F800
ID=1 WHEN $AC_TIMER[1]>=0 DO M51
X24.3063 Y14.4356 F1500
ID=1 WHEN $AC_TIMER[1]>=0 DO M50
X27.484 Y11.258 F800
ID=1 WHEN $AC_TIMER[1]>=0 DO M51
X28.2553 Y12.8667 F1500
ID=1 WHEN $AC_TIMER[1]>=0 DO M50
X24.753 Y16.369 F800
ID=1 WHEN $AC_TIMER[1]>=0 DO M51
X16.3459 Y24.7762 F1500
ID=1 WHEN $AC_TIMER[1]>=0 DO M50
X12.850 Y28.272 F800
ID=1 WHEN $AC_TIMER[1]>=0 DO M51
X14.6792 Y28.823 F1500
ID=1 WHEN $AC_TIMER[1]>=0 DO M50
X18.880 Y24.622 F800
ID=1 WHEN $AC_TIMER[1]>=0 DO M51
X24.5965 Y18.9057 F1500
ID=1 WHEN $AC_TIMER[1]>=0 DO M50
X28.791 Y14.711 F800
ID=1 WHEN $AC_TIMER[1]>=0 DO M51
X29.047 Y16.8353 F1500
ID=1 WHEN $AC_TIMER[1]>=0 DO M50
X16.814 Y29.069 F800
ID=1 WHEN $AC_TIMER[1]>=0 DO M51
X19.4015 Y28.8609 F1500
ID=1 WHEN $AC_TIMER[1]>=0 DO M50
X28.827 Y19.436 F800
ID=1 WHEN $AC_TIMER[1]>=0 DO M51
X27.3705 Y23.2721 F1500
ID=1 WHEN $AC_TIMER[1]>=0 DO M50
X23.264 Y27.378 F800
ID=1 WHEN $AC_TIMER[1]>=0 DO M51
; Final do trecho do raster

; Layer 9
G1 Z5.400 F1500
X10.4036 Y29.3048 F1500
ID=1 WHEN $AC_TIMER[1]>=0 DO M50
X9.207 Y28.557 F800
X8.096 Y27.698
X7.079 Y26.728
X6.162 Y25.662
X5.350 Y24.503
X4.671 Y23.284
X4.120 Y21.988
X3.699 Y20.640
X3.410 Y19.268
X3.270 Y17.871
X3.270 Y16.459
X3.410 Y15.061
X3.699 Y13.681
X4.120 Y12.343
X4.671 Y11.044
X5.350 Y9.817
X6.162 Y8.668
X7.080 Y7.591
X8.096 Y6.622
X9.207 Y5.763
X10.401 Y5.017
X11.659 Y4.402
X12.986 Y3.916
X14.351 Y3.561
X15.742 Y3.346
X17.140 Y3.271
X18.548 Y3.346
X19.939 Y3.561
X21.303 Y3.916
X22.620 Y4.401
X23.879 Y5.017
X25.073 Y5.763
X26.184 Y6.622
X27.201 Y7.593
X28.127 Y8.668
X28.929 Y9.815
X29.609 Y11.044
X30.160 Y12.343
X30.581 Y13.681
X30.870 Y15.061
X31.010 Y16.459
X31.010 Y17.871
X30.870 Y19.268
X30.581 Y20.640
X30.160 Y21.988
X29.609 Y23.284
X28.929 Y24.506
X28.127 Y25.662
X27.203 Y26.726
X26.184 Y27.698
X25.073 Y28.557
X23.876 Y29.305
X22.618 Y29.930
X21.309 Y30.412
X19.938 Y30.769
X18.551 Y30.974
X17.140 Y31.049
X15.739 Y30.974
X14.348 Y30.768
X12.986 Y30.414
X11.661 Y29.929
X10.493 Y29.349
ID=1 WHEN $AC_TIMER[1]>=0 DO M51
X11.1542 Y17.0693 F1500
ID=1 WHEN $AC_TIMER[1]>=0 DO M50
X11.154 Y17.251 F800
X11.234 Y18.121
X11.262 Y18.281
X11.482 Y19.121
X11.543 Y19.290
X11.913 Y20.080
X11.997 Y20.225
X12.497 Y20.945
X12.616 Y21.086
X13.236 Y21.696
X13.360 Y21.799
X14.070 Y22.299
X14.220 Y22.387
X15.010 Y22.757
X15.169 Y22.815
X16.009 Y23.045
X16.191 Y23.077
X17.061 Y23.147
X17.219 Y23.147
X18.089 Y23.077
X18.271 Y23.045
X19.111 Y22.815
X19.270 Y22.757
X20.060 Y22.387
X20.194 Y22.310
X20.596 Y22.038
X21.044 Y21.696
X21.664 Y21.086
X21.783 Y20.945
X22.283 Y20.225
X22.367 Y20.080
X22.737 Y19.290
X22.795 Y19.131
X23.025 Y18.291
X23.057 Y18.109
X23.127 Y17.239
X23.127 Y17.081
X23.057 Y16.211
X23.025 Y16.029
X22.795 Y15.189
X22.737 Y15.030
X22.367 Y14.240
X22.279 Y14.090
X21.779 Y13.380
X21.670 Y13.250
X21.050 Y12.630
X20.920 Y12.521
X20.210 Y12.021
X20.060 Y11.933
X19.270 Y11.563
X19.101 Y11.502
X18.261 Y11.282
X18.101 Y11.254
X17.231 Y11.174
X17.049 Y11.174
X16.179 Y11.254
X16.019 Y11.282
X15.179 Y11.502
X15.010 Y11.563
X14.220 Y11.933
X14.070 Y12.021
X13.360 Y12.521
X13.230 Y12.630
X12.610 Y13.250
X12.501 Y13.380
X12.001 Y14.090
X11.913 Y14.240
X11.543 Y15.030
X11.482 Y15.199
X11.262 Y16.039
X11.234 Y16.199
X11.163 Y16.970
ID=1 WHEN $AC_TIMER[1]>=0 DO M51

; Inicio do trecho do raster
X20.6281 Y5.4791 F1500
ID=1 WHEN $AC_TIMER[1]>=0 DO M50
X28.811 Y13.662 F800
ID=1 WHEN $AC_TIMER[1]>=0 DO M51
X29.327 Y16.5581 F1500
ID=1 WHEN $AC_TIMER[1]>=0 DO M50
X17.758 Y4.990 F800
ID=1 WHEN $AC_TIMER[1]>=0 DO M51
X15.4784 Y5.0896 F1500
ID=1 WHEN $AC_TIMER[1]>=0 DO M50
X20.828 Y10.440 F800
ID=1 WHEN $AC_TIMER[1]>=0 DO M51
X23.8568 Y13.468 F1500
ID=1 WHEN $AC_TIMER[1]>=0 DO M50
X29.222 Y18.834 F800
ID=1 WHEN $AC_TIMER[1]>=0 DO M51
X28.7774 Y20.7687 F1500
ID=1 WHEN $AC_TIMER[1]>=0 DO M50
X24.790 Y16.781 F800
ID=1 WHEN $AC_TIMER[1]>=0 DO M51
X17.5248 Y9.51617 F1500
ID=1 WHEN $AC_TIMER[1]>=0 DO M50
X13.524 Y5.515 F800
ID=1 WHEN $AC_TIMER[1]>=0 DO M51
X11.8234 Y6.19481 F1500
ID=1 WHEN $AC_TIMER[1]>=0 DO M50
X15.349 Y9.720 F800
ID=1 WHEN $AC_TIMER[1]>=0 DO M51
X24.5834 Y18.9548 F1500
ID=1 WHEN $AC_TIMER[1]>=0 DO M50
X28.118 Y22.490 F800
ID=1 WHEN $AC_TIMER[1]>=0 DO M51
X27.2384 Y23.9899 F1500
ID=1 WHEN $AC_TIMER[1]>=0 DO M50
X23.938 Y20.690 F800
ID=1 WHEN $AC_TIMER[1]>=0 DO M51
X13.6131 Y10.3646 F1500
ID=1 WHEN $AC_TIMER[1]>=0 DO M50
X10.308 Y7.060 F800
ID=1 WHEN $AC_TIMER[1]>=0 DO M51
X8.97642 Y8.10811 F1500
ID=1 WHEN $AC_TIMER[1]>=0 DO M50
X12.183 Y11.315 F800
ID=1 WHEN $AC_TIMER[1]>=0 DO M51
X22.9902 Y22.1219 F1500
ID=1 WHEN $AC_TIMER[1]>=0 DO M50
X26.192 Y25.323 F800
ID=1 WHEN $AC_TIMER[1]>=0 DO M51
X24.9855 Y26.4973 F1500
ID=1 WHEN $AC_TIMER[1]>=0 DO M50
X21.757 Y23.269 F800
ID=1 WHEN $AC_TIMER[1]>=0 DO M51
X11.0321 Y12.544 F1500
ID=1 WHEN $AC_TIMER[1]>=0 DO M50
X7.814 Y9.325 F800
ID=1 WHEN $AC_TIMER[1]>=0 DO M51
X6.79558 Y10.6875 F1500
ID=1 WHEN $AC_TIMER[1]>=0 DO M50
X10.151 Y14.043 F800
ID=1 WHEN $AC_TIMER[1]>=0 DO M51
X20.2584 Y24.1503 F1500
ID=1 WHEN $AC_TIMER[1]>=0 DO M50
X23.601 Y27.493 F800
ID=1 WHEN $AC_TIMER[1]>=0 DO M51
X22.0569 Y28.3289 F1500
ID=1 WHEN $AC_TIMER[1]>=0 DO M50
X18.449 Y24.721 F800
ID=1 WHEN $AC_TIMER[1]>=0 DO M51
X9.58728 Y15.8593 F1500
ID=1 WHEN $AC_TIMER[1]>=0 DO M50
X5.985 Y12.257 F800
ID=1 WHEN $AC_TIMER[1]>=0 DO M51
X5.35926 Y14.0114 F1500
ID=1 WHEN $AC_TIMER[1]>=0 DO M50
X9.557 Y18.209 F800
ID=1 WHEN $AC_TIMER[1]>=0 DO M51
X16.106 Y24.7582 F1500
ID=1 WHEN $AC_TIMER[1]>=0 DO M50
X20.287 Y28.939 F800
ID=1 WHEN $AC_TIMER[1]>=0 DO M51
X18.271 Y29.3033 F1500
ID=1 WHEN $AC_TIMER[1]>=0 DO M50
X5.004 Y16.036 F800
ID=1 WHEN $AC_TIMER[1]>=0 DO M51
X5.0173 Y18.4297 F1500
ID=1 WHEN $AC_TIMER[1]>=0 DO M50
X15.881 Y29.294 F800
ID=1 WHEN $AC_TIMER[1]>=0 DO M51
X12.7387 Y28.5312 F1500
ID=1 WHEN $AC_TIMER[1]>=0 DO M50
X5.767 Y21.559 F800
ID=1 WHEN $AC_TIMER[1]>=0 DO M51
; Final do trecho do raster

; Layer 10
G1 Z6.000 F1500
X11.1542 Y17.0693 F1500
ID=1 WHEN $AC_TIMER[1]>=0 DO M50
X11.154 Y17.251 F800
X11.234 Y18.121
X11.262 Y18.281
X11.482 Y19.121
X11.543 Y19.290
X11.913 Y20.080
X11.997 Y20.225
X12.497 Y20.945
X12.616 Y21.086
X13.236 Y21.696
X13.360 Y21.799
X14.070 Y22.299
X14.220 Y22.387
X15.010 Y22.757
X15.169 Y22.815
X16.009 Y23.045
X16.191 Y23.077
X17.061 Y23.147
X17.219 Y23.147
X18.089 Y23.077
X18.271 Y23.045
X19.111 Y22.815
X19.270 Y22.757
X20.060 Y22.387
X20.210 Y22.299
X20.920 Y21.799
X21.044 Y21.696
X21.664 Y21.086
X21.783 Y20.945
X22.283 Y20.225
X22.367 Y20.080
X22.737 Y19.290
X22.795 Y19.131
X23.025 Y18.291
X23.057 Y18.109
X23.127 Y17.239
X23.127 Y17.081
X23.057 Y16.211
X23.025 Y16.029
X22.795 Y15.189
X22.737 Y15.030
X22.367 Y14.240
X22.279 Y14.090
X21.779 Y13.380
X21.670 Y13.250
X21.050 Y12.630
X20.920 Y12.521
X20.210 Y12.021
X20.060 Y11.933
X19.270 Y11.563
X19.101 Y11.502
X18.261 Y11.282
X18.101 Y11.254
X17.231 Y11.174
X17.049 Y11.174
X16.179 Y11.254
X16.019 Y11.282
X15.179 Y11.502
X15.010 Y11.563
X14.220 Y11.933
X14.070 Y12.021
X13.360 Y12.521
X13.230 Y12.630
X12.610 Y13.250
X12.501 Y13.380
X12.001 Y14.090
X11.913 Y14.240
X11.543 Y15.030
X11.482 Y15.199
X11.262 Y16.039
X11.234 Y16.199
X11.163 Y16.970
ID=1 WHEN $AC_TIMER[1]>=0 DO M51
X10.2618 Y4.77628 F1500
ID=1 WHEN $AC_TIMER[1]>=0 DO M50
X11.551 Y4.141 F800
X12.894 Y3.647
X14.290 Y3.291
X15.710 Y3.066
X17.140 Y3.001
X18.570 Y3.066
X19.990 Y3.291
X21.386 Y3.647
X22.729 Y4.141
X24.018 Y4.776
X25.233 Y5.533
X26.365 Y6.412
X27.413 Y7.404
X28.344 Y8.485
X29.158 Y9.673
X29.861 Y10.929
X30.431 Y12.246
X30.860 Y13.606
X31.140 Y15.018
X31.290 Y16.452
X31.290 Y17.878
X31.140 Y19.311
X30.860 Y20.714
X30.431 Y22.085
X29.861 Y23.401
X29.159 Y24.656
X28.344 Y25.836
X27.413 Y26.925
X26.366 Y27.906
X25.231 Y28.788
X24.018 Y29.553
X22.729 Y30.179
X21.383 Y30.684
X19.993 Y31.039
X18.570 Y31.254
X17.140 Y31.329
X15.710 Y31.254
X14.287 Y31.039
X12.897 Y30.684
X11.551 Y30.179
X10.262 Y29.553
X9.049 Y28.788
X7.914 Y27.906
X6.867 Y26.925
X5.936 Y25.836
X5.121 Y24.656
X4.420 Y23.403
X3.860 Y22.088
X3.430 Y20.711
X3.139 Y19.308
X2.990 Y17.878
X2.990 Y16.452
X3.140 Y15.021
X3.430 Y13.609
X3.860 Y12.243
X4.420 Y10.927
X5.122 Y9.673
X5.936 Y8.485
X6.867 Y7.404
X7.915 Y6.412
X9.047 Y5.533
X10.177 Y4.829
ID=1 WHEN $AC_TIMER[1]>=0 DO M51

; Inicio do trecho do raster
X21.2382 Y28.9409 F1500
ID=1 WHEN $AC_TIMER[1]>=0 DO M50
X28.928 Y21.251 F800
ID=1 WHEN $AC_TIMER[1]>=0 DO M51
X29.5601 Y18.2389 F1500
ID=1 WHEN $AC_TIMER[1]>=0 DO M50
X18.212 Y29.587 F800
ID=1 WHEN $AC_TIMER[1]>=0 DO M51
X15.8465 Y29.5724 F1500
ID=1 WHEN $AC_TIMER[1]>=0 DO M50
X29.538 Y15.881 F800
ID=1 WHEN $AC_TIMER[1]>=0 DO M51
X29.1759 Y13.8629 F1500
ID=1 WHEN $AC_TIMER[1]>=0 DO M50
X24.724 Y18.315 F800
ID=1 WHEN $AC_TIMER[1]>=0 DO M51
X18.297 Y24.7418 F1500
ID=1 WHEN $AC_TIMER[1]>=0 DO M50
X13.849 Y29.190 F800
ID=1 WHEN $AC_TIMER[1]>=0 DO M51
X12.089 Y28.5697 F1500
ID=1 WHEN $AC_TIMER[1]>=0 DO M50
X15.924 Y24.734 F800
ID=1 WHEN $AC_TIMER[1]>=0 DO M51
X24.7164 Y15.9422 F1500
ID=1 WHEN $AC_TIMER[1]>=0 DO M50
X28.542 Y12.117 F800
ID=1 WHEN $AC_TIMER[1]>=0 DO M51
X27.7229 Y10.5556 F1500
ID=1 WHEN $AC_TIMER[1]>=0 DO M50
X24.164 Y14.114 F800
ID=1 WHEN $AC_TIMER[1]>=0 DO M51
X14.096 Y24.1825 F1500
ID=1 WHEN $AC_TIMER[1]>=0 DO M50
X10.540 Y27.739 F800
ID=1 WHEN $AC_TIMER[1]>=0 DO M51
X9.15716 Y26.7412 F1500
ID=1 WHEN $AC_TIMER[1]>=0 DO M50
X12.587 Y23.312 F800
ID=1 WHEN $AC_TIMER[1]>=0 DO M51
X23.2899 Y12.6085 F1500
ID=1 WHEN $AC_TIMER[1]>=0 DO M50
X26.720 Y9.178 F800
ID=1 WHEN $AC_TIMER[1]>=0 DO M51
X25.555 Y7.96328 F1500
ID=1 WHEN $AC_TIMER[1]>=0 DO M50
X22.155 Y11.363 F800
ID=1 WHEN $AC_TIMER[1]>=0 DO M51
X11.3406 Y22.1777 F1500
ID=1 WHEN $AC_TIMER[1]>=0 DO M50
X7.934 Y25.584 F800
ID=1 WHEN $AC_TIMER[1]>=0 DO M51
X6.88696 Y24.2512 F1500
ID=1 WHEN $AC_TIMER[1]>=0 DO M50
X10.379 Y20.759 F800
ID=1 WHEN $AC_TIMER[1]>=0 DO M51
X20.743 Y10.3952 F1500
ID=1 WHEN $AC_TIMER[1]>=0 DO M50
X24.240 Y6.898 F800
ID=1 WHEN $AC_TIMER[1]>=0 DO M51
X22.7369 Y6.02112 F1500
ID=1 WHEN $AC_TIMER[1]>=0 DO M50
X19.015 Y9.743 F800
ID=1 WHEN $AC_TIMER[1]>=0 DO M51
X9.72257 Y19.0355 F1500
ID=1 WHEN $AC_TIMER[1]>=0 DO M50
X5.992 Y22.766 F800
ID=1 WHEN $AC_TIMER[1]>=0 DO M51
X5.30588 Y21.072 F1500
ID=1 WHEN $AC_TIMER[1]>=0 DO M50
X9.486 Y16.892 F800
ID=1 WHEN $AC_TIMER[1]>=0 DO M51
X16.878 Y9.49991 F1500
ID=1 WHEN $AC_TIMER[1]>=0 DO M50
X21.058 Y5.320 F800
ID=1 WHEN $AC_TIMER[1]>=0 DO M51
X19.1378 Y4.85998 F1500
ID=1 WHEN $AC_TIMER[1]>=0 DO M50
X13.651 Y10.346 F800
ID=1 WHEN $AC_TIMER[1]>=0 DO M51
X10.3193 Y13.6785 F1500
ID=1 WHEN $AC_TIMER[1]>=0 DO M50
X4.829 Y19.169 F800
ID=1 WHEN $AC_TIMER[1]>=0 DO M51
X4.673 Y16.9447 F1500
ID=1 WHEN $AC_TIMER[1]>=0 DO M50
X16.922 Y4.696 F800
ID=1 WHEN $AC_TIMER[1]>=0 DO M51
X14.1826 Y5.05494 F1500
ID=1 WHEN $AC_TIMER[1]>=0 DO M50
X5.023 Y14.214 F800
ID=1 WHEN $AC_TIMER[1]>=0 DO M51
X7.11249 Y9.74494 F1500
ID=1 WHEN $AC_TIMER[1]>=0 DO M50
X9.702 Y7.156 F800
ID=1 WHEN $AC_TIMER[1]>=0 DO M51
; Final do trecho do raster

; Layer 11
G1 Z6.600 F1500
X10.1321 Y29.7939 F1500
ID=1 WHEN $AC_TIMER[1]>=0 DO M50
X8.886 Y29.016 F800
X7.735 Y28.127
X6.668 Y27.117
X5.714 Y26.004
X4.881 Y24.806
X4.170 Y23.523
X3.590 Y22.177
X3.160 Y20.782
X2.860 Y19.348
X2.710 Y17.889
X2.710 Y16.431
X2.860 Y14.982
X3.160 Y13.537
X3.590 Y12.143
X4.169 Y10.798
X4.881 Y9.524
X5.714 Y8.317
X6.667 Y7.215
X7.736 Y6.201
X8.886 Y5.304
X10.130 Y4.537
X11.443 Y3.890
X12.818 Y3.376
X14.230 Y3.011
X15.678 Y2.787
X17.140 Y2.721
X18.602 Y2.787
X20.050 Y3.011
X21.462 Y3.376
X22.837 Y3.890
X24.150 Y4.537
X25.396 Y5.305
X26.553 Y6.201
X27.612 Y7.213
X28.566 Y8.317
X29.399 Y9.524
X30.111 Y10.798
X30.691 Y12.146
X31.130 Y13.537
X31.420 Y14.979
X31.570 Y16.431
X31.570 Y17.889
X31.420 Y19.351
X31.130 Y20.782
X30.691 Y22.174
X30.110 Y23.523
X29.399 Y24.806
X28.566 Y26.004
X27.610 Y27.118
X26.555 Y28.127
X25.396 Y29.015
X24.148 Y29.794
X22.839 Y30.439
X21.465 Y30.944
X20.041 Y31.311
X18.603 Y31.534
X17.140 Y31.609
X15.681 Y31.534
X14.230 Y31.309
X12.815 Y30.944
X11.441 Y30.439
X10.222 Y29.838
ID=1 WHEN $AC_TIMER[1]>=0 DO M51
X11.1542 Y17.0693 F1500
ID=1 WHEN $AC_TIMER[1]>=0 DO M50
X11.154 Y17.251 F800
X11.234 Y18.121
X11.262 Y18.281
X11.482 Y19.121
X11.543 Y19.290
X11.913 Y20.080
X11.997 Y20.225
X12.497 Y20.945
X12.616 Y21.086
X13.236 Y21.696
X13.360 Y21.799
X14.070 Y22.299
X14.220 Y22.387
X15.010 Y22.757
X15.169 Y22.815
X16.009 Y23.045
X16.191 Y23.077
X17.061 Y23.147
X17.219 Y23.147
X18.089 Y23.077
X18.271 Y23.045
X19.111 Y22.815
X19.270 Y22.757
X20.060 Y22.387
X20.210 Y22.299
X20.920 Y21.799
X21.044 Y21.696
X21.664 Y21.086
X21.783 Y20.945
X22.283 Y20.225
X22.367 Y20.080
X22.737 Y19.290
X22.795 Y19.131
X23.025 Y18.291
X23.057 Y18.109
X23.127 Y17.239
X23.127 Y17.081
X23.057 Y16.211
X23.025 Y16.029
X22.795 Y15.189
X22.737 Y15.030
X22.367 Y14.240
X22.279 Y14.090
X21.779 Y13.380
X21.670 Y13.250
X21.050 Y12.630
X20.920 Y12.521
X20.210 Y12.021
X20.060 Y11.933
X19.270 Y11.563
X19.101 Y11.502
X18.261 Y11.282
X18.101 Y11.254
X17.231 Y11.174
X17.049 Y11.174
X16.179 Y11.254
X16.019 Y11.282
X15.179 Y11.502
X15.010 Y11.563
X14.220 Y11.933
X14.070 Y12.021
X13.360 Y12.521
X13.230 Y12.630
X12.610 Y13.250
X12.501 Y13.380
X12.001 Y14.090
X11.913 Y14.240
X11.543 Y15.030
X11.482 Y15.199
X11.262 Y16.039
X11.234 Y16.199
X11.163 Y16.970
ID=1 WHEN $AC_TIMER[1]>=0 DO M51

; Inicio do trecho do raster
X5.19172 Y21.6409 F1500
ID=1 WHEN $AC_TIMER[1]>=0 DO M50
X12.636 Y29.085 F800
ID=1 WHEN $AC_TIMER[1]>=0 DO M51
X15.7765 Y29.8456 F1500
ID=1 WHEN $AC_TIMER[1]>=0 DO M50
X4.468 Y18.537 F800
ID=1 WHEN $AC_TIMER[1]>=0 DO M51
X4.43377 Y16.1227 F1500
ID=1 WHEN $AC_TIMER[1]>=0 DO M50
X18.181 Y29.870 F800
ID=1 WHEN $AC_TIMER[1]>=0 DO M51
X20.2186 Y29.5274 F1500
ID=1 WHEN $AC_TIMER[1]>=0 DO M50
X15.276 Y24.585 F800
ID=1 WHEN $AC_TIMER[1]>=0 DO M51
X9.72106 Y19.0298 F1500
ID=1 WHEN $AC_TIMER[1]>=0 DO M50
X4.767 Y14.076 F800
ID=1 WHEN $AC_TIMER[1]>=0 DO M51
X5.35988 Y12.2885 F1500
ID=1 WHEN $AC_TIMER[1]>=0 DO M50
X9.524 Y16.452 F800
ID=1 WHEN $AC_TIMER[1]>=0 DO M51
X17.8521 Y24.7808 F1500
ID=1 WHEN $AC_TIMER[1]>=0 DO M50
X22.019 Y28.947 F800
ID=1 WHEN $AC_TIMER[1]>=0 DO M51
X23.6021 Y28.1507 F1500
ID=1 WHEN $AC_TIMER[1]>=0 DO M50
X19.803 Y24.351 F800
ID=1 WHEN $AC_TIMER[1]>=0 DO M51
X9.94774 Y14.4963 F1500
ID=1 WHEN $AC_TIMER[1]>=0 DO M50
X6.152 Y10.700 F800
ID=1 WHEN $AC_TIMER[1]>=0 DO M51
X7.10864 Y9.27706 F1500
ID=1 WHEN $AC_TIMER[1]>=0 DO M50
X10.763 Y12.931 F800
ID=1 WHEN $AC_TIMER[1]>=0 DO M51
X21.3706 Y23.539 F1500
ID=1 WHEN $AC_TIMER[1]>=0 DO M50
X25.017 Y27.185 F800
ID=1 WHEN $AC_TIMER[1]>=0 DO M51
X26.2767 Y26.065 F1500
ID=1 WHEN $AC_TIMER[1]>=0 DO M50
X22.666 Y22.455 F800
ID=1 WHEN $AC_TIMER[1]>=0 DO M51
X11.8469 Y11.6352 F1500
ID=1 WHEN $AC_TIMER[1]>=0 DO M50
X8.247 Y8.036 F800
ID=1 WHEN $AC_TIMER[1]>=0 DO M51
X9.52899 Y6.93717 F1500
ID=1 WHEN $AC_TIMER[1]>=0 DO M50
X13.185 Y10.593 F800
ID=1 WHEN $AC_TIMER[1]>=0 DO M51
X23.7069 Y21.1151 F1500
ID=1 WHEN $AC_TIMER[1]>=0 DO M50
X27.369 Y24.777 F800
ID=1 WHEN $AC_TIMER[1]>=0 DO M51
X28.296 Y23.3241 F1500
ID=1 WHEN $AC_TIMER[1]>=0 DO M50
X24.445 Y19.473 F800
ID=1 WHEN $AC_TIMER[1]>=0 DO M51
X14.8312 Y9.85923 F1500
ID=1 WHEN $AC_TIMER[1]>=0 DO M50
X10.971 Y5.999 F800
ID=1 WHEN $AC_TIMER[1]>=0 DO M51
X12.6044 Y5.25238 F1500
ID=1 WHEN $AC_TIMER[1]>=0 DO M50
X16.854 Y9.502 F800
ID=1 WHEN $AC_TIMER[1]>=0 DO M51
X24.7946 Y17.4425 F1500
ID=1 WHEN $AC_TIMER[1]>=0 DO M50
X29.060 Y21.708 F800
ID=1 WHEN $AC_TIMER[1]>=0 DO M51
X29.5985 Y19.8663 F1500
ID=1 WHEN $AC_TIMER[1]>=0 DO M50
X24.388 Y14.656 F800
ID=1 WHEN $AC_TIMER[1]>=0 DO M51
X19.6469 Y9.91468 F1500
ID=1 WHEN $AC_TIMER[1]>=0 DO M50
X14.430 Y4.697 F800
ID=1 WHEN $AC_TIMER[1]>=0 DO M51
X16.5447 Y4.4324 F1500
ID=1 WHEN $AC_TIMER[1]>=0 DO M50
X29.887 Y17.775 F800
ID=1 WHEN $AC_TIMER[1]>=0 DO M51
X29.7577 Y15.2653 F1500
ID=1 WHEN $AC_TIMER[1]>=0 DO M50
X19.052 Y4.559 F800
ID=1 WHEN $AC_TIMER[1]>=0 DO M51
X22.4463 Y5.57378 F1500
ID=1 WHEN $AC_TIMER[1]>=0 DO M50
X28.738 Y11.865 F800
ID=1 WHEN $AC_TIMER[1]>=0 DO M51
; Final do trecho do raster

; Layer 12
G1 Z7.200 F1500
X11.1542 Y17.0693 F1500
ID=1 WHEN $AC_TIMER[1]>=0 DO M50
X11.154 Y17.251 F800
X11.234 Y18.121
X11.262 Y18.281
X11.482 Y19.121
X11.543 Y19.290
X11.913 Y20.080
X11.997 Y20.225
X12.497 Y20.945
X12.616 Y21.086
X13.236 Y21.696
X13.360 Y21.799
X14.070 Y22.299
X14.220 Y22.387
X15.010 Y22.757
X15.169 Y22.815
X16.009 Y23.045
X16.191 Y23.077
X17.061 Y23.147
X17.219 Y23.147
X18.089 Y23.077
X18.271 Y23.045
X19.111 Y22.815
X19.270 Y22.757
X20.060 Y22.387
X20.210 Y22.299
X20.920 Y21.799
X21.044 Y21.696
X21.664 Y21.086
X21.783 Y20.945
X22.283 Y20.225
X22.367 Y20.080
X22.737 Y19.290
X22.795 Y19.131
X23.025 Y18.291
X23.057 Y18.109
X23.127 Y17.239
X23.127 Y17.081
X23.057 Y16.211
X23.025 Y16.029
X22.795 Y15.189
X22.737 Y15.030
X22.367 Y14.240
X22.279 Y14.090
X21.779 Y13.380
X21.670 Y13.250
X21.050 Y12.630
X20.920 Y12.521
X20.210 Y12.021
X20.060 Y11.933
X19.270 Y11.563
X19.101 Y11.502
X18.261 Y11.282
X18.101 Y11.254
X17.231 Y11.174
X17.049 Y11.174
X16.179 Y11.254
X16.019 Y11.282
X15.179 Y11.502
X15.010 Y11.563
X14.220 Y11.933
X14.070 Y12.021
X13.360 Y12.521
X13.230 Y12.630
X12.610 Y13.250
X12.501 Y13.380
X12.001 Y14.090
X11.913 Y14.240
X11.543 Y15.030
X11.482 Y15.199
X11.262 Y16.039
X11.234 Y16.199
X11.163 Y16.970
ID=1 WHEN $AC_TIMER[1]>=0 DO M51
X9.99404 Y4.28531 F1500
ID=1 WHEN $AC_TIMER[1]>=0 DO M50
X11.329 Y3.632 F800
X12.736 Y3.116
X14.180 Y2.741
X15.650 Y2.516
X17.140 Y2.441
X18.630 Y2.516
X20.101 Y2.741
X21.554 Y3.116
X22.950 Y3.631
X24.290 Y4.287
X25.553 Y5.073
X26.734 Y5.992
X27.812 Y7.014
X28.786 Y8.147
X29.638 Y9.374
X30.360 Y10.677
X30.951 Y12.046
X31.401 Y13.469
X31.700 Y14.929
X31.850 Y16.420
X31.850 Y17.910
X31.700 Y19.390
X31.401 Y20.851
X30.951 Y22.275
X30.360 Y23.654
X29.639 Y24.955
X28.787 Y26.172
X27.811 Y27.308
X26.734 Y28.338
X25.553 Y29.247
X24.287 Y30.044
X22.950 Y30.699
X21.554 Y31.214
X20.101 Y31.589
X18.630 Y31.814
X17.140 Y31.889
X15.650 Y31.814
X14.180 Y31.589
X12.736 Y31.214
X11.329 Y30.698
X9.993 Y30.044
X8.727 Y29.247
X7.546 Y28.338
X6.469 Y27.308
X5.493 Y26.172
X4.641 Y24.955
X3.920 Y23.654
X3.330 Y22.278
X2.889 Y20.851
X2.582 Y19.398
X2.554 Y19.042
X2.430 Y17.906
X2.430 Y16.420
X2.580 Y14.932
X2.889 Y13.469
X3.330 Y12.043
X3.920 Y10.677
X4.642 Y9.374
X5.494 Y8.147
X6.468 Y7.014
X7.546 Y5.992
X8.718 Y5.080
X9.030 Y4.896
X9.910 Y4.339
ID=1 WHEN $AC_TIMER[1]>=0 DO M51

; Inicio do trecho do raster
X12.225 Y5.09586 F1500
ID=1 WHEN $AC_TIMER[1]>=0 DO M50
X5.076 Y12.245 F800
ID=1 WHEN $AC_TIMER[1]>=0 DO M51
X4.21551 Y15.4855 F1500
ID=1 WHEN $AC_TIMER[1]>=0 DO M50
X15.452 Y4.249 F800
ID=1 WHEN $AC_TIMER[1]>=0 DO M51
X17.9157 Y4.16541 F1500
ID=1 WHEN $AC_TIMER[1]>=0 DO M50
X4.128 Y17.953 F800
ID=1 WHEN $AC_TIMER[1]>=0 DO M51
X4.435 Y20.0262 F1500
ID=1 WHEN $AC_TIMER[1]>=0 DO M50
X9.939 Y14.522 F800
ID=1 WHEN $AC_TIMER[1]>=0 DO M51
X14.5007 Y9.96053 F1500
ID=1 WHEN $AC_TIMER[1]>=0 DO M50
X20.006 Y4.455 F800
ID=1 WHEN $AC_TIMER[1]>=0 DO M51
X21.8296 Y5.01175 F1500
ID=1 WHEN $AC_TIMER[1]>=0 DO M50
X17.341 Y9.501 F800
ID=1 WHEN $AC_TIMER[1]>=0 DO M51
X9.47737 Y17.364 F1500
ID=1 WHEN $AC_TIMER[1]>=0 DO M50
X4.982 Y21.859 F800
ID=1 WHEN $AC_TIMER[1]>=0 DO M51
X5.74555 Y23.4759 F1500
ID=1 WHEN $AC_TIMER[1]>=0 DO M50
X9.821 Y19.401 F800
ID=1 WHEN $AC_TIMER[1]>=0 DO M51
X19.3839 Y9.83754 F1500
ID=1 WHEN $AC_TIMER[1]>=0 DO M50
X23.464 Y5.757 F800
ID=1 WHEN $AC_TIMER[1]>=0 DO M51
X24.9023 Y6.69924 F1500
ID=1 WHEN $AC_TIMER[1]>=0 DO M50
X21.043 Y10.558 F800
ID=1 WHEN $AC_TIMER[1]>=0 DO M51
X10.5402 Y21.0613 F1500
ID=1 WHEN $AC_TIMER[1]>=0 DO M50
X6.675 Y24.926 F800
ID=1 WHEN $AC_TIMER[1]>=0 DO M51
X7.7641 Y26.2176 F1500
ID=1 WHEN $AC_TIMER[1]>=0 DO M50
X11.568 Y22.414 F800
ID=1 WHEN $AC_TIMER[1]>=0 DO M51
X22.3881 Y11.5936 F1500
ID=1 WHEN $AC_TIMER[1]>=0 DO M50
X26.188 Y7.793 F800
ID=1 WHEN $AC_TIMER[1]>=0 DO M51
X27.3287 Y9.03313 F1500
ID=1 WHEN $AC_TIMER[1]>=0 DO M50
X23.483 Y12.879 F800
ID=1 WHEN $AC_TIMER[1]>=0 DO M51
X12.8603 Y23.5015 F1500
ID=1 WHEN $AC_TIMER[1]>=0 DO M50
X9.016 Y27.346 F800
ID=1 WHEN $AC_TIMER[1]>=0 DO M51
X10.4186 Y28.3234 F1500
ID=1 WHEN $AC_TIMER[1]>=0 DO M50
X14.413 Y24.329 F800
ID=1 WHEN $AC_TIMER[1]>=0 DO M51
X24.307 Y14.4349 F1500
ID=1 WHEN $AC_TIMER[1]>=0 DO M50
X28.304 Y10.438 F800
ID=1 WHEN $AC_TIMER[1]>=0 DO M51
X29.1054 Y12.0167 F1500
ID=1 WHEN $AC_TIMER[1]>=0 DO M50
X24.754 Y16.368 F800
ID=1 WHEN $AC_TIMER[1]>=0 DO M51
X16.3459 Y24.7762 F1500
ID=1 WHEN $AC_TIMER[1]>=0 DO M50
X11.979 Y29.143 F800
ID=1 WHEN $AC_TIMER[1]>=0 DO M51
X13.7608 Y29.7414 F1500
ID=1 WHEN $AC_TIMER[1]>=0 DO M50
X18.880 Y24.622 F800
ID=1 WHEN $AC_TIMER[1]>=0 DO M51
X24.5965 Y18.9057 F1500
ID=1 WHEN $AC_TIMER[1]>=0 DO M50
X29.731 Y13.771 F800
ID=1 WHEN $AC_TIMER[1]>=0 DO M51
X30.0949 Y15.7874 F1500
ID=1 WHEN $AC_TIMER[1]>=0 DO M50
X15.755 Y30.127 F800
ID=1 WHEN $AC_TIMER[1]>=0 DO M51
X18.1075 Y30.1549 F1500
ID=1 WHEN $AC_TIMER[1]>=0 DO M50
X30.137 Y18.126 F800
ID=1 WHEN $AC_TIMER[1]>=0 DO M51
X29.5635 Y21.0791 F1500
ID=1 WHEN $AC_TIMER[1]>=0 DO M50
X21.032 Y29.611 F800
ID=1 WHEN $AC_TIMER[1]>=0 DO M51
; Final do trecho do raster

; Layer 13
G1 Z7.800 F1500
X11.1542 Y17.0693 F1500
ID=1 WHEN $AC_TIMER[1]>=0 DO M50
X11.154 Y17.251 F800
X11.234 Y18.121
X11.262 Y18.281
X11.482 Y19.121
X11.543 Y19.290
X11.913 Y20.080
X11.997 Y20.225
X12.497 Y20.945
X12.616 Y21.086
X13.236 Y21.696
X13.360 Y21.799
X14.070 Y22.299
X14.220 Y22.387
X15.010 Y22.757
X15.169 Y22.815
X16.009 Y23.045
X16.191 Y23.077
X17.061 Y23.147
X17.219 Y23.147
X18.089 Y23.077
X18.271 Y23.045
X19.111 Y22.815
X19.270 Y22.757
X20.060 Y22.387
X20.200 Y22.307
X20.781 Y21.906
X21.044 Y21.696
X21.664 Y21.086
X21.783 Y20.945
X22.283 Y20.225
X22.367 Y20.080
X22.737 Y19.290
X22.795 Y19.131
X23.025 Y18.291
X23.057 Y18.109
X23.127 Y17.239
X23.127 Y17.081
X23.057 Y16.211
X23.025 Y16.029
X22.795 Y15.189
X22.737 Y15.030
X22.367 Y14.240
X22.279 Y14.090
X21.779 Y13.380
X21.670 Y13.250
X21.050 Y12.630
X20.920 Y12.521
X20.210 Y12.021
X20.060 Y11.933
X19.270 Y11.563
X19.101 Y11.502
X18.261 Y11.282
X18.101 Y11.254
X17.231 Y11.174
X17.049 Y11.174
X16.179 Y11.254
X16.019 Y11.282
X15.179 Y11.502
X15.010 Y11.563
X14.220 Y11.933
X14.070 Y12.021
X13.360 Y12.521
X13.230 Y12.630
X12.610 Y13.250
X12.501 Y13.380
X12.001 Y14.090
X11.913 Y14.240
X11.543 Y15.030
X11.482 Y15.199
X11.262 Y16.039
X11.234 Y16.199
X11.163 Y16.970
ID=1 WHEN $AC_TIMER[1]>=0 DO M51
X9.86074 Y4.04662 F1500
ID=1 WHEN $AC_TIMER[1]>=0 DO M50
X11.222 Y3.370 F800
X12.647 Y2.846
X14.119 Y2.461
X15.618 Y2.236
X17.140 Y2.161
X18.662 Y2.236
X20.161 Y2.461
X21.633 Y2.846
X23.058 Y3.370
X24.419 Y4.047
X25.716 Y4.845
X26.915 Y5.773
X28.021 Y6.822
X29.006 Y7.976
X29.878 Y9.223
X30.609 Y10.555
X31.211 Y11.956
X31.670 Y13.398
X31.970 Y14.890
X32.130 Y16.402
X32.130 Y17.918
X31.970 Y19.440
X31.670 Y20.922
X31.211 Y22.375
X30.609 Y23.775
X29.878 Y25.107
X29.007 Y26.352
X28.022 Y27.496
X26.915 Y28.548
X25.714 Y29.476
X24.419 Y30.283
X23.058 Y30.950
X21.633 Y31.484
X20.161 Y31.859
X18.659 Y32.094
X17.140 Y32.169
X15.621 Y32.094
X14.119 Y31.859
X12.647 Y31.484
X11.222 Y30.950
X9.861 Y30.283
X8.566 Y29.476
X7.367 Y28.549
X6.267 Y27.496
X5.271 Y26.350
X4.402 Y25.107
X3.671 Y23.775
X3.069 Y22.375
X2.610 Y20.922
X2.310 Y19.440
X2.150 Y17.918
X2.150 Y16.402
X2.310 Y14.890
X2.610 Y13.398
X3.069 Y11.956
X3.671 Y10.555
X4.402 Y9.223
X5.273 Y7.978
X6.269 Y6.822
X7.367 Y5.771
X8.564 Y4.845
X9.776 Y4.099
ID=1 WHEN $AC_TIMER[1]>=0 DO M51

; Inicio do trecho do raster
X29.2999 Y11.7707 F1500
ID=1 WHEN $AC_TIMER[1]>=0 DO M50
X22.504 Y4.974 F800
ID=1 WHEN $AC_TIMER[1]>=0 DO M51
X19.1623 Y4.01325 F1500
ID=1 WHEN $AC_TIMER[1]>=0 DO M50
X30.306 Y15.157 F800
ID=1 WHEN $AC_TIMER[1]>=0 DO M51
X30.447 Y17.6781 F1500
ID=1 WHEN $AC_TIMER[1]>=0 DO M50
X16.640 Y3.871 F800
ID=1 WHEN $AC_TIMER[1]>=0 DO M51
X14.4954 Y4.1066 F1500
ID=1 WHEN $AC_TIMER[1]>=0 DO M50
X20.828 Y10.440 F800
ID=1 WHEN $AC_TIMER[1]>=0 DO M51
X23.8568 Y13.468 F1500
ID=1 WHEN $AC_TIMER[1]>=0 DO M50
X30.182 Y19.793 F800
ID=1 WHEN $AC_TIMER[1]>=0 DO M51
X29.671 Y21.6623 F1500
ID=1 WHEN $AC_TIMER[1]>=0 DO M50
X24.790 Y16.781 F800
ID=1 WHEN $AC_TIMER[1]>=0 DO M51
X17.5248 Y9.51617 F1500
ID=1 WHEN $AC_TIMER[1]>=0 DO M50
X12.648 Y4.639 F800
ID=1 WHEN $AC_TIMER[1]>=0 DO M51
X10.9923 Y5.36379 F1500
ID=1 WHEN $AC_TIMER[1]>=0 DO M50
X15.349 Y9.720 F800
ID=1 WHEN $AC_TIMER[1]>=0 DO M51
X24.5834 Y18.9548 F1500
ID=1 WHEN $AC_TIMER[1]>=0 DO M50
X28.942 Y23.314 F800
ID=1 WHEN $AC_TIMER[1]>=0 DO M51
X28.0427 Y24.7943 F1500
ID=1 WHEN $AC_TIMER[1]>=0 DO M50
X23.938 Y20.690 F800
ID=1 WHEN $AC_TIMER[1]>=0 DO M51
X13.6131 Y10.3646 F1500
ID=1 WHEN $AC_TIMER[1]>=0 DO M50
X9.499 Y6.250 F800
ID=1 WHEN $AC_TIMER[1]>=0 DO M51
X8.18562 Y7.31731 F1500
ID=1 WHEN $AC_TIMER[1]>=0 DO M50
X12.183 Y11.315 F800
ID=1 WHEN $AC_TIMER[1]>=0 DO M51
X22.9902 Y22.1219 F1500
ID=1 WHEN $AC_TIMER[1]>=0 DO M50
X26.987 Y26.119 F800
ID=1 WHEN $AC_TIMER[1]>=0 DO M51
X25.7832 Y27.295 F1500
ID=1 WHEN $AC_TIMER[1]>=0 DO M50
X21.760 Y23.271 F800
ID=1 WHEN $AC_TIMER[1]>=0 DO M51
X11.0321 Y12.544 F1500
ID=1 WHEN $AC_TIMER[1]>=0 DO M50
X7.019 Y8.530 F800
ID=1 WHEN $AC_TIMER[1]>=0 DO M51
X5.99306 Y9.88499 F1500
ID=1 WHEN $AC_TIMER[1]>=0 DO M50
X10.151 Y14.043 F800
ID=1 WHEN $AC_TIMER[1]>=0 DO M51
X20.2583 Y24.1502 F1500
ID=1 WHEN $AC_TIMER[1]>=0 DO M50
X24.412 Y28.304 F800
ID=1 WHEN $AC_TIMER[1]>=0 DO M51
X22.8873 Y29.1593 F1500
ID=1 WHEN $AC_TIMER[1]>=0 DO M50
X18.449 Y24.721 F800
ID=1 WHEN $AC_TIMER[1]>=0 DO M51
X9.58728 Y15.8593 F1500
ID=1 WHEN $AC_TIMER[1]>=0 DO M50
X5.136 Y11.408 F800
ID=1 WHEN $AC_TIMER[1]>=0 DO M51
X4.46537 Y13.1175 F1500
ID=1 WHEN $AC_TIMER[1]>=0 DO M50
X9.557 Y18.209 F800
ID=1 WHEN $AC_TIMER[1]>=0 DO M51
X16.106 Y24.7582 F1500
ID=1 WHEN $AC_TIMER[1]>=0 DO M50
X21.198 Y29.850 F800
ID=1 WHEN $AC_TIMER[1]>=0 DO M51
X19.2636 Y30.2959 F1500
ID=1 WHEN $AC_TIMER[1]>=0 DO M50
X3.998 Y15.030 F800
ID=1 WHEN $AC_TIMER[1]>=0 DO M51
X3.833 Y17.2454 F1500
ID=1 WHEN $AC_TIMER[1]>=0 DO M50
X17.068 Y30.480 F800
ID=1 WHEN $AC_TIMER[1]>=0 DO M51
X14.4018 Y30.1944 F1500
ID=1 WHEN $AC_TIMER[1]>=0 DO M50
X4.123 Y19.916 F800
ID=1 WHEN $AC_TIMER[1]>=0 DO M51
X5.57667 Y23.7493 F1500
ID=1 WHEN $AC_TIMER[1]>=0 DO M50
X10.568 Y28.741 F800
ID=1 WHEN $AC_TIMER[1]>=0 DO M51
; Final do trecho do raster

; Layer 14
G1 Z8.400 F1500
X11.1542 Y17.0693 F1500
ID=1 WHEN $AC_TIMER[1]>=0 DO M50
X11.154 Y17.251 F800
X11.234 Y18.121
X11.262 Y18.281
X11.482 Y19.121
X11.543 Y19.290
X11.913 Y20.080
X11.997 Y20.225
X12.497 Y20.945
X12.616 Y21.086
X13.236 Y21.696
X13.360 Y21.799
X14.070 Y22.299
X14.220 Y22.387
X15.010 Y22.757
X15.169 Y22.815
X16.009 Y23.045
X16.191 Y23.077
X17.061 Y23.147
X17.219 Y23.147
X18.089 Y23.077
X18.271 Y23.045
X19.111 Y22.815
X19.270 Y22.757
X20.060 Y22.387
X20.210 Y22.299
X20.920 Y21.799
X21.044 Y21.696
X21.664 Y21.086
X21.783 Y20.945
X22.283 Y20.225
X22.367 Y20.080
X22.737 Y19.290
X22.795 Y19.131
X23.025 Y18.291
X23.057 Y18.109
X23.127 Y17.239
X23.127 Y17.081
X23.057 Y16.211
X23.025 Y16.029
X22.795 Y15.189
X22.737 Y15.030
X22.367 Y14.240
X22.279 Y14.090
X21.779 Y13.380
X21.670 Y13.250
X21.050 Y12.630
X20.920 Y12.521
X20.210 Y12.021
X20.060 Y11.933
X19.270 Y11.563
X19.101 Y11.502
X18.261 Y11.282
X18.101 Y11.254
X17.231 Y11.174
X17.049 Y11.174
X16.179 Y11.254
X16.019 Y11.282
X15.179 Y11.502
X15.010 Y11.563
X14.220 Y11.933
X14.070 Y12.021
X13.360 Y12.521
X13.230 Y12.630
X12.610 Y13.250
X12.501 Y13.380
X12.001 Y14.090
X11.913 Y14.240
X11.543 Y15.030
X11.482 Y15.199
X11.262 Y16.039
X11.234 Y16.199
X11.163 Y16.970
ID=1 WHEN $AC_TIMER[1]>=0 DO M51
X11.1109 Y3.12077 F1500
ID=1 WHEN $AC_TIMER[1]>=0 DO M50
X12.568 Y2.576 F800
X14.059 Y2.191
X15.589 Y1.956
X17.140 Y1.881
X18.691 Y1.956
X20.221 Y2.191
X21.712 Y2.576
X23.169 Y3.121
X24.561 Y3.798
X25.873 Y4.614
X27.094 Y5.562
X28.221 Y6.633
X29.226 Y7.806
X30.109 Y9.075
X30.860 Y10.426
X31.471 Y11.856
X31.941 Y13.330
X32.250 Y14.850
X32.410 Y16.391
X32.410 Y17.939
X32.250 Y19.479
X31.941 Y20.991
X31.471 Y22.474
X30.860 Y23.893
X30.108 Y25.247
X29.225 Y26.525
X28.223 Y27.696
X27.096 Y28.757
X25.873 Y29.706
X24.559 Y30.524
X23.169 Y31.209
X21.712 Y31.745
X20.218 Y32.139
X18.691 Y32.374
X17.140 Y32.449
X15.589 Y32.374
X14.062 Y32.139
X12.568 Y31.745
X11.111 Y31.209
X9.721 Y30.524
X8.406 Y29.706
X7.184 Y28.757
X6.070 Y27.708
X5.053 Y26.522
X4.172 Y25.247
X3.420 Y23.893
X2.809 Y22.474
X2.339 Y20.991
X2.030 Y19.479
X1.870 Y17.939
X1.870 Y16.391
X2.030 Y14.850
X2.339 Y13.330
X2.809 Y11.856
X3.420 Y10.426
X4.171 Y9.075
X5.054 Y7.806
X6.059 Y6.633
X7.186 Y5.562
X8.393 Y4.624
X9.722 Y3.796
X11.021 Y3.165
ID=1 WHEN $AC_TIMER[1]>=0 DO M51

; Inicio do trecho do raster
X29.2709 Y23.2884 F1500
ID=1 WHEN $AC_TIMER[1]>=0 DO M50
X23.283 Y29.276 F800
ID=1 WHEN $AC_TIMER[1]>=0 DO M51
X19.6563 Y30.5229 F1500
ID=1 WHEN $AC_TIMER[1]>=0 DO M50
X30.489 Y19.690 F800
ID=1 WHEN $AC_TIMER[1]>=0 DO M51
X30.727 Y17.072 F1500
ID=1 WHEN $AC_TIMER[1]>=0 DO M50
X17.040 Y30.759 F800
ID=1 WHEN $AC_TIMER[1]>=0 DO M51
X14.8598 Y30.5591 F1500
ID=1 WHEN $AC_TIMER[1]>=0 DO M50
X30.539 Y14.880 F800
ID=1 WHEN $AC_TIMER[1]>=0 DO M51
X30.0619 Y12.9769 F1500
ID=1 WHEN $AC_TIMER[1]>=0 DO M50
X24.724 Y18.315 F800
ID=1 WHEN $AC_TIMER[1]>=0 DO M51
X18.297 Y24.7418 F1500
ID=1 WHEN $AC_TIMER[1]>=0 DO M50
X12.948 Y30.091 F800
ID=1 WHEN $AC_TIMER[1]>=0 DO M51
X11.2552 Y29.4035 F1500
ID=1 WHEN $AC_TIMER[1]>=0 DO M50
X15.924 Y24.734 F800
ID=1 WHEN $AC_TIMER[1]>=0 DO M51
X24.7164 Y15.9422 F1500
ID=1 WHEN $AC_TIMER[1]>=0 DO M50
X29.390 Y11.269 F800
ID=1 WHEN $AC_TIMER[1]>=0 DO M51
X28.5285 Y9.75007 F1500
ID=1 WHEN $AC_TIMER[1]>=0 DO M50
X24.164 Y14.114 F800
ID=1 WHEN $AC_TIMER[1]>=0 DO M51
X14.096 Y24.1825 F1500
ID=1 WHEN $AC_TIMER[1]>=0 DO M50
X9.731 Y28.548 F800
ID=1 WHEN $AC_TIMER[1]>=0 DO M51
X8.35962 Y27.5388 F1500
ID=1 WHEN $AC_TIMER[1]>=0 DO M50
X12.587 Y23.312 F800
ID=1 WHEN $AC_TIMER[1]>=0 DO M51
X23.2899 Y12.6085 F1500
ID=1 WHEN $AC_TIMER[1]>=0 DO M50
X27.509 Y8.389 F800
ID=1 WHEN $AC_TIMER[1]>=0 DO M51
X26.3458 Y7.17244 F1500
ID=1 WHEN $AC_TIMER[1]>=0 DO M50
X22.155 Y11.363 F800
ID=1 WHEN $AC_TIMER[1]>=0 DO M51
X11.3406 Y22.1777 F1500
ID=1 WHEN $AC_TIMER[1]>=0 DO M50
X7.144 Y26.374 F800
ID=1 WHEN $AC_TIMER[1]>=0 DO M51
X6.08434 Y25.0538 F1500
ID=1 WHEN $AC_TIMER[1]>=0 DO M50
X10.379 Y20.759 F800
ID=1 WHEN $AC_TIMER[1]>=0 DO M51
X20.743 Y10.3952 F1500
ID=1 WHEN $AC_TIMER[1]>=0 DO M50
X25.041 Y6.098 F800
ID=1 WHEN $AC_TIMER[1]>=0 DO M51
X23.5704 Y5.1876 F1500
ID=1 WHEN $AC_TIMER[1]>=0 DO M50
X19.015 Y9.743 F800
ID=1 WHEN $AC_TIMER[1]>=0 DO M51
X9.72257 Y19.0355 F1500
ID=1 WHEN $AC_TIMER[1]>=0 DO M50
X5.174 Y23.584 F800
ID=1 WHEN $AC_TIMER[1]>=0 DO M51
X4.41933 Y21.9586 F1500
ID=1 WHEN $AC_TIMER[1]>=0 DO M50
X9.486 Y16.892 F800
ID=1 WHEN $AC_TIMER[1]>=0 DO M51
X16.878 Y9.49991 F1500
ID=1 WHEN $AC_TIMER[1]>=0 DO M50
X21.926 Y4.452 F800
ID=1 WHEN $AC_TIMER[1]>=0 DO M51
X20.0999 Y3.89789 F1500
ID=1 WHEN $AC_TIMER[1]>=0 DO M50
X13.651 Y10.346 F800
ID=1 WHEN $AC_TIMER[1]>=0 DO M51
X10.3193 Y13.6785 F1500
ID=1 WHEN $AC_TIMER[1]>=0 DO M50
X3.879 Y20.119 F800
ID=1 WHEN $AC_TIMER[1]>=0 DO M51
X3.57299 Y18.0447 F1500
ID=1 WHEN $AC_TIMER[1]>=0 DO M50
X18.009 Y3.608 F800
ID=1 WHEN $AC_TIMER[1]>=0 DO M51
X15.5766 Y3.66098 F1500
ID=1 WHEN $AC_TIMER[1]>=0 DO M50
X3.645 Y15.593 F800
ID=1 WHEN $AC_TIMER[1]>=0 DO M51
X4.37587 Y12.4816 F1500
ID=1 WHEN $AC_TIMER[1]>=0 DO M50
X12.435 Y4.422 F800
ID=1 WHEN $AC_TIMER[1]>=0 DO M51
; Final do trecho do raster

; Layer 15
G1 Z9.000 F1500
X11.0016 Y31.4693 F1500
ID=1 WHEN $AC_TIMER[1]>=0 DO M50
X9.592 Y30.774 F800
X8.246 Y29.936
X7.005 Y28.978
X5.859 Y27.887
X4.834 Y26.693
X3.932 Y25.397
X3.169 Y24.013
X2.539 Y22.564
X2.070 Y21.064
X1.760 Y19.522
X1.600 Y17.950
X1.600 Y16.371
X1.760 Y14.808
X2.071 Y13.255
X2.539 Y11.756
X3.169 Y10.309
X3.931 Y8.934
X4.834 Y7.637
X5.859 Y6.443
X7.007 Y5.351
X8.245 Y4.385
X9.725 Y3.480
X10.997 Y2.863
X12.631 Y2.268
X14.008 Y1.921
X15.568 Y1.677
X17.305 Y1.601
X18.716 Y1.676
X20.269 Y1.921
X21.804 Y2.316
X23.280 Y2.861
X24.700 Y3.557
X26.035 Y4.384
X27.283 Y5.351
X28.418 Y6.440
X29.543 Y7.763
X30.349 Y8.934
X31.121 Y10.309
X31.740 Y11.754
X32.210 Y13.258
X32.530 Y14.811
X32.690 Y16.371
X32.690 Y17.950
X32.530 Y19.519
X32.211 Y21.061
X31.740 Y22.566
X31.120 Y24.013
X30.349 Y25.395
X29.446 Y26.693
X28.420 Y27.889
X27.284 Y28.978
X26.035 Y29.936
X24.698 Y30.774
X23.280 Y31.469
X21.804 Y32.014
X20.269 Y32.409
X18.739 Y32.651
X17.137 Y32.729
X15.571 Y32.654
X14.011 Y32.409
X12.476 Y32.014
X11.095 Y31.504
ID=1 WHEN $AC_TIMER[1]>=0 DO M51
X11.1542 Y17.0693 F1500
ID=1 WHEN $AC_TIMER[1]>=0 DO M50
X11.154 Y17.251 F800
X11.234 Y18.121
X11.262 Y18.281
X11.482 Y19.121
X11.543 Y19.290
X11.913 Y20.080
X11.997 Y20.225
X12.497 Y20.945
X12.616 Y21.086
X13.236 Y21.696
X13.360 Y21.799
X14.070 Y22.299
X14.220 Y22.387
X15.010 Y22.757
X15.169 Y22.815
X16.009 Y23.045
X16.191 Y23.077
X17.061 Y23.147
X17.219 Y23.147
X18.089 Y23.077
X18.271 Y23.045
X19.111 Y22.815
X19.270 Y22.757
X20.060 Y22.387
X20.210 Y22.299
X20.920 Y21.799
X21.044 Y21.696
X21.664 Y21.086
X21.783 Y20.945
X22.283 Y20.225
X22.367 Y20.080
X22.737 Y19.290
X22.795 Y19.131
X23.025 Y18.291
X23.057 Y18.109
X23.127 Y17.239
X23.126 Y17.068
X23.057 Y16.336
X23.051 Y16.158
X22.795 Y15.189
X22.737 Y15.030
X22.367 Y14.240
X22.279 Y14.090
X21.779 Y13.380
X21.670 Y13.250
X21.050 Y12.630
X20.920 Y12.521
X20.210 Y12.021
X20.060 Y11.933
X19.270 Y11.563
X19.101 Y11.502
X18.261 Y11.282
X18.101 Y11.254
X17.231 Y11.174
X17.049 Y11.174
X16.179 Y11.254
X16.008 Y11.285
X15.129 Y11.517
X14.220 Y11.933
X14.070 Y12.021
X13.360 Y12.521
X13.230 Y12.630
X12.610 Y13.250
X12.501 Y13.380
X12.001 Y14.090
X11.913 Y14.240
X11.543 Y15.030
X11.482 Y15.199
X11.262 Y16.039
X11.234 Y16.199
X11.163 Y16.970
ID=1 WHEN $AC_TIMER[1]>=0 DO M51

; Inicio do trecho do raster
X10.5313 Y29.3606 F1500
ID=1 WHEN $AC_TIMER[1]>=0 DO M50
X4.978 Y23.807 F800
ID=1 WHEN $AC_TIMER[1]>=0 DO M51
X3.57855 Y20.0277 F1500
ID=1 WHEN $AC_TIMER[1]>=0 DO M50
X14.296 Y30.745 F800
ID=1 WHEN $AC_TIMER[1]>=0 DO M51
X16.9666 Y31.0356 F1500
ID=1 WHEN $AC_TIMER[1]>=0 DO M50
X3.283 Y17.352 F800
ID=1 WHEN $AC_TIMER[1]>=0 DO M51
X3.42091 Y15.1098 F1500
ID=1 WHEN $AC_TIMER[1]>=0 DO M50
X19.187 Y30.876 F800
ID=1 WHEN $AC_TIMER[1]>=0 DO M51
X21.1386 Y30.4474 F1500
ID=1 WHEN $AC_TIMER[1]>=0 DO M50
X15.276 Y24.585 F800
ID=1 WHEN $AC_TIMER[1]>=0 DO M51
X9.72106 Y19.0298 F1500
ID=1 WHEN $AC_TIMER[1]>=0 DO M50
X3.861 Y13.169 F800
ID=1 WHEN $AC_TIMER[1]>=0 DO M51
X4.51177 Y11.4404 F1500
ID=1 WHEN $AC_TIMER[1]>=0 DO M50
X9.524 Y16.452 F800
ID=1 WHEN $AC_TIMER[1]>=0 DO M51
X17.8521 Y24.7808 F1500
ID=1 WHEN $AC_TIMER[1]>=0 DO M50
X22.868 Y29.796 F800
ID=1 WHEN $AC_TIMER[1]>=0 DO M51
X24.4158 Y28.9643 F1500
ID=1 WHEN $AC_TIMER[1]>=0 DO M50
X19.803 Y24.351 F800
ID=1 WHEN $AC_TIMER[1]>=0 DO M51
X9.94774 Y14.4963 F1500
ID=1 WHEN $AC_TIMER[1]>=0 DO M50
X5.331 Y9.880 F800
ID=1 WHEN $AC_TIMER[1]>=0 DO M51
X6.32042 Y8.48885 F1500
ID=1 WHEN $AC_TIMER[1]>=0 DO M50
X10.763 Y12.931 F800
ID=1 WHEN $AC_TIMER[1]>=0 DO M51
X21.3706 Y23.539 F1500
ID=1 WHEN $AC_TIMER[1]>=0 DO M50
X25.815 Y27.983 F800
ID=1 WHEN $AC_TIMER[1]>=0 DO M51
X27.0666 Y26.8549 F1500
ID=1 WHEN $AC_TIMER[1]>=0 DO M50
X22.666 Y22.455 F800
ID=1 WHEN $AC_TIMER[1]>=0 DO M51
X11.8469 Y11.6352 F1500
ID=1 WHEN $AC_TIMER[1]>=0 DO M50
X7.457 Y7.245 F800
ID=1 WHEN $AC_TIMER[1]>=0 DO M51
X8.73167 Y6.13985 F1500
ID=1 WHEN $AC_TIMER[1]>=0 DO M50
X13.185 Y10.593 F800
ID=1 WHEN $AC_TIMER[1]>=0 DO M51
X23.7069 Y21.1151 F1500
ID=1 WHEN $AC_TIMER[1]>=0 DO M50
X28.171 Y25.579 F800
ID=1 WHEN $AC_TIMER[1]>=0 DO M51
X29.1185 Y24.1466 F1500
ID=1 WHEN $AC_TIMER[1]>=0 DO M50
X24.445 Y19.473 F800
ID=1 WHEN $AC_TIMER[1]>=0 DO M51
X14.8277 Y9.85581 F1500
ID=1 WHEN $AC_TIMER[1]>=0 DO M50
X10.159 Y5.187 F800
ID=1 WHEN $AC_TIMER[1]>=0 DO M51
X11.7365 Y4.38448 F1500
ID=1 WHEN $AC_TIMER[1]>=0 DO M50
X16.854 Y9.502 F800
ID=1 WHEN $AC_TIMER[1]>=0 DO M51
X24.7939 Y17.4419 F1500
ID=1 WHEN $AC_TIMER[1]>=0 DO M50
X29.912 Y22.560 F800
ID=1 WHEN $AC_TIMER[1]>=0 DO M51
X30.5297 Y20.7975 F1500
ID=1 WHEN $AC_TIMER[1]>=0 DO M50
X24.387 Y14.655 F800
ID=1 WHEN $AC_TIMER[1]>=0 DO M51
X19.6469 Y9.91468 F1500
ID=1 WHEN $AC_TIMER[1]>=0 DO M50
X13.513 Y3.781 F800
ID=1 WHEN $AC_TIMER[1]>=0 DO M51
X15.5028 Y3.39046 F1500
ID=1 WHEN $AC_TIMER[1]>=0 DO M50
X30.912 Y18.799 F800
ID=1 WHEN $AC_TIMER[1]>=0 DO M51
X31.007 Y16.5146 F1500
ID=1 WHEN $AC_TIMER[1]>=0 DO M50
X17.805 Y3.313 F800
ID=1 WHEN $AC_TIMER[1]>=0 DO M51
X20.622 Y3.74948 F1500
ID=1 WHEN $AC_TIMER[1]>=0 DO M50
X30.586 Y13.713 F800
ID=1 WHEN $AC_TIMER[1]>=0 DO M51
X28.5691 Y9.31643 F1500
ID=1 WHEN $AC_TIMER[1]>=0 DO M50
X24.936 Y5.684 F800
ID=1 WHEN $AC_TIMER[1]>=0 DO M51
; Final do trecho do raster

; Layer 16
G1 Z9.600 F1500
X11.1542 Y17.0693 F1500
ID=1 WHEN $AC_TIMER[1]>=0 DO M50
X11.154 Y17.251 F800
X11.234 Y18.121
X11.262 Y18.281
X11.482 Y19.121
X11.543 Y19.290
X11.913 Y20.080
X11.997 Y20.225
X12.497 Y20.945
X12.616 Y21.086
X13.236 Y21.696
X13.360 Y21.799
X14.070 Y22.299
X14.220 Y22.387
X15.010 Y22.757
X15.169 Y22.815
X16.009 Y23.045
X16.191 Y23.077
X17.061 Y23.147
X17.219 Y23.147
X18.089 Y23.077
X18.271 Y23.045
X19.111 Y22.815
X19.263 Y22.760
X20.003 Y22.420
X20.147 Y22.338
X20.867 Y21.848
X21.005 Y21.735
X21.665 Y21.085
X21.783 Y20.945
X22.283 Y20.225
X22.367 Y20.080
X22.737 Y19.290
X22.795 Y19.131
X23.025 Y18.291
X23.057 Y18.109
X23.127 Y17.239
X23.127 Y17.081
X23.057 Y16.211
X23.025 Y16.029
X22.795 Y15.189
X22.737 Y15.030
X22.367 Y14.240
X22.279 Y14.090
X21.779 Y13.380
X21.670 Y13.250
X21.050 Y12.630
X20.920 Y12.521
X20.210 Y12.021
X20.060 Y11.933
X19.270 Y11.563
X19.101 Y11.502
X18.261 Y11.282
X18.101 Y11.254
X17.231 Y11.174
X17.049 Y11.174
X16.179 Y11.254
X16.019 Y11.282
X15.179 Y11.502
X15.010 Y11.563
X14.220 Y11.933
X14.070 Y12.021
X13.360 Y12.521
X13.230 Y12.630
X12.610 Y13.250
X12.501 Y13.380
X12.001 Y14.090
X11.913 Y14.240
X11.543 Y15.030
X11.482 Y15.199
X11.262 Y16.039
X11.234 Y16.199
X11.163 Y16.970
ID=1 WHEN $AC_TIMER[1]>=0 DO M51
X10.9679 Y2.57215 F1500
ID=1 WHEN $AC_TIMER[1]>=0 DO M50
X12.397 Y2.046 F800
X13.951 Y1.641
X15.538 Y1.397
X17.228 Y1.321
X18.738 Y1.396
X20.417 Y1.660
X21.882 Y2.045
X23.390 Y2.601
X24.830 Y3.307
X26.193 Y4.154
X27.463 Y5.141
X28.620 Y6.242
X29.723 Y7.533
X30.627 Y8.852
X31.369 Y10.185
X32.029 Y11.739
X32.499 Y13.272
X32.810 Y14.848
X32.970 Y16.362
X32.970 Y17.967
X32.791 Y19.646
X32.481 Y21.130
X32.000 Y22.667
X31.370 Y24.144
X30.589 Y25.546
X29.678 Y26.860
X28.564 Y28.135
X27.464 Y29.188
X26.197 Y30.164
X24.750 Y31.053
X23.387 Y31.730
X21.883 Y32.284
X20.333 Y32.688
X18.665 Y32.933
X17.056 Y33.009
X15.453 Y32.914
X13.982 Y32.694
X12.394 Y32.283
X10.893 Y31.730
X9.376 Y30.976
X8.019 Y30.118
X6.818 Y29.189
X5.603 Y28.022
X4.565 Y26.795
X3.690 Y25.544
X2.910 Y24.144
X2.281 Y22.668
X1.781 Y21.057
X1.470 Y19.475
X1.320 Y17.971
X1.320 Y16.272
X1.480 Y14.761
X1.800 Y13.188
X2.280 Y11.664
X2.910 Y10.188
X3.739 Y8.709
X4.660 Y7.401
X5.715 Y6.186
X6.884 Y5.083
X8.061 Y4.173
X9.450 Y3.307
X10.878 Y2.616
ID=1 WHEN $AC_TIMER[1]>=0 DO M51

; Inicio do trecho do raster
X4.94846 Y9.99227 F1500
ID=1 WHEN $AC_TIMER[1]>=0 DO M50
X9.981 Y4.960 F800
ID=1 WHEN $AC_TIMER[1]>=0 DO M51
X13.9374 Y3.38344 F1500
ID=1 WHEN $AC_TIMER[1]>=0 DO M50
X3.360 Y13.961 F800
ID=1 WHEN $AC_TIMER[1]>=0 DO M51
X3.003 Y16.698 F1500
ID=1 WHEN $AC_TIMER[1]>=0 DO M50
X16.670 Y3.031 F800
ID=1 WHEN $AC_TIMER[1]>=0 DO M51
X18.9482 Y3.13289 F1500
ID=1 WHEN $AC_TIMER[1]>=0 DO M50
X3.111 Y18.970 F800
ID=1 WHEN $AC_TIMER[1]>=0 DO M51
X3.51026 Y20.951 F1500
ID=1 WHEN $AC_TIMER[1]>=0 DO M50
X9.939 Y14.522 F800
ID=1 WHEN $AC_TIMER[1]>=0 DO M51
X14.5007 Y9.96053 F1500
ID=1 WHEN $AC_TIMER[1]>=0 DO M50
X20.927 Y3.534 F800
ID=1 WHEN $AC_TIMER[1]>=0 DO M51
X22.7005 Y4.14087 F1500
ID=1 WHEN $AC_TIMER[1]>=0 DO M50
X17.341 Y9.501 F800
ID=1 WHEN $AC_TIMER[1]>=0 DO M51
X9.47737 Y17.364 F1500
ID=1 WHEN $AC_TIMER[1]>=0 DO M50
X4.129 Y22.712 F800
ID=1 WHEN $AC_TIMER[1]>=0 DO M51
X4.92294 Y24.2985 F1500
ID=1 WHEN $AC_TIMER[1]>=0 DO M50
X9.821 Y19.401 F800
ID=1 WHEN $AC_TIMER[1]>=0 DO M51
X19.3839 Y9.83754 F1500
ID=1 WHEN $AC_TIMER[1]>=0 DO M50
X24.277 Y4.945 F800
ID=1 WHEN $AC_TIMER[1]>=0 DO M51
X25.6998 Y5.90174 F1500
ID=1 WHEN $AC_TIMER[1]>=0 DO M50
X21.043 Y10.558 F800
ID=1 WHEN $AC_TIMER[1]>=0 DO M51
X10.5402 Y21.0613 F1500
ID=1 WHEN $AC_TIMER[1]>=0 DO M50
X5.873 Y25.729 F800
ID=1 WHEN $AC_TIMER[1]>=0 DO M51
X6.97529 Y27.0064 F1500
ID=1 WHEN $AC_TIMER[1]>=0 DO M50
X11.568 Y22.414 F800
ID=1 WHEN $AC_TIMER[1]>=0 DO M51
X22.3881 Y11.5936 F1500
ID=1 WHEN $AC_TIMER[1]>=0 DO M50
X26.979 Y7.003 F800
ID=1 WHEN $AC_TIMER[1]>=0 DO M51
X28.1174 Y8.24441 F1500
ID=1 WHEN $AC_TIMER[1]>=0 DO M50
X23.483 Y12.879 F800
ID=1 WHEN $AC_TIMER[1]>=0 DO M51
X12.8603 Y23.5015 F1500
ID=1 WHEN $AC_TIMER[1]>=0 DO M50
X8.217 Y28.144 F800
ID=1 WHEN $AC_TIMER[1]>=0 DO M51
X9.60936 Y29.1326 F1500
ID=1 WHEN $AC_TIMER[1]>=0 DO M50
X14.413 Y24.329 F800
ID=1 WHEN $AC_TIMER[1]>=0 DO M51
X24.307 Y14.4349 F1500
ID=1 WHEN $AC_TIMER[1]>=0 DO M50
X29.117 Y9.625 F800
ID=1 WHEN $AC_TIMER[1]>=0 DO M51
X29.9568 Y11.1653 F1500
ID=1 WHEN $AC_TIMER[1]>=0 DO M50
X24.754 Y16.368 F800
ID=1 WHEN $AC_TIMER[1]>=0 DO M51
X16.3459 Y24.7762 F1500
ID=1 WHEN $AC_TIMER[1]>=0 DO M50
X11.146 Y29.976 F800
ID=1 WHEN $AC_TIMER[1]>=0 DO M51
X12.846 Y30.6562 F1500
ID=1 WHEN $AC_TIMER[1]>=0 DO M50
X18.880 Y24.622 F800
ID=1 WHEN $AC_TIMER[1]>=0 DO M51
X24.5965 Y18.9057 F1500
ID=1 WHEN $AC_TIMER[1]>=0 DO M50
X30.619 Y12.883 F800
ID=1 WHEN $AC_TIMER[1]>=0 DO M51
X31.0846 Y14.7977 F1500
ID=1 WHEN $AC_TIMER[1]>=0 DO M50
X14.772 Y31.110 F800
ID=1 WHEN $AC_TIMER[1]>=0 DO M51
X16.9462 Y31.3163 F1500
ID=1 WHEN $AC_TIMER[1]>=0 DO M50
X31.287 Y16.975 F800
ID=1 WHEN $AC_TIMER[1]>=0 DO M51
X31.0913 Y19.5513 F1500
ID=1 WHEN $AC_TIMER[1]>=0 DO M50
X19.539 Y31.104 F800
ID=1 WHEN $AC_TIMER[1]>=0 DO M51
X22.9598 Y30.0629 F1500
ID=1 WHEN $AC_TIMER[1]>=0 DO M50
X30.032 Y22.991 F800
ID=1 WHEN $AC_TIMER[1]>=0 DO M51
; Final do trecho do raster

; Layer 17
G1 Z10.200 F1500
X23.1268 Y17.2394 F1500
ID=1 WHEN $AC_TIMER[1]>=0 DO M50
X23.127 Y17.081 F800
X23.057 Y16.211
X23.025 Y16.029
X22.795 Y15.189
X22.737 Y15.030
X22.367 Y14.240
X22.279 Y14.090
X21.779 Y13.380
X21.670 Y13.250
X21.050 Y12.630
X20.920 Y12.521
X20.210 Y12.021
X20.060 Y11.933
X19.270 Y11.563
X19.101 Y11.502
X18.261 Y11.282
X18.101 Y11.254
X17.231 Y11.174
X17.049 Y11.174
X16.179 Y11.254
X16.019 Y11.282
X15.179 Y11.502
X15.010 Y11.563
X14.220 Y11.933
X14.070 Y12.021
X13.360 Y12.521
X13.230 Y12.630
X12.610 Y13.250
X12.495 Y13.388
X12.026 Y14.056
X11.909 Y14.249
X11.560 Y14.997
X11.482 Y15.199
X11.262 Y16.039
X11.234 Y16.199
X11.154 Y17.069
X11.154 Y17.251
X11.234 Y18.121
X11.262 Y18.281
X11.482 Y19.121
X11.543 Y19.290
X11.913 Y20.080
X11.997 Y20.225
X12.497 Y20.945
X12.616 Y21.086
X13.236 Y21.696
X13.360 Y21.799
X14.070 Y22.299
X14.220 Y22.387
X15.010 Y22.757
X15.169 Y22.815
X16.009 Y23.045
X16.191 Y23.077
X17.061 Y23.147
X17.219 Y23.147
X18.089 Y23.077
X18.271 Y23.045
X19.111 Y22.815
X19.270 Y22.757
X20.060 Y22.387
X20.202 Y22.305
X20.912 Y21.815
X21.050 Y21.700
X21.670 Y21.080
X21.783 Y20.945
X22.283 Y20.225
X22.367 Y20.080
X22.737 Y19.290
X22.795 Y19.131
X23.025 Y18.291
X23.057 Y18.109
X23.119 Y17.339
ID=1 WHEN $AC_TIMER[1]>=0 DO M51
X23.4888 Y31.9891 F1500
ID=1 WHEN $AC_TIMER[1]>=0 DO M50
X21.955 Y32.553 F800
X20.372 Y32.959
X18.760 Y33.204
X17.130 Y33.289
X15.500 Y33.204
X13.881 Y32.959
X12.308 Y32.545
X10.771 Y31.979
X9.303 Y31.254
X7.917 Y30.387
X6.626 Y29.388
X5.449 Y28.268
X4.384 Y27.024
X3.452 Y25.686
X2.661 Y24.255
X2.020 Y22.757
X1.530 Y21.192
X1.200 Y19.591
X1.040 Y17.971
X1.040 Y16.329
X1.200 Y14.709
X1.529 Y13.109
X2.019 Y11.556
X2.669 Y10.048
X3.461 Y8.625
X4.394 Y7.286
X5.458 Y6.044
X6.644 Y4.923
X7.936 Y3.924
X9.330 Y3.057
X10.790 Y2.341
X12.324 Y1.777
X13.910 Y1.371
X15.520 Y1.116
X17.150 Y1.041
X18.770 Y1.116
X20.398 Y1.370
X21.982 Y1.785
X23.510 Y2.351
X24.979 Y3.067
X26.363 Y3.933
X27.654 Y4.932
X28.839 Y6.061
X29.895 Y7.305
X30.828 Y8.644
X31.621 Y10.077
X32.270 Y11.573
X32.750 Y13.136
X33.080 Y14.732
X33.250 Y16.361
X33.245 Y17.943
X33.080 Y19.621
X32.751 Y21.221
X32.261 Y22.773
X31.611 Y24.273
X30.818 Y25.706
X29.887 Y27.042
X28.822 Y28.277
X27.634 Y29.408
X26.345 Y30.405
X24.959 Y31.263
X23.578 Y31.945
ID=1 WHEN $AC_TIMER[1]>=0 DO M51

; Inicio do trecho do raster
X24.9324 Y5.02315 F1500
ID=1 WHEN $AC_TIMER[1]>=0 DO M50
X29.292 Y9.382 F800
ID=1 WHEN $AC_TIMER[1]>=0 DO M51
X31.1268 Y13.5977 F1500
ID=1 WHEN $AC_TIMER[1]>=0 DO M50
X20.725 Y3.196 F800
ID=1 WHEN $AC_TIMER[1]>=0 DO M51
X17.9103 Y2.76125 F1500
ID=1 WHEN $AC_TIMER[1]>=0 DO M50
X31.563 Y16.414 F800
ID=1 WHEN $AC_TIMER[1]>=0 DO M51
X31.4783 Y18.7094 F1500
ID=1 WHEN $AC_TIMER[1]>=0 DO M50
X15.580 Y2.811 F800
ID=1 WHEN $AC_TIMER[1]>=0 DO M51
X13.581 Y3.19219 F1500
ID=1 WHEN $AC_TIMER[1]>=0 DO M50
X20.828 Y10.440 F800
ID=1 WHEN $AC_TIMER[1]>=0 DO M51
X23.8568 Y13.468 F1500
ID=1 WHEN $AC_TIMER[1]>=0 DO M50
X31.131 Y20.742 F800
ID=1 WHEN $AC_TIMER[1]>=0 DO M51
X30.5342 Y22.5255 F1500
ID=1 WHEN $AC_TIMER[1]>=0 DO M50
X24.790 Y16.781 F800
ID=1 WHEN $AC_TIMER[1]>=0 DO M51
X17.5248 Y9.51617 F1500
ID=1 WHEN $AC_TIMER[1]>=0 DO M50
X11.779 Y3.771 F800
ID=1 WHEN $AC_TIMER[1]>=0 DO M51
X10.1555 Y4.52692 F1500
ID=1 WHEN $AC_TIMER[1]>=0 DO M50
X15.349 Y9.720 F800
ID=1 WHEN $AC_TIMER[1]>=0 DO M51
X24.5834 Y18.9548 F1500
ID=1 WHEN $AC_TIMER[1]>=0 DO M50
X29.764 Y24.135 F800
ID=1 WHEN $AC_TIMER[1]>=0 DO M51
X28.8439 Y25.5955 F1500
ID=1 WHEN $AC_TIMER[1]>=0 DO M50
X23.938 Y20.690 F800
ID=1 WHEN $AC_TIMER[1]>=0 DO M51
X13.6131 Y10.3646 F1500
ID=1 WHEN $AC_TIMER[1]>=0 DO M50
X8.705 Y5.457 F800
ID=1 WHEN $AC_TIMER[1]>=0 DO M51
X7.39628 Y6.52797 F1500
ID=1 WHEN $AC_TIMER[1]>=0 DO M50
X12.183 Y11.315 F800
ID=1 WHEN $AC_TIMER[1]>=0 DO M51
X22.9909 Y22.1226 F1500
ID=1 WHEN $AC_TIMER[1]>=0 DO M50
X27.778 Y26.910 F800
ID=1 WHEN $AC_TIMER[1]>=0 DO M51
X26.5779 Y28.0897 F1500
ID=1 WHEN $AC_TIMER[1]>=0 DO M50
X21.758 Y23.270 F800
ID=1 WHEN $AC_TIMER[1]>=0 DO M51
X11.032 Y12.5438 F1500
ID=1 WHEN $AC_TIMER[1]>=0 DO M50
X6.224 Y7.736 F800
ID=1 WHEN $AC_TIMER[1]>=0 DO M51
X5.19231 Y9.08424 F1500
ID=1 WHEN $AC_TIMER[1]>=0 DO M50
X10.151 Y14.043 F800
ID=1 WHEN $AC_TIMER[1]>=0 DO M51
X20.2582 Y24.1502 F1500
ID=1 WHEN $AC_TIMER[1]>=0 DO M50
X25.227 Y29.118 F800
ID=1 WHEN $AC_TIMER[1]>=0 DO M51
X23.724 Y29.9961 F1500
ID=1 WHEN $AC_TIMER[1]>=0 DO M50
X18.449 Y24.721 F800
ID=1 WHEN $AC_TIMER[1]>=0 DO M51
X9.58728 Y15.8593 F1500
ID=1 WHEN $AC_TIMER[1]>=0 DO M50
X4.302 Y10.574 F800
ID=1 WHEN $AC_TIMER[1]>=0 DO M51
X3.57275 Y12.2249 F1500
ID=1 WHEN $AC_TIMER[1]>=0 DO M50
X9.557 Y18.209 F800
ID=1 WHEN $AC_TIMER[1]>=0 DO M51
X16.106 Y24.7582 F1500
ID=1 WHEN $AC_TIMER[1]>=0 DO M50
X22.067 Y30.719 F800
ID=1 WHEN $AC_TIMER[1]>=0 DO M51
X20.2265 Y31.2588 F1500
ID=1 WHEN $AC_TIMER[1]>=0 DO M50
X3.048 Y14.080 F800
ID=1 WHEN $AC_TIMER[1]>=0 DO M51
X2.74786 Y16.1603 F1500
ID=1 WHEN $AC_TIMER[1]>=0 DO M50
X18.138 Y31.551 F800
ID=1 WHEN $AC_TIMER[1]>=0 DO M51
X15.7385 Y31.531 F1500
ID=1 WHEN $AC_TIMER[1]>=0 DO M50
X2.792 Y18.584 F800
ID=1 WHEN $AC_TIMER[1]>=0 DO M51
X3.4184 Y21.5911 F1500
ID=1 WHEN $AC_TIMER[1]>=0 DO M50
X12.736 Y30.909 F800
ID=1 WHEN $AC_TIMER[1]>=0 DO M51
; Final do trecho do raster

M0
; TURN OFF POWDER!!!
M0
; End of Programm--------------------
G4F5
M55   ; home mirror
M30   ; program end