; generated by Slic3r 1.2.9 on 2017-05-26 at 12:23:50

; external perimeters extrusion width = 1.10mm
; perimeters extrusion width = 1.10mm
; infill extrusion width = 1.10mm
; solid infill extrusion width = 1.10mm
; top infill extrusion width = 1.10mm

N100 H=1500
N110 $AC_TIMER[1]=0

;General Config.--------------------
N120 G641			;
N130 G603			;
N140 M55			;home mirror
N150 G4F4			;necessary delay for positioning of the mirror				
N160 M0			;wait for user-input

;Process Start-up-------------------
N170 M56			;set canal 1 as laser-source
N180 G4F4			;necessary delay for positioning of the mirror
N190 M0			;wait for user-input
;START POWDER!!!
N200 G4F30

N210 M0

N220 G54

N230 G90 ; use absolute coordinates
N240 G1 X8.671 Y-3.738 F1980.000
N250 ID=1 WHEN $AC_TIMER[1]>=0 DO M50
N260 G1 X8.853 Y-3.3155 F600.000
N270 G1 X9.013 Y-2.8533
N280 G1 X9.149 Y-2.3823
N290 G1 X9.324 Y-1.5521
N300 G1 X9.410 Y-0.9125
N310 G1 X9.444 Y-0.4204
N320 G1 X9.453 Y0.0786
N330 G1 X9.405 Y0.9624
N340 G1 X9.260 Y1.9039
N350 G1 X9.163 Y2.3270
N360 G1 X8.881 Y3.2422
N370 G1 X8.688 Y3.7284
N380 G1 X8.269 Y4.5821
N390 G1 X7.805 Y5.3349
N400 G1 X7.503 Y5.7536
N410 G1 X6.882 Y6.4828
N420 G1 X6.192 Y7.1450
N430 G1 X5.857 Y7.4221
N440 G1 X5.077 Y7.9762
N450 G1 X4.628 Y8.2455
N460 G1 X4.244 Y8.4496
N470 G1 X3.367 Y8.8357
N480 G1 X2.455 Y9.1317
N490 G1 X2.033 Y9.2348
N500 G1 X1.520 Y9.3321
N510 G1 X0.575 Y9.4387
N520 G1 X-0.309 Y9.4505
N530 G1 X-1.257 Y9.3721
N540 G1 X-1.773 Y9.2884
N550 G1 X-2.703 Y9.0616
N560 G1 X-3.112 Y8.9299
N570 G1 X-3.932 Y8.5998
N580 G1 X-4.472 Y8.3322
N590 G1 X-4.849 Y8.1182
N600 G1 X-5.645 Y7.5874
N610 G1 X-6.383 Y6.9776
N620 G1 X-6.755 Y6.6183
N630 G1 X-7.343 Y5.9581
N640 G1 X-7.658 Y5.5499
N650 G1 X-8.180 Y4.7460
N660 G1 X-8.389 Y4.3651
N670 G1 X-8.787 Y3.4953
N680 G1 X-9.096 Y2.5895
N690 G1 X-9.311 Y1.6554
N700 G1 X-9.431 Y0.7045
N710 G1 X-9.454 Y-0.2537
N720 G1 X-9.432 Y-0.6878
N730 G1 X-9.314 Y-1.6370
N740 G1 X-9.209 Y-2.1503
N750 G1 X-8.947 Y-3.0639
N760 G1 X-8.622 Y-3.8857
N770 G1 X-8.397 Y-4.3514
N780 G1 X-7.914 Y-5.1776
N790 G1 X-7.668 Y-5.5357
N800 G1 X-7.072 Y-6.2782
N810 G1 X-6.461 Y-6.9045
N820 G1 X-5.980 Y-7.3254
N830 G1 X-5.240 Y-7.8718
N840 G1 X-4.450 Y-8.3448
N850 G1 X-4.012 Y-8.5634
N860 G1 X-3.564 Y-8.7591
N870 G1 X-2.688 Y-9.0665
N880 G1 X-2.216 Y-9.1931
N890 G1 X-1.737 Y-9.2958
N900 G1 X-0.818 Y-9.4202
N910 G1 X-0.329 Y-9.4508
N920 G1 X0.160 Y-9.4545
N930 G1 X1.080 Y-9.3936
N940 G1 X1.989 Y-9.2437 F600.000
N950 G1 X2.465 Y-9.1284
N960 G1 X2.934 Y-8.9889
N970 G1 X3.800 Y-8.6573
N980 G1 X4.243 Y-8.4490
N990 G1 X4.674 Y-8.2186
N1000 G1 X5.452 Y-7.7247
N1010 G1 X6.173 Y-7.1604
N1020 G1 X6.841 Y-6.5256
N1030 G1 X7.170 Y-6.1624
N1040 G1 X7.483 Y-5.7782
N1050 G1 X7.775 Y-5.3781
N1060 G1 X8.043 Y-4.9687
N1070 G1 X8.492 Y-4.1524
N1080 G1 Z0.507 X8.836 Y-3.4148 F600.000
N1090 G1 Z0.514 X9.115 Y-2.5780
N1100 G1 Z0.519 X9.243 Y-2.0768
N1110 G1 Z0.523 X9.342 Y-1.5675
N1120 G1 Z0.530 X9.447 Y-0.6970
N1130 G1 Z0.538 X9.471 Y0.2010
N1140 G1 Z0.541 X9.455 Y0.5780
N1150 G1 Z0.546 X9.402 Y1.1558
N1160 G1 Z0.553 X9.250 Y2.0382
N1170 G1 Z0.561 X9.029 Y2.8651
N1180 G1 Z0.565 X8.837 Y3.4124
N1190 G1 Z0.572 X8.531 Y4.1185
N1200 G1 Z0.577 X8.263 Y4.6330
N1210 G1 Z0.584 X7.822 Y5.3425
N1220 G1 Z0.592 X7.268 Y6.0754
N1230 G1 Z0.600 X6.617 Y6.7794
N1240 G1 Z0.606 X6.034 Y7.3039
N1250 G1 Z0.614 X5.260 Y7.8790
N1260 G1 Z0.618 X4.938 Y8.0852
N1270 G1 Z0.622 X4.428 Y8.3753
N1280 G1 Z0.631 X3.551 Y8.7835
N1290 G1 Z0.639 X2.635 Y9.1009
N1300 G1 Z0.647 X1.697 Y9.3215
N1310 G1 Z0.653 X0.924 Y9.4295
N1320 G1 Z0.658 X0.344 Y9.4687
N1330 G1 Z0.665 X-0.484 Y9.4626
N1340 G1 Z0.670 X-1.007 Y9.4215
N1350 G1 Z0.675 X-1.586 Y9.3411
N1360 G1 Z0.681 X-2.339 Y9.1823
N1370 G1 Z0.686 X-2.900 Y9.0204
N1380 G1 Z0.694 X-3.800 Y8.6795
N1390 G1 Z0.701 X-4.507 Y8.3355
N1400 G1 Z0.709 X-5.329 Y7.8346
N1410 G1 Z0.714 X-5.802 Y7.4917
N1420 G1 Z0.721 X-6.434 Y6.9556
N1430 G1 Z0.728 X-7.072 Y6.3070
N1440 G1 Z0.733 X-7.445 Y5.8621
N1450 G1 Z0.740 X-7.904 Y5.2271
N1460 G1 Z0.748 X-8.395 Y4.3952
N1470 G1 Z0.751 X-8.565 Y4.0534
N1480 G1 Z0.759 X-8.934 Y3.1585
N1490 G1 Z0.764 X-9.113 Y2.5996
N1500 G1 Z0.772 X-9.329 Y1.6614
N1510 G1 Z0.779 X-9.434 Y0.8869
N1520 G1 Z0.787 X-9.476 Y-0.0744
N1530 G1 Z0.793 X-9.437 Y-0.8561
N1540 G1 Z0.801 X-9.301 Y-1.8125
N1550 G1 Z0.805 X-9.220 Y-2.1861
N1560 G1 Z0.813 X-8.949 Y-3.1162
N1570 G1 Z0.818 X-8.739 Y-3.6643
N1580 G1 Z0.826 X-8.322 Y-4.5324
N1590 G1 Z0.832 X-7.919 Y-5.2044
N1600 G1 Z0.841 X-7.348 Y-5.9835
N1610 G1 Z0.849 X-6.704 Y-6.6966
N1620 G1 Z0.856 X-6.053 Y-7.2902
N1630 G1 Z0.860 X-5.645 Y-7.6100
N1640 G1 Z0.865 X-5.221 Y-7.9078
N1650 G1 Z0.872 X-4.468 Y-8.3554
N1660 G1 Z0.879 X-3.676 Y-8.7331
N1670 G1 Z0.884 X-3.193 Y-8.9219
N1680 G1 Z0.888 X-2.701 Y-9.0826
N1690 G1 Z0.896 X-1.850 Y-9.2923
N1700 G1 Z0.903 X-0.983 Y-9.4239
N1710 G1 Z0.907 X-0.466 Y-9.4638
N1720 G1 Z0.915 X0.405 Y-9.4664
N1730 G1 Z0.919 X0.922 Y-9.4296 F600.000
N1740 G1 Z0.926 X1.790 Y-9.3032
N1750 G1 Z0.934 X2.642 Y-9.0988
N1760 G1 Z0.938 X3.135 Y-8.9406
N1770 G1 Z0.942 X3.619 Y-8.7558
N1780 G1 Z0.950 X4.465 Y-8.3552
N1790 G1 Z0.954 X4.869 Y-8.1270
N1800 G1 Z0.958 X5.305 Y-7.8485
N1810 G1 Z0.966 X6.054 Y-7.2869
N1820 G1 Z0.970 X6.404 Y-6.9817
N1830 G1 Z0.975 X6.776 Y-6.6209
N1840 G1 Z0.982 X7.362 Y-5.9610
N1850 G1 Z0.986 X7.677 Y-5.5508
N1860 G1 Z0.991 X7.969 Y-5.1226
N1870 G1 Z0.998 X8.410 Y-4.3598
N1880 G1 Z1.000 X8.507 Y-4.1598
N1890 G1 Z1.004 X8.741 Y-3.7482 F600.000
N1900 G1 Z1.011 X9.050 Y-2.9233
N1910 G1 Z1.016 X9.197 Y-2.4245
N1920 G1 Z1.020 X9.315 Y-1.9188
N1930 G1 Z1.027 X9.452 Y-1.0489
N1940 G1 Z1.035 X9.509 Y-0.1766
N1950 G1 Z1.043 X9.478 Y0.7833
N1960 G1 Z1.048 X9.413 Y1.3602
N1970 G1 Z1.054 X9.264 Y2.1517
N1980 G1 Z1.062 X9.007 Y3.0554
N1990 G1 Z1.067 X8.800 Y3.6071
N2000 G1 Z1.075 X8.389 Y4.4815
N2010 G1 Z1.082 X7.976 Y5.1803
N2020 G1 Z1.090 X7.420 Y5.9506
N2030 G1 Z1.093 X7.178 Y6.2402
N2040 G1 Z1.098 X6.777 Y6.6739
N2050 G1 Z1.106 X6.061 Y7.3302
N2060 G1 Z1.114 X5.286 Y7.9079
N2070 G1 Z1.121 X4.592 Y8.3299
N2080 G1 Z1.129 X3.739 Y8.7462
N2090 G1 Z1.132 X3.388 Y8.8888
N2100 G1 Z1.137 X2.831 Y9.0815
N2110 G1 Z1.145 X1.890 Y9.3228
N2120 G1 Z1.153 X0.934 Y9.4669
N2130 G1 Z1.160 X0.154 Y9.5114
N2140 G1 Z1.166 X-0.629 Y9.4922
N2150 G1 Z1.175 X-1.592 Y9.3782
N2160 G1 Z1.178 X-1.969 Y9.3077
N2170 G1 Z1.186 X-2.909 Y9.0575
N2180 G1 Z1.191 X-3.463 Y8.8607
N2190 G1 Z1.199 X-4.345 Y8.4638
N2200 G1 Z1.205 X-5.029 Y8.07568
N2210 G1 Z1.209 X-5.376 Y7.84976
N2220 G1 Z1.214 X-5.823 Y7.52360
N2230 G1 Z1.222 X-6.561 Y6.88991
N2240 G1 Z1.230 X-7.230 Y6.18418
N2250 G1 Z1.235 X-7.597 Y5.72736
N2260 G1 Z1.241 X-8.037 Y5.09159
N2270 G1 Z1.246 X-8.333 Y4.59053
N2280 G1 Z1.253 X-8.694 Y3.86351
N2290 G1 Z1.261 X-9.036 Y2.97624
N2300 G1 Z1.269 X-9.291 Y2.04697
N2310 G1 Z1.274 X-9.394 Y1.50281
N2320 G1 Z1.281 X-9.490 Y0.67067
N2330 G1 Z1.285 X-9.513 Y0.11566
N2340 G1 Z1.289 X-9.509 Y-0.30296
N2350 G1 Z1.297 X-9.433 Y-1.23994
N2360 G1 Z1.301 X-9.338 Y-1.82026
N2370 G1 Z1.310 X-9.105 Y-2.75813
N2380 G1 Z1.316 X-8.836 Y-3.52413
N2390 G1 Z1.324 X-8.441 Y-4.38886
N2400 G1 Z1.332 X-7.952 Y-5.22277
N2410 G1 Z1.336 X-7.735 Y-5.53869
N2420 G1 Z1.341 X-7.378 Y-6.00602
N2430 G1 Z1.349 X-6.731 Y-6.72383
N2440 G1 Z1.356 X-6.081 Y-7.31660
N2450 G1 Z1.363 X-5.379 Y-7.84641
N2460 G1 Z1.368 X-4.942 Y-8.12993
N2470 G1 Z1.372 X-4.490 Y-8.38746
N2480 G1 Z1.379 X-3.691 Y-8.76862
N2490 G1 Z1.384 X-3.206 Y-8.95615
N2500 G1 Z1.388 X-2.712 Y-9.11868
N2510 G1 Z1.396 X-1.857 Y-9.32948
N2520 G1 Z1.403 X-0.993 Y-9.46086
N2530 G1 Z1.411 X-0.054 Y-9.51192
N2540 G1 Z1.415 X0.407 Y-9.50424
N2550 G1 Z1.419 X0.926 Y-9.46779 F600.000
N2560 G1 Z1.426 X1.797 Y-9.34060
N2570 G1 Z1.434 X2.653 Y-9.13440
N2580 G1 Z1.438 X3.148 Y-8.97693
N2590 G1 Z1.442 X3.634 Y-8.79046
N2600 G1 Z1.450 X4.430 Y-8.41623
N2610 G1 Z1.457 X5.215 Y-7.95415
N2620 G1 Z1.461 X5.618 Y-7.67557
N2630 G1 Z1.466 X6.029 Y-7.35612
N2640 G1 Z1.473 X6.683 Y-6.76790
N2650 G1 Z1.481 X7.299 Y-6.09782
N2660 G1 Z1.485 X7.604 Y-5.71324
N2670 G1 Z1.489 X7.905 Y-5.28979
N2680 G1 Z1.497 X8.359 Y-4.53559
N2690 G1 Z1.500 X8.535 Y-4.17291
N2700 G1 Z1.504 X8.793 Y-3.77023 F600.000
N2710 G1 Z1.511 X9.104 Y-2.94141
N2720 G1 Z1.516 X9.252 Y-2.43916
N2730 G1 Z1.520 X9.371 Y-1.92990
N2740 G1 Z1.527 X9.509 Y-1.05508
N2750 G1 Z1.535 X9.566 Y-0.17782
N2760 G1 Z1.543 X9.535 Y0.79079
N2770 G1 Z1.551 X9.406 Y1.75290
N2780 G1 Z1.556 X9.280 Y2.32832
N2790 G1 Z1.562 X9.061 Y3.07388
N2800 G1 Z1.570 X8.700 Y3.98257
N2810 G1 Z1.578 X8.248 Y4.85026
N2820 G1 Z1.583 X7.935 Y5.34748
N2830 G1 Z1.590 X7.468 Y5.98283
N2840 G1 Z1.598 X6.824 Y6.70792
N2850 G1 Z1.605 X6.242 Y7.25293
N2860 G1 Z1.613 X5.477 Y7.84696
N2870 G1 Z1.621 X4.644 Y8.36685
N2880 G1 Z1.629 X3.766 Y8.79653
N2890 G1 Z1.632 X3.402 Y8.94308
N2900 G1 Z1.637 X2.851 Y9.13405
N2910 G1 Z1.645 X1.906 Y9.37754
N2920 G1 Z1.653 X0.942 Y9.52303
N2930 G1 Z1.660 X0.152 Y9.56858
N2940 G1 Z1.665 X-0.435 Y9.56080
N2950 G1 Z1.671 X-1.215 Y9.49282
N2960 G1 Z1.676 X-1.789 Y9.40159
N2970 G1 Z1.683 X-2.559 Y9.22114
N2980 G1 Z1.691 X-3.479 Y8.91524
N2990 G1 Z1.697 X-4.201 Y8.59859
N3000 G1 Z1.702 X-4.721 Y8.32581
N3010 G1 Z1.709 X-5.381 Y7.91438
N3020 G1 Z1.717 X-6.160 Y7.32406
N3030 G1 Z1.722 X-6.602 Y6.92968
N3040 G1 Z1.725 X-6.876 Y6.65777
N3050 G1 Z1.733 X-7.520 Y5.92046
N3060 G1 Z1.738 X-7.870 Y5.44688
N3070 G1 Z1.746 X-8.385 Y4.61457
N3080 G1 Z1.754 X-8.813 Y3.73244
N3090 G1 Z1.762 X-9.148 Y2.81313
N3100 G1 Z1.766 X-9.254 Y2.44223
N3110 G1 Z1.774 X-9.455 Y1.48492
N3120 G1 Z1.779 X-9.528 Y0.90214
N3130 G1 Z1.785 X-9.570 Y0.11269
N3140 G1 Z1.788 X-9.567 Y-0.27158
N3150 G1 Z1.793 X-9.532 Y-0.86320
N3160 G1 Z1.801 X-9.395 Y-1.82649
N3170 G1 Z1.808 X-9.211 Y-2.59930
N3180 G1 Z1.813 X-9.037 Y-3.15306
N3190 G1 Z1.816 X-8.903 Y-3.51296
N3200 G1 Z1.823 X-8.583 Y-4.23551
N3210 G1 Z1.828 X-8.307 Y-4.75373
N3220 G1 Z1.834 X-7.890 Y-5.41775
N3230 G1 Z1.839 X-7.544 Y-5.89091
N3240 G1 Z1.847 X-6.908 Y-6.62309
N3250 G1 Z1.855 X-6.252 Y-7.24662
N3260 G1 Z1.862 X-5.559 Y-7.78942
N3270 G1 Z1.869 X-4.816 Y-8.27060
N3280 G1 Z1.874 X-4.356 Y-8.52134
N3290 G1 Z1.878 X-3.884 Y-8.74609
N3300 G1 Z1.885 X-3.054 Y-9.06962
N3310 G1 Z1.890 X-2.554 Y-9.22337
N3320 G1 Z1.894 X-2.041 Y-9.34947
N3330 G1 Z1.898 X-1.522 Y-9.44858
N3340 G1 Z1.903 X-1.003 Y-9.51731
N3350 G1 Z1.910 X-0.102 Y-9.56867
N3360 G1 Z1.915 X0.409 Y-9.56060
N3370 G1 Z1.919 X0.931 Y-9.52435 F600.000
N3380 G1 Z1.926 X1.808 Y-9.39652
N3390 G1 Z1.934 X2.668 Y-9.18970
N3400 G1 Z1.938 X3.167 Y-9.03045
N3410 G1 Z1.942 X3.656 Y-8.84319
N3420 G1 Z1.950 X4.457 Y-8.46737
N3430 G1 Z1.957 X5.226 Y-8.01595
N3440 G1 Z1.961 X5.652 Y-7.72129
N3450 G1 Z1.966 X6.065 Y-7.40004
N3460 G1 Z1.973 X6.723 Y-6.80822
N3470 G1 Z1.981 X7.320 Y-6.16104
N3480 G1 Z1.988 X7.859 Y-5.45822
N3490 G1 Z1.992 X8.145 Y-5.02096
N3500 G1 Z1.997 X8.407 Y-4.56771
N3510 G1 Z2.000 X8.586 Y-4.19756
N3520 G1 Z2.007 X9.002 Y-3.46723 F600.000
N3530 G1 Z2.011 X9.178 Y-2.97027
N3540 G1 Z2.015 X9.322 Y-2.48107
N3550 G1 Z2.023 X9.514 Y-1.59102
N3560 G1 Z2.030 X9.620 Y-0.71031
N3570 G1 Z2.038 X9.644 Y0.20556
N3580 G1 Z2.041 X9.629 Y0.58956
N3590 G1 Z2.046 X9.574 Y1.17694
N3600 G1 Z2.054 X9.407 Y2.13639
N3610 G1 Z2.061 X9.194 Y2.91940
N3620 G1 Z2.064 X9.070 Y3.28549
N3630 G1 Z2.069 X8.850 Y3.83827
N3640 G1 Z2.077 X8.416 Y4.71496
N3650 G1 Z2.085 X7.896 Y5.54158
N3660 G1 Z2.092 X7.404 Y6.18440
N3670 G1 Z2.100 X6.740 Y6.90205
N3680 G1 Z2.106 X6.145 Y7.43723
N3690 G1 Z2.114 X5.356 Y8.02428
N3700 G1 Z2.117 X5.029 Y8.23360
N3710 G1 Z2.122 X4.509 Y8.52956
N3720 G1 Z2.131 X3.617 Y8.94463
N3730 G1 Z2.139 X2.688 Y9.26671
N3740 G1 Z2.143 X2.129 Y9.41025
N3750 G1 Z2.150 X1.339 Y9.55564
N3760 G1 Z2.158 X0.356 Y9.64290
N3770 G1 Z2.163 X-0.233 Y9.64528
N3780 G1 Z2.171 X-1.205 Y9.57273
N3790 G1 Z2.178 X-2.006 Y9.43874
N3800 G1 Z2.186 X-2.953 Y9.18659
N3810 G1 Z2.191 X-3.495 Y8.99396
N3820 G1 Z2.197 X-4.231 Y8.67235
N3830 G1 Z2.202 X-4.752 Y8.39773
N3840 G1 Z2.210 X-5.575 Y7.87518
N3850 G1 Z2.217 X-6.218 Y7.37919
N3860 G1 Z2.225 X-6.937 Y6.70822
N3870 G1 Z2.233 X-7.583 Y5.96728
N3880 G1 Z2.238 X-7.937 Y5.48804
N3890 G1 Z2.244 X-8.356 Y4.82705
N3900 G1 Z2.249 X-8.639 Y4.30001
N3910 G1 Z2.258 X-9.031 Y3.39808
N3920 G1 Z2.262 X-9.218 Y2.85445
N3930 G1 Z2.266 X-9.331 Y2.46119
N3940 G1 Z2.274 X-9.533 Y1.49644
N3950 G1 Z2.282 X-9.636 Y0.51848
N3960 G1 Z2.288 X-9.646 Y-0.27947
N3970 G1 Z2.297 X-9.568 Y-1.25415
N3980 G1 Z2.303 X-9.431 Y-2.04232
N3990 G1 Z2.311 X-9.175 Y-2.98919
N4000 G1 Z2.316 X-8.981 Y-3.53056
N4010 G1 Z2.319 X-8.825 Y-3.90390
N4020 G1 Z2.327 X-8.385 Y-4.77552
N4030 G1 Z2.334 X-7.954 Y-5.46353
N4040 G1 Z2.342 X-7.362 Y-6.23899
N4050 G1 Z2.350 X-6.693 Y-6.95167
N4060 G1 Z2.355 X-6.304 Y-7.30664
N4070 G1 Z2.359 X-5.895 Y-7.63969
N4080 G1 Z2.366 X-5.163 Y-8.15138
N4090 G1 Z2.374 X-4.392 Y-8.59171
N4100 G1 Z2.381 X-3.584 Y-8.95804
N4110 G1 Z2.388 X-2.741 Y-9.25173
N4120 G1 Z2.393 X-2.231 Y-9.38778
N4130 G1 Z2.397 X-1.714 Y-9.49583
N4140 G1 Z2.404 X-0.824 Y-9.61388
N4150 G1 Z2.409 X-0.297 Y-9.64494
N4160 G1 Z2.413 X0.195 Y-9.64549
N4170 G1 Z2.420 X1.121 Y-9.58271
N4180 G1 Z2.428 X1.997 Y-9.43999 F600.000
N4190 G1 Z2.435 X2.861 Y-9.21468
N4200 G1 Z2.439 X3.360 Y-9.04473
N4210 G1 Z2.444 X3.849 Y-8.84679
N4220 G1 Z2.451 X4.650 Y-8.45247
N4230 G1 Z2.459 X5.412 Y-7.98616
N4240 G1 Z2.463 X5.840 Y-7.67821
N4250 G1 Z2.467 X6.251 Y-7.34727
N4260 G1 Z2.475 X6.904 Y-6.73895
N4270 G1 Z2.482 X7.497 Y-6.07164
N4280 G1 Z2.486 X7.818 Y-5.65269
N4290 G1 Z2.491 X8.118 Y-5.21210
N4300 G1 Z2.495 X8.393 Y-4.75552
N4310 G1 Z2.500 X8.665 Y-4.23294
N4320 G1 Z2.505 X9.025 Y-3.67435 F600.000
N4330 G1 Z2.510 X9.214 Y-3.17013
N4340 G1 Z2.514 X9.374 Y-2.66257
N4350 G1 Z2.522 X9.579 Y-1.78488
N4360 G1 Z2.529 X9.703 Y-0.89685
N4370 G1 Z2.536 X9.744 Y-0.00079
N4380 G1 Z2.544 X9.701 Y0.90756
N4390 G1 Z2.551 X9.579 Y1.78803
N4400 G1 Z2.556 X9.452 Y2.37191
N4410 G1 Z2.563 X9.190 Y3.23747
N4420 G1 Z2.567 X9.020 Y3.68726
N4430 G1 Z2.575 X8.634 Y4.51641
N4440 G1 Z2.582 X8.185 Y5.28708
N4450 G1 Z2.590 X7.606 Y6.09274
N4460 G1 Z2.598 X6.945 Y6.83556
N4470 G1 Z2.602 X6.579 Y7.18827
N4480 G1 Z2.609 X5.902 Y7.75425
N4490 G1 Z2.614 X5.412 Y8.10450
N4500 G1 Z2.618 X4.982 Y8.37521
N4510 G1 Z2.626 X4.204 Y8.79219
N4520 G1 Z2.631 X3.658 Y9.03205
N4530 G1 Z2.638 X2.797 Y9.33412
N4540 G1 Z2.645 X1.932 Y9.55278
N4550 G1 Z2.653 X0.951 Y9.69944
N4560 G1 Z2.661 X-0.042 Y9.74627
N4570 G1 Z2.666 X-0.551 Y9.73098
N4580 G1 Z2.673 X-1.429 Y9.64195
N4590 G1 Z2.681 X-2.406 Y9.44591
N4600 G1 Z2.689 X-3.357 Y9.15086
N4610 G1 Z2.694 X-3.917 Y8.92524
N4620 G1 Z2.702 X-4.806 Y8.47907
N4630 G1 Z2.706 X-5.242 Y8.21778
N4640 G1 Z2.710 X-5.643 Y7.94769
N4650 G1 Z2.717 X-6.281 Y7.45434
N4660 G1 Z2.720 X-6.574 Y7.19674
N4670 G1 Z2.725 X-7.003 Y6.78073
N4680 G1 Z2.732 X-7.539 Y6.17829
N4690 G1 Z2.740 X-8.129 Y5.37905
N4700 G1 Z2.748 X-8.634 Y4.52481
N4710 G1 Z2.753 X-8.896 Y3.98399
N4720 G1 Z2.759 X-9.190 Y3.24857
N4730 G1 Z2.764 X-9.374 Y2.67395
N4740 G1 Z2.772 X-9.596 Y1.70849
N4750 G1 Z2.779 X-9.705 Y0.91294
N4760 G1 Z2.783 X-9.739 Y0.40745
N4770 G1 Z2.787 X-9.747 Y-0.07636
N4780 G1 Z2.793 X-9.708 Y-0.88089
N4790 G1 Z2.797 X-9.649 Y-1.38240
N4800 G1 Z2.805 X-9.484 Y-2.24938
N4810 G1 Z2.810 X-9.327 Y-2.83276
N4820 G1 Z2.818 X-8.992 Y-3.76220
N4830 G1 Z2.825 X-8.600 Y-4.58626
N4840 G1 Z2.832 X-8.145 Y-5.35493
N4850 G1 Z2.836 X-7.925 Y-5.67523
N4860 G1 Z2.841 X-7.560 Y-6.15348
N4870 G1 Z2.849 X-6.897 Y-6.88798
N4880 G1 Z2.856 X-6.226 Y-7.49969
N4890 G1 Z2.860 X-5.807 Y-7.82812
N4900 G1 Z2.865 X-5.370 Y-8.13455
N4910 G1 Z2.872 X-4.591 Y-8.59722
N4920 G1 Z2.876 X-4.114 Y-8.83666
N4930 G1 Z2.881 X-3.625 Y-9.04709
N4940 G1 Z2.888 X-2.769 Y-9.34576
N4950 G1 Z2.893 X-2.253 Y-9.48219
N4960 G1 Z2.897 X-1.732 Y-9.59162
N4970 G1 Z2.904 X-0.838 Y-9.71089
N4980 G1 Z2.912 X0.084 Y-9.74470
N4990 G1 Z2.916 X0.597 Y-9.72872
N5000 G1 Z2.920 X1.127 Y-9.68011 F600.000
N5010 G1 Z2.928 X2.022 Y-9.53379
N5020 G1 Z2.932 X2.540 Y-9.40925
N5030 G1 Z2.937 X3.051 Y-9.25565
N5040 G1 Z2.944 X3.893 Y-8.93497
N5050 G1 Z2.951 X4.698 Y-8.53893
N5060 G1 Z2.959 X5.462 Y-8.07089
N5070 G1 Z2.966 X6.185 Y-7.53021
N5080 G1 Z2.970 X6.588 Y-7.18164
N5090 G1 Z2.975 X6.970 Y-6.81007
N5100 G1 Z2.982 X7.570 Y-6.13639
N5110 G1 Z2.989 X8.102 Y-5.41435
N5120 G1 Z2.997 X8.567 Y-4.64267
N5130 G1 Z3.000 X8.753 Y-4.27748
N5140 G1 Z3.005 X9.133 Y-3.72319 F600.000
N5150 G1 Z3.013 X9.437 Y-2.86328
N5160 G1 Z3.020 X9.661 Y-1.98400
N5170 G1 Z3.027 X9.803 Y-1.08208
N5180 G1 Z3.032 X9.847 Y-0.54497
N5190 G1 Z3.039 X9.854 Y0.40133
N5200 G1 Z3.044 X9.811 Y1.01022
N5210 G1 Z3.052 X9.657 Y2.00163
N5220 G1 Z3.059 X9.459 Y2.79187
N5230 G1 Z3.067 X9.126 Y3.73940
N5240 G1 Z3.075 X8.697 Y4.65116
N5250 G1 Z3.079 X8.468 Y5.05576
N5260 G1 Z3.083 X8.178 Y5.51386
N5270 G1 Z3.091 X7.576 Y6.31525
N5280 G1 Z3.099 X6.986 Y6.96170
N5290 G1 Z3.106 X6.281 Y7.60470
N5300 G1 Z3.114 X5.476 Y8.20316
N5310 G1 Z3.118 X5.141 Y8.41810
N5320 G1 Z3.122 X4.613 Y8.71879
N5330 G1 Z3.131 X3.699 Y9.14459
N5340 G1 Z3.139 X2.749 Y9.47313
N5350 G1 Z3.146 X1.901 Y9.67839
N5360 G1 Z3.153 X0.959 Y9.81730
N5370 G1 Z3.157 X0.501 Y9.85152
N5380 G1 Z3.161 X-0.041 Y9.86462
N5390 G1 Z3.170 X-1.047 Y9.80934
N5400 G1 Z3.178 X-2.039 Y9.65191
N5410 G1 Z3.185 X-2.885 Y9.43227
N5420 G1 Z3.192 X-3.778 Y9.11287
N5430 G1 Z3.199 X-4.514 Y8.77277
N5440 G1 Z3.207 X-5.383 Y8.26737
N5450 G1 Z3.215 X-6.197 Y7.67698
N5460 G1 Z3.220 X-6.658 Y7.28067
N5470 G1 Z3.223 X-6.944 Y7.00741
N5480 G1 Z3.230 X-7.501 Y6.40885
N5490 G1 Z3.233 X-7.751 Y6.10359
N5500 G1 Z3.238 X-8.112 Y5.61428
N5510 G1 Z3.246 X-8.642 Y4.75989
N5520 G1 Z3.251 X-8.920 Y4.21577
N5530 G1 Z3.258 X-9.255 Y3.41657
N5540 G1 Z3.262 X-9.429 Y2.90179
N5550 G1 Z3.266 X-9.555 Y2.45439
N5560 G1 Z3.274 X-9.746 Y1.53066
N5570 G1 Z3.279 X-9.822 Y0.92547
N5580 G1 Z3.287 X-9.865 Y-0.08330
N5590 G1 Z3.290 X-9.854 Y-0.48129
N5600 G1 Z3.298 X-9.753 Y-1.48409
N5610 G1 Z3.303 X-9.643 Y-2.08598
N5620 G1 Z3.311 X-9.381 Y-3.05339
N5630 G1 Z3.318 X-9.099 Y-3.81223
N5640 G1 Z3.324 X-8.756 Y-4.54508
N5650 G1 Z3.332 X-8.249 Y-5.41149
N5660 G1 Z3.337 X-7.899 Y-5.91138
N5670 G1 Z3.341 X-7.654 Y-6.22431
N5680 G1 Z3.349 X-6.981 Y-6.97082
N5690 G1 Z3.356 X-6.302 Y-7.59040
N5700 G1 Z3.360 X-5.878 Y-7.92329
N5710 G1 Z3.365 X-5.436 Y-8.23218
N5720 G1 Z3.372 X-4.651 Y-8.69926
N5730 G1 Z3.379 X-3.832 Y-9.09098
N5740 G1 Z3.387 X-2.976 Y-9.40507
N5750 G1 Z3.391 X-2.457 Y-9.55495
N5760 G1 Z3.396 X-1.931 Y-9.67384
N5770 G1 Z3.403 X-1.024 Y-9.81128
N5780 G1 Z3.407 X-0.485 Y-9.85218
N5790 G1 Z3.415 X0.421 Y-9.85585
N5800 G1 Z3.419 X0.960 Y-9.81779 F600.000
N5810 G1 Z3.426 X1.868 Y-9.68523
N5820 G1 Z3.431 X2.395 Y-9.56812
N5830 G1 Z3.435 X2.915 Y-9.42301
N5840 G1 Z3.442 X3.773 Y-9.11309
N5850 G1 Z3.450 X4.594 Y-8.72875
N5860 G1 Z3.458 X5.430 Y-8.23399
N5870 G1 Z3.461 X5.825 Y-7.95974
N5880 G1 Z3.466 X6.252 Y-7.62867
N5890 G1 Z3.473 X6.930 Y-7.01775
N5900 G1 Z3.481 X7.549 Y-6.34783
N5910 G1 Z3.485 X7.885 Y-5.92572
N5920 G1 Z3.489 X8.197 Y-5.48555
N5930 G1 Z3.497 X8.699 Y-4.64714
N5940 G1 Z3.500 X8.859 Y-4.33009
N5950 G1 Z3.504 X9.191 Y-3.94187 F600.000
N5960 G1 Z3.511 X9.515 Y-3.07949
N5970 G1 Z3.519 X9.757 Y-2.19110
N5980 G1 Z3.526 X9.918 Y-1.28008
N5990 G1 Z3.530 X9.974 Y-0.73651
N6000 G1 Z3.535 X9.999 Y-0.18525
N6010 G1 Z3.539 X9.992 Y0.41212
N6020 G1 Z3.543 X9.968 Y0.81547
N6030 G1 Z3.551 X9.832 Y1.82827
N6040 G1 Z3.556 X9.700 Y2.43375
N6050 G1 Z3.562 X9.471 Y3.21381
N6060 G1 Z3.567 X9.256 Y3.78789
N6070 G1 Z3.574 X8.912 Y4.53993
N6080 G1 Z3.577 X8.723 Y4.89207
N6090 G1 Z3.582 X8.405 Y5.42036
N6100 G1 Z3.587 X8.055 Y5.92864
N6110 G1 Z3.590 X7.808 Y6.25017
N6120 G1 Z3.593 X7.547 Y6.56271
N6130 G1 Z3.601 X6.838 Y7.29950
N6140 G1 Z3.606 X6.378 Y7.70459
N6150 G1 Z3.613 X5.722 Y8.20343
N6160 G1 Z3.621 X4.857 Y8.74303
N6170 G1 Z3.629 X3.942 Y9.19263
N6180 G1 Z3.635 X3.172 Y9.48547
N6190 G1 Z3.644 X2.193 Y9.75987
N6200 G1 Z3.648 X1.585 Y9.87635
N6210 G1 Z3.655 X0.761 Y9.97357
N6220 G1 Z3.660 X0.165 Y10.00148
N6230 G1 Z3.666 X-0.661 Y9.98153
N6240 G1 Z3.670 X-1.061 Y9.94667
N6250 G1 Z3.675 X-1.674 Y9.86215
N6260 G1 Z3.683 X-2.672 Y9.63995
N6270 G1 Z3.691 X-3.640 Y9.31755
N6280 G1 Z3.696 X-4.207 Y9.07683
N6290 G1 Z3.702 X-4.929 Y8.70488
N6300 G1 Z3.707 X-5.458 Y8.38335
N6310 G1 Z3.710 X-5.806 Y8.14686
N6320 G1 Z3.715 X-6.285 Y7.78215
N6330 G1 Z3.719 X-6.607 Y7.51168
N6340 G1 Z3.727 X-7.328 Y6.81032
N6350 G1 Z3.731 X-7.732 Y6.34841
N6360 G1 Z3.738 X-8.229 Y5.68842
N6370 G1 Z3.746 X-8.766 Y4.82103
N6380 G1 Z3.754 X-9.210 Y3.90644
N6390 G1 Z3.761 X-9.501 Y3.13346
N6400 G1 Z3.769 X-9.770 Y2.15288
N6410 G1 Z3.774 X-9.881 Y1.56200
N6420 G1 Z3.780 X-9.977 Y0.73922
N6430 G1 Z3.785 X-10.003 Y0.12631
N6440 G1 Z3.792 X-9.980 Y-0.69815
N6450 G1 Z3.797 X-9.918 Y-1.30824
N6460 G1 Z3.803 X-9.779 Y-2.10929
N6470 G1 Z3.811 X-9.513 Y-3.09608
N6480 G1 Z3.816 X-9.303 Y-3.67957
N6490 G1 Z3.824 X-8.880 Y-4.60617
N6500 G1 Z3.832 X-8.365 Y-5.48677
N6510 G1 Z3.837 X-8.010 Y-5.99425
N6520 G1 Z3.840 X-7.763 Y-6.30939
N6530 G1 Z3.847 X-7.218 Y-6.92511
N6540 G1 Z3.855 X-6.531 Y-7.57766
N6550 G1 Z3.859 X-6.107 Y-7.92306
N6560 G1 Z3.863 X-5.660 Y-8.24885
N6570 G1 Z3.868 X-5.196 Y-8.54863
N6580 G1 Z3.872 X-4.721 Y-8.81905
N6590 G1 Z3.879 X-3.886 Y-9.21703
N6600 G1 Z3.887 X-3.018 Y-9.53700
N6610 G1 Z3.891 X-2.491 Y-9.68843
N6620 G1 Z3.895 X-1.958 Y-9.80986
N6630 G1 Z3.903 X-1.044 Y-9.94879
N6640 G1 Z3.910 X-0.089 Y-10.00191
N6650 G1 Z3.915 X0.428 Y-9.99322
N6660 G1 Z3.919 X0.974 Y-9.95565 F600.000
N6670 G1 Z3.926 X1.889 Y-9.82263
N6680 G1 Z3.934 X2.789 Y-9.60560
N6690 G1 Z3.938 X3.310 Y-9.43803
N6700 G1 Z3.942 X3.821 Y-9.24346
N6710 G1 Z3.950 X4.659 Y-8.85043
N6720 G1 Z3.957 X5.457 Y-8.38141
N6730 G1 Z3.961 X5.907 Y-8.07083
N6740 G1 Z3.966 X6.340 Y-7.73526
N6750 G1 Z3.973 X7.027 Y-7.11623
N6760 G1 Z3.980 X7.652 Y-6.44085
N6770 G1 Z3.988 X8.214 Y-5.70583
N6780 G1 Z3.992 X8.514 Y-5.24725
N6790 G1 Z3.997 X8.788 Y-4.77468
N6800 G1 Z4.000 X8.976 Y-4.38688
N6810 G1 Z4.005 X9.411 Y-3.83109 F600.000
N6820 G1 Z4.013 X9.723 Y-2.95074
N6830 G1 Z4.020 X9.953 Y-2.04439
N6840 G1 Z4.027 X10.099 Y-1.11540
N6850 G1 Z4.032 X10.145 Y-0.56054
N6860 G1 Z4.036 X10.163 Y-0.00644
N6870 G1 Z4.044 X10.107 Y1.04535
N6880 G1 Z4.048 X10.057 Y1.44780
N6890 G1 Z4.052 X9.948 Y2.06797
N6900 G1 Z4.056 X9.857 Y2.46776
N6910 G1 Z4.061 X9.685 Y3.07294
N6920 G1 Z4.064 X9.554 Y3.46073
N6930 G1 Z4.069 X9.321 Y4.04590
N6940 G1 Z4.072 X9.150 Y4.41770
N6950 G1 Z4.077 X8.860 Y4.97587
N6960 G1 Z4.085 X8.326 Y5.82431
N6970 G1 Z4.092 X7.797 Y6.51641
N6980 G1 Z4.095 X7.530 Y6.82397
N6990 G1 Z4.100 X7.094 Y7.27514
N7000 G1 Z4.103 X6.794 Y7.55695
N7010 G1 Z4.107 X6.341 Y7.93961
N7020 G1 Z4.114 X5.639 Y8.45370
N7030 G1 Z4.117 X5.296 Y8.67226
N7040 G1 Z4.122 X4.750 Y8.98344
N7050 G1 Z4.126 X4.383 Y9.16823
N7060 G1 Z4.131 X3.808 Y9.42140
N7070 G1 Z4.134 X3.425 Y9.56720
N7080 G1 Z4.139 X2.826 Y9.76137
N7090 G1 Z4.142 X2.430 Y9.86716
N7100 G1 Z4.147 X1.815 Y9.99934
N7110 G1 Z4.150 X1.410 Y10.06413
N7120 G1 Z4.155 X0.787 Y10.13213
N7130 G1 Z4.160 X0.192 Y10.16098
N7140 G1 Z4.163 X-0.246 Y10.15972
N7150 G1 Z4.170 X-1.086 Y10.10483
N7160 G1 Z4.173 X-1.490 Y10.05343
N7170 G1 Z4.178 X-2.109 Y9.94160
N7180 G1 Z4.181 X-2.508 Y9.84839
N7190 G1 Z4.186 X-3.110 Y9.67537
N7200 G1 Z4.191 X-3.700 Y9.46534
N7210 G1 Z4.194 X-4.082 Y9.30734
N7220 G1 Z4.197 X-4.456 Y9.13433
N7230 G1 Z4.202 X-5.011 Y8.84232
N7240 G1 Z4.207 X-5.520 Y8.53318
N7250 G1 Z4.214 X-6.219 Y8.03925
N7260 G1 Z4.218 X-6.704 Y7.63942
N7270 G1 Z4.226 X-7.424 Y6.94086
N7280 G1 Z4.233 X-7.991 Y6.28096
N7290 G1 Z4.236 X-8.236 Y5.95552
N7300 G1 Z4.241 X-8.587 Y5.43749
N7310 G1 Z4.246 X-8.906 Y4.89847
N7320 G1 Z4.253 X-9.274 Y4.15944
N7330 G1 Z4.258 X-9.513 Y3.57943
N7340 G1 Z4.262 X-9.706 Y3.01629
N7350 G1 Z4.269 X-9.925 Y2.18936
N7360 G1 Z4.274 X-10.041 Y1.57614
N7370 G1 Z4.280 X-10.136 Y0.74491
N7380 G1 Z4.285 X-10.163 Y0.15257
N7390 G1 Z4.292 X-10.140 Y-0.70364
N7400 G1 Z4.297 X-10.077 Y-1.32442
N7410 G1 Z4.303 X-9.934 Y-2.14818
N7420 G1 Z4.308 X-9.784 Y-2.75396
N7430 G1 Z4.311 X-9.664 Y-3.14895
N7440 G1 Z4.314 X-9.528 Y-3.53894
N7450 G1 Z4.319 X-9.291 Y-4.12111
N7460 G1 Z4.323 X-9.117 Y-4.49292
N7470 G1 Z4.327 X-8.839 Y-5.01658
N7480 G1 Z4.334 X-8.378 Y-5.75467
N7490 G1 Z4.337 X-8.141 Y-6.08523
N7500 G1 Z4.342 X-7.749 Y-6.57740
N7510 G1 Z4.350 X-7.057 Y-7.31438
N7520 G1 Z4.357 X-6.348 Y-7.93770
N7530 G1 Z4.362 X-5.904 Y-8.27377
N7540 G1 Z4.366 X-5.465 Y-8.56890
N7550 G1 Z4.374 X-4.626 Y-9.04983
N7560 G1 Z4.381 X-3.770 Y-9.43881
N7570 G1 Z4.385 X-3.248 Y-9.63087
N7580 G1 Z4.389 X-2.743 Y-9.78500
N7590 G1 Z4.397 X-1.800 Y-10.00294
N7600 G1 Z4.404 X-0.868 Y-10.12591
N7610 G1 Z4.409 X-0.313 Y-10.15898
N7620 G1 Z4.416 X0.620 Y-10.14353
N7630 G1 Z4.420 X1.175 Y-10.09466 F600.000
N7640 G1 Z4.428 X2.103 Y-9.94267
N7650 G1 Z4.435 X3.013 Y-9.70568
N7660 G1 Z4.439 X3.539 Y-9.52672
N7670 G1 Z4.444 X4.055 Y-9.31777
N7680 G1 Z4.451 X4.903 Y-8.90013
N7690 G1 Z4.456 X5.382 Y-8.61918
N7700 G1 Z4.460 X5.846 Y-8.31123
N7710 G1 Z4.467 X6.589 Y-7.73524
N7720 G1 Z4.475 X7.272 Y-7.09789
N7730 G1 Z4.482 X7.893 Y-6.39854
N7740 G1 Z4.489 X8.451 Y-5.64255
N7750 G1 Z4.494 X8.747 Y-5.17159
N7760 G1 Z4.498 X9.016 Y-4.68564
N7770 G1 Z4.500 X9.123 Y-4.45445
N7780 G1 Z4.505 X9.577 Y-3.90437 F600.000
N7790 G1 Z4.513 X9.896 Y-3.00355
N7800 G1 Z4.520 X10.131 Y-2.08037
N7810 G1 Z4.527 X10.280 Y-1.13555
N7820 G1 Z4.532 X10.327 Y-0.57037
N7830 G1 Z4.536 X10.344 Y-0.00136
N7840 G1 Z4.541 X10.323 Y0.63611
N7850 G1 Z4.544 X10.289 Y1.05349
N7860 G1 Z4.549 X10.204 Y1.68845
N7870 G1 Z4.552 X10.127 Y2.10196
N7880 G1 Z4.556 X10.033 Y2.51147
N7890 G1 Z4.561 X9.859 Y3.12423
N7900 G1 Z4.565 X9.648 Y3.72599
N7910 G1 Z4.573 X9.251 Y4.62499
N7920 G1 Z4.580 X8.806 Y5.42424
N7930 G1 Z4.585 X8.457 Y5.95480
N7940 G1 Z4.592 X7.937 Y6.63280
N7950 G1 Z4.595 X7.665 Y6.94492
N7960 G1 Z4.600 X7.224 Y7.40148
N7970 G1 Z4.606 X6.589 Y7.97348
N7980 G1 Z4.609 X6.264 Y8.23060
N7990 G1 Z4.614 X5.745 Y8.60140
N8000 G1 Z4.619 X5.269 Y8.90086
N8010 G1 Z4.622 X4.838 Y9.14251
N8020 G1 Z4.627 X4.265 Y9.42338
N8030 G1 Z4.631 X3.879 Y9.58989
N8040 G1 Z4.634 X3.486 Y9.73840
N8050 G1 Z4.639 X2.884 Y9.93383
N8060 G1 Z4.646 X1.921 Y10.16336
N8070 G1 Z4.653 X1.008 Y10.29414
N8080 G1 Z4.658 X0.451 Y10.33332
N8090 G1 Z4.661 X-0.042 Y10.34497
N8100 G1 Z4.666 X-0.681 Y10.32284
N8110 G1 Z4.670 X-1.100 Y10.28535
N8120 G1 Z4.673 X-1.517 Y10.23286
N8130 G1 Z4.678 X-2.141 Y10.12042
N8140 G1 Z4.684 X-2.967 Y9.91027
N8150 G1 Z4.689 X-3.498 Y9.73453
N8160 G1 Z4.696 X-4.345 Y9.38879
N8170 G1 Z4.701 X-4.916 Y9.10260
N8180 G1 Z4.705 X-5.402 Y8.82106
N8190 G1 Z4.709 X-5.815 Y8.55651
N8200 G1 Z4.715 X-6.502 Y8.04662
N8210 G1 Z4.718 X-6.820 Y7.77973
N8220 G1 Z4.723 X-7.286 Y7.34449
N8230 G1 Z4.728 X-7.724 Y6.88125
N8240 G1 Z4.731 X-7.993 Y6.56823
N8250 G1 Z4.739 X-8.585 Y5.77196
N8260 G1 Z4.746 X-9.067 Y4.98288
N8270 G1 Z4.749 X-9.259 Y4.61592
N8280 G1 Z4.754 X-9.526 Y4.03488
N8290 G1 Z4.758 X-9.681 Y3.64619
N8300 G1 Z4.762 X-9.888 Y3.04200
N8310 G1 Z4.767 X-10.038 Y2.50146
N8320 G1 Z4.771 X-10.146 Y2.02011
N8330 G1 Z4.775 X-10.252 Y1.38998
N8340 G1 Z4.779 X-10.299 Y0.97529
N8350 G1 Z4.784 X-10.340 Y0.33625
N8360 G1 Z4.787 X-10.345 Y-0.08256
N8370 G1 Z4.792 X-10.320 Y-0.72252
N8380 G1 Z4.795 X-10.283 Y-1.13349
N8390 G1 Z4.803 X-10.126 Y-2.11322
N8400 G1 Z4.810 X-9.899 Y-3.00695
N8410 G1 Z4.815 X-9.696 Y-3.60743
N8420 G1 Z4.822 X-9.310 Y-4.51043
N8430 G1 Z4.829 X-8.875 Y-5.31569
N8440 G1 Z4.834 X-8.529 Y-5.85465
N8450 G1 Z4.837 X-8.286 Y-6.19496
N8460 G1 Z4.842 X-7.887 Y-6.69492
N8470 G1 Z4.850 X-7.183 Y-7.44417
N8480 G1 Z4.857 X-6.461 Y-8.07966
N8490 G1 Z4.862 X-6.009 Y-8.42146
N8500 G1 Z4.866 X-5.590 Y-8.70497
N8510 G1 Z4.874 X-4.713 Y-9.20898
N8520 G1 Z4.881 X-3.842 Y-9.60417
N8530 G1 Z4.888 X-2.939 Y-9.91835
N8540 G1 Z4.893 X-2.392 Y-10.06410
N8550 G1 Z4.897 X-1.837 Y-10.17985
N8560 G1 Z4.904 X-0.884 Y-10.30638
N8570 G1 Z4.909 X-0.318 Y-10.33919
N8580 G1 Z4.916 X0.633 Y-10.32497
N8590 G1 Z4.920 X1.197 Y-10.27471 F600.000
N8600 G1 Z4.928 X2.146 Y-10.11825
N8610 G1 Z4.932 X2.696 Y-9.98602
N8620 G1 Z4.937 X3.238 Y-9.82375
N8630 G1 Z4.944 X4.132 Y-9.48293
N8640 G1 Z4.951 X4.986 Y-9.06275
N8650 G1 Z4.959 X5.802 Y-8.56293
N8660 G1 Z4.963 X6.262 Y-8.23273
N8670 G1 Z4.970 X6.991 Y-7.62341
N8680 G1 Z4.975 X7.398 Y-7.22726
N8690 G1 Z4.982 X8.034 Y-6.51344
N8700 G1 Z4.989 X8.599 Y-5.74727
N8710 G1 Z4.997 X9.093 Y-4.92745
N8720 G1 Z5.000 X9.290 Y-4.53902
N8730 G1 Z5.004 X9.692 Y-4.15558 F600.000
N8740 G1 Z5.011 X10.035 Y-3.24208
N8750 G1 Z5.016 X10.197 Y-2.68861
N8760 G1 Z5.020 X10.329 Y-2.12615
N8770 G1 Z5.027 X10.482 Y-1.15700
N8780 G1 Z5.032 X10.529 Y-0.58159
N8790 G1 Z5.036 X10.547 Y-0.00138
N8800 G1 Z5.041 X10.526 Y0.64903
N8810 G1 Z5.048 X10.438 Y1.50225
N8820 G1 Z5.052 X10.325 Y2.14397
N8830 G1 Z5.056 X10.204 Y2.66024
N8840 G1 Z5.064 X9.915 Y3.59169
N8850 G1 Z5.069 X9.676 Y4.19212
N8860 G1 Z5.075 X9.297 Y4.97729
N8870 G1 Z5.078 X9.090 Y5.34699
N8880 G1 Z5.083 X8.744 Y5.89562
N8890 G1 Z5.088 X8.364 Y6.42326
N8900 G1 Z5.091 X8.097 Y6.75624
N8910 G1 Z5.096 X7.745 Y7.15770
N8920 G1 Z5.103 X7.051 Y7.84216
N8930 G1 Z5.108 X6.553 Y8.26399
N8940 G1 Z5.111 X6.214 Y8.52189
N8950 G1 Z5.116 X5.681 Y8.88522
N8960 G1 Z5.123 X4.843 Y9.36815
N8970 G1 Z5.131 X3.951 Y9.77811
N8980 G1 Z5.135 X3.345 Y10.00243
N8990 G1 Z5.139 X2.941 Y10.12813
N9000 G1 Z5.145 X2.094 Y10.33738
N9010 G1 Z5.149 X1.574 Y10.42845
N9020 G1 Z5.157 X0.605 Y10.53090
N9030 G1 Z5.162 X-0.048 Y10.54773
N9040 G1 Z5.165 X-0.473 Y10.53763
N9050 G1 Z5.170 X-1.122 Y10.48735
N9060 G1 Z5.174 X-1.648 Y10.41761
N9070 G1 Z5.178 X-2.185 Y10.31992
N9080 G1 Z5.183 X-2.817 Y10.16462
N9090 G1 Z5.190 X-3.730 Y9.86605
N9100 G1 Z5.194 X-4.231 Y9.66206
N9110 G1 Z5.201 X-5.099 Y9.23205
N9120 G1 Z5.209 X-5.939 Y8.71721
N9130 G1 Z5.212 X-6.282 Y8.47380
N9140 G1 Z5.217 X-6.792 Y8.07043
N9150 G1 Z5.222 X-7.276 Y7.63706
N9160 G1 Z5.225 X-7.579 Y7.33796
N9170 G1 Z5.230 X-8.018 Y6.85479
N9180 G1 Z5.233 X-8.285 Y6.52839
N9190 G1 Z5.240 X-8.849 Y5.73951
N9200 G1 Z5.248 X-9.347 Y4.88967
N9210 G1 Z5.251 X-9.535 Y4.51226
N9220 G1 Z5.256 X-9.796 Y3.91409
N9230 G1 Z5.259 X-9.946 Y3.51599
N9240 G1 Z5.264 X-10.142 Y2.90031
N9250 G1 Z5.271 X-10.367 Y1.94526
N9260 G1 Z5.279 X-10.503 Y0.98439
N9270 G1 Z5.282 X-10.534 Y0.56399
N9280 G1 Z5.287 X-10.548 Y-0.08232
N9290 G1 Z5.294 X-10.496 Y-1.04825
N9300 G1 Z5.302 X-10.353 Y-2.02241
N9310 G1 Z5.305 X-10.264 Y-2.43499
N9320 G1 Z5.310 X-10.094 Y-3.06482
N9330 G1 Z5.313 X-9.962 Y-3.46972
N9340 G1 Z5.318 X-9.729 Y-4.07744
N9350 G1 Z5.322 X-9.511 Y-4.56170
N9360 G1 Z5.326 X-9.261 Y-5.04921
N9370 G1 Z5.329 X-9.050 Y-5.42018
N9380 G1 Z5.334 X-8.701 Y-5.96351
N9390 G1 Z5.341 X-8.117 Y-6.73544
N9400 G1 Z5.349 X-7.459 Y-7.45810
N9410 G1 Z5.356 X-6.742 Y-8.11122
N9420 G1 Z5.363 X-5.968 Y-8.69736
N9430 G1 Z5.371 X-5.139 Y-9.21185
N9440 G1 Z5.375 X-4.628 Y-9.47839
N9450 G1 Z5.379 X-4.102 Y-9.71793
N9460 G1 Z5.387 X-3.182 Y-10.05678
N9470 G1 Z5.391 X-2.627 Y-10.21532
N9480 G1 Z5.396 X-2.059 Y-10.34421
N9490 G1 Z5.400 X-1.485 Y-10.44210
N9500 G1 Z5.404 X-0.912 Y-10.50862
N9510 G1 Z5.412 X0.058 Y-10.54579
N9520 G1 Z5.415 X0.450 Y-10.53731
N9530 G1 Z5.419 X1.027 Y-10.49793 F600.000
N9540 G1 Z5.426 X1.992 Y-10.35642
N9550 G1 Z5.434 X2.941 Y-10.12892
N9560 G1 Z5.438 X3.491 Y-9.95245
N9570 G1 Z5.442 X4.030 Y-9.74699
N9580 G1 Z5.450 X4.913 Y-9.33249
N9590 G1 Z5.457 X5.750 Y-8.84062
N9600 G1 Z5.464 X6.542 Y-8.27212
N9610 G1 Z5.469 X6.985 Y-7.90166
N9620 G1 Z5.473 X7.407 Y-7.50719
N9630 G1 Z5.480 X8.068 Y-6.79069
N9640 G1 Z5.488 X8.661 Y-6.01618
N9650 G1 Z5.492 X8.978 Y-5.53372
N9660 G1 Z5.497 X9.267 Y-5.03326
N9670 G1 Z5.500 X9.465 Y-4.62419
N9680 G1 Z5.504 X9.902 Y-4.24084 F600.000
N9690 G1 Z5.508 X10.119 Y-3.69125
N9700 G1 Z5.513 X10.306 Y-3.13266
N9710 G1 Z5.520 X10.551 Y-2.16661
N9720 G1 Z5.527 X10.706 Y-1.18256
N9730 G1 Z5.532 X10.755 Y-0.59401
N9740 G1 Z5.536 X10.772 Y-0.00169
N9750 G1 Z5.541 X10.751 Y0.66332
N9760 G1 Z5.544 X10.715 Y1.09790
N9770 G1 Z5.549 X10.627 Y1.75870
N9780 G1 Z5.552 X10.547 Y2.18845
N9790 G1 Z5.556 X10.449 Y2.61519
N9800 G1 Z5.561 X10.268 Y3.25379
N9810 G1 Z5.565 X10.048 Y3.88040
N9820 G1 Z5.569 X9.884 Y4.28075
N9830 G1 Z5.575 X9.496 Y5.08341
N9840 G1 Z5.578 X9.285 Y5.46076
N9850 G1 Z5.583 X8.929 Y6.02456
N9860 G1 Z5.587 X8.679 Y6.38011
N9870 G1 Z5.591 X8.270 Y6.90271
N9880 G1 Z5.596 X7.829 Y7.39832
N9890 G1 Z5.600 X7.526 Y7.70666
N9900 G1 Z5.606 X6.863 Y8.30225
N9910 G1 Z5.610 X6.470 Y8.61237
N9920 G1 Z5.618 X5.614 Y9.19300
N9930 G1 Z5.622 X5.038 Y9.52160
N9940 G1 Z5.627 X4.442 Y9.81421
N9950 G1 Z5.631 X4.045 Y9.98456
N9960 G1 Z5.637 X3.204 Y10.28522
N9970 G1 Z5.640 X2.789 Y10.40556
N9980 G1 Z5.645 X2.143 Y10.55717
N9990 G1 Z5.650 X1.489 Y10.66978
N10000 G1 Z5.657 X0.551 Y10.75894
N10010 G1 Z5.661 X-0.042 Y10.77261
N10020 G1 Z5.668 X-0.930 Y10.73204
N10030 G1 Z5.672 X-1.428 Y10.67716
N10040 G1 Z5.679 X-2.446 Y10.49283
N10050 G1 Z5.684 X-3.088 Y10.32152
N10060 G1 Z5.688 X-3.566 Y10.16584
N10070 G1 Z5.692 X-4.124 Y9.95370
N10080 G1 Z5.697 X-4.729 Y9.68035
N10090 G1 Z5.700 X-5.113 Y9.48363
N10100 G1 Z5.708 X-5.934 Y8.99186
N10110 G1 Z5.712 X-6.421 Y8.65152
N10120 G1 Z5.718 X-7.102 Y8.10104
N10130 G1 Z5.723 X-7.590 Y7.64784
N10140 G1 Z5.727 X-7.892 Y7.33438
N10150 G1 Z5.731 X-8.327 Y6.83679
N10160 G1 Z5.738 X-8.863 Y6.12625
N10170 G1 Z5.741 X-9.101 Y5.76660
N10180 G1 Z5.746 X-9.439 Y5.19421
N10190 G1 Z5.751 X-9.741 Y4.60381
N10200 G1 Z5.758 X-10.117 Y3.70237
N10210 G1 Z5.766 X-10.418 Y2.74861
N10220 G1 Z5.771 X-10.568 Y2.09941
N10230 G1 Z5.774 X-10.644 Y1.67196
N10240 G1 Z5.779 X-10.727 Y1.00976
N10250 G1 Z5.782 X-10.759 Y0.57531
N10260 G1 Z5.787 X-10.774 Y-0.08465
N10270 G1 Z5.794 X-10.724 Y-1.03868
N10280 G1 Z5.801 X-10.576 Y-2.05691
N10290 G1 Z5.806 X-10.429 Y-2.70671
N10300 G1 Z5.810 X-10.311 Y-3.12638
N10310 G1 Z5.813 X-10.152 Y-3.60689
N10320 G1 Z5.818 X-9.939 Y-4.16056
N10330 G1 Z5.824 X-9.562 Y-4.96599
N10340 G1 Z5.828 X-9.321 Y-5.40311
N10350 G1 Z5.836 X-8.760 Y-6.27374
N10360 G1 Z5.841 X-8.355 Y-6.80254
N10370 G1 Z5.844 X-8.074 Y-7.13409
N10380 G1 Z5.849 X-7.622 Y-7.61440
N10390 G1 Z5.856 X-6.883 Y-8.28865
N10400 G1 Z5.860 X-6.418 Y-8.65417
N10410 G1 Z5.868 X-5.597 Y-9.20662
N10420 G1 Z5.872 X-5.084 Y-9.49807
N10430 G1 Z5.879 X-4.185 Y-9.92702
N10440 G1 Z5.887 X-3.250 Y-10.27197
N10450 G1 Z5.891 X-2.683 Y-10.43438
N10460 G1 Z5.895 X-2.108 Y-10.56580
N10470 G1 Z5.903 X-1.118 Y-10.71410
N10480 G1 Z5.907 X-0.530 Y-10.76053
N10490 G1 Z5.915 X0.460 Y-10.76307
N10500 G1 Z5.919 X1.049 Y-10.72153 F600.000
N10510 G1 Z5.926 X2.035 Y-10.57848
N10520 G1 Z5.934 X3.004 Y-10.34543
N10530 G1 Z5.938 X3.565 Y-10.16584
N10540 G1 Z5.942 X4.116 Y-9.95425
N10550 G1 Z5.950 X5.018 Y-9.53121
N10560 G1 Z5.957 X5.877 Y-9.02716
N10570 G1 Z5.961 X6.362 Y-8.69257
N10580 G1 Z5.966 X6.829 Y-8.33098
N10590 G1 Z5.973 X7.569 Y-7.66493
N10600 G1 Z5.981 X8.244 Y-6.93289
N10610 G1 Z5.985 X8.612 Y-6.47030
N10620 G1 Z5.989 X8.953 Y-5.98971
N10630 G1 Z5.997 X9.467 Y-5.13666
N10640 G1 Z6.000 X9.668 Y-4.72296
N10650 G1 Z6.004 X10.128 Y-4.34206 F600.000
N10660 G1 Z6.011 X10.484 Y-3.39326
N10670 G1 Z6.019 X10.752 Y-2.41547
N10680 G1 Z6.026 X10.929 Y-1.41103
N10690 G1 Z6.030 X10.990 Y-0.81140
N10700 G1 Z6.035 X11.018 Y-0.20310
N10710 G1 Z6.039 X11.011 Y0.45321
N10720 G1 Z6.046 X10.937 Y1.34614
N10730 G1 Z6.051 X10.833 Y2.02097
N10740 G1 Z6.054 X10.735 Y2.48963
N10750 G1 Z6.059 X10.570 Y3.11512
N10760 G1 Z6.062 X10.436 Y3.54041
N10770 G1 Z6.067 X10.199 Y4.17389
N10780 G1 Z6.074 X9.820 Y5.00074
N10790 G1 Z6.077 X9.595 Y5.42020
N10800 G1 Z6.082 X9.262 Y5.97250
N10810 G1 Z6.087 X8.876 Y6.53219
N10820 G1 Z6.090 X8.604 Y6.88661
N10830 G1 Z6.093 X8.294 Y7.25647
N10840 G1 Z6.098 X7.854 Y7.73196
N10850 G1 Z6.101 X7.535 Y8.04224
N10860 G1 Z6.106 X7.027 Y8.48972
N10870 G1 Z6.113 X6.303 Y9.04061
N10880 G1 Z6.116 X5.935 Y9.28668
N10890 G1 Z6.121 X5.352 Y9.63435
N10900 G1 Z6.126 X4.749 Y9.94503
N10910 G1 Z6.129 X4.346 Y10.12809
N10920 G1 Z6.135 X3.494 Y10.45314
N10930 G1 Z6.139 X3.038 Y10.59461
N10940 G1 Z6.144 X2.411 Y10.75406
N10950 G1 Z6.147 X1.941 Y10.84974
N10960 G1 Z6.152 X1.300 Y10.94423
N10970 G1 Z6.155 X0.857 Y10.98852
N10980 G1 Z6.160 X0.179 Y11.02019
N10990 G1 Z6.165 X-0.500 Y11.01087
N11000 G1 Z6.168 X-0.944 Y10.98113
N11010 G1 Z6.173 X-1.622 Y10.90201
N11020 G1 Z6.179 X-2.502 Y10.73496
N11030 G1 Z6.184 X-3.155 Y10.56135
N11040 G1 Z6.191 X-4.044 Y10.25345
N11050 G1 Z6.196 X-4.635 Y10.00054
N11060 G1 Z6.199 X-5.037 Y9.80498
N11070 G1 Z6.202 X-5.461 Y9.57484
N11080 G1 Z6.207 X-6.014 Y9.23729
N11090 G1 Z6.211 X-6.410 Y8.96797
N11100 G1 Z6.215 X-6.925 Y8.57542
N11110 G1 Z6.219 X-7.292 Y8.26611
N11120 G1 Z6.223 X-7.763 Y7.82540
N11130 G1 Z6.228 X-8.230 Y7.33210
N11140 G1 Z6.231 X-8.517 Y6.99713
N11150 G1 Z6.238 X-9.085 Y6.24242
N11160 G1 Z6.243 X-9.433 Y5.70351
N11170 G1 Z6.246 X-9.657 Y5.31499
N11180 G1 Z6.249 X-9.865 Y4.91845
N11190 G1 Z6.254 X-10.148 Y4.30393
N11200 G1 Z6.261 X-10.468 Y3.45562
N11210 G1 Z6.266 X-10.660 Y2.80610
N11220 G1 Z6.269 X-10.765 Y2.37338
N11230 G1 Z6.274 X-10.885 Y1.73787
N11240 G1 Z6.280 X-10.993 Y0.81413
N11250 G1 Z6.285 X-11.022 Y0.13201
N11260 G1 Z6.288 X-11.019 Y-0.31327
N11270 G1 Z6.293 X-10.979 Y-0.98875
N11280 G1 Z6.300 X-10.860 Y-1.89064
N11290 G1 Z6.303 X-10.775 Y-2.32470
N11300 G1 Z6.308 X-10.611 Y-2.98658
N11310 G1 Z6.311 X-10.482 Y-3.41284
N11320 G1 Z6.316 X-10.252 Y-4.05152
N11330 G1 Z6.321 X-9.983 Y-4.67419
N11340 G1 Z6.324 X-9.785 Y-5.07665
N11350 G1 Z6.327 X-9.570 Y-5.46911
N11360 G1 Z6.332 X-9.215 Y-6.04879
N11370 G1 Z6.337 X-8.826 Y-6.60446
N11380 G1 Z6.340 X-8.552 Y-6.95572
N11390 G1 Z6.345 X-8.105 Y-7.47060
N11400 G1 Z6.349 X-7.800 Y-7.78856
N11410 G1 Z6.356 X-7.045 Y-8.47626
N11420 G1 Z6.363 X-6.237 Y-9.08846
N11430 G1 Z6.371 X-5.371 Y-9.62502
N11440 G1 Z6.375 X-4.836 Y-9.90540
N11450 G1 Z6.379 X-4.286 Y-10.15478
N11460 G1 Z6.387 X-3.325 Y-10.50869
N11470 G1 Z6.391 X-2.745 Y-10.67507
N11480 G1 Z6.395 X-2.157 Y-10.80945
N11490 G1 Z6.403 X-1.144 Y-10.96236
N11500 G1 Z6.407 X-0.541 Y-11.00883
N11510 G1 Z6.415 X0.471 Y-11.01193
N11520 G1 Z6.419 X1.074 Y-10.96932 F600.000
N11530 G1 Z6.426 X2.087 Y-10.82224
N11540 G1 Z6.431 X2.676 Y-10.69161
N11550 G1 Z6.435 X3.258 Y-10.52899
N11560 G1 Z6.442 X4.216 Y-10.18255
N11570 G1 Z6.450 X5.134 Y-9.75175
N11580 G1 Z6.457 X6.013 Y-9.23631
N11590 G1 Z6.461 X6.509 Y-8.89369
N11600 G1 Z6.466 X6.986 Y-8.52307
N11610 G1 Z6.473 X7.744 Y-7.84163
N11620 G1 Z6.481 X8.435 Y-7.09218
N11630 G1 Z6.485 X8.811 Y-6.62056
N11640 G1 Z6.489 X9.160 Y-6.12794
N11650 G1 Z6.497 X9.686 Y-5.25550
N11660 G1 Z6.500 X9.892 Y-4.83160
N11670 G1 Z6.504 X10.377 Y-4.45587 F600.000
N11680 G1 Z6.511 X10.744 Y-3.47719
N11690 G1 Z6.519 X11.018 Y-2.47515
N11700 G1 Z6.526 X11.200 Y-1.44276
N11710 G1 Z6.530 X11.262 Y-0.83191
N11720 G1 Z6.535 X11.291 Y-0.20867
N11730 G1 Z6.539 X11.283 Y0.46492
N11740 G1 Z6.546 X11.208 Y1.38041
N11750 G1 Z6.551 X11.102 Y2.06726
N11760 G1 Z6.556 X10.954 Y2.74712
N11770 G1 Z6.559 X10.834 Y3.18716
N11780 G1 Z6.564 X10.616 Y3.85121
N11790 G1 Z6.567 X10.453 Y4.27406
N11800 G1 Z6.574 X10.064 Y5.12471
N11810 G1 Z6.577 X9.847 Y5.52887
N11820 G1 Z6.582 X9.489 Y6.12361
N11830 G1 Z6.585 X9.234 Y6.50166
N11840 G1 Z6.590 X8.816 Y7.05751
N11850 G1 Z6.595 X8.365 Y7.58736
N11860 G1 Z6.601 X7.721 Y8.24284
N11870 G1 Z6.606 X7.201 Y8.69949
N11880 G1 Z6.613 X6.458 Y9.26506
N11890 G1 Z6.617 X5.882 Y9.64140
N11900 G1 Z6.621 X5.487 Y9.87145
N11910 G1 Z6.626 X4.867 Y10.19150
N11920 G1 Z6.629 X4.454 Y10.37934
N11930 G1 Z6.635 X3.578 Y10.71212
N11940 G1 Z6.640 X2.919 Y10.91046
N11950 G1 Z6.644 X2.476 Y11.01951
N11960 G1 Z6.648 X1.790 Y11.15256
N11970 G1 Z6.652 X1.338 Y11.21560
N11980 G1 Z6.657 X0.642 Y11.27665
N11990 G1 Z6.660 X0.189 Y11.29350
N12000 G1 Z6.666 X-0.748 Y11.27027
N12010 G1 Z6.671 X-1.433 Y11.20361
N12020 G1 Z6.678 X-2.338 Y11.05008
N12030 G1 Z6.683 X-3.014 Y10.88594
N12040 G1 Z6.687 X-3.678 Y10.67979
N12050 G1 Z6.691 X-4.110 Y10.52103
N12060 G1 Z6.694 X-4.534 Y10.34528
N12070 G1 Z6.699 X-5.165 Y10.04533
N12080 G1 Z6.702 X-5.566 Y9.82937
N12090 G1 Z6.707 X-6.161 Y9.46722
N12100 G1 Z6.712 X-6.732 Y9.07008
N12110 G1 Z6.715 X-7.091 Y8.79392
N12120 G1 Z6.722 X-7.795 Y8.17569
N12130 G1 Z6.727 X-8.278 Y7.68503
N12140 G1 Z6.733 X-8.875 Y6.98751
N12150 G1 Z6.738 X-9.290 Y6.42556
N12160 G1 Z6.741 X-9.542 Y6.04560
N12170 G1 Z6.746 X-9.896 Y5.44646
N12180 G1 Z6.751 X-10.213 Y4.82631
N12190 G1 Z6.754 X-10.398 Y4.41315
N12200 G1 Z6.761 X-10.728 Y3.53693
N12210 G1 Z6.766 X-10.924 Y2.87627
N12220 G1 Z6.769 X-11.031 Y2.43232
N12230 G1 Z6.774 X-11.160 Y1.75005
N12240 G1 Z6.780 X-11.265 Y0.83484
N12250 G1 Z6.785 X-11.295 Y0.14149
N12260 G1 Z6.792 X-11.268 Y-0.78875
N12270 G1 Z6.797 X-11.199 Y-1.47741
N12280 G1 Z6.800 X-11.130 Y-1.93165
N12290 G1 Z6.803 X-11.041 Y-2.38621
N12300 G1 Z6.808 X-10.874 Y-3.05774
N12310 G1 Z6.813 X-10.666 Y-3.72160
N12320 G1 Z6.819 X-10.326 Y-4.57838
N12330 G1 Z6.824 X-10.026 Y-5.20412
N12340 G1 Z6.827 X-9.807 Y-5.60517
N12350 G1 Z6.832 X-9.445 Y-6.19582
N12360 G1 Z6.839 X-8.904 Y-6.95108
N12370 G1 Z6.844 X-8.461 Y-7.48474
N12380 G1 Z6.850 X-7.841 Y-8.13163
N12390 G1 Z6.854 X-7.383 Y-8.54922
N12400 G1 Z6.862 X-6.561 Y-9.19454
N12410 G1 Z6.869 X-5.684 Y-9.76187
N12420 G1 Z6.874 X-5.142 Y-10.05730
N12430 G1 Z6.878 X-4.579 Y-10.32609
N12440 G1 Z6.882 X-4.002 Y-10.56288
N12450 G1 Z6.887 X-3.417 Y-10.76532
N12460 G1 Z6.894 X-2.404 Y-11.03600
N12470 G1 Z6.898 X-1.796 Y-11.15143
N12480 G1 Z6.903 X-1.183 Y-11.23286
N12490 G1 Z6.910 X-0.127 Y-11.29311
N12500 G1 Z6.915 X0.483 Y-11.28498
N12510 G1 Z6.919 X1.100 Y-11.24042 F600.000
N12520 G1 Z6.926 X2.139 Y-11.09010
N12530 G1 Z6.931 X2.743 Y-10.95653
N12540 G1 Z6.935 X3.338 Y-10.78997
N12550 G1 Z6.942 X4.320 Y-10.43429
N12560 G1 Z6.950 X5.261 Y-9.99326
N12570 G1 Z6.957 X6.157 Y-9.46722
N12580 G1 Z6.964 X7.006 Y-8.85855
N12590 G1 Z6.969 X7.480 Y-8.46198
N12600 G1 Z6.973 X7.932 Y-8.03942
N12610 G1 Z6.980 X8.640 Y-7.27174
N12620 G1 Z6.988 X9.272 Y-6.44671
N12630 G1 Z6.995 X9.828 Y-5.56303
N12640 G1 Z7.000 X10.149 Y-4.94963
N12650 G1 Z7.007 X10.813 Y-4.17764 F600.000
N12660 G1 Z7.014 X11.154 Y-3.15625
N12670 G1 Z7.018 X11.310 Y-2.54084
N12680 G1 Z7.023 X11.432 Y-1.91744
N12690 G1 Z7.030 X11.560 Y-0.84804
N12700 G1 Z7.035 X11.590 Y-0.21180
N12710 G1 Z7.041 X11.570 Y0.70836
N12720 G1 Z7.046 X11.504 Y1.42270
N12730 G1 Z7.049 X11.437 Y1.88661
N12740 G1 Z7.054 X11.304 Y2.56520
N12750 G1 Z7.061 X11.049 Y3.50455
N12760 G1 Z7.065 X10.821 Y4.15712
N12770 G1 Z7.069 X10.635 Y4.61258
N12780 G1 Z7.072 X10.439 Y5.04066
N12790 G1 Z7.077 X10.109 Y5.67381
N12800 G1 Z7.082 X9.751 Y6.26860
N12810 G1 Z7.088 X9.198 Y7.05513
N12820 G1 Z7.093 X8.744 Y7.61047
N12830 G1 Z7.096 X8.429 Y7.95838
N12840 G1 Z7.101 X7.939 Y8.44696
N12850 G1 Z7.108 X7.203 Y9.08331
N12860 G1 Z7.113 X6.633 Y9.50723
N12870 G1 Z7.116 X6.243 Y9.76814
N12880 G1 Z7.121 X5.644 Y10.12513
N12890 G1 Z7.124 X5.213 Y10.35441
N12900 G1 Z7.129 X4.581 Y10.64937
N12910 G1 Z7.132 X4.129 Y10.83365
N12920 G1 Z7.137 X3.470 Y11.06161
N12930 G1 Z7.143 X2.541 Y11.31115
N12940 G1 Z7.148 X1.862 Y11.44273
N12950 G1 Z7.155 X0.895 Y11.55808
N12960 G1 Z7.160 X0.204 Y11.59165
N12970 G1 Z7.163 X-0.284 Y11.59092
N12980 G1 Z7.168 X-0.999 Y11.55024
N12990 G1 Z7.171 X-1.462 Y11.50192
N13000 G1 Z7.178 X-2.424 Y11.33747
N13010 G1 Z7.183 X-3.096 Y11.17305
N13020 G1 Z7.186 X-3.548 Y11.03816
N13030 G1 Z7.189 X-3.994 Y10.88426
N13040 G1 Z7.194 X-4.659 Y10.61760
N13050 G1 Z7.197 X-5.084 Y10.42050
N13060 G1 Z7.202 X-5.718 Y10.08684
N13070 G1 Z7.205 X-6.121 Y9.84774
N13080 G1 Z7.210 X-6.716 Y9.45189
N13090 G1 Z7.215 X-7.270 Y9.03268
N13100 G1 Z7.222 X-7.994 Y8.39822
N13110 G1 Z7.226 X-8.480 Y7.90680
N13120 G1 Z7.233 X-9.115 Y7.16534
N13130 G1 Z7.236 X-9.396 Y6.79403
N13140 G1 Z7.241 X-9.798 Y6.20036
N13150 G1 Z7.244 X-10.040 Y5.79927
N13160 G1 Z7.249 X-10.378 Y5.17041
N13170 G1 Z7.254 X-10.677 Y4.52155
N13180 G1 Z7.257 X-10.851 Y4.08646
N13190 G1 Z7.262 X-11.077 Y3.42644
N13200 G1 Z7.266 X-11.211 Y2.95772
N13210 G1 Z7.270 X-11.369 Y2.27869
N13220 G1 Z7.274 X-11.455 Y1.79796
N13230 G1 Z7.278 X-11.542 Y1.10593
N13240 G1 Z7.282 X-11.578 Y0.62200
N13250 G1 Z7.288 X-11.590 Y-0.33835
N13260 G1 Z7.292 X-11.567 Y-0.80306
N13270 G1 Z7.296 X-11.498 Y-1.49165
N13280 G1 Z7.303 X-11.333 Y-2.45100
N13290 G1 Z7.308 X-11.166 Y-3.12257
N13300 G1 Z7.314 X-10.869 Y-4.03710
N13310 G1 Z7.319 X-10.599 Y-4.70143
N13320 G1 Z7.323 X-10.400 Y-5.12535
N13330 G1 Z7.327 X-10.076 Y-5.73693
N13340 G1 Z7.334 X-9.559 Y-6.56128
N13350 G1 Z7.339 X-9.151 Y-7.12085
N13360 G1 Z7.345 X-8.529 Y-7.85440
N13370 G1 Z7.350 X-8.050 Y-8.34454
N13380 G1 Z7.357 X-7.245 Y-9.05176
N13390 G1 Z7.365 X-6.379 Y-9.68101
N13400 G1 Z7.369 X-5.839 Y-10.01660
N13410 G1 Z7.373 X-5.282 Y-10.32120
N13420 G1 Z7.381 X-4.302 Y-10.76681
N13430 G1 Z7.385 X-3.706 Y-10.98640
N13440 G1 Z7.390 X-3.098 Y-11.17299
N13450 G1 Z7.397 X-2.054 Y-11.41025
N13460 G1 Z7.404 X-0.991 Y-11.55150
N13470 G1 Z7.409 X-0.357 Y-11.58810
N13480 G1 Z7.416 X0.708 Y-11.57287
N13490 G1 Z7.420 X1.342 Y-11.51559 F600.000
N13500 G1 Z7.428 X2.399 Y-11.34184
N13510 G1 Z7.435 X3.437 Y-11.07209
N13520 G1 Z7.439 X4.038 Y-10.86769
N13530 G1 Z7.444 X4.627 Y-10.62928
N13540 G1 Z7.451 X5.588 Y-10.15653
N13550 G1 Z7.458 X6.498 Y-9.59943
N13560 G1 Z7.466 X7.357 Y-8.95868
N13570 G1 Z7.470 X7.837 Y-8.54228
N13580 G1 Z7.475 X8.292 Y-8.10087
N13590 G1 Z7.482 X9.008 Y-7.29648
N13600 G1 Z7.486 X9.394 Y-6.79107
N13610 G1 Z7.491 X9.755 Y-6.26202
N13620 G1 Z7.495 X10.086 Y-5.71498
N13630 G1 Z7.500 X10.419 Y-5.07745
N13640 G1 Z7.507 X11.119 Y-4.28768 F600.000
N13650 G1 Z7.514 X11.465 Y-3.24950
N13660 G1 Z7.518 X11.627 Y-2.61171
N13670 G1 Z7.526 X11.818 Y-1.53453
N13680 G1 Z7.530 X11.885 Y-0.87792
N13690 G1 Z7.535 X11.915 Y-0.21729
N13700 G1 Z7.538 X11.914 Y0.24146
N13710 G1 Z7.542 X11.879 Y0.94063
N13720 G1 Z7.546 X11.827 Y1.46027
N13730 G1 Z7.549 X11.758 Y1.93928
N13740 G1 Z7.554 X11.625 Y2.62004
N13750 G1 Z7.561 X11.358 Y3.60568
N13760 G1 Z7.564 X11.205 Y4.05828
N13770 G1 Z7.569 X10.933 Y4.74185
N13780 G1 Z7.573 X10.637 Y5.37280
N13790 G1 Z7.577 X10.393 Y5.83026
N13800 G1 Z7.581 X10.033 Y6.43038
N13810 G1 Z7.588 X9.456 Y7.25399
N13820 G1 Z7.593 X8.989 Y7.82473
N13830 G1 Z7.596 X8.666 Y8.18157
N13840 G1 Z7.601 X8.144 Y8.70131
N13850 G1 Z7.604 X7.785 Y9.02314
N13860 G1 Z7.609 X7.213 Y9.48788
N13870 G1 Z7.613 X6.823 Y9.77174
N13880 G1 Z7.617 X6.242 Y10.15150
N13890 G1 Z7.624 X5.352 Y10.64914
N13900 G1 Z7.627 X4.920 Y10.85574
N13910 G1 Z7.632 X4.240 Y11.13848
N13920 G1 Z7.635 X3.786 Y11.30134
N13930 G1 Z7.640 X3.121 Y11.50209
N13940 G1 Z7.647 X2.126 Y11.72773
N13950 G1 Z7.650 X1.653 Y11.80334
N13960 G1 Z7.655 X0.924 Y11.88290
N13970 G1 Z7.660 X0.227 Y11.91686
N13980 G1 Z7.666 X-0.779 Y11.89349
N13990 G1 Z7.671 X-1.470 Y11.82725
N14000 G1 Z7.678 X-2.476 Y11.65989
N14010 G1 Z7.681 X-2.942 Y11.55049
N14020 G1 Z7.686 X-3.648 Y11.34705
N14030 G1 Z7.690 X-4.305 Y11.11401
N14040 G1 Z7.697 X-5.227 Y10.71263
N14050 G1 Z7.702 X-5.879 Y10.36937
N14060 G1 Z7.705 X-6.293 Y10.12320
N14070 G1 Z7.710 X-6.906 Y9.71594
N14080 G1 Z7.713 X-7.293 Y9.42778
N14090 G1 Z7.718 X-7.862 Y8.95952
N14100 G1 Z7.722 X-8.218 Y8.63437
N14110 G1 Z7.726 X-8.706 Y8.14013
N14120 G1 Z7.733 X-9.371 Y7.36677
N14130 G1 Z7.736 X-9.659 Y6.98437
N14140 G1 Z7.741 X-10.071 Y6.37692
N14150 G1 Z7.746 X-10.444 Y5.74446
N14160 G1 Z7.749 X-10.668 Y5.31731
N14170 G1 Z7.754 X-10.962 Y4.68247
N14180 G1 Z7.761 X-11.318 Y3.74108
N14190 G1 Z7.766 X-11.527 Y3.03582
N14200 G1 Z7.769 X-11.640 Y2.56666
N14210 G1 Z7.774 X-11.776 Y1.84800
N14220 G1 Z7.780 X-11.888 Y0.87487
N14230 G1 Z7.785 X-11.918 Y0.18063
N14240 G1 Z7.788 X-11.915 Y-0.34226
N14250 G1 Z7.792 X-11.891 Y-0.82628
N14260 G1 Z7.796 X-11.823 Y-1.51703
N14270 G1 Z7.803 X-11.650 Y-2.52050
N14280 G1 Z7.808 X-11.484 Y-3.19322
N14290 G1 Z7.814 X-11.174 Y-4.15084
N14300 G1 Z7.819 X-10.899 Y-4.82718
N14310 G1 Z7.826 X-10.465 Y-5.70703
N14320 G1 Z7.831 X-10.095 Y-6.33736
N14330 G1 Z7.837 X-9.547 Y-7.13742
N14340 G1 Z7.842 X-9.088 Y-7.71316
N14350 G1 Z7.845 X-8.769 Y-8.07402
N14360 G1 Z7.850 X-8.270 Y-8.58305
N14370 G1 Z7.857 X-7.447 Y-9.30701
N14380 G1 Z7.865 X-6.562 Y-9.95083
N14390 G1 Z7.869 X-6.003 Y-10.29706
N14400 G1 Z7.876 X-5.033 Y-10.80490
N14410 G1 Z7.881 X-4.427 Y-11.06627
N14420 G1 Z7.888 X-3.393 Y-11.42611
N14430 G1 Z7.893 X-2.755 Y-11.59646
N14440 G1 Z7.897 X-2.111 Y-11.73067
N14450 G1 Z7.901 X-1.458 Y-11.82906
N14460 G1 Z7.909 X-0.367 Y-11.91390
N14470 G1 Z7.916 X0.728 Y-11.89680
N14480 G1 Z7.923 X1.817 Y-11.77971 F600.000
N14490 G1 Z7.928 X2.469 Y-11.66027
N14500 G1 Z7.935 X3.528 Y-11.38410
N14510 G1 Z7.939 X4.151 Y-11.17231
N14520 G1 Z7.944 X4.762 Y-10.92553
N14530 G1 Z7.948 X5.330 Y-10.65960
N14540 G1 Z7.951 X5.744 Y-10.44241
N14550 G1 Z7.958 X6.679 Y-9.87039
N14560 G1 Z7.963 X7.215 Y-9.48575
N14570 G1 Z7.967 X7.728 Y-9.07298
N14580 G1 Z7.971 X8.195 Y-8.65304
N14590 G1 Z7.977 X8.828 Y-8.00660
N14600 G1 Z7.982 X9.258 Y-7.50499
N14610 G1 Z7.986 X9.658 Y-6.98220
N14620 G1 Z7.991 X10.028 Y-6.43841
N14630 G1 Z7.995 X10.368 Y-5.87562
N14640 G1 Z8.000 X10.713 Y-5.21778
N14650 G1 Z8.007 X11.448 Y-4.41483 F600.000
N14660 G1 Z8.014 X11.805 Y-3.34593
N14670 G1 Z8.018 X11.971 Y-2.68951
N14680 G1 Z8.026 X12.168 Y-1.57961
N14690 G1 Z8.030 X12.236 Y-0.90336
N14700 G1 Z8.035 X12.268 Y-0.22410
N14710 G1 Z8.038 X12.267 Y0.24821
N14720 G1 Z8.043 X12.228 Y1.00649
N14730 G1 Z8.049 X12.106 Y1.99759
N14740 G1 Z8.054 X11.971 Y2.68917
N14750 G1 Z8.060 X11.695 Y3.71037
N14760 G1 Z8.065 X11.463 Y4.37691
N14770 G1 Z8.069 X11.259 Y4.87686
N14780 G1 Z8.075 X10.819 Y5.78788
N14790 G1 Z8.080 X10.444 Y6.44074
N14800 G1 Z8.086 X9.886 Y7.26782
N14810 G1 Z8.091 X9.420 Y7.86291
N14820 G1 Z8.096 X8.950 Y8.39369
N14830 G1 Z8.103 X8.204 Y9.12402
N14840 G1 Z8.108 X7.625 Y9.61428
N14850 G1 Z8.111 X7.230 Y9.91413
N14860 G1 Z8.116 X6.606 Y10.34122
N14870 G1 Z8.120 X5.997 Y10.70500
N14880 G1 Z8.127 X5.065 Y11.17636
N14890 G1 Z8.132 X4.414 Y11.44993
N14900 G1 Z8.139 X3.413 Y11.78713
N14910 G1 Z8.143 X2.729 Y11.96367
N14920 G1 Z8.147 X2.197 Y12.07385
N14930 G1 Z8.151 X1.494 Y12.17978
N14940 G1 Z8.155 X0.953 Y12.23493
N14950 G1 Z8.160 X0.196 Y12.27014
N14960 G1 Z8.163 X-0.297 Y12.26879
N14970 G1 Z8.170 X-1.307 Y12.20188
N14980 G1 Z8.174 X-2.007 Y12.10647
N14990 G1 Z8.181 X-3.029 Y11.89280
N15000 G1 Z8.186 X-3.756 Y11.68389
N15010 G1 Z8.190 X-4.424 Y11.44667
N15020 G1 Z8.197 X-5.381 Y11.02900
N15030 G1 Z8.202 X-6.053 Y10.67626
N15040 G1 Z8.205 X-6.479 Y10.42211
N15050 G1 Z8.210 X-7.111 Y10.00237
N15060 G1 Z8.213 X-7.509 Y9.70722
N15070 G1 Z8.218 X-8.095 Y9.22447
N15080 G1 Z8.222 X-8.461 Y8.88935
N15090 G1 Z8.226 X-8.958 Y8.38793
N15100 G1 Z8.233 X-9.647 Y7.58612
N15110 G1 Z8.238 X-10.067 Y7.01966
N15120 G1 Z8.244 X-10.627 Y6.13800
N15130 G1 Z8.249 X-10.985 Y5.47208
N15140 G1 Z8.254 X-11.283 Y4.82886
N15150 G1 Z8.257 X-11.486 Y4.32404
N15160 G1 Z8.262 X-11.716 Y3.65297
N15170 G1 Z8.265 X-11.866 Y3.13388
N15180 G1 Z8.272 X-12.091 Y2.09919
N15190 G1 Z8.277 X-12.193 Y1.40078
N15200 G1 Z8.283 X-12.266 Y0.40489
N15210 G1 Z8.288 X-12.268 Y-0.35414
N15220 G1 Z8.292 X-12.243 Y-0.85099
N15230 G1 Z8.296 X-12.167 Y-1.60525
N15240 G1 Z8.300 X-12.093 Y-2.09513
N15250 G1 Z8.304 X-11.951 Y-2.78771
N15260 G1 Z8.311 X-11.668 Y-3.80590
N15270 G1 Z8.316 X-11.430 Y-4.46944
N15280 G1 Z8.319 X-11.222 Y-4.96840
N15290 G1 Z8.326 X-10.773 Y-5.87861
N15300 G1 Z8.329 X-10.528 Y-6.30626
N15310 G1 Z8.334 X-10.119 Y-6.94552
N15320 G1 Z8.337 X-9.830 Y-7.34837
N15330 G1 Z8.342 X-9.357 Y-7.94163
N15340 G1 Z8.345 X-9.028 Y-8.31350
N15350 G1 Z8.350 X-8.515 Y-8.83700
N15360 G1 Z8.357 X-7.669 Y-9.58106
N15370 G1 Z8.362 X-7.129 Y-9.98966
N15380 G1 Z8.369 X-6.182 Y-10.60178
N15390 G1 Z8.373 X-5.586 Y-10.92750
N15400 G1 Z8.381 X-4.558 Y-11.39478
N15410 G1 Z8.388 X-3.492 Y-11.76406
N15420 G1 Z8.392 X-2.837 Y-11.93963
N15430 G1 Z8.397 X-2.173 Y-12.07724
N15440 G1 Z8.401 X-1.543 Y-12.17404
N15450 G1 Z8.404 X-1.056 Y-12.22638
N15460 G1 Z8.409 X-0.378 Y-12.26511
N15470 G1 Z8.416 X0.750 Y-12.24830
N15480 G1 Z8.423 X1.871 Y-12.12847 F600.000
N15490 G1 Z8.428 X2.542 Y-12.00541
N15500 G1 Z8.435 X3.633 Y-11.72151
N15510 G1 Z8.439 X4.274 Y-11.50209
N15520 G1 Z8.447 X5.311 Y-11.06219
N15530 G1 Z8.451 X5.916 Y-10.75097
N15540 G1 Z8.458 X6.877 Y-10.16209
N15550 G1 Z8.463 X7.429 Y-9.76680
N15560 G1 Z8.467 X7.958 Y-9.33956
N15570 G1 Z8.475 X8.781 Y-8.57066
N15580 G1 Z8.479 X9.241 Y-8.07226
N15590 G1 Z8.486 X9.943 Y-7.19039
N15600 G1 Z8.491 X10.325 Y-6.62910
N15610 G1 Z8.495 X10.675 Y-6.04868
N15620 G1 Z8.500 X11.032 Y-5.36766
N15630 G1 Z8.502 X11.534 Y-5.19871 F600.000
N15640 G1 Z8.507 X11.805 Y-4.55195
N15650 G1 Z8.510 X11.963 Y-4.11930
N15660 G1 Z8.514 X12.172 Y-3.45054
N15670 G1 Z8.518 X12.344 Y-2.77260
N15680 G1 Z8.523 X12.479 Y-2.08483
N15690 G1 Z8.526 X12.546 Y-1.62819
N15700 G1 Z8.530 X12.617 Y-0.93142
N15710 G1 Z8.535 X12.650 Y-0.23164
N15720 G1 Z8.538 X12.649 Y0.25899
N15730 G1 Z8.541 X12.628 Y0.77315
N15740 G1 Z8.546 X12.556 Y1.54986
N15750 G1 Z8.551 X12.437 Y2.31957
N15760 G1 Z8.557 X12.208 Y3.32287
N15770 G1 Z8.562 X11.996 Y4.02005
N15780 G1 Z8.569 X11.605 Y5.03865
N15790 G1 Z8.572 X11.393 Y5.50136
N15800 G1 Z8.577 X11.032 Y6.19426
N15810 G1 Z8.580 X10.772 Y6.63623
N15820 G1 Z8.585 X10.372 Y7.24542
N15830 G1 Z8.591 X9.709 Y8.11202
N15840 G1 Z8.595 X9.376 Y8.49573
N15850 G1 Z8.599 X8.835 Y9.05646
N15860 G1 Z8.604 X8.296 Y9.55285
N15870 G1 Z8.608 X7.866 Y9.91016
N15880 G1 Z8.612 X7.278 Y10.34970
N15890 G1 Z8.616 X6.816 Y10.66079
N15900 G1 Z8.622 X5.912 Y11.18620
N15910 G1 Z8.626 X5.458 Y11.41595
N15920 G1 Z8.630 X4.745 Y11.72965
N15930 G1 Z8.635 X4.014 Y11.99936
N15940 G1 Z8.642 X3.025 Y12.28663
N15950 G1 Z8.647 X2.261 Y12.44954
N15960 G1 Z8.650 X1.755 Y12.53149
N15970 G1 Z8.655 X0.978 Y12.61539
N15980 G1 Z8.658 X0.467 Y12.64534
N15990 G1 Z8.663 X-0.309 Y12.64985
N16000 G1 Z8.670 X-1.348 Y12.58193
N16010 G1 Z8.674 X-2.070 Y12.48313
N16020 G1 Z8.678 X-2.620 Y12.37941
N16030 G1 Z8.683 X-3.379 Y12.19427
N16040 G1 Z8.686 X-3.870 Y12.04724
N16050 G1 Z8.690 X-4.562 Y11.80283
N16060 G1 Z8.694 X-5.077 Y11.59092
N16070 G1 Z8.700 X-6.017 Y11.13233
N16080 G1 Z8.704 X-6.460 Y10.88108
N16090 G1 Z8.709 X-7.120 Y10.46198
N16100 G1 Z8.712 X-7.537 Y10.16593
N16110 G1 Z8.717 X-8.150 Y9.68083
N16120 G1 Z8.720 X-8.535 Y9.34278
N16130 G1 Z8.725 X-9.096 Y8.79868
N16140 G1 Z8.728 X-9.445 Y8.42266
N16150 G1 Z8.733 X-9.913 Y7.86484
N16160 G1 Z8.740 X-10.554 Y6.98144
N16170 G1 Z8.743 X-10.826 Y6.55215
N16180 G1 Z8.748 X-11.210 Y5.87105
N16190 G1 Z8.751 X-11.439 Y5.41200
N16200 G1 Z8.756 X-11.750 Y4.69871
N16210 G1 Z8.761 X-12.017 Y3.96641
N16220 G1 Z8.767 X-12.300 Y2.97769
N16230 G1 Z8.772 X-12.460 Y2.21258
N16240 G1 Z8.775 X-12.539 Y1.70654
N16250 G1 Z8.780 X-12.620 Y0.93027
N16260 G1 Z8.785 X-12.653 Y0.19966
N16270 G1 Z8.792 X-12.624 Y-0.87622
N16280 G1 Z8.796 X-12.546 Y-1.65413
N16290 G1 Z8.800 X-12.469 Y-2.16110
N16300 G1 Z8.804 X-12.323 Y-2.87529
N16310 G1 Z8.811 X-12.030 Y-3.92688
N16320 G1 Z8.814 X-11.863 Y-4.40659
N16330 G1 Z8.819 X-11.568 Y-5.13050
N16340 G1 Z8.822 X-11.351 Y-5.59447
N16350 G1 Z8.827 X-11.010 Y-6.23865
N16360 G1 Z8.834 X-10.432 Y-7.16325
N16370 G1 Z8.837 X-10.136 Y-7.57796
N16380 G1 Z8.842 X-9.648 Y-8.18886
N16390 G1 Z8.845 X-9.309 Y-8.57283
N16400 G1 Z8.850 X-8.780 Y-9.11392
N16410 G1 Z8.853 X-8.443 Y-9.42623
N16420 G1 Z8.857 X-7.908 Y-9.87949
N16430 G1 Z8.861 X-7.383 Y-10.27774
N16440 G1 Z8.865 X-6.968 Y-10.56310
N16450 G1 Z8.869 X-6.371 Y-10.93347
N16460 G1 Z8.872 X-5.969 Y-11.15883
N16470 G1 Z8.876 X-5.341 Y-11.47106
N16480 G1 Z8.881 X-4.700 Y-11.74912
N16490 G1 Z8.885 X-4.044 Y-11.99021
N16500 G1 Z8.889 X-3.414 Y-12.18446
N16510 G1 Z8.892 X-2.927 Y-12.31082
N16520 G1 Z8.897 X-2.241 Y-12.45303
N16530 G1 Z8.901 X-1.590 Y-12.55329
N16540 G1 Z8.904 X-1.089 Y-12.60664
N16550 G1 Z8.909 X-0.389 Y-12.64786
N16560 G1 Z8.916 X0.773 Y-12.62951
N16570 G1 Z8.920 X1.470 Y-12.56764 F600.000
N16580 G1 Z8.925 X2.164 Y-12.46788
N16590 G1 Z8.928 X2.617 Y-12.37923
N16600 G1 Z8.932 X3.299 Y-12.21549
N16610 G1 Z8.936 X3.968 Y-12.01455
N16620 G1 Z8.941 X4.588 Y-11.79181
N16630 G1 Z8.944 X5.053 Y-11.60019
N16640 G1 Z8.948 X5.652 Y-11.32057
N16650 G1 Z8.951 X6.098 Y-11.08693
N16660 G1 Z8.955 X6.702 Y-10.73115
N16670 G1 Z8.960 X7.252 Y-10.36840
N16680 G1 Z8.963 X7.659 Y-10.07176
N16690 G1 Z8.967 X8.206 Y-9.63013
N16700 G1 Z8.970 X8.551 Y-9.32549
N16710 G1 Z8.975 X9.057 Y-8.83590
N16720 G1 Z8.977 X9.372 Y-8.49925
N16730 G1 Z8.982 X9.829 Y-7.96749
N16740 G1 Z8.986 X10.253 Y-7.41255
N16750 G1 Z8.991 X10.647 Y-6.83563
N16760 G1 Z8.995 X10.988 Y-6.27188
N16770 G1 Z9.000 X11.373 Y-5.53237
N16780 G1 Z9.007 X12.190 Y-4.70362 F600.000
N16790 G1 Z9.011 X12.431 Y-4.02329
N16800 G1 Z9.016 X12.634 Y-3.32813
N16810 G1 Z9.018 X12.747 Y-2.86555
N16820 G1 Z9.023 X12.887 Y-2.15257
N16830 G1 Z9.026 X12.957 Y-1.68299
N16840 G1 Z9.030 X13.030 Y-0.96183
N16850 G1 Z9.035 X13.063 Y-0.23865
N16860 G1 Z9.041 X13.041 Y0.79847
N16870 G1 Z9.046 X12.967 Y1.59995
N16880 G1 Z9.051 X12.844 Y2.39444
N16890 G1 Z9.054 X12.737 Y2.91038
N16900 G1 Z9.060 X12.453 Y3.95221
N16910 G1 Z9.064 X12.284 Y4.45015
N16920 G1 Z9.069 X11.986 Y5.20083
N16930 G1 Z9.072 X11.766 Y5.68197
N16940 G1 Z9.077 X11.394 Y6.39447
N16950 G1 Z9.081 X10.988 Y7.06871
N16960 G1 Z9.088 X10.367 Y7.95259
N16970 G1 Z9.093 X9.856 Y8.57728
N16980 G1 Z9.096 X9.501 Y8.96942
N16990 G1 Z9.101 X8.945 Y9.52346
N17000 G1 Z9.108 X8.119 Y10.23716
N17010 G1 Z9.113 X7.476 Y10.71543
N17020 G1 Z9.119 X6.580 Y11.28808
N17030 G1 Z9.124 X5.873 Y11.67258
N17040 G1 Z9.129 X5.160 Y12.00482
N17050 G1 Z9.132 X4.656 Y12.20801
N17060 G1 Z9.139 X3.635 Y12.55063
N17070 G1 Z9.143 X2.859 Y12.75092
N17080 G1 Z9.147 X2.340 Y12.85506
N17090 G1 Z9.151 X1.560 Y12.97350
N17100 G1 Z9.155 X1.015 Y13.02789
N17110 G1 Z9.160 X0.209 Y13.06556
N17120 G1 Z9.163 X-0.317 Y13.06350
N17130 G1 Z9.169 X-1.394 Y12.99233
N17140 G1 Z9.173 X-1.916 Y12.92627
N17150 G1 Z9.178 X-2.711 Y12.78396
N17160 G1 Z9.181 X-3.226 Y12.66309
N17170 G1 Z9.186 X-4.001 Y12.43978
N17180 G1 Z9.189 X-4.502 Y12.26791
N17190 G1 Z9.194 X-5.248 Y11.96741
N17200 G1 Z9.199 X-5.959 Y11.63065
N17210 G1 Z9.205 X-6.899 Y11.09854
N17220 G1 Z9.210 X-7.552 Y10.66459
N17230 G1 Z9.217 X-8.417 Y9.99629
N17240 G1 Z9.221 X-9.001 Y9.47432
N17250 G1 Z9.225 X-9.387 Y9.09151
N17260 G1 Z9.231 X-10.106 Y8.28532
N17270 G1 Z9.235 X-10.431 Y7.87226
N17280 G1 Z9.239 X-10.896 Y7.21575
N17290 G1 Z9.244 X-11.319 Y6.53124
N17300 G1 Z9.248 X-11.574 Y6.06837
N17310 G1 Z9.252 X-11.927 Y5.34106
N17320 G1 Z9.259 X-12.321 Y4.35471
N17330 G1 Z9.264 X-12.567 Y3.58539
N17340 G1 Z9.267 X-12.702 Y3.07453
N17350 G1 Z9.272 X-12.867 Y2.28420
N17360 G1 Z9.275 X-12.949 Y1.76135
N17370 G1 Z9.280 X-13.033 Y0.96184
N17380 G1 Z9.285 X-13.067 Y0.17509
N17390 G1 Z9.288 X-13.063 Y-0.36928
N17400 G1 Z9.295 X-12.988 Y-1.44609
N17410 G1 Z9.298 X-12.919 Y-1.96703
N17420 G1 Z9.303 X-12.773 Y-2.76172
N17430 G1 Z9.306 X-12.651 Y-3.27685
N17440 G1 Z9.311 X-12.425 Y-4.04834
N17450 G1 Z9.316 X-12.153 Y-4.80583
N17460 G1 Z9.319 X-11.950 Y-5.29077
N17470 G1 Z9.326 X-11.473 Y-6.25640
N17480 G1 Z9.331 X-11.068 Y-6.94868
N17490 G1 Z9.334 X-10.778 Y-7.39083
N17500 G1 Z9.339 X-10.301 Y-8.04151
N17510 G1 Z9.345 X-9.613 Y-8.85218
N17520 G1 Z9.350 X-9.067 Y-9.41099
N17530 G1 Z9.353 X-8.719 Y-9.73437
N17540 G1 Z9.357 X-8.166 Y-10.20221
N17550 G1 Z9.362 X-7.589 Y-10.63806
N17560 G1 Z9.365 X-7.196 Y-10.90848
N17570 G1 Z9.369 X-6.581 Y-11.28933
N17580 G1 Z9.373 X-5.960 Y-11.62905
N17590 G1 Z9.376 X-5.518 Y-11.84560
N17600 G1 Z9.381 X-4.853 Y-12.13342
N17610 G1 Z9.385 X-4.176 Y-12.38209
N17620 G1 Z9.389 X-3.499 Y-12.59081
N17630 G1 Z9.392 X-3.023 Y-12.71336
N17640 G1 Z9.397 X-2.312 Y-12.86136
N17650 G1 Z9.400 X-1.842 Y-12.93779
N17660 G1 Z9.404 X-1.123 Y-13.01963
N17670 G1 Z9.409 X-0.402 Y-13.06130
N17680 G1 Z9.413 X0.290 Y-13.06391
N17690 G1 Z9.416 X0.798 Y-13.04259
N17700 G1 Z9.420 X1.518 Y-12.97840 F600.000
N17710 G1 Z9.425 X2.219 Y-12.87712
N17720 G1 Z9.428 X2.705 Y-12.78385
N17730 G1 Z9.431 X3.171 Y-12.67643
N17740 G1 Z9.435 X3.868 Y-12.48127
N17750 G1 Z9.439 X4.551 Y-12.24894
N17760 G1 Z9.444 X5.223 Y-11.97778
N17770 G1 Z9.447 X5.655 Y-11.77920
N17780 G1 Z9.451 X6.299 Y-11.44704
N17790 G1 Z9.455 X6.921 Y-11.08270
N17800 G1 Z9.460 X7.522 Y-10.68336
N17810 G1 Z9.464 X8.103 Y-10.25021
N17820 G1 Z9.470 X8.831 Y-9.63039
N17830 G1 Z9.474 X9.351 Y-9.12523
N17840 G1 Z9.479 X9.840 Y-8.59590
N17850 G1 Z9.483 X10.301 Y-8.03774
N17860 G1 Z9.486 X10.587 Y-7.65716
N17870 G1 Z9.491 X10.995 Y-7.05800
N17880 G1 Z9.495 X11.368 Y-6.44067
N17890 G1 Z9.500 X11.749 Y-5.71149
N17900 G1 Z9.507 X12.605 Y-4.86304 F600.000
N17910 G1 Z9.511 X12.855 Y-4.16044
N17920 G1 Z9.515 X13.065 Y-3.44483
N17930 G1 Z9.520 X13.234 Y-2.72005
N17940 G1 Z9.526 X13.399 Y-1.73989
N17950 G1 Z9.530 X13.474 Y-0.99446
N17960 G1 Z9.535 X13.509 Y-0.24601
N17970 G1 Z9.538 X13.508 Y0.27670
N17980 G1 Z9.541 X13.486 Y0.82633
N17990 G1 Z9.546 X13.409 Y1.65154
N18000 G1 Z9.552 X13.228 Y2.75074
N18010 G1 Z9.555 X13.107 Y3.28195
N18020 G1 Z9.560 X12.880 Y4.08136
N18030 G1 Z9.565 X12.606 Y4.86139
N18040 G1 Z9.572 X12.167 Y5.87598
N18050 G1 Z9.577 X11.781 Y6.61559
N18060 G1 Z9.580 X11.504 Y7.08600
N18070 G1 Z9.585 X11.046 Y7.78141
N18080 G1 Z9.590 X10.550 Y8.44144
N18090 G1 Z9.593 X10.194 Y8.86843
N18100 G1 Z9.596 X9.825 Y9.27504
N18110 G1 Z9.601 X9.241 Y9.85687
N18120 G1 Z9.608 X8.394 Y10.58845
N18130 G1 Z9.611 X7.961 Y10.91767
N18140 G1 Z9.616 X7.272 Y11.38827
N18150 G1 Z9.619 X6.805 Y11.67369
N18160 G1 Z9.624 X6.071 Y12.07129
N18170 G1 Z9.627 X5.578 Y12.30771
N18180 G1 Z9.632 X4.807 Y12.62831
N18190 G1 Z9.635 X4.292 Y12.81273
N18200 G1 Z9.640 X3.493 Y13.05333
N18210 G1 Z9.643 X2.962 Y13.18475
N18220 G1 Z9.648 X2.153 Y13.33958
N18230 G1 Z9.655 X1.045 Y13.47296
N18240 G1 Z9.660 X0.217 Y13.51117
N18250 G1 Z9.666 X-0.883 Y13.48438
N18260 G1 Z9.671 X-1.702 Y13.40521
N18270 G1 Z9.678 X-2.803 Y13.21959
N18280 G1 Z9.682 X-3.603 Y13.02442
N18290 G1 Z9.686 X-4.132 Y12.86622
N18300 G1 Z9.691 X-4.919 Y12.58682
N18310 G1 Z9.694 X-5.424 Y12.37723
N18320 G1 Z9.699 X-6.173 Y12.02146
N18330 G1 Z9.705 X-7.135 Y11.47605
N18340 G1 Z9.710 X-7.820 Y11.02088
N18350 G1 Z9.717 X-8.706 Y10.33646
N18360 G1 Z9.720 X-9.115 Y9.97767
N18370 G1 Z9.725 X-9.713 Y9.39528
N18380 G1 Z9.728 X-10.086 Y8.99469
N18390 G1 Z9.733 X-10.622 Y8.35530
N18400 G1 Z9.736 X-10.951 Y7.91871
N18410 G1 Z9.741 X-11.418 Y7.22912
N18420 G1 Z9.746 X-11.841 Y6.51353
N18430 G1 Z9.749 X-12.095 Y6.02895
N18440 G1 Z9.754 X-12.442 Y5.27517
N18450 G1 Z9.757 X-12.647 Y4.76297
N18460 G1 Z9.762 X-12.915 Y3.97819
N18470 G1 Z9.769 X-13.197 Y2.90978
N18480 G1 Z9.774 X-13.351 Y2.09599
N18490 G1 Z9.780 X-13.477 Y0.99199
N18500 G1 Z9.785 X-13.513 Y0.16882
N18510 G1 Z9.788 X-13.509 Y-0.38462
N18520 G1 Z9.793 X-13.460 Y-1.21284
N18530 G1 Z9.800 X-13.316 Y-2.30743
N18540 G1 Z9.804 X-13.150 Y-3.11426
N18550 G1 Z9.811 X-12.847 Y-4.19184
N18560 G1 Z9.814 X-12.668 Y-4.70505
N18570 G1 Z9.819 X-12.354 Y-5.47866
N18580 G1 Z9.822 X-12.122 Y-5.97407
N18590 G1 Z9.827 X-11.735 Y-6.70190
N18600 G1 Z9.834 X-11.141 Y-7.64948
N18610 G1 Z9.837 X-10.824 Y-8.09170
N18620 G1 Z9.842 X-10.303 Y-8.74430
N18630 G1 Z9.845 X-9.941 Y-9.15474
N18640 G1 Z9.850 X-9.377 Y-9.73140
N18650 G1 Z9.853 X-9.016 Y-10.06694
N18660 G1 Z9.857 X-8.443 Y-10.55168
N18670 G1 Z9.860 X-8.053 Y-10.85226
N18680 G1 Z9.865 X-7.438 Y-11.28200
N18690 G1 Z9.867 X-7.022 Y-11.54658
N18700 G1 Z9.872 X-6.371 Y-11.91715
N18710 G1 Z9.876 X-5.704 Y-12.25054
N18720 G1 Z9.881 X-5.019 Y-12.54693
N18730 G1 Z9.885 X-4.319 Y-12.80432
N18740 G1 Z9.889 X-3.605 Y-13.02371
N18750 G1 Z9.894 X-2.883 Y-13.20294
N18760 G1 Z9.897 X-2.393 Y-13.29904
N18770 G1 Z9.900 X-1.905 Y-13.37878
N18780 G1 Z9.904 X-1.161 Y-13.46335
N18790 G1 Z9.909 X-0.416 Y-13.50675
N18800 G1 Z9.913 X0.323 Y-13.50863
N18810 G1 Z9.916 X0.825 Y-13.48790
N18820 G1 Z9.920 X1.573 Y-13.42063 F600.000
N18830 G1 Z9.923 X2.061 Y-13.35421
N18840 G1 Z9.928 X2.799 Y-13.21995
N18850 G1 Z9.930 X3.279 Y-13.10853
N18860 G1 Z9.935 X4.000 Y-12.90610
N18870 G1 Z9.939 X4.706 Y-12.66649
N18880 G1 Z9.944 X5.398 Y-12.38788
N18890 G1 Z9.948 X6.072 Y-12.07111
N18900 G1 Z9.951 X6.512 Y-11.83903
N18910 G1 Z9.955 X7.157 Y-11.46059
N18920 G1 Z9.960 X7.781 Y-11.04616
N18930 G1 Z9.963 X8.178 Y-10.75573
N18940 G1 Z9.967 X8.761 Y-10.28630
N18950 G1 Z9.972 X9.316 Y-9.78669
N18960 G1 Z9.976 X9.842 Y-9.25709
N18970 G1 Z9.980 X10.336 Y-8.70231
N18980 G1 Z9.983 X10.649 Y-8.31523
N18990 G1 Z9.988 X11.094 Y-7.71380
N19000 G1 Z9.992 X11.501 Y-7.09002
N19010 G1 Z9.995 X11.754 Y-6.66294
N19020 G1 Z10.000 X12.152 Y-5.90225
N19030 G1 Z10.004 X12.863 Y-5.51201 F600.000
N19040 G1 Z10.007 X13.055 Y-5.03983
N19050 G1 Z10.011 X13.315 Y-4.30645
N19060 G1 Z10.014 X13.463 Y-3.81827
N19070 G1 Z10.018 X13.654 Y-3.06487
N19080 G1 Z10.021 X13.759 Y-2.54976
N19090 G1 Z10.026 X13.878 Y-1.79814
N19100 G1 Z10.030 X13.956 Y-1.03041
N19110 G1 Z10.034 X13.991 Y-0.25864
N19120 G1 Z10.039 X13.982 Y0.57513
N19130 G1 Z10.046 X13.889 Y1.71014
N19140 G1 Z10.051 X13.757 Y2.56481
N19150 G1 Z10.054 X13.638 Y3.13679
N19160 G1 Z10.059 X13.424 Y3.95310
N19170 G1 Z10.064 X13.155 Y4.77160
N19180 G1 Z10.070 X12.723 Y5.82876
N19190 G1 Z10.073 X12.467 Y6.35695
N19200 G1 Z10.078 X12.060 Y7.09945
N19210 G1 Z10.081 X11.762 Y7.58226
N19220 G1 Z10.086 X11.272 Y8.29395
N19230 G1 Z10.090 X10.925 Y8.74595
N19240 G1 Z10.093 X10.560 Y9.18295
N19250 G1 Z10.098 X9.975 Y9.81544
N19260 G1 Z10.103 X9.352 Y10.41092
N19270 G1 Z10.109 X8.473 Y11.13809
N19280 G1 Z10.112 X7.999 Y11.48327
N19290 G1 Z10.117 X7.289 Y11.94678
N19300 G1 Z10.124 X6.293 Y12.50077
N19310 G1 Z10.129 X5.510 Y12.86446
N19320 G1 Z10.132 X4.984 Y13.07726
N19330 G1 Z10.137 X4.168 Y13.36094
N19340 G1 Z10.140 X3.623 Y13.51874
N19350 G1 Z10.145 X2.782 Y13.71643
N19360 G1 Z10.152 X1.641 Y13.89858
N19370 G1 Z10.156 X0.797 Y13.97209
N19380 G1 Z10.160 X0.230 Y13.99390
N19390 G1 Z10.165 X-0.634 Y13.98158
N19400 G1 Z10.171 X-1.771 Y13.88375
N19410 G1 Z10.174 X-2.351 Y13.79693
N19420 G1 Z10.179 X-3.184 Y13.62954
N19430 G1 Z10.182 X-3.734 Y13.48843
N19440 G1 Z10.186 X-4.296 Y13.32061
N19450 G1 Z10.191 X-5.092 Y13.03793
N19460 G1 Z10.195 X-5.884 Y12.69942
N19470 G1 Z10.202 X-6.897 Y12.17840
N19480 G1 Z10.207 X-7.636 Y11.73009
N19490 G1 Z10.210 X-8.105 Y11.41189
N19500 G1 Z10.215 X-8.793 Y10.88957
N19510 G1 Z10.218 X-9.229 Y10.52256
N19520 G1 Z10.222 X-9.662 Y10.12674
N19530 G1 Z10.226 X-10.257 Y9.52325
N19540 G1 Z10.233 X-10.998 Y8.65824
N19550 G1 Z10.238 X-11.511 Y7.96391
N19560 G1 Z10.241 X-11.833 Y7.47690
N19570 G1 Z10.246 X-12.264 Y6.74639
N19580 G1 Z10.249 X-12.534 Y6.22938
N19590 G1 Z10.254 X-12.887 Y5.46169
N19600 G1 Z10.259 X-13.199 Y4.65819
N19610 G1 Z10.265 X-13.534 Y3.57017
N19620 G1 Z10.270 X-13.728 Y2.72886
N19630 G1 Z10.274 X-13.828 Y2.16784
N19640 G1 Z10.277 X-13.907 Y1.58602
N19650 G1 Z10.282 X-13.977 Y0.74153
N19660 G1 Z10.285 X-13.996 Y0.17254
N19670 G1 Z10.288 X-13.991 Y-0.39854
N19680 G1 Z10.293 X-13.940 Y-1.26123
N19690 G1 Z10.296 X-13.877 Y-1.82721
N19700 G1 Z10.300 X-13.788 Y-2.40639
N19710 G1 Z10.304 X-13.617 Y-3.23690
N19720 G1 Z10.311 X-13.304 Y-4.34906
N19730 G1 Z10.316 X-13.016 Y-5.14657
N19740 G1 Z10.319 X-12.797 Y-5.66938
N19750 G1 Z10.324 X-12.423 Y-6.44806
N19760 G1 Z10.327 X-12.152 Y-6.94686
N19770 G1 Z10.332 X-11.701 Y-7.68035
N19780 G1 Z10.337 X-11.207 Y-8.38584
N19790 G1 Z10.340 X-10.860 Y-8.83044
N19800 G1 Z10.347 X-10.094 Y-9.69663
N19810 G1 Z10.350 X-9.716 Y-10.07524
N19820 G1 Z10.354 X-9.143 Y-10.59766
N19830 G1 Z10.359 X-8.544 Y-11.08693
N19840 G1 Z10.363 X-7.919 Y-11.54019
N19850 G1 Z10.367 X-7.268 Y-11.96163
N19860 G1 Z10.370 X-6.827 Y-12.218645
N19870 G1 Z10.375 X-6.140 Y-12.577089
N19880 G1 Z10.379 X-5.437 Y-12.897516
N19890 G1 Z10.384 X-4.714 Y-13.178960
N19900 G1 Z10.386 X-4.231 Y-13.341542
N19910 G1 Z10.391 X-3.485 Y-13.555986
N19920 G1 Z10.395 X-2.730 Y-13.727429
N19930 G1 Z10.398 X-2.213 Y-13.819117
N19940 G1 Z10.403 X-1.459 Y-13.919456
N19950 G1 Z10.407 X-0.686 Y-13.978896
N19960 G1 Z10.410 X-0.146 Y-13.994693
N19970 G1 Z10.414 X0.599 Y-13.982926
N19980 G1 Z10.419 X1.373 Y-13.928371 F600.000
N19990 G1 Z10.422 X1.879 Y-13.868953
N20000 G1 Z10.426 X2.644 Y-13.743397
N20010 G1 Z10.430 X3.399 Y-13.576823
N20020 G1 Z10.435 X4.143 Y-13.367249
N20030 G1 Z10.439 X4.877 Y-13.117693
N20040 G1 Z10.442 X5.352 Y-12.931276
N20050 G1 Z10.447 X6.062 Y-12.614737
N20060 G1 Z10.452 X6.982 Y-12.128041
N20070 G1 Z10.457 X7.630 Y-11.731379
N20080 G1 Z10.461 X8.268 Y-11.291824
N20090 G1 Z10.464 X8.674 Y-10.982406
N20100 G1 Z10.469 X9.269 Y-10.484851
N20110 G1 Z10.473 X9.834 Y-9.957277
N20120 G1 Z10.477 X10.370 Y-9.397721
N20130 G1 Z10.480 X10.705 Y-9.013303
N20140 G1 Z10.485 X11.190 Y-8.404765
N20150 G1 Z10.488 X11.490 Y-7.988365
N20160 G1 Z10.490 X11.775 Y-7.562965
N20170 G1 Z10.495 X12.175 Y-6.898409
N20180 G1 Z10.500 X12.589 Y-6.103702
N20190 G1 Z10.505 X13.446 Y-5.472342 F600.000
N20200 G1 Z10.508 X13.652 Y-4.934385
N20210 G1 Z10.513 X13.892 Y-4.212728
N20220 G1 Z10.515 X14.036 Y-3.703448
N20230 G1 Z10.520 X14.220 Y-2.920094
N20240 G1 Z10.524 X14.359 Y-2.130723
N20250 G1 Z10.529 X14.455 Y-1.332370
N20260 G1 Z10.532 X14.494 Y-0.804087
N20270 G1 Z10.536 X14.516 Y0.002747
N20280 G1 Z10.542 X14.468 Y1.186067
N20290 G1 Z10.546 X14.401 Y1.824576
N20300 G1 Z10.551 X14.271 Y2.657493
N20310 G1 Z10.555 X14.080 Y3.530769
N20320 G1 Z10.562 X13.747 Y4.664067
N20330 G1 Z10.567 X13.433 Y5.503361
N20340 G1 Z10.570 X13.199 Y6.043491
N20350 G1 Z10.575 X12.801 Y6.846785
N20360 G1 Z10.578 X12.511 Y7.362935
N20370 G1 Z10.581 X12.201 Y7.865085
N20380 G1 Z10.586 X11.693 Y8.603379
N20390 G1 Z10.593 X10.954 Y9.525677
N20400 G1 Z10.598 X10.346 Y10.183971
N20410 G1 Z10.601 X9.925 Y10.594101
N20420 G1 Z10.606 X9.252 Y11.186394
N20430 G1 Z10.609 X8.791 Y11.552525
N20440 G1 Z10.614 X8.062 Y12.073818
N20450 G1 Z10.617 X7.566 Y12.389949
N20460 G1 Z10.622 X6.787 Y12.833242
N20470 G1 Z10.625 X6.259 Y13.098392
N20480 G1 Z10.629 X5.719 Y13.343558
N20490 G1 Z10.632 X5.123 Y13.583067
N20500 G1 Z10.637 X4.326 Y13.857984
N20510 G1 Z10.642 X3.466 Y14.098260
N20520 G1 Z10.645 X2.889 Y14.227410
N20530 G1 Z10.648 X2.307 Y14.333560
N20540 G1 Z10.653 X1.419 Y14.448853
N20550 G1 Z10.656 X0.832 Y14.494984
N20560 G1 Z10.661 X-0.064 Y14.518277
N20570 G1 Z10.665 X-0.652 Y14.503408
N20580 G1 Z10.669 X-1.546 Y14.435701
N20590 G1 Z10.673 X-2.129 Y14.361831
N20600 G1 Z10.678 X-3.011 Y14.202125
N20610 G1 Z10.681 X-3.584 Y14.069255
N20620 G1 Z10.686 X-4.445 Y13.821549
N20630 G1 Z10.689 X-5.004 Y13.629694
N20640 G1 Z10.692 X-5.601 Y13.394204
N20650 G1 Z10.697 X-6.372 Y13.046140
N20660 G1 Z10.700 X-6.897 Y12.776288
N20670 G1 Z10.704 X-7.455 Y12.458797
N20680 G1 Z10.708 X-8.168 Y12.003734
N20690 G1 Z10.712 X-8.648 Y11.662866
N20700 G1 Z10.717 X-9.351 Y11.107160
N20710 G1 Z10.720 X-9.793 Y10.719290
N20720 G1 Z10.725 X-10.434 Y10.096564
N20730 G1 Z10.730 X-11.035 Y9.435838
N20740 G1 Z10.733 X-11.410 Y8.979988
N20750 G1 Z10.736 X-11.767 Y8.505153
N20760 G1 Z10.740 X-12.131 Y7.976662
N20770 G1 Z10.744 X-12.576 Y7.257599
N20780 G1 Z10.748 X-12.860 Y6.739747
N20790 G1 Z10.751 X-13.145 Y6.164256
N20800 G1 Z10.756 X-13.482 Y5.388193
N20810 G1 Z10.759 X-13.690 Y4.838325
N20820 G1 Z10.764 X-13.962 Y3.984614
N20830 G1 Z10.767 X-14.123 Y3.366104
N20840 G1 Z10.772 X-14.296 Y2.538039
N20850 G1 Z10.778 X-14.455 Y1.365356
N20860 G1 Z10.782 X-14.501 Y0.724865
N20870 G1 Z10.787 X-14.519 Y-0.121802
N20880 G1 Z10.790 X-14.502 Y-0.710935
N20890 G1 Z10.795 X-14.431 Y-1.603228
N20900 G1 Z10.798 X-14.354 Y-2.188374
N20910 G1 Z10.801 X-14.242 Y-2.821883
N20920 G1 Z10.806 X-14.054 Y-3.645819
N20930 G1 Z10.809 X-13.894 Y-4.214967
N20940 G1 Z10.813 X-13.694 Y-4.824477
N20950 G1 Z10.818 X-13.390 Y-5.613413
N20960 G1 Z10.824 X-12.888 Y-6.685729
N20970 G1 Z10.828 X-12.580 Y-7.249238
N20980 G1 Z10.832 X-12.138 Y-7.966155
N20990 G1 Z10.837 X-11.625 Y-8.698431
N21000 G1 Z10.844 X-10.879 Y-9.615729
N21010 G1 Z10.848 X-10.265 Y-10.268027
N21020 G1 Z10.851 X-9.884 Y-10.635738
N21030 G1 Z10.856 X-9.280 Y-11.166385
N21040 G1 Z10.860 X-8.648 Y-11.662028
N21050 G1 Z10.863 X-8.179 Y-11.995068
N21060 G1 Z10.867 X-7.542 Y-12.406393
N21070 G1 Z10.872 X-6.845 Y-12.803024
N21080 G1 Z10.876 X-6.126 Y-13.163671
N21090 G1 Z10.882 X-5.146 Y-13.576140
N21100 G1 Z10.887 X-4.386 Y-13.840787
N21110 G1 Z10.891 X-3.615 Y-14.061415
N21120 G1 Z10.895 X-2.832 Y-14.239058
N21130 G1 Z10.898 X-2.265 Y-14.340099
N21140 G1 Z10.903 X-1.513 Y-14.439424
N21150 G1 Z10.907 X-0.713 Y-14.500062
N21160 G1 Z10.910 X-0.091 Y-14.516428
N21170 G1 Z10.914 X0.621 Y-14.504434
N21180 G1 Z10.919 X1.421 Y-14.448065 F600.000
N21190 G1 Z10.923 X2.219 Y-14.347712
N21200 G1 Z10.926 X2.741 Y-14.256429
N21210 G1 Z10.930 X3.526 Y-14.083076
N21220 G1 Z10.935 X4.300 Y-13.866722
N21230 G1 Z10.938 X4.803 Y-13.700440
N21240 G1 Z10.942 X5.554 Y-13.413086
N21250 G1 Z10.947 X6.286 Y-13.086715
N21260 G1 Z10.951 X7.001 Y-12.717362
N21270 G1 Z10.954 X7.460 Y-12.454079
N21280 G1 Z10.958 X8.140 Y-12.020744
N21290 G1 Z10.961 X8.573 Y-11.715461
N21300 G1 Z10.966 X9.210 Y-11.221125
N21310 G1 Z10.969 X9.613 Y-10.877843
N21320 G1 Z10.973 X10.201 Y-10.328489
N21330 G1 Z10.977 X10.755 Y-9.749118
N21340 G1 Z10.982 X11.277 Y-9.141747
N21350 G1 Z10.986 X11.766 Y-8.502394
N21360 G1 Z10.989 X12.068 Y-8.068111
N21370 G1 Z10.993 X12.496 Y-7.387758
N21380 G1 Z10.998 X12.886 Y-6.684400
N21390 G1 Z11.000 X13.058 Y-6.334138
N21400 G1 Z11.004 X13.861 Y-5.942001 F600.000
N21410 G1 Z11.008 X14.169 Y-5.166867
N21420 G1 Z11.011 X14.348 Y-4.646730
N21430 G1 Z11.015 X14.583 Y-3.844596
N21440 G1 Z11.020 X14.774 Y-3.031462
N21450 G1 Z11.023 X14.874 Y-2.490325
N21460 G1 Z11.027 X14.989 Y-1.662191
N21470 G1 Z11.031 X15.058 Y-0.832039
N21480 G1 Z11.036 X15.081 Y0.002900
N21490 G1 Z11.039 X15.069 Y0.614199
N21500 G1 Z11.044 X15.002 Y1.543736
N21510 G1 Z11.047 X14.927 Y2.150036
N21520 G1 Z11.051 X14.796 Y2.913469
N21530 G1 Z11.055 X14.629 Y3.666890
N21540 G1 Z11.059 X14.467 Y4.259202
N21550 G1 Z11.062 X14.249 Y4.938212
N21560 G1 Z11.067 X13.956 Y5.717055
N21570 G1 Z11.070 X13.711 Y6.281372
N21580 G1 Z11.073 X13.443 Y6.835696
N21590 G1 Z11.077 X13.104 Y7.463706
N21600 G1 Z11.081 X12.674 Y8.175548
N21610 G1 Z11.085 X12.332 Y8.683845
N21620 G1 Z11.090 X11.774 Y9.425363
N21630 G1 Z11.094 X11.172 Y10.131880
N21640 G1 Z11.098 X10.751 Y10.578192
N21650 G1 Z11.101 X10.311 Y11.006505
N21660 G1 Z11.106 X9.613 Y11.621034
N21670 G1 Z11.110 X9.055 Y12.060024
N21680 G1 Z11.114 X8.377 Y12.541859
N21690 G1 Z11.118 X7.776 Y12.922854
N21700 G1 Z11.122 X7.052 Y13.332696
N21710 G1 Z11.125 X6.504 Y13.608005
N21720 G1 Z11.129 X5.853 Y13.900015
N21730 G1 Z11.134 X5.078 Y14.202858
N21740 G1 Z11.137 X4.495 Y14.397175
N21750 G1 Z11.140 X3.905 Y14.568487
N21760 G1 Z11.145 X2.999 Y14.781024
N21770 G1 Z11.148 X2.397 Y14.891317
N21780 G1 Z11.153 X1.475 Y15.010846
N21790 G1 Z11.157 X0.766 Y15.063836
N21800 G1 Z11.161 X-0.065 Y15.083679
N21810 G1 Z11.164 X-0.677 Y15.068976
N21820 G1 Z11.169 X-1.604 Y14.997505
N21830 G1 Z11.173 X-2.309 Y14.905495
N21840 G1 Z11.177 X-3.126 Y14.756330
N21850 G1 Z11.181 X-3.818 Y14.591325
N21860 G1 Z11.186 X-4.616 Y14.359159
N21870 G1 Z11.189 X-5.288 Y14.125154
N21880 G1 Z11.194 X-6.059 Y13.813997
N21890 G1 Z11.197 X-6.615 Y13.556294
N21900 G1 Z11.202 X-7.438 Y13.122831
N21910 G1 Z11.205 X-7.966 Y12.808143
N21920 G1 Z11.208 X-8.483 Y12.473467
N21930 G1 Z11.212 X-9.063 Y12.057478
N21940 G1 Z11.217 X-9.714 Y11.540320
N21950 G1 Z11.220 X-10.174 Y11.136617
N21960 G1 Z11.225 X-10.840 Y10.489134
N21970 G1 Z11.230 X-11.464 Y9.803652
N21980 G1 Z11.233 X-11.853 Y9.329956
N21990 G1 Z11.237 X-12.281 Y8.758966
N22000 G1 Z11.241 X-12.746 Y8.067809
N22010 G1 Z11.244 X-13.063 Y7.542118
N22020 G1 Z11.248 X-13.405 Y6.916128
N22030 G1 Z11.252 X-13.766 Y6.167970
N22040 G1 Z11.256 X-14.006 Y5.602279
N22050 G1 Z11.259 X-14.254 Y4.933289
N22060 G1 Z11.264 X-14.505 Y4.139132
N22070 G1 Z11.267 X-14.661 Y3.548429
N22080 G1 Z11.272 X-14.852 Y2.637965
N22090 G1 Z11.275 X-14.947 Y2.031270
N22100 G1 Z11.279 X-15.026 Y1.322281
N22110 G1 Z11.283 X-15.076 Y0.491123
N22120 G1 Z11.287 X-15.084 Y-0.123440
N22130 G1 Z11.290 X-15.066 Y-0.737752
N22140 G1 Z11.295 X-14.992 Y-1.665289
N22150 G1 Z11.298 X-14.912 Y-2.273594
N22160 G1 Z11.302 X-14.787 Y-2.975604
N22170 G1 Z11.306 X-14.601 Y-3.786446
N22180 G1 Z11.309 X-14.435 Y-4.377755
N22190 G1 Z11.313 X-14.211 Y-5.055766
N22200 G1 Z11.317 X-13.912 Y-5.831608
N22210 G1 Z11.321 X-13.663 Y-6.393925
N22220 G1 Z11.324 X-13.390 Y-6.946257
N22230 G1 Z11.327 X-13.096 Y-7.485569
N22240 G1 Z11.332 X-12.609 Y-8.279106
N22250 G1 Z11.335 X-12.263 Y-8.783399
N22260 G1 Z11.340 X-11.698 Y-9.523936
N22270 G1 Z11.343 X-11.303 Y-9.989229
N22280 G1 Z11.348 X-10.666 Y-10.666752
N22290 G1 Z11.353 X-10.061 Y-11.239604
N22300 G1 Z11.356 X-9.575 Y-11.655096
N22310 G1 Z11.360 X-8.987 Y-12.114337
N22320 G1 Z11.365 X-8.302 Y-12.594206
N22330 G1 Z11.367 X-7.837 Y-12.888070
N22340 G1 Z11.372 X-7.109 Y-13.303953
N22350 G1 Z11.375 X-6.619 Y-13.553817
N22360 G1 Z11.379 X-5.859 Y-13.899682
N22370 G1 Z11.384 X-5.080 Y-14.202548
N22380 G1 Z11.386 X-4.559 Y-14.378412
N22390 G1 Z11.391 X-3.756 Y-14.608277
N22400 G1 Z11.395 X-2.942 Y-14.794143
N22410 G1 Z11.398 X-2.400 Y-14.891006
N22420 G1 Z11.403 X-1.572 Y-15.001872
N22430 G1 Z11.407 X-0.742 Y-15.065721
N22440 G1 Z11.411 X-0.012 Y-15.081844
N22450 G1 Z11.414 X0.645 Y-15.069462
N22460 G1 Z11.419 X1.479 Y-15.010332 F600.000
N22470 G1 Z11.422 X2.026 Y-14.946196
N22480 G1 Z11.426 X2.853 Y-14.810079
N22490 G1 Z11.429 X3.391 Y-14.696942
N22500 G1 Z11.433 X4.199 Y-14.486808
N22510 G1 Z11.438 X4.992 Y-14.232656
N22520 G1 Z11.442 X5.770 Y-13.935504
N22530 G1 Z11.447 X6.532 Y-13.594363
N22540 G1 Z11.450 X7.102 Y-13.305854
N22550 G1 Z11.454 X7.752 Y-12.937095
N22560 G1 Z11.458 X8.455 Y-12.489947
N22570 G1 Z11.463 X9.133 Y-12.002813
N22580 G1 Z11.466 X9.565 Y-11.661676
N22590 G1 Z11.470 X10.198 Y-11.112559
N22600 G1 Z11.473 X10.596 Y-10.732423
N22610 G1 Z11.477 X11.175 Y-10.128299
N22620 G1 Z11.481 X11.594 Y-9.645791
N22630 G1 Z11.485 X12.057 Y-9.059031
N22640 G1 Z11.489 X12.540 Y-8.378894
N22650 G1 Z11.492 X12.884 Y-7.839385
N22660 G1 Z11.496 X13.257 Y-7.190644
N22670 G1 Z11.500 X13.571 Y-6.571514
N22680 G1 Z11.505 X14.536 Y-5.915683 F600.000
N22690 G1 Z11.508 X14.742 Y-5.380704
N22700 G1 Z11.512 X15.017 Y-4.556807
N22710 G1 Z11.517 X15.246 Y-3.719899
N22720 G1 Z11.521 X15.400 Y-3.015961
N22730 G1 Z11.524 X15.523 Y-2.304027
N22740 G1 Z11.529 X15.627 Y-1.440137
N22750 G1 Z11.532 X15.669 Y-0.869159
N22760 G1 Z11.536 X15.693 Y0.002275
N22770 G1 Z11.539 X15.680 Y0.640757
N22780 G1 Z11.543 X15.626 Y1.442401
N22790 G1 Z11.547 X15.532 Y2.241050
N22800 G1 Z11.551 X15.428 Y2.870526
N22810 G1 Z11.555 X15.222 Y3.816327
N22820 G1 Z11.559 X15.054 Y4.433815
N22830 G1 Z11.562 X14.861 Y5.042303
N22840 G1 Z11.567 X14.522 Y5.949103
N22850 G1 Z11.570 X14.269 Y6.533571
N22860 G1 Z11.575 X13.838 Y7.401372
N22870 G1 Z11.578 X13.526 Y7.957848
N22880 G1 Z11.582 X13.101 Y8.638492
N22890 G1 Z11.586 X12.641 Y9.299140
N22900 G1 Z11.590 X12.253 Y9.806625
N22910 G1 Z11.594 X11.734 Y10.419268
N22920 G1 Z11.598 X11.186 Y11.007905
N22930 G1 Z11.602 X10.609 Y11.563537
N22940 G1 Z11.606 X10.003 Y12.092186
N22950 G1 Z11.609 X9.504 Y12.489662
N22960 G1 Z11.614 X8.718 Y13.049442
N22970 G1 Z11.619 X7.899 Y13.561223
N22980 G1 Z11.622 X7.340 Y13.871711
N22990 G1 Z11.625 X6.768 Y14.159207
N23000 G1 Z11.630 X6.034 Y14.487851
N23010 G1 Z11.634 X5.284 Y14.778500
N23020 G1 Z11.637 X4.677 Y14.981995
N23030 G1 Z11.640 X4.063 Y15.159483
N23040 G1 Z11.645 X3.122 Y15.380272
N23050 G1 Z11.649 X2.333 Y15.519896
N23060 G1 Z11.653 X1.538 Y15.619525
N23070 G1 Z11.658 X0.573 Y15.684314
N23080 G1 Z11.661 X-0.066 Y15.694802
N23090 G1 Z11.665 X-0.708 Y15.679309
N23100 G1 Z11.668 X-1.348 Y15.637817
N23110 G1 Z11.671 X-1.984 Y15.569305
N23120 G1 Z11.676 X-2.940 Y15.417106
N23130 G1 Z11.679 X-3.565 Y15.285588
N23140 G1 Z11.684 X-4.499 Y15.036375
N23150 G1 Z11.687 X-5.105 Y14.842843
N23160 G1 Z11.692 X-6.010 Y14.499643
N23170 G1 Z11.695 X-6.594 Y14.243120
N23180 G1 Z11.699 X-7.314 Y13.886763
N23190 G1 Z11.704 X-8.016 Y13.494412
N23200 G1 Z11.707 X-8.560 Y13.156908
N23210 G1 Z11.710 X-9.089 Y12.796396
N23220 G1 Z11.715 X-9.861 Y12.211196
N23230 G1 Z11.718 X-10.348 Y11.802665
N23240 G1 Z11.723 X-11.056 Y11.141465
N23250 G1 Z11.726 X-11.500 Y10.682953
N23260 G1 Z11.730 X-11.926 Y10.204449
N23270 G1 Z11.734 X-12.432 Y9.579093
N23280 G1 Z11.738 X-12.906 Y8.933722
N23290 G1 Z11.743 X-13.432 Y8.121510
N23300 G1 Z11.746 X-13.751 Y7.568998
N23310 G1 Z11.749 X-14.048 Y7.002486
N23320 G1 Z11.754 X-14.452 Y6.123275
N23330 G1 Z11.758 X-14.745 Y5.378899
N23340 G1 Z11.762 X-15.002 Y4.616548
N23350 G1 Z11.765 X-15.177 Y4.003024
N23360 G1 Z11.770 X-15.395 Y3.061813
N23370 G1 Z11.774 X-15.530 Y2.271437
N23380 G1 Z11.778 X-15.627 Y1.474073
N23390 G1 Z11.783 X-15.681 Y0.674705
N23400 G1 Z11.787 X-15.696 Y-0.128342
N23410 G1 Z11.791 X-15.668 Y-0.930974
N23420 G1 Z11.795 X-15.600 Y-1.732623
N23430 G1 Z11.798 X-15.517 Y-2.365107
N23440 G1 Z11.802 X-15.375 Y-3.156750
N23450 G1 Z11.806 X-15.194 Y-3.940399
N23460 G1 Z11.809 X-15.020 Y-4.556895
N23470 G1 Z11.813 X-14.822 Y-5.164383
N23480 G1 Z11.818 X-14.476 Y-6.068183
N23490 G1 Z11.821 X-14.217 Y-6.652671
N23500 G1 Z11.824 X-13.933 Y-7.228179
N23510 G1 Z11.827 X-13.627 Y-7.789667
N23520 G1 Z11.832 X-13.120 Y-8.615468
N23530 G1 Z11.835 X-12.760 Y-9.139936
N23540 G1 Z11.840 X-12.172 Y-9.909737
N23550 G1 Z11.844 X-11.761 Y-10.394205
N23560 G1 Z11.848 X-11.099 Y-11.098992
N23570 G1 Z11.853 X-10.468 Y-11.695089
N23580 G1 Z11.856 X-10.034 Y-12.069110
N23590 G1 Z11.860 X-9.351 Y-12.606213
N23600 G1 Z11.865 X-8.640 Y-13.103305
N23610 G1 Z11.868 X-8.029 Y-13.486367
N23620 G1 Z11.872 X-7.401 Y-13.841433
N23630 G1 Z11.876 X-6.625 Y-14.229525
N23640 G1 Z11.881 X-5.829 Y-14.572610
N23650 G1 Z11.885 X-5.016 Y-14.872695
N23660 G1 Z11.889 X-4.187 Y-15.126788
N23670 G1 Z11.893 X-3.487 Y-15.302849
N23680 G1 Z11.897 X-2.781 Y-15.446916
N23690 G1 Z11.901 X-1.920 Y-15.577026
N23700 G1 Z11.904 X-1.351 Y-15.636047
N23710 G1 Z11.908 X-0.482 Y-15.687159
N23720 G1 Z11.914 X0.671 Y-15.680254
N23730 G1 Z11.919 X1.537 Y-15.619348 F600.000
N23740 G1 Z11.923 X2.399 Y-15.510451
N23750 G1 Z11.926 X2.963 Y-15.412472
N23760 G1 Z11.930 X3.813 Y-15.224582
N23770 G1 Z11.934 X4.508 Y-15.032644
N23780 G1 Z11.938 X5.194 Y-14.810710
N23790 G1 Z11.942 X6.007 Y-14.499820
N23800 G1 Z11.945 X6.532 Y-14.270842
N23810 G1 Z11.950 X7.312 Y-13.886944
N23820 G1 Z11.954 X8.067 Y-13.462030
N23830 G1 Z11.958 X8.800 Y-12.994132
N23840 G1 Z11.961 X9.268 Y-12.665154
N23850 G1 Z11.966 X9.957 Y-12.130275
N23860 G1 Z11.969 X10.393 Y-11.759296
N23870 G1 Z11.973 X11.028 Y-11.166399
N23880 G1 Z11.977 X11.627 Y-10.540484
N23890 G1 Z11.982 X12.193 Y-9.880587
N23900 G1 Z11.985 X12.545 Y-9.428609
N23910 G1 Z11.989 X13.048 Y-8.719711
N23920 G1 Z11.993 X13.510 Y-7.985804
N23930 G1 Z11.997 X13.862 Y-7.356865
N23940 G1 Z12.000 X14.118 Y-6.846871
N23950 G1 Z12.002 X14.912 Y-6.720095 F600.000
N23960 G1 Z12.007 X15.261 Y-5.885455
N23970 G1 Z12.010 X15.465 Y-5.324648
N23980 G1 Z12.014 X15.736 Y-4.459008
N23990 G1 Z12.018 X15.958 Y-3.584350
N24000 G1 Z12.023 X16.132 Y-2.698692
N24010 G1 Z12.027 X16.257 Y-1.800052
N24020 G1 Z12.030 X16.311 Y-1.206245
N24030 G1 Z12.034 X16.353 Y-0.299621
N24040 G1 Z12.038 X16.353 Y0.334067
N24050 G1 Z12.041 X16.325 Y1.000747
N24060 G1 Z12.046 X16.233 Y2.005833
N24070 G1 Z12.049 X16.138 Y2.662496
N24080 G1 Z12.053 X15.963 Y3.562932
N24090 G1 Z12.057 X15.781 Y4.299263
N24100 G1 Z12.060 X15.592 Y4.940954
N24110 G1 Z12.064 X15.378 Y5.571633
N24120 G1 Z12.068 X15.005 Y6.509719
N24130 G1 Z12.072 X14.729 Y7.112378
N24140 G1 Z12.077 X14.262 Y8.007464
N24150 G1 Z12.080 X13.926 Y8.579123
N24160 G1 Z12.085 X13.372 Y9.419193
N24170 G1 Z12.089 X12.824 Y10.151609
N24180 G1 Z12.093 X12.340 Y10.736941
N24190 G1 Z12.096 X11.893 Y11.229616
N24200 G1 Z12.101 X11.245 Y11.877052
N24210 G1 Z12.104 X10.682 Y12.387384
N24220 G1 Z12.108 X10.169 Y12.811055
N24230 G1 Z12.112 X9.360 Y13.414141
N24240 G1 Z12.116 X8.806 Y13.784820
N24250 G1 Z12.119 X8.237 Y14.131498
N24260 G1 Z12.124 X7.352 Y14.611568
N24270 G1 Z12.128 X6.525 Y14.998985
N24280 G1 Z12.132 X5.822 Y15.286316
N24290 G1 Z12.135 X5.193 Y15.511007
N24300 G1 Z12.138 X4.557 Y15.709686
N24310 G1 Z12.143 X3.580 Y15.961772
N24320 G1 Z12.147 X2.929 Y16.093435
N24330 G1 Z12.151 X2.023 Y16.231871
N24340 G1 Z12.155 X1.270 Y16.308182
N24350 G1 Z12.160 X0.263 Y16.355261
N24360 G1 Z12.163 X-0.403 Y16.353940
N24370 G1 Z12.166 X-1.069 Y16.323618
N24380 G1 Z12.171 X-2.070 Y16.226685
N24390 G1 Z12.176 X-3.064 Y16.068751
N24400 G1 Z12.179 X-3.715 Y15.930425
N24410 G1 Z12.184 X-4.689 Y15.672496
N24420 G1 Z12.187 X-5.323 Y15.468174
N24430 G1 Z12.191 X-5.949 Y15.238857
N24440 G1 Z12.195 X-6.793 Y14.880293
N24450 G1 Z12.199 X-7.476 Y14.550624
N24460 G1 Z12.202 X-8.062 Y14.234300
N24470 G1 Z12.206 X-8.846 Y13.759736
N24480 G1 Z12.210 X-9.476 Y13.334067
N24490 G1 Z12.213 X-10.010 Y12.938739
N24500 G1 Z12.218 X-10.787 Y12.298805
N24510 G1 Z12.223 X-11.523 Y11.612871
N24520 G1 Z12.226 X-11.986 Y11.133550
N24530 G1 Z12.230 X-12.430 Y10.635232
N24540 G1 Z12.234 X-13.005 Y9.922669
N24550 G1 Z12.238 X-13.452 Y9.308000
N24560 G1 Z12.241 X-13.821 Y8.751691
N24570 G1 Z12.244 X-14.166 Y8.181369
N24580 G1 Z12.249 X-14.643 Y7.294440
N24590 G1 Z12.254 X-15.027 Y6.465856
N24600 G1 Z12.257 X-15.311 Y5.761188
N24610 G1 Z12.261 X-15.534 Y5.131879
N24620 G1 Z12.264 X-15.730 Y4.492577
N24630 G1 Z12.267 X-15.900 Y3.847255
N24640 G1 Z12.272 X-16.107 Y2.860341
N24650 G1 Z12.275 X-16.210 Y2.204000
N24660 G1 Z12.280 X-16.315 Y1.203071
N24670 G1 Z12.285 X-16.356 Y0.290487
N24680 G1 Z12.288 X-16.352 Y-0.469818
N24690 G1 Z12.291 X-16.320 Y-1.134490
N24700 G1 Z12.296 X-16.219 Y-2.138576
N24710 G1 Z12.300 X-16.119 Y-2.794239
N24720 G1 Z12.304 X-15.936 Y-3.693675
N24730 G1 Z12.308 X-15.748 Y-4.428006
N24740 G1 Z12.311 X-15.554 Y-5.067697
N24750 G1 Z12.314 X-15.335 Y-5.697376
N24760 G1 Z12.319 X-14.955 Y-6.631462
N24770 G1 Z12.322 X-14.672 Y-7.235140
N24780 G1 Z12.326 X-14.365 Y-7.827823
N24790 G1 Z12.330 X-13.904 Y-8.618258
N24800 G1 Z12.334 X-13.489 Y-9.255590
N24810 G1 Z12.337 X-13.102 Y-9.796262
N24820 G1 Z12.342 X-12.473 Y-10.585348
N24830 G1 Z12.345 X-12.033 Y-11.082009
N24840 G1 Z12.350 X-11.351 Y-11.780860
N24850 G1 Z12.353 X-10.914 Y-12.186049
N24860 G1 Z12.357 X-10.223 Y-12.771409
N24870 G1 Z12.362 X-9.502 Y-13.316754
N24880 G1 Z12.366 X-8.820 Y-13.776529
N24890 G1 Z12.369 X-8.240 Y-14.132310
N24900 G1 Z12.373 X-7.443 Y-14.567681
N24910 G1 Z12.376 X-6.907 Y-14.829874
N24920 G1 Z12.381 X-6.075 Y-15.188234
N24930 G1 Z12.385 X-5.227 Y-15.500580
N24940 G1 Z12.389 X-4.442 Y-15.743355
N24950 G1 Z12.392 X-3.783 Y-15.914135
N24960 G1 Z12.397 X-2.896 Y-16.099493
N24970 G1 Z12.401 X-2.084 Y-16.224268
N24980 G1 Z12.404 X-1.407 Y-16.297048
N24990 G1 Z12.408 X-0.503 Y-16.350406
N25000 G1 Z12.412 X0.237 Y-16.354598
N25010 G1 Z12.416 X1.001 Y-16.327969
N25020 G1 Z12.420 X1.902 Y-16.246318 F600.000
N25030 G1 Z12.424 X2.716 Y-16.130093
N25040 G1 Z12.428 X3.387 Y-16.003891
N25050 G1 Z12.430 X3.971 Y-15.868095
N25060 G1 Z12.435 X4.843 Y-15.624455
N25070 G1 Z12.439 X5.698 Y-15.332797
N25080 G1 Z12.444 X6.536 Y-14.994143
N25090 G1 Z12.448 X7.281 Y-14.646918
N25100 G1 Z12.451 X7.884 Y-14.331699
N25110 G1 Z12.455 X8.667 Y-13.872070
N25120 G1 Z12.458 X9.167 Y-13.546263
N25130 G1 Z12.463 X9.903 Y-13.018626
N25140 G1 Z12.467 X10.545 Y-12.503401
N25150 G1 Z12.470 X11.056 Y-12.054182
N25160 G1 Z12.474 X11.708 Y-11.422553
N25170 G1 Z12.477 X12.117 Y-10.987746
N25180 G1 Z12.482 X12.706 Y-10.299106
N25190 G1 Z12.486 X13.255 Y-9.582448
N25200 G1 Z12.491 X13.766 Y-8.834808
N25210 G1 Z12.493 X14.079 Y-8.325001
N25220 G1 Z12.498 X14.518 Y-7.533361
N25230 G1 Z12.500 X14.711 Y-7.134479
N25240 G1 Z12.504 X15.694 Y-6.731125 F600.000
N25250 G1 Z12.508 X16.042 Y-5.852765
N25260 G1 Z12.513 X16.342 Y-4.955404
N25270 G1 Z12.515 X16.512 Y-4.355783
N25280 G1 Z12.520 X16.728 Y-3.432440
N25290 G1 Z12.523 X16.843 Y-2.816843
N25300 G1 Z12.527 X16.972 Y-1.880476
N25310 G1 Z12.530 X17.030 Y-1.259855
N25320 G1 Z12.535 X17.073 Y-0.315490
N25330 G1 Z12.539 X17.062 Y0.701624
N25340 G1 Z12.542 X17.019 Y1.396511
N25350 G1 Z12.546 X16.948 Y2.088397
N25360 G1 Z12.551 X16.788 Y3.126773
N25370 G1 Z12.556 X16.564 Y4.152150
N25380 G1 Z12.559 X16.381 Y4.824035
N25390 G1 Z12.562 X16.171 Y5.487921
N25400 G1 Z12.567 X15.802 Y6.473317
N25410 G1 Z12.570 X15.525 Y7.113209
N25420 G1 Z12.575 X15.060 Y8.050559
N25430 G1 Z12.580 X14.536 Y8.961936
N25440 G1 Z12.583 X14.159 Y9.546822
N25450 G1 Z12.586 X13.757 Y10.117727
N25460 G1 Z12.590 X13.332 Y10.671632
N25470 G1 Z12.593 X12.886 Y11.205517
N25480 G1 Z12.598 X12.171 Y11.979914
N25490 G1 Z12.601 X11.673 Y12.465799
N25500 G1 Z12.604 X11.153 Y12.932704
N25510 G1 Z12.608 X10.617 Y13.375589
N25520 G1 Z12.612 X9.772 Y14.004986
N25530 G1 Z12.616 X9.196 Y14.389851
N25540 G1 Z12.621 X8.294 Y14.927228
N25550 G1 Z12.626 X7.361 Y15.409605
N25560 G1 Z12.629 X6.727 Y15.697490
N25570 G1 Z12.632 X6.079 Y15.959395
N25580 G1 Z12.635 X5.422 Y16.194300
N25590 G1 Z12.639 X4.758 Y16.401186
N25600 G1 Z12.643 X3.737 Y16.663582
N25610 G1 Z12.647 X3.058 Y16.801448
N25620 G1 Z12.652 X2.017 Y16.958844
N25630 G1 Z12.655 X1.323 Y17.026736
N25640 G1 Z12.660 X0.278 Y17.075086
N25650 G1 Z12.665 X-0.773 Y17.060463
N25660 G1 Z12.668 X-1.467 Y17.015349
N25670 G1 Z12.671 X-2.161 Y16.941253
N25680 G1 Z12.674 X-2.853 Y16.838165
N25690 G1 Z12.679 X-3.881 Y16.631526
N25700 G1 Z12.682 X-4.554 Y16.460401
N25710 G1 Z12.687 X-5.560 Y16.148798
N25720 G1 Z12.691 X-6.213 Y15.908683
N25730 G1 Z12.694 X-6.858 Y15.641588
N25740 G1 Z12.697 X-7.490 Y15.349473
N25750 G1 Z12.702 X-8.422 Y14.858870
N25760 G1 Z12.705 X-9.020 Y14.503755
N25770 G1 Z12.708 X-9.603 Y14.123640
N25780 G1 Z12.713 X-10.455 Y13.504037
N25790 G1 Z12.717 X-10.995 Y13.069903
N25800 G1 Z12.722 X-11.779 Y12.367299
N25810 G1 Z12.725 X-12.274 Y11.876191
N25820 G1 Z12.730 X-12.980 Y11.100561
N25830 G1 Z12.733 X-13.420 Y10.564427
N25840 G1 Z12.738 X-14.046 Y9.717823
N25850 G1 Z12.741 X-14.430 Y9.137708
N25860 G1 Z12.744 X-14.792 Y8.538620
N25870 G1 Z12.749 X-15.288 Y7.613990
N25880 G1 Z12.752 X-15.586 Y6.984876
N25890 G1 Z12.756 X-15.857 Y6.344761
N25900 G1 Z12.761 X-16.218 Y5.354157
N25910 G1 Z12.764 X-16.422 Y4.692023
N25920 G1 Z12.769 X-16.680 Y3.674400
N25930 G1 Z12.774 X-16.874 Y2.641776
N25940 G1 Z12.777 X-16.968 Y1.952662
N25950 G1 Z12.780 X-17.033 Y1.259547
N25960 G1 Z12.785 X-17.078 Y0.207944
N25970 G1 Z12.788 X-17.073 Y-0.486809
N25980 G1 Z12.793 X-17.010 Y-1.538206
N25990 G1 Z12.796 X-16.933 Y-2.229091
N26000 G1 Z12.800 X-16.828 Y-2.917976
N26010 G1 Z12.805 X-16.617 Y-3.949373
N26020 G1 Z12.808 X-16.443 Y-4.619238
N26030 G1 Z12.813 X-16.127 Y-5.624635
N26040 G1 Z12.816 X-15.885 Y-6.274500
N26050 G1 Z12.821 X-15.468 Y-7.241897
N26060 G1 Z12.824 X-15.161 Y-7.865782
N26070 G1 Z12.827 X-14.826 Y-8.479694
N26080 G1 Z12.832 X-14.277 Y-9.374064
N26090 G1 Z12.835 X-13.883 Y-9.947949
N26100 G1 Z12.839 X-13.467 Y-10.505835
N26110 G1 Z12.844 X-12.793 Y-11.315231
N26120 G1 Z12.847 X-12.322 Y-11.827119
N26130 G1 Z12.850 X-11.855 Y-12.295761
N26140 G1 Z12.854 X-11.154 Y-12.933416
N26150 G1 Z12.857 X-10.675 Y-13.332795
N26160 G1 Z12.862 X-9.921 Y-13.902434
N26170 G1 Z12.866 X-9.136 Y-14.430073
N26180 G1 Z12.869 X-8.600 Y-14.755476
N26190 G1 Z12.873 X-7.773 Y-15.207092
N26200 G1 Z12.878 X-6.922 Y-15.613713
N26210 G1 Z12.882 X-6.050 Y-15.971335
N26220 G1 Z12.887 X-5.157 Y-16.281974
N26230 G1 Z12.889 X-4.559 Y-16.459353
N26240 G1 Z12.894 X-3.641 Y-16.685992
N26250 G1 Z12.898 X-2.715 Y-16.861614
N26260 G1 Z12.903 X-1.780 Y-16.985235
N26270 G1 Z12.907 X-0.837 Y-17.057874
N26280 G1 Z12.910 X-0.207 Y-17.077301
N26290 G1 Z12.914 X0.732 Y-17.062893
N26300 G1 Z12.919 X1.675 Y-16.995532 F600.000
N26310 G1 Z12.922 X2.294 Y-16.923911
N26320 G1 Z12.926 X3.230 Y-16.769568
N26330 G1 Z12.929 X3.843 Y-16.639971
N26340 G1 Z12.933 X4.755 Y-16.402586
N26350 G1 Z12.938 X5.653 Y-16.114208
N26360 G1 Z12.942 X6.536 Y-15.777847
N26370 G1 Z12.945 X7.108 Y-15.528226
N26380 G1 Z12.950 X7.956 Y-15.110865
N26390 G1 Z12.954 X8.778 Y-14.648487
N26400 G1 Z12.958 X9.575 Y-14.140126
N26410 G1 Z12.961 X10.085 Y-13.781505
N26420 G1 Z12.966 X10.834 Y-13.200162
N26430 G1 Z12.969 X11.309 Y-12.795541
N26440 G1 Z12.973 X12.000 Y-12.150181
N26450 G1 Z12.977 X12.654 Y-11.467820
N26460 G1 Z12.980 X13.064 Y-10.997199
N26470 G1 Z12.985 X13.653 Y-10.257838
N26480 G1 Z12.989 X14.198 Y-9.488460
N26490 G1 Z12.994 X14.701 Y-8.688099
N26500 G1 Z12.996 X15.009 Y-8.145478
N26510 G1 Z13.000 X15.356 Y-7.460867
N26520 G1 Z13.004 X16.477 Y-6.927773 F600.000
N26530 G1 Z13.008 X16.792 Y-6.126818
N26540 G1 Z13.013 X17.105 Y-5.188763
N26550 G1 Z13.016 X17.315 Y-4.434256
N26560 G1 Z13.020 X17.510 Y-3.593318
N26570 G1 Z13.023 X17.630 Y-2.951909
N26580 G1 Z13.027 X17.766 Y-1.970858
N26590 G1 Z13.032 X17.847 Y-0.987789
N26600 G1 Z13.036 X17.875 Y0.002734
N26610 G1 Z13.039 X17.860 Y0.728835
N26620 G1 Z13.044 X17.781 Y1.828575
N26630 G1 Z13.047 X17.692 Y2.549680
N26640 G1 Z13.051 X17.546 Y3.409804
N26650 G1 Z13.056 X17.339 Y4.346539
N26660 G1 Z13.059 X17.147 Y5.049660
N26670 G1 Z13.062 X16.927 Y5.743774
N26680 G1 Z13.067 X16.541 Y6.775505
N26690 G1 Z13.071 X16.192 Y7.570609
N26700 G1 Z13.075 X15.763 Y8.429344
N26710 G1 Z13.078 X15.408 Y9.062445
N26720 G1 Z13.083 X14.821 Y9.992166
N26730 G1 Z13.088 X14.179 Y10.885886
N26740 G1 Z13.091 X13.724 Y11.453001
N26750 G1 Z13.095 X13.245 Y12.004126
N26760 G1 Z13.099 X12.643 Y12.635249
N26770 G1 Z13.103 X11.948 Y13.296985
N26780 G1 Z13.106 X11.398 Y13.770085
N26790 G1 Z13.111 X10.527 Y14.447826
N26800 G1 Z13.114 X9.932 Y14.862921
N26810 G1 Z13.119 X8.997 Y15.446661
N26820 G1 Z13.122 X8.361 Y15.800776
N26830 G1 Z13.126 X7.710 Y16.127891
N26840 G1 Z13.130 X6.701 Y16.572631
N26850 G1 Z13.134 X6.023 Y16.830726
N26860 G1 Z13.139 X4.976 Y17.169457
N26870 G1 Z13.142 X4.135 Y17.390561
N26880 G1 Z13.147 X3.199 Y17.587276
N26890 G1 Z13.152 X2.111 Y17.751003
N26900 G1 Z13.155 X1.386 Y17.822117
N26910 G1 Z13.158 X0.656 Y17.864252
N26920 G1 Z13.161 X-0.075 Y17.876386
N26930 G1 Z13.165 X-0.804 Y17.858511
N26940 G1 Z13.169 X-1.674 Y17.797635
N26950 G1 Z13.173 X-2.627 Y17.683370
N26960 G1 Z13.176 X-3.346 Y17.561490
N26970 G1 Z13.179 X-4.061 Y17.409624
N26980 G1 Z13.184 X-5.123 Y17.127345
N26990 G1 Z13.187 X-5.814 Y16.905441
N27000 G1 Z13.192 X-6.844 Y16.515171
N27010 G1 Z13.196 X-7.638 Y16.162275
N27020 G1 Z13.200 X-8.493 Y15.731001
N27030 G1 Z13.204 X-9.248 Y15.298110
N27040 G1 Z13.209 X-10.055 Y14.782836
N27050 G1 Z13.212 X-10.762 Y14.274946
N27060 G1 Z13.217 X-11.510 Y13.679661
N27070 G1 Z13.222 X-12.330 Y12.945388
N27080 G1 Z13.225 X-12.846 Y12.433493
N27090 G1 Z13.229 X-13.437 Y11.791616
N27100 G1 Z13.233 X-14.050 Y11.054352
N27110 G1 Z13.236 X-14.489 Y10.473463
N27120 G1 Z13.240 X-14.982 Y9.754586
N27130 G1 Z13.244 X-15.484 Y8.936321
N27140 G1 Z13.248 X-15.836 Y8.298442
N27150 G1 Z13.251 X-16.160 Y7.646556
N27160 G1 Z13.256 X-16.600 Y6.638277
N27170 G1 Z13.261 X-16.977 Y5.605998
N27180 G1 Z13.264 X-17.191 Y4.909113
N27190 G1 Z13.267 X-17.376 Y4.204227
N27200 G1 Z13.272 X-17.603 Y3.126967
N27210 G1 Z13.275 X-17.715 Y2.407073
N27220 G1 Z13.279 X-17.811 Y1.540196
N27230 G1 Z13.283 X-17.868 Y0.583932
N27240 G1 Z13.287 X-17.877 Y-0.146052
N27250 G1 Z13.290 X-17.856 Y-0.876177
N27260 G1 Z13.294 X-17.792 Y-1.745300
N27270 G1 Z13.298 X-17.673 Y-2.697036
N27280 G1 Z13.301 X-17.549 Y-3.413136
N27290 G1 Z13.306 X-17.305 Y-4.488877
N27300 G1 Z13.309 X-17.109 Y-5.187972
N27310 G1 Z13.314 X-16.757 Y-6.231712
N27320 G1 Z13.318 X-16.490 Y-6.907817
N27330 G1 Z13.322 X-16.132 Y-7.703941
N27340 G1 Z13.326 X-15.698 Y-8.555656
N27350 G1 Z13.331 X-15.142 Y-9.504381
N27360 G1 Z13.334 X-14.742 Y-10.113498
N27370 G1 Z13.337 X-14.316 Y-10.708632
N27380 G1 Z13.340 X-13.867 Y-11.284767
N27390 G1 Z13.344 X-13.395 Y-11.839881
N27400 G1 Z13.349 X-12.641 Y-12.641608
N27410 G1 Z13.353 X-11.923 Y-13.321551
N27420 G1 Z13.356 X-11.427 Y-13.749154
N27430 G1 Z13.359 X-10.915 Y-14.158757
N27440 G1 Z13.363 X-10.113 Y-14.742724
N27450 G1 Z13.366 X-9.568 Y-15.102310
N27460 G1 Z13.371 X-8.717 Y-15.608258
N27470 G1 Z13.375 X-7.842 Y-16.065189
N27480 G1 Z13.379 X-6.943 Y-16.474130
N27490 G1 Z13.383 X-6.215 Y-16.761623
N27500 G1 Z13.387 X-5.401 Y-17.041667
N27510 G1 Z13.391 X-4.451 Y-17.314604
N27520 G1 Z13.395 X-3.487 Y-17.533552
N27530 G1 Z13.398 X-2.844 Y-17.649138
N27540 G1 Z13.403 X-1.863 Y-17.779087
N27550 G1 Z13.407 X-0.879 Y-17.855016
N27560 G1 Z13.411 X0.033 Y-17.873421
N27570 G1 Z13.414 X0.765 Y-17.860563
N27580 G1 Z13.419 X1.753 Y-17.790518 F600.000
N27590 G1 Z13.422 X2.402 Y-17.714104
N27600 G1 Z13.426 X3.380 Y-17.554062
N27610 G1 Z13.430 X4.144 Y-17.388555
N27620 G1 Z13.434 X4.977 Y-17.169599
N27630 G1 Z13.438 X5.917 Y-16.868536
N27640 G1 Z13.442 X6.841 Y-16.515476
N27650 G1 Z13.446 X7.556 Y-16.199969
N27660 G1 Z13.450 X8.328 Y-15.817013
N27670 G1 Z13.454 X9.189 Y-15.333950
N27680 G1 Z13.458 X10.023 Y-14.801899
N27690 G1 Z13.461 X10.557 Y-14.425484
N27700 G1 Z13.466 X11.339 Y-13.819433
N27710 G1 Z13.470 X12.086 Y-13.170382
N27720 G1 Z13.473 X12.559 Y-12.720967
N27730 G1 Z13.477 X13.245 Y-12.004925
N27740 G1 Z13.481 X13.757 Y-11.413419
N27750 G1 Z13.485 X14.291 Y-10.737463
N27760 G1 Z13.489 X14.863 Y-9.929417
N27770 G1 Z13.492 X15.216 Y-9.380003
N27780 G1 Z13.496 X15.712 Y-8.523951
N27790 G1 Z13.500 X16.068 Y-7.822478
N27800 G1 Z13.502 X17.093 Y-7.706306 F600.000
N27810 G1 Z13.507 X17.493 Y-6.749590
N27820 G1 Z13.511 X17.839 Y-5.772862
N27830 G1 Z13.515 X18.115 Y-4.835721
N27840 G1 Z13.518 X18.294 Y-4.110964
N27850 G1 Z13.523 X18.493 Y-3.092250
N27860 G1 Z13.527 X18.629 Y-2.125109
N27870 G1 Z13.530 X18.699 Y-1.381352
N27880 G1 Z13.535 X18.747 Y-0.343652
N27890 G1 Z13.538 X18.746 Y0.383750
N27900 G1 Z13.541 X18.715 Y1.150138
N27910 G1 Z13.544 X18.652 Y1.912507
N27920 G1 Z13.549 X18.509 Y2.990147
N27930 G1 Z13.552 X18.359 Y3.809992
N27940 G1 Z13.556 X18.189 Y4.553354
N27950 G1 Z13.560 X17.873 Y5.666471
N27960 G1 Z13.564 X17.629 Y6.387817
N27970 G1 Z13.569 X17.202 Y7.461935
