; generated by Slic3r 1.2.9 on 2017-05-15 at 15:43:23

; external perimeters extrusion width = 1.10mm
; perimeters extrusion width = 1.10mm
; infill extrusion width = 1.10mm
; solid infill extrusion width = 1.10mm
; top infill extrusion width = 1.10mm

H=1500
$AC_TIMER[1]=0

;General Config.--------------------
G641			;
G603			;
M55			;home mirror
G4F4			;necessary delay for positioning of the mirror				
M0			;wait for user-input

;Process Start-up-------------------
M56			;set canal 1 as laser-source
G4F4			;necessary delay for positioning of the mirror
M0			;wait for user-input
;START POWDER!!!
G4F15

G54

G90 ; use absolute coordinates
G1 X4.511 Y-5.917 Z0.5 F1980.000
ID=1 WHEN $AC_TIMER[1]>=0 DO M50
G1 X4.839 Y-5.6674 F600.000
G1 X5.348 Y-5.1902
G1 X5.853 Y-4.6125
G1 X6.260 Y-4.0421
G1 X6.612 Y-3.4388
G1 X6.951 Y-2.6873
G1 X7.172 Y-2.0241
G1 X7.330 Y-1.3435
G1 X7.429 Y-0.5816
G1 X7.451 Y0.1319
G1 X7.398 Y0.8970
G1 X7.266 Y1.6535
G1 X7.058 Y2.3937
G1 X6.830 Y2.9814
G1 X6.485 Y3.6704
G1 X6.105 Y4.2733
G1 X5.721 Y4.7757
G1 X5.199 Y5.3398
G1 X4.622 Y5.8454
G1 X3.997 Y6.2899
G1 X3.329 Y6.6671
G1 X2.676 Y6.9550
G1 X2.078 Y7.1574
G1 X1.329 Y7.3336
G1 X0.568 Y7.4301
G1 X-0.199 Y7.4496
G1 X-0.964 Y7.3898
G1 X-1.666 Y7.2638
G1 X-2.275 Y7.0962
G1 X-2.995 Y6.8243
G1 X-3.680 Y6.4809
G1 X-4.327 Y6.0674
G1 X-4.928 Y5.5906
G1 X-5.440 Y5.0935
G1 X-5.852 Y4.6140
G1 X-6.296 Y3.9861
G1 X-6.673 Y3.3186
G1 X-6.978 Y2.6151
G1 X-7.210 Y1.8833
G1 X-7.357 Y1.1853
G1 X-7.431 Y0.5578
G1 X-7.449 Y-0.2129
G1 X-7.388 Y-0.9780
G1 X-7.278 Y-1.6004
G1 X-7.092 Y-2.2894
G1 X-6.819 Y-3.0076
G1 X-6.473 Y-3.6911
G1 X-6.060 Y-4.3376
G1 X-5.580 Y-4.9399
G1 X-5.153 Y-5.3830
G1 X-4.570 Y-5.8864
G1 X-3.998 Y-6.2899
G1 X-3.391 Y-6.6366
G1 X-2.638 Y-6.9701
G1 X-1.973 Y-7.1868
G1 X-1.290 Y-7.3394
G1 X-0.528 Y-7.4337
G1 X0.172 Y-7.4501
G1 X0.871 Y-7.4014
G1 X1.563 Y-7.2866 F600.000
G1 X2.239 Y-7.1072
G1 X2.959 Y-6.8395
G1 X3.588 Y-6.5329
G1 X4.151 Y-6.1878
G1 Z0.509 X4.848 Y-5.6863 F600.000
G1 Z0.516 X5.348 Y-5.2183
G1 Z0.524 X5.805 Y-4.7050
G1 Z0.531 X6.213 Y-4.1517
G1 Z0.538 X6.567 Y-3.5657
G1 Z0.547 X6.921 Y-2.8163
G1 Z0.555 X7.173 Y-2.0901
G1 Z0.563 X7.346 Y-1.3674
G1 Z0.571 X7.440 Y-0.6873
G1 Z0.578 X7.472 Y-0.0010
G1 Z0.586 X7.433 Y0.7641
G1 Z0.594 X7.328 Y1.4577
G1 Z0.601 X7.168 Y2.1097
G1 Z0.609 X6.915 Y2.8311
G1 Z0.617 X6.590 Y3.5224
G1 Z0.625 X6.196 Y4.1778
G1 Z0.633 X5.736 Y4.7888
G1 Z0.641 X5.262 Y5.3054
G1 Z0.648 X4.765 Y5.7555
G1 Z0.656 X4.151 Y6.2139
G1 Z0.664 X3.495 Y6.6042
G1 Z0.672 X2.802 Y6.9272
G1 Z0.680 X2.140 Y7.1598
G1 Z0.687 X1.489 Y7.3229
G1 Z0.695 X0.732 Y7.4363
G1 Z0.703 X-0.031 Y7.4726
G1 Z0.711 X-0.793 Y7.4309
G1 Z0.720 X-1.550 Y7.3092
G1 Z0.726 X-2.137 Y7.1604
G1 Z0.734 X-2.859 Y6.9037
G1 Z0.742 X-3.549 Y6.5750
G1 Z0.751 X-4.202 Y6.1783
G1 Z0.759 X-4.811 Y5.7177
G1 Z0.767 X-5.369 Y5.1960
G1 Z0.775 X-5.872 Y4.6213
G1 Z0.783 X-6.314 Y3.9956
G1 Z0.790 X-6.617 Y3.4718
G1 Z0.798 X-6.939 Y2.7721
G1 Z0.804 X-7.141 Y2.2013
G1 Z0.812 X-7.328 Y1.4586
G1 Z0.820 X-7.439 Y0.7029
G1 Z0.829 X-7.472 Y-0.0612
G1 Z0.837 X-7.426 Y-0.8265
G1 Z0.843 X-7.335 Y-1.4257
G1 Z0.851 X-7.150 Y-2.1690
G1 Z0.860 X-6.890 Y-2.8903
G1 Z0.866 X-6.634 Y-3.4395
G1 Z0.874 X-6.246 Y-4.1008
G1 Z0.882 X-5.795 Y-4.7161
G1 Z0.890 X-5.284 Y-5.2833
G1 Z0.899 X-4.712 Y-5.7999
G1 Z0.907 X-4.113 Y-6.2380
G1 Z0.915 X-3.449 Y-6.6288
G1 Z0.923 X-2.775 Y-6.9389
G1 Z0.931 X-2.046 Y-7.1867
G1 Z0.939 X-1.321 Y-7.3549
G1 Z0.946 X-0.642 Y-7.4442
G1 Z0.954 X0.070 Y-7.4708
G1 Z0.962 X0.872 Y-7.4214
G1 Z0.970 X1.546 Y-7.3103 F600.000
G1 Z0.978 X2.291 Y-7.1129
G1 Z0.986 X2.987 Y-6.8491
G1 Z0.993 X3.603 Y-6.5461
G1 Z1.000 X4.162 Y-6.2042
G1 Z1.008 X4.767 Y-5.8047 F600.000
G1 Z1.015 X5.278 Y-5.3432
G1 Z1.022 X5.745 Y-4.8387
G1 Z1.031 X6.246 Y-4.1714
G1 Z1.038 X6.601 Y-3.5831
G1 Z1.047 X6.957 Y-2.8298
G1 Z1.055 X7.187 Y-2.1803
G1 Z1.062 X7.357 Y-1.5119
G1 Z1.070 X7.469 Y-0.7849
G1 Z1.078 X7.511 Y0.0002
G1 Z1.086 X7.471 Y0.7694
G1 Z1.093 X7.374 Y1.4231
G1 Z1.101 X7.205 Y2.1210
G1 Z1.109 X6.951 Y2.8466
G1 Z1.117 X6.624 Y3.5417
G1 Z1.125 X6.228 Y4.1988
G1 Z1.133 X5.766 Y4.8132
G1 Z1.140 X5.319 Y5.3029
G1 Z1.148 X4.789 Y5.7869
G1 Z1.156 X4.173 Y6.2455
G1 Z1.164 X3.513 Y6.6386
G1 Z1.172 X2.817 Y6.9627
G1 Z1.181 X2.090 Y7.2141
G1 Z1.188 X1.447 Y7.3708
G1 Z1.195 X0.737 Y7.4748
G1 Z1.203 X-0.031 Y7.5114
G1 Z1.211 X-0.797 Y7.4685
G1 Z1.220 X-1.556 Y7.3486
G1 Z1.228 X-2.298 Y7.1517
G1 Z1.236 X-3.016 Y6.8798
G1 Z1.244 X-3.704 Y6.5342
G1 Z1.251 X-4.264 Y6.1829
G1 Z1.259 X-4.835 Y5.7479
G1 Z1.267 X-5.397 Y5.2235
G1 Z1.275 X-5.903 Y4.6449
G1 Z1.282 X-6.289 Y4.1066
G1 Z1.290 X-6.652 Y3.4875
G1 Z1.298 X-6.974 Y2.7892
G1 Z1.306 X-7.223 Y2.0615
G1 Z1.313 X-7.376 Y1.4173
G1 Z1.320 X-7.477 Y0.7062
G1 Z1.329 X-7.510 Y-0.0619
G1 Z1.337 X-7.465 Y-0.8302
G1 Z1.344 X-7.362 Y-1.4840
G1 Z1.351 X-7.188 Y-2.1799
G1 Z1.360 X-6.927 Y-2.9035
G1 Z1.368 X-6.594 Y-3.5969
G1 Z1.375 X-6.251 Y-4.1636
G1 Z1.382 X-5.826 Y-4.7405
G1 Z1.390 X-5.310 Y-5.3122
G1 Z1.398 X-4.800 Y-5.7775
G1 Z1.405 X-4.249 Y-6.1937
G1 Z1.412 X-3.664 Y-6.5562
G1 Z1.421 X-2.915 Y-6.9223
G1 Z1.429 X-2.226 Y-7.1735
G1 Z1.437 X-1.464 Y-7.3678
G1 Z1.445 X-0.784 Y-7.4704
G1 Z1.453 X-0.001 Y-7.5101
G1 Z1.461 X0.737 Y-7.4741
G1 Z1.468 X1.420 Y-7.3754 F600.000
G1 Z1.475 X2.089 Y-7.2149
G1 Z1.484 X2.877 Y-6.9386
G1 Z1.492 X3.500 Y-6.6461
G1 Z1.500 X4.182 Y-6.2324
G1 Z1.508 X4.802 Y-5.8514 F600.000
G1 Z1.515 X5.319 Y-5.3853
G1 Z1.522 X5.791 Y-4.87353
G1 Z1.530 X6.215 Y-4.32043
G1 Z1.537 X6.584 Y-3.73315
G1 Z1.546 X6.957 Y-2.98018
G1 Z1.553 X7.201 Y-2.33090
G1 Z1.560 X7.385 Y-1.65879
G1 Z1.568 X7.506 Y-0.97551
G1 Z1.577 X7.567 Y-0.13846
G1 Z1.585 X7.543 Y0.61858
G1 Z1.593 X7.441 Y1.38593
G1 Z1.601 X7.260 Y2.13825
G1 Z1.609 X7.004 Y2.86858
G1 Z1.617 X6.674 Y3.57010
G1 Z1.624 X6.363 Y4.09918
G1 Z1.632 X5.909 Y4.72970
G1 Z1.640 X5.394 Y5.31021
G1 Z1.646 X4.938 Y5.73601
G1 Z1.654 X4.333 Y6.20681
G1 Z1.663 X3.677 Y6.61615
G1 Z1.671 X2.982 Y6.95647
G1 Z1.679 X2.254 Y7.22598
G1 Z1.686 X1.651 Y7.38678
G1 Z1.694 X0.896 Y7.51559
G1 Z1.702 X0.124 Y7.56892
G1 Z1.710 X-0.652 Y7.54145
G1 Z1.716 X-1.261 Y7.46352
G1 Z1.724 X-2.019 Y7.29404
G1 Z1.733 X-2.753 Y7.05037
G1 Z1.741 X-3.458 Y6.73270
G1 Z1.749 X-4.130 Y6.34322
G1 Z1.755 X-4.630 Y5.98729
G1 Z1.764 X-5.219 Y5.48282
G1 Z1.772 X-5.751 Y4.92014
G1 Z1.780 X-6.223 Y4.30747
G1 Z1.788 X-6.632 Y3.64799
G1 Z1.794 X-6.906 Y3.09807
G1 Z1.803 X-7.187 Y2.37459
G1 Z1.811 X-7.391 Y1.62892
G1 Z1.819 X-7.519 Y0.86525
G1 Z1.827 X-7.568 Y0.09357
G1 Z1.835 X-7.538 Y-0.68308
G1 Z1.842 X-7.456 Y-1.30188
G1 Z1.850 X-7.286 Y-2.04868
G1 Z1.858 X-7.038 Y-2.78422
G1 Z1.864 X-6.789 Y-3.34529
G1 Z1.873 X-6.411 Y-4.02381
G1 Z1.881 X-5.967 Y-4.65614
G1 Z1.889 X-5.459 Y-5.24255
G1 Z1.896 X-4.945 Y-5.73029
G1 Z1.905 X-4.280 Y-6.24230
G1 Z1.912 X-3.692 Y-6.60784
G1 Z1.921 X-2.939 Y-6.97468
G1 Z1.930 X-2.150 Y-7.25753
G1 Z1.937 X-1.477 Y-7.42325
G1 Z1.945 X-0.789 Y-7.52812
G1 Z1.952 X-0.077 Y-7.56815
G1 Z1.961 X0.744 Y-7.53288
G1 Z1.968 X1.431 Y-7.43261 F600.000
G1 Z1.975 X2.106 Y-7.27033
G1 Z1.984 X2.899 Y-6.99234
G1 Z1.992 X3.533 Y-6.69454
G1 Z2.000 X4.214 Y-6.28533
G1 Z2.002 X4.405 Y-6.25100 F600.000
G1 Z2.009 X4.959 Y-5.82122
G1 Z2.016 X5.471 Y-5.34245
G1 Z2.025 X6.030 Y-4.70308
G1 Z2.033 X6.436 Y-4.13131
G1 Z2.040 X6.787 Y-3.52454
G1 Z2.049 X7.136 Y-2.75017
G1 Z2.056 X7.357 Y-2.08722
G1 Z2.065 X7.543 Y-1.25985
G1 Z2.072 X7.626 Y-0.56306
G1 Z2.080 X7.646 Y0.15550
G1 Z2.088 X7.590 Y0.93647
G1 Z2.096 X7.454 Y1.70639
G1 Z2.104 X7.250 Y2.43124
G1 Z2.111 X7.017 Y3.04001
G1 Z2.119 X6.669 Y3.74206
G1 Z2.127 X6.252 Y4.40395
G1 Z2.135 X5.770 Y5.01883
G1 Z2.143 X5.226 Y5.58392
G1 Z2.150 X4.756 Y5.98845
G1 Z2.158 X4.118 Y6.44453
G1 Z2.166 X3.438 Y6.83142
G1 Z2.174 X2.723 Y7.14631
G1 Z2.182 X1.977 Y7.38740
G1 Z2.189 X1.372 Y7.52392
G1 Z2.197 X0.594 Y7.62401
G1 Z2.205 X-0.188 Y7.64593
G1 Z2.213 X-0.939 Y7.58978
G1 Z2.220 X-1.582 Y7.48256
G1 Z2.228 X-2.339 Y7.28060
G1 Z2.236 X-3.070 Y7.00449
G1 Z2.244 X-3.769 Y6.65438
G1 Z2.252 X-4.429 Y6.23427
G1 Z2.260 X-5.042 Y5.74919
G1 Z2.268 X-5.583 Y5.22503
G1 Z2.275 X-6.008 Y4.73181
G1 Z2.283 X-6.461 Y4.09185
G1 Z2.291 X-6.845 Y3.41074
G1 Z2.299 X-7.157 Y2.69366
G1 Z2.307 X-7.387 Y1.97751
G1 Z2.314 X-7.529 Y1.34029
G1 Z2.322 X-7.626 Y0.56333
G1 Z2.330 X-7.644 Y-0.21922
G1 Z2.338 X-7.582 Y-0.99811
G1 Z2.347 X-7.440 Y-1.76703
G1 Z2.354 X-7.230 Y-2.49088
G1 Z2.361 X-6.992 Y-3.09765
G1 Z2.369 X-6.637 Y-3.79989
G1 Z2.376 X-6.307 Y-4.32442
G1 Z2.384 X-5.831 Y-4.94853
G1 Z2.392 X-5.306 Y-5.50738
G1 Z2.399 X-4.780 Y-5.96956
G1 Z2.408 X-4.113 Y-6.44717
G1 Z2.415 X-3.480 Y-6.81042
G1 Z2.423 X-2.840 Y-7.10079
G1 Z2.430 X-2.177 Y-7.33102
G1 Z2.439 X-1.351 Y-7.52765
G1 Z2.446 X-0.658 Y-7.61975
G1 Z2.454 X0.134 Y-7.64535
G1 Z2.462 X0.891 Y-7.59564
G1 Z2.470 X1.584 Y-7.48196 F600.000
G1 Z2.477 X2.262 Y-7.30518
G1 Z2.486 X3.058 Y-7.00982
G1 Z2.493 X3.685 Y-6.70186
G1 Z2.500 X4.252 Y-6.34683
G1 Z2.509 X5.023 Y-5.89652 F600.000
G1 Z2.517 X5.544 Y-5.40956
G1 Z2.524 X6.017 Y-4.87760
G1 Z2.531 X6.443 Y-4.29900
G1 Z2.540 X6.873 Y-3.57233
G1 Z2.547 X7.174 Y-2.92073
G1 Z2.555 X7.412 Y-2.25066
G1 Z2.563 X7.602 Y-1.48038
G1 Z2.571 X7.713 Y-0.71193
G1 Z2.578 X7.745 Y-0.00179
G1 Z2.586 X7.705 Y0.79150
G1 Z2.594 X7.584 Y1.57627
G1 Z2.601 X7.431 Y2.18536
G1 Z2.609 X7.168 Y2.93516
G1 Z2.617 X6.831 Y3.65175
G1 Z2.625 X6.422 Y4.32935
G1 Z2.633 X5.946 Y4.96302
G1 Z2.641 X5.459 Y5.49462
G1 Z2.648 X4.939 Y5.96692
G1 Z2.656 X4.303 Y6.44062
G1 Z2.664 X3.623 Y6.84621
G1 Z2.672 X2.905 Y7.18081
G1 Z2.681 X2.155 Y7.44060
G1 Z2.687 X1.545 Y7.59069
G1 Z2.695 X0.759 Y7.70848
G1 Z2.703 X-0.032 Y7.74508
G1 Z2.711 X-0.822 Y7.70268
G1 Z2.720 X-1.605 Y7.57735
G1 Z2.727 X-2.302 Y7.39595
G1 Z2.734 X-2.964 Y7.15633
G1 Z2.742 X-3.617 Y6.84903
G1 Z2.749 X-4.223 Y6.49333
G1 Z2.757 X-4.864 Y6.02702
G1 Z2.765 X-5.454 Y5.49962
G1 Z2.773 X-5.987 Y4.91422
G1 Z2.781 X-6.458 Y4.27781
G1 Z2.790 X-6.861 Y3.59448
G1 Z2.797 X-7.165 Y2.94108
G1 Z2.804 X-7.402 Y2.28039
G1 Z2.812 X-7.597 Y1.51108
G1 Z2.821 X-7.711 Y0.72868
G1 Z2.829 X-7.745 Y-0.06327
G1 Z2.837 X-7.698 Y-0.85487
G1 Z2.845 X-7.570 Y-1.63866
G1 Z2.851 X-7.413 Y-2.24675
G1 Z2.860 X-7.144 Y-2.99354
G1 Z2.868 X-6.800 Y-3.70822
G1 Z2.875 X-6.426 Y-4.32481
G1 Z2.882 X-6.008 Y-4.88810
G1 Z2.891 X-5.476 Y-5.47891
G1 Z2.898 X-4.947 Y-5.96121
G1 Z2.902 X-4.614 Y-6.22289
G1 Z2.907 X-4.268 Y-6.46456
G1 Z2.914 X-3.647 Y-6.83432
G1 Z2.918 X-3.269 Y-7.02299
G1 Z2.923 X-2.881 Y-7.19067
G1 Z2.930 X-2.198 Y-7.42742
G1 Z2.939 X-1.376 Y-7.62375
G1 Z2.946 X-0.665 Y-7.71710
G1 Z2.954 X0.069 Y-7.74471
G1 Z2.958 X0.476 Y-7.73126
G1 Z2.962 X0.896 Y-7.69489 F600.000
G1 Z2.970 X1.603 Y-7.57818
G1 Z2.978 X2.369 Y-7.37490
G1 Z2.986 X3.096 Y-7.10046
G1 Z2.993 X3.739 Y-6.78377
G1 Z3.000 X4.310 Y-6.43378
G1 Z3.008 X4.989 Y-6.07968 F600.000
G1 Z3.015 X5.526 Y-5.59542
G1 Z3.023 X6.045 Y-5.02939
G1 Z3.031 X6.539 Y-4.36737
G1 Z3.039 X6.912 Y-3.75098
G1 Z3.046 X7.245 Y-3.05795
G1 Z3.055 X7.526 Y-2.28193
G1 Z3.062 X7.704 Y-1.57796
G1 Z3.071 X7.830 Y-0.72821
G1 Z3.078 X7.864 Y-0.00127
G1 Z3.086 X7.822 Y0.80596
G1 Z3.093 X7.721 Y1.48843
G1 Z3.101 X7.544 Y2.22037
G1 Z3.109 X7.276 Y2.98206
G1 Z3.115 X7.011 Y3.56283
G1 Z3.124 X6.609 Y4.26147
G1 Z3.132 X6.139 Y4.91491
G1 Z3.140 X5.606 Y5.51536
G1 Z3.148 X5.013 Y6.05880
G1 Z3.156 X4.367 Y6.54044
G1 Z3.163 X3.822 Y6.87221
G1 Z3.171 X3.098 Y7.22885
G1 Z3.179 X2.344 Y7.50630
G1 Z3.187 X1.566 Y7.70674
G1 Z3.195 X0.771 Y7.82618
G1 Z3.203 X-0.032 Y7.86463
G1 Z3.212 X-0.838 Y7.81927
G1 Z3.218 X-1.468 Y7.72504
G1 Z3.226 X-2.252 Y7.53468
G1 Z3.234 X-3.009 Y7.26512
G1 Z3.242 X-3.735 Y6.92056
G1 Z3.251 X-4.422 Y6.50201
G1 Z3.259 X-5.063 Y6.01745
G1 Z3.267 X-5.651 Y5.46989
G1 Z3.275 X-6.179 Y4.86334
G1 Z3.283 X-6.645 Y4.20598
G1 Z3.290 X-6.964 Y3.65375
G1 Z3.298 X-7.301 Y2.92039
G1 Z3.306 X-7.562 Y2.15896
G1 Z3.313 X-7.722 Y1.48645
G1 Z3.321 X-7.829 Y0.73939
G1 Z3.329 X-7.863 Y-0.06488
G1 Z3.337 X-7.816 Y-0.86945
G1 Z3.344 X-7.709 Y-1.55194
G1 Z3.352 X-7.525 Y-2.28288
G1 Z3.360 X-7.253 Y-3.03938
G1 Z3.368 X-6.903 Y-3.76602
G1 Z3.374 X-6.576 Y-4.31379
G1 Z3.382 X-6.099 Y-4.96341
G1 Z3.391 X-5.559 Y-5.56197
G1 Z3.398 X-5.026 Y-6.04867
G1 Z3.405 X-4.449 Y-6.48442
G1 Z3.413 X-3.795 Y-6.88739
G1 Z3.421 X-3.048 Y-7.24972
G1 Z3.430 X-2.241 Y-7.53884
G1 Z3.437 X-1.534 Y-7.71300
G1 Z3.445 X-0.821 Y-7.82167
G1 Z3.453 X-0.005 Y-7.86200
G1 Z3.461 X0.772 Y-7.82665
G1 Z3.468 X1.487 Y-7.72236 F600.000
G1 Z3.476 X2.195 Y-7.55152
G1 Z3.480 X2.604 Y-7.42065
G1 Z3.484 X3.004 Y-7.26873
G1 Z3.492 X3.703 Y-6.93706
G1 Z3.500 X4.371 Y-6.53480
G1 Z3.508 X5.073 Y-6.18914 F600.000
G1 Z3.515 X5.623 Y-5.69319
G1 Z3.522 X6.123 Y-5.15289
G1 Z3.530 X6.570 Y-4.56759
G1 Z3.537 X6.965 Y-3.94064
G1 Z3.546 X7.353 Y-3.15796
G1 Z3.553 X7.613 Y-2.46302
G1 Z3.560 X7.808 Y-1.75370
G1 Z3.568 X7.938 Y-1.01162
G1 Z3.572 X7.981 Y-0.58943
G1 Z3.577 X8.001 Y-0.15303
G1 Z3.585 X7.975 Y0.65474
G1 Z3.593 X7.867 Y1.46519
G1 Z3.601 X7.676 Y2.26063
G1 Z3.609 X7.404 Y3.03526
G1 Z3.615 X7.134 Y3.62583
G1 Z3.624 X6.725 Y4.33646
G1 Z3.632 X6.247 Y5.00090
G1 Z3.640 X5.702 Y5.61453
G1 Z3.646 X5.229 Y6.05709
G1 Z3.655 X4.581 Y6.56173
G1 Z3.663 X3.887 Y6.99416
G1 Z3.671 X3.153 Y7.35560
G1 Z3.679 X2.383 Y7.63922
G1 Z3.686 X1.743 Y7.81074
G1 Z3.694 X0.947 Y7.94642
G1 Z3.702 X0.131 Y8.00187
G1 Z3.710 X-0.687 Y7.97231
G1 Z3.718 X-1.500 Y7.86094
G1 Z3.725 X-2.132 Y7.71350
G1 Z3.733 X-2.910 Y7.45414
G1 Z3.741 X-3.656 Y7.11857
G1 Z3.749 X-4.364 Y6.70701
G1 Z3.757 X-5.026 Y6.22745
G1 Z3.765 X-5.635 Y5.68188
G1 Z3.773 X-6.186 Y5.07632
G1 Z3.782 X-6.673 Y4.41695
G1 Z3.788 X-7.009 Y3.86152
G1 Z3.796 X-7.368 Y3.12315
G1 Z3.804 X-7.649 Y2.35277
G1 Z3.811 X-7.817 Y1.71129
G1 Z3.819 X-7.949 Y0.91597
G1 Z3.827 X-8.001 Y0.09842
G1 Z3.835 X-7.970 Y-0.71985
G1 Z3.843 X-7.854 Y-1.52929
G1 Z3.852 X-7.657 Y-2.32693
G1 Z3.858 X-7.443 Y-2.93849
G1 Z3.866 X-7.102 Y-3.68830
G1 Z3.873 X-6.772 Y-4.26282
G1 Z3.881 X-6.308 Y-4.92350
G1 Z3.889 X-5.772 Y-5.54203
G1 Z3.896 X-5.223 Y-6.06317
G1 Z3.901 X-4.885 Y-6.33983
G1 Z3.905 X-4.527 Y-6.59985
G1 Z3.914 X-3.777 Y-7.05553
G1 Z3.921 X-3.108 Y-7.37458
G1 Z3.929 X-2.412 Y-7.63064
G1 Z3.937 X-1.566 Y-7.84896
G1 Z3.945 X-0.834 Y-7.95897
G1 Z3.952 X-0.069 Y-8.00276
G1 Z3.956 X0.343 Y-7.99572
G1 Z3.961 X0.779 Y-7.96440 F600.000
G1 Z3.968 X1.513 Y-7.85844
G1 Z3.976 X2.245 Y-7.68136
G1 Z3.980 X2.650 Y-7.55117
G1 Z3.984 X3.058 Y-7.39585
G1 Z3.992 X3.729 Y-7.08089
G1 Z4.000 X4.450 Y-6.64993
G1 Z4.005 X4.943 Y-6.49611 F600.000
G1 Z4.009 X5.273 Y-6.23085
G1 Z4.017 X5.846 Y-5.69685
G1 Z4.025 X6.418 Y-5.04385
G1 Z4.033 X6.869 Y-4.40850
G1 Z4.040 X7.247 Y-3.75556
G1 Z4.049 X7.615 Y-2.93847
G1 Z4.053 X7.766 Y-2.51314
G1 Z4.057 X7.886 Y-2.10688
G1 Z4.065 X8.050 Y-1.34652
G1 Z4.072 X8.140 Y-0.60121
G1 Z4.080 X8.160 Y0.16925
G1 Z4.086 X8.120 Y0.83183
G1 Z4.094 X7.992 Y1.65859
G1 Z4.103 X7.781 Y2.46517
G1 Z4.111 X7.487 Y3.24996
G1 Z4.117 X7.200 Y3.84544
G1 Z4.125 X6.768 Y4.56222
G1 Z4.133 X6.267 Y5.22980
G1 Z4.142 X5.700 Y5.84239
G1 Z4.150 X5.074 Y6.39397
G1 Z4.158 X4.395 Y6.87856
G1 Z4.166 X3.669 Y7.29016
G1 Z4.174 X2.926 Y7.61923
G1 Z4.181 X2.276 Y7.83844
G1 Z4.189 X1.461 Y8.03019
G1 Z4.197 X0.634 Y8.13777
G1 Z4.205 X-0.203 Y8.15955
G1 Z4.212 X-0.864 Y8.11603
G1 Z4.220 X-1.690 Y7.98581
G1 Z4.228 X-2.497 Y7.77140
G1 Z4.236 X-3.280 Y7.47418
G1 Z4.242 X-3.874 Y7.18466
G1 Z4.251 X-4.590 Y6.74944
G1 Z4.259 X-5.255 Y6.24503
G1 Z4.267 X-5.865 Y5.67661
G1 Z4.275 X-6.414 Y5.04820
G1 Z4.283 X-6.896 Y4.36680
G1 Z4.291 X-7.296 Y3.65987
G1 Z4.298 X-7.578 Y3.03308
G1 Z4.306 X-7.848 Y2.24183
G1 Z4.314 X-8.036 Y1.42841
G1 Z4.322 X-8.140 Y0.60099
G1 Z4.330 X-8.158 Y-0.23458
G1 Z4.339 X-8.092 Y-1.06516
G1 Z4.347 X-7.940 Y-1.88995
G1 Z4.353 X-7.761 Y-2.52643
G1 Z4.361 X-7.461 Y-3.30823
G1 Z4.369 X-7.095 Y-4.03330
G1 Z4.376 X-6.732 Y-4.61650
G1 Z4.384 X-6.223 Y-5.28127
G1 Z4.392 X-5.660 Y-5.88110
G1 Z4.401 X-5.003 Y-6.44905
G1 Z4.408 X-4.366 Y-6.89670
G1 Z4.416 X-3.714 Y-7.26840
G1 Z4.423 X-3.026 Y-7.58149
G1 Z4.431 X-2.203 Y-7.85952
G1 Z4.439 X-1.444 Y-8.03316
G1 Z4.446 X-0.702 Y-8.13272
G1 Z4.455 X0.159 Y-8.16026
G1 Z4.462 X0.950 Y-8.10692
G1 Z4.470 X1.690 Y-7.98559 F600.000
G1 Z4.477 X2.422 Y-7.79568
G1 Z4.481 X2.844 Y-7.65197
G1 Z4.486 X3.257 Y-7.48426
G1 Z4.493 X3.936 Y-7.15035
G1 Z4.500 X4.533 Y-6.78555
G1 Z4.502 X4.761 Y-6.85170 F600.000
G1 Z4.509 X5.412 Y-6.35032
G1 Z4.517 X5.975 Y-5.82351
G1 Z4.521 X6.284 Y-5.48951
G1 Z4.525 X6.575 Y-5.13751
G1 Z4.533 X7.021 Y-4.50777
G1 Z4.540 X7.406 Y-3.84267
G1 Z4.547 X7.728 Y-3.14657
G1 Z4.555 X7.984 Y-2.42248
G1 Z4.562 X8.173 Y-1.67838
G1 Z4.569 X8.293 Y-0.91564
G1 Z4.574 X8.331 Y-0.46164
G1 Z4.578 X8.344 Y-0.00653
G1 Z4.586 X8.300 Y0.85290
G1 Z4.594 X8.169 Y1.69576
G1 Z4.603 X7.953 Y2.52285
G1 Z4.609 X7.722 Y3.16043
G1 Z4.617 X7.385 Y3.88240
G1 Z4.624 X7.013 Y4.52025
G1 Z4.632 X6.514 Y5.21326
G1 Z4.640 X5.948 Y5.85115
G1 Z4.648 X5.319 Y6.42803
G1 Z4.656 X4.635 Y6.93792
G1 Z4.664 X3.902 Y7.37587
G1 Z4.672 X3.183 Y7.71264
G1 Z4.679 X2.489 Y7.96449
G1 Z4.687 X1.661 Y8.17650
G1 Z4.695 X0.818 Y8.30339
G1 Z4.704 X-0.037 Y8.34347
G1 Z4.710 X-0.713 Y8.31300
G1 Z4.718 X-1.561 Y8.19608
G1 Z4.726 X-2.389 Y7.99497
G1 Z4.734 X-3.196 Y7.70705
G1 Z4.741 X-3.810 Y7.42358
G1 Z4.749 X-4.550 Y6.99466
G1 Z4.757 X-5.240 Y6.49355
G1 Z4.765 X-5.875 Y5.92444
G1 Z4.773 X-6.449 Y5.29332
G1 Z4.782 X-6.956 Y4.60721
G1 Z4.790 X-7.391 Y3.87216
G1 Z4.797 X-7.725 Y3.15293
G1 Z4.804 X-7.974 Y2.45678
G1 Z4.813 X-8.183 Y1.62879
G1 Z4.821 X-8.306 Y0.78468
G1 Z4.829 X-8.343 Y-0.06962
G1 Z4.836 X-8.298 Y-0.86240
G1 Z4.843 X-8.190 Y-1.59325
G1 Z4.852 X-7.984 Y-2.42226
G1 Z4.860 X-7.695 Y-3.22414
G1 Z4.868 X-7.326 Y-3.99303
G1 Z4.876 X-6.880 Y-4.72092
G1 Z4.884 X-6.362 Y-5.39883
G1 Z4.892 X-5.789 Y-6.00858
G1 Z4.899 X-5.213 Y-6.51440
G1 Z4.907 X-4.589 Y-6.96966
G1 Z4.911 X-4.201 Y-7.20966
G1 Z4.916 X-3.802 Y-7.42765
G1 Z4.923 X-3.100 Y-7.74679
G1 Z4.931 X-2.275 Y-8.02794
G1 Z4.939 X-1.476 Y-8.21256
G1 Z4.946 X-0.717 Y-8.31330
G1 Z4.954 X0.106 Y-8.34215
G1 Z4.958 X0.512 Y-8.32864
G1 Z4.962 X0.965 Y-8.28863 F600.000
G1 Z4.970 X1.733 Y-8.16225
G1 Z4.974 X2.176 Y-8.05524
G1 Z4.979 X2.612 Y-7.92424
G1 Z4.986 X3.334 Y-7.64850
G1 Z4.993 X4.022 Y-7.31028
G1 Z5.000 X4.626 Y-6.93527
G1 Z5.008 X5.422 Y-6.60790 F600.000
G1 Z5.015 X6.010 Y-6.07747
G1 Z5.020 X6.333 Y-5.74026
G1 Z5.024 X6.637 Y-5.38504
G1 Z5.031 X7.109 Y-4.74497
G1 Z5.036 X7.358 Y-4.34975
G1 Z5.040 X7.584 Y-3.94153
G1 Z5.047 X7.916 Y-3.22211
G1 Z5.055 X8.179 Y-2.48132
G1 Z5.062 X8.372 Y-1.71954
G1 Z5.069 X8.495 Y-0.93711
G1 Z5.074 X8.534 Y-0.47290
G1 Z5.078 X8.547 Y-0.00478
G1 Z5.085 X8.518 Y0.69692
G1 Z5.093 X8.402 Y1.56447
G1 Z5.101 X8.199 Y2.41481
G1 Z5.109 X7.909 Y3.24025
G1 Z5.116 X7.581 Y3.94696
G1 Z5.124 X7.184 Y4.63051
G1 Z5.132 X6.673 Y5.34093
G1 Z5.140 X6.093 Y5.99428
G1 Z5.148 X5.449 Y6.58463
G1 Z5.156 X4.748 Y7.10697
G1 Z5.164 X3.997 Y7.55441
G1 Z5.172 X3.292 Y7.88712
G1 Z5.179 X2.549 Y8.15867
G1 Z5.187 X1.702 Y8.37509
G1 Z5.195 X0.838 Y8.50544
G1 Z5.204 X-0.035 Y8.54679
G1 Z5.212 X-0.907 Y8.49813
G1 Z5.220 X-1.773 Y8.36168
G1 Z5.226 X-2.445 Y8.19037
G1 Z5.234 X-3.271 Y7.89691
G1 Z5.243 X-4.060 Y7.52126
G1 Z5.251 X-4.806 Y7.06760
G1 Z5.259 X-5.504 Y6.53904
G1 Z5.266 X-6.076 Y6.01075
G1 Z5.274 X-6.606 Y5.42330
G1 Z5.282 X-7.126 Y4.71972
G1 Z5.290 X-7.570 Y3.96707
G1 Z5.298 X-7.937 Y3.17161
G1 Z5.304 X-8.168 Y2.51730
G1 Z5.313 X-8.382 Y1.66785
G1 Z5.321 X-8.509 Y0.80319
G1 Z5.329 X-8.546 Y-0.07054
G1 Z5.337 X-8.494 Y-0.94398
G1 Z5.344 X-8.373 Y-1.71369
G1 Z5.352 X-8.179 Y-2.48023
G1 Z5.360 X-7.883 Y-3.30366
G1 Z5.368 X-7.504 Y-4.09210
G1 Z5.375 X-7.099 Y-4.75881
G1 Z5.383 X-6.630 Y-5.39432
G1 Z5.391 X-6.042 Y-6.04488
G1 Z5.398 X-5.462 Y-6.57300
G1 Z5.405 X-4.831 Y-7.05157
G1 Z5.410 X-4.439 Y-7.30436
G1 Z5.414 X-4.033 Y-7.53514
G1 Z5.422 X-3.314 Y-7.87807
G1 Z5.426 X-2.879 Y-8.04785
G1 Z5.430 X-2.436 Y-8.19363
G1 Z5.438 X-1.662 Y-8.38456
G1 Z5.442 X-1.202 Y-8.46235
G1 Z5.446 X-0.739 Y-8.51510
G1 Z5.454 X0.042 Y-8.54596
G1 Z5.461 X0.838 Y-8.50595
G1 Z5.468 X1.615 Y-8.39303 F600.000
G1 Z5.476 X2.451 Y-8.18749
G1 Z5.484 X3.272 Y-7.89569
G1 Z5.492 X3.987 Y-7.56016
G1 Z5.500 X4.739 Y-7.11164
G1 Z5.508 X5.561 Y-6.78419 F600.000
G1 Z5.515 X6.165 Y-6.24122
G1 Z5.523 X6.716 Y-5.64425
G1 Z5.527 X7.013 Y-5.27084
G1 Z5.531 X7.291 Y-4.87951
G1 Z5.539 X7.737 Y-4.13543
G1 Z5.543 X7.930 Y-3.75157
G1 Z5.547 X8.125 Y-3.30762
G1 Z5.552 X8.295 Y-2.85464
G1 Z5.556 X8.439 Y-2.39629
G1 Z5.564 X8.624 Y-1.60632
G1 Z5.571 X8.735 Y-0.80600
G1 Z5.578 X8.772 Y0.00177
G1 Z5.585 X8.743 Y0.71486
G1 Z5.593 X8.624 Y1.60602
G1 Z5.601 X8.415 Y2.47898
G1 Z5.609 X8.118 Y3.32495
G1 Z5.617 X7.736 Y4.13592
G1 Z5.625 X7.274 Y4.90388
G1 Z5.634 X6.734 Y5.62304
G1 Z5.640 X6.254 Y6.15223
G1 Z5.647 X5.732 Y6.64141
G1 Z5.655 X5.022 Y7.19357
G1 Z5.663 X4.261 Y7.66854
G1 Z5.671 X3.456 Y8.06350
G1 Z5.679 X2.615 Y8.37347
G1 Z5.687 X1.747 Y8.59743
G1 Z5.695 X0.860 Y8.73040
G1 Z5.704 X-0.036 Y8.77237
G1 Z5.712 X-0.934 Y8.72253
G1 Z5.718 X-1.638 Y8.61851
G1 Z5.726 X-2.512 Y8.40568
G1 Z5.734 X-3.357 Y8.10464
G1 Z5.743 X-4.169 Y7.71881
G1 Z5.749 X-4.781 Y7.35579
G1 Z5.757 X-5.509 Y6.82696
G1 Z5.765 X-6.177 Y6.22892
G1 Z5.774 X-6.782 Y5.56401
G1 Z5.780 X-7.242 Y4.94992
G1 Z5.788 X-7.685 Y4.23018
G1 Z5.796 X-8.077 Y3.42320
G1 Z5.804 X-8.384 Y2.58116
G1 Z5.813 X-8.604 Y1.71113
G1 Z5.821 X-8.733 Y0.82409
G1 Z5.829 X-8.772 Y-0.07206
G1 Z5.837 X-8.719 Y-0.96702
G1 Z5.845 X-8.574 Y-1.85519
G1 Z5.852 X-8.395 Y-2.54417
G1 Z5.860 X-8.091 Y-3.39033
G1 Z5.868 X-7.701 Y-4.20043
G1 Z5.875 X-7.304 Y-4.85734
G1 Z5.883 X-6.804 Y-5.53656
G1 Z5.891 X-6.202 Y-6.20471
G1 Z5.898 X-5.607 Y-6.74623
G1 Z5.906 X-4.918 Y-7.26479
G1 Z5.914 X-4.140 Y-7.73460
G1 Z5.921 X-3.407 Y-8.08463
G1 Z5.929 X-2.645 Y-8.36466
G1 Z5.933 X-2.184 Y-8.49732
G1 Z5.938 X-1.716 Y-8.60398
G1 Z5.945 X-0.908 Y-8.72537
G1 Z5.949 X-0.430 Y-8.76204
G1 Z5.953 X-0.019 Y-8.77190
G1 Z5.961 X0.861 Y-8.73080
G1 Z5.968 X1.658 Y-8.61432 F600.000
G1 Z5.976 X2.496 Y-8.41088
G1 Z5.980 X2.904 Y-8.27802
G1 Z5.984 X3.352 Y-8.10772
G1 Z5.992 X4.087 Y-7.76269
G1 Z6.000 X4.868 Y-7.29751
G1 Z6.008 X5.723 Y-6.97350 F600.000
G1 Z6.015 X6.340 Y-6.41878
G1 Z6.023 X6.903 Y-5.80807
G1 Z6.030 X7.407 Y-5.14932
G1 Z6.037 X7.864 Y-4.42074
G1 Z6.042 X8.083 Y-4.00759
G1 Z6.046 X8.290 Y-3.55923
G1 Z6.053 X8.583 Y-2.77787
G1 Z6.061 X8.802 Y-1.97715
G1 Z6.068 X8.947 Y-1.15479
G1 Z6.072 X8.997 Y-0.66441
G1 Z6.077 X9.020 Y-0.17295
G1 Z6.085 X8.991 Y0.73783
G1 Z6.093 X8.869 Y1.65160
G1 Z6.101 X8.654 Y2.54835
G1 Z6.109 X8.348 Y3.41810
G1 Z6.117 X7.955 Y4.25505
G1 Z6.124 X7.583 Y4.88646
G1 Z6.132 X7.043 Y5.63741
G1 Z6.140 X6.429 Y6.32836
G1 Z6.147 X5.894 Y6.82978
G1 Z6.155 X5.164 Y7.39773
G1 Z6.163 X4.382 Y7.88548
G1 Z6.171 X3.552 Y8.29343
G1 Z6.177 X2.867 Y8.55384
G1 Z6.186 X1.977 Y8.80279
G1 Z6.194 X1.068 Y8.95854
G1 Z6.202 X0.145 Y9.02049
G1 Z6.208 X-0.587 Y9.00291
G1 Z6.217 X-1.506 Y8.89486
G1 Z6.225 X-2.406 Y8.69461
G1 Z6.233 X-3.284 Y8.40256
G1 Z6.239 X-3.954 Y8.10897
G1 Z6.248 X-4.764 Y7.66192
G1 Z6.256 X-5.521 Y7.13467
G1 Z6.264 X-6.220 Y6.53342
G1 Z6.272 X-6.857 Y5.86237
G1 Z6.278 X-7.310 Y5.28779
G1 Z6.287 X-7.812 Y4.51074
G1 Z6.295 X-8.232 Y3.68949
G1 Z6.303 X-8.566 Y2.83024
G1 Z6.311 X-8.810 Y1.94099
G1 Z6.319 X-8.962 Y1.03174
G1 Z6.327 X-9.020 Y0.11149
G1 Z6.335 X-8.984 Y-0.81341
G1 Z6.342 X-8.884 Y-1.56780
G1 Z6.350 X-8.684 Y-2.44178
G1 Z6.358 X-8.390 Y-3.31556
G1 Z6.366 X-8.007 Y-4.15531
G1 Z6.374 X-7.541 Y-4.95006
G1 Z6.383 X-6.997 Y-5.69477
G1 Z6.391 X-6.378 Y-6.38063
G1 Z6.398 X-5.742 Y-6.95796
G1 Z6.402 X-5.374 Y-7.24680
G1 Z6.407 X-4.970 Y-7.52944
G1 Z6.414 X-4.253 Y-7.95608
G1 Z6.421 X-3.504 Y-8.31333
G1 Z6.429 X-2.696 Y-8.60976
G1 Z6.433 X-2.246 Y-8.73760
G1 Z6.438 X-1.765 Y-8.84724
G1 Z6.445 X-0.940 Y-8.97281
G1 Z6.453 X-0.055 Y-9.02004
G1 Z6.457 X0.387 Y-9.01311
G1 Z6.461 X0.879 Y-8.97876 F600.000
G1 Z6.468 X1.711 Y-8.85875
G1 Z6.473 X2.192 Y-8.75137
G1 Z6.477 X2.667 Y-8.61899
G1 Z6.484 X3.452 Y-8.33560
G1 Z6.492 X4.230 Y-7.96803
G1 Z6.500 X5.001 Y-7.50612
G1 Z6.506 X5.767 Y-7.28971 F600.000
G1 Z6.511 X6.157 Y-6.96339
G1 Z6.515 X6.528 Y-6.61607
G1 Z6.523 X7.115 Y-5.98083
G1 Z6.527 X7.431 Y-5.58344
G1 Z6.531 X7.725 Y-5.16819
G1 Z6.539 X8.170 Y-4.43159
G1 Z6.546 X8.542 Y-3.66263
G1 Z6.553 X8.843 Y-2.86168
G1 Z6.561 X9.068 Y-2.03673
G1 Z6.568 X9.218 Y-1.18913
G1 Z6.572 X9.269 Y-0.68481
G1 Z6.577 X9.293 Y-0.17741
G1 Z6.585 X9.263 Y0.75920
G1 Z6.593 X9.137 Y1.70193
G1 Z6.601 X8.916 Y2.62564
G1 Z6.609 X8.601 Y3.52135
G1 Z6.617 X8.197 Y4.38107
G1 Z6.625 X7.705 Y5.19797
G1 Z6.632 X7.258 Y5.80596
G1 Z6.640 X6.625 Y6.51887
G1 Z6.648 X5.923 Y7.16277
G1 Z6.655 X5.320 Y7.62101
G1 Z6.663 X4.515 Y8.12466
G1 Z6.671 X3.659 Y8.54357
G1 Z6.677 X2.954 Y8.81256
G1 Z6.686 X2.036 Y9.06846
G1 Z6.694 X1.100 Y9.22918
G1 Z6.702 X0.152 Y9.29389
G1 Z6.710 X-0.797 Y9.26060
G1 Z6.718 X-1.739 Y9.13031
G1 Z6.726 X-2.661 Y8.90502
G1 Z6.734 X-3.557 Y8.58673
G1 Z6.743 X-4.417 Y8.17764
G1 Z6.749 X-5.066 Y7.79262
G1 Z6.757 X-5.837 Y7.23253
G1 Z6.765 X-6.545 Y6.59924
G1 Z6.773 X-7.186 Y5.89414
G1 Z6.780 X-7.643 Y5.28939
G1 Z6.788 X-8.142 Y4.48104
G1 Z6.796 X-8.557 Y3.62775
G1 Z6.804 X-8.884 Y2.73266
G1 Z6.811 X-9.076 Y2.00264
G1 Z6.819 X-9.233 Y1.06255
G1 Z6.827 X-9.293 Y0.11426
G1 Z6.835 X-9.256 Y-0.83816
G1 Z6.842 X-9.157 Y-1.59041
G1 Z6.850 X-8.947 Y-2.51506
G1 Z6.858 X-8.644 Y-3.41677
G1 Z6.866 X-8.250 Y-4.28048
G1 Z6.874 X-7.770 Y-5.10019
G1 Z6.883 X-7.207 Y-5.86805
G1 Z6.889 X-6.706 Y-6.43516
G1 Z6.897 X-6.070 Y-7.03868
G1 Z6.904 X-5.398 Y-7.56670
G1 Z6.911 X-4.676 Y-8.03311
G1 Z6.916 X-4.230 Y-8.27679
G1 Z6.920 X-3.771 Y-8.49547
G1 Z6.927 X-2.965 Y-8.80922
G1 Z6.932 X-2.479 Y-8.95891
G1 Z6.936 X-1.981 Y-9.08194
G1 Z6.940 X-1.477 Y-9.17698
G1 Z6.945 X-0.973 Y-9.24365
G1 Z6.952 X-0.102 Y-9.29488
G1 Z6.957 X0.399 Y-9.28610
G1 Z6.961 X0.906 Y-9.25078 F600.000
G1 Z6.968 X1.762 Y-9.12654
G1 Z6.973 X2.258 Y-9.01622
G1 Z6.977 X2.748 Y-8.87990
G1 Z6.984 X3.557 Y-8.58730
G1 Z6.992 X4.331 Y-8.22335
G1 Z7.000 X5.159 Y-7.72618
G1 Z7.005 X5.809 Y-7.63555 F600.000
G1 Z7.009 X6.206 Y-7.31537
G1 Z7.017 X6.866 Y-6.69972
G1 Z7.024 X7.456 Y-6.03604
G1 Z7.028 X7.775 Y-5.62088
G1 Z7.033 X8.070 Y-5.18672
G1 Z7.040 X8.518 Y-4.41340
G1 Z7.045 X8.746 Y-3.94124
G1 Z7.049 X8.948 Y-3.45708
G1 Z7.056 X9.231 Y-2.61077
G1 Z7.061 X9.360 Y-2.10261
G1 Z7.065 X9.461 Y-1.58745
G1 Z7.072 X9.567 Y-0.70676
G1 Z7.080 X9.591 Y0.20465
G1 Z7.088 X9.522 Y1.16961
G1 Z7.096 X9.354 Y2.12793
G1 Z7.103 X9.143 Y2.90336
G1 Z7.111 X8.802 Y3.81681
G1 Z7.116 X8.557 Y4.33721
G1 Z7.119 X8.367 Y4.69252
G1 Z7.127 X7.845 Y5.52238
G1 Z7.135 X7.244 Y6.29084
G1 Z7.143 X6.567 Y6.99234
G1 Z7.150 X5.961 Y7.51657
G1 Z7.158 X5.166 Y8.08421
G1 Z7.166 X4.311 Y8.57027
G1 Z7.174 X3.413 Y8.96612
G1 Z7.182 X2.488 Y9.26540
G1 Z7.190 X1.537 Y9.46972
G1 Z7.197 X0.742 Y9.56495
G1 Z7.202 X0.154 Y9.59226
G1 Z7.205 X-0.230 Y9.59022
G1 Z7.212 X-1.021 Y9.53992
G1 Z7.216 X-1.589 Y9.46112
G1 Z7.225 X-2.546 Y9.24998
G1 Z7.233 X-3.477 Y8.94184
G1 Z7.239 X-4.205 Y8.62265
G1 Z7.244 X-4.729 Y8.34719
G1 Z7.249 X-5.220 Y8.04859
G1 Z7.252 X-5.552 Y7.82468
G1 Z7.259 X-6.181 Y7.33755
G1 Z7.262 X-6.469 Y7.08451
G1 Z7.267 X-6.896 Y6.67023
G1 Z7.275 X-7.539 Y5.93390
G1 Z7.283 X-8.105 Y5.13277
G1 Z7.291 X-8.584 Y4.28323
G1 Z7.300 X-8.973 Y3.39155
G1 Z7.306 X-9.226 Y2.62997
G1 Z7.314 X-9.445 Y1.67943
G1 Z7.322 X-9.567 Y0.70530
G1 Z7.331 X-9.589 Y-0.27294
G1 Z7.337 X-9.534 Y-1.06044
G1 Z7.345 X-9.378 Y-2.02392
G1 Z7.350 X-9.239 Y-2.58450
G1 Z7.353 X-9.122 Y-2.97080
G1 Z7.361 X-8.772 Y-3.88345
G1 Z7.368 X-8.422 Y-4.59413
G1 Z7.376 X-7.912 Y-5.42561
G1 Z7.384 X-7.320 Y-6.20007
G1 Z7.392 X-6.656 Y-6.90820
G1 Z7.400 X-5.994 Y-7.49010
G1 Z7.407 X-5.280 Y-8.00907
G1 Z7.414 X-4.518 Y-8.46340
G1 Z7.419 X-4.048 Y-8.69724
G1 Z7.423 X-3.562 Y-8.90744
G1 Z7.427 X-3.065 Y-9.09063
G1 Z7.432 X-2.563 Y-9.24447
G1 Z7.439 X-1.698 Y-9.44180
G1 Z7.446 X-0.818 Y-9.55814
G1 Z7.451 X-0.294 Y-9.58999
G1 Z7.455 X0.202 Y-9.59180
G1 Z7.463 X1.116 Y-9.52818
G1 Z7.470 X1.992 Y-9.38447 F600.000
G1 Z7.474 X2.502 Y-9.26131
G1 Z7.479 X3.004 Y-9.11115
G1 Z7.486 X3.834 Y-8.79449
G1 Z7.493 X4.626 Y-8.40446
G1 Z7.500 X5.315 Y-7.98226
G1 Z7.502 X5.684 Y-8.12820 F600.000
G1 Z7.509 X6.432 Y-7.54959
G1 Z7.517 X7.102 Y-6.92399
G1 Z7.521 X7.471 Y-6.52411
G1 Z7.525 X7.799 Y-6.12826
G1 Z7.533 X8.347 Y-5.35765
G1 Z7.540 X8.806 Y-4.56305
G1 Z7.545 X9.043 Y-4.07515
G1 Z7.549 X9.254 Y-3.57061
G1 Z7.553 X9.437 Y-3.05306
G1 Z7.558 X9.589 Y-2.53316
G1 Z7.565 X9.782 Y-1.63660
G1 Z7.572 X9.891 Y-0.73065
G1 Z7.580 X9.916 Y0.20851
G1 Z7.585 X9.887 Y0.78396
G1 Z7.591 X9.786 Y1.61366
G1 Z7.596 X9.669 Y2.21039
G1 Z7.603 X9.454 Y2.99875
G1 Z7.608 X9.253 Y3.57248
G1 Z7.614 X8.932 Y4.31104
G1 Z7.619 X8.648 Y4.85617
G1 Z7.627 X8.128 Y5.68482
G1 Z7.634 X7.613 Y6.35738
G1 Z7.642 X6.926 Y7.09936
G1 Z7.645 X6.633 Y7.37461
G1 Z7.653 X5.845 Y8.01380
G1 Z7.658 X5.341 Y8.35873
G1 Z7.663 X4.816 Y8.67165
G1 Z7.669 X4.096 Y9.03324
G1 Z7.674 X3.563 Y9.25680
G1 Z7.681 X2.759 Y9.52736
G1 Z7.685 X2.200 Y9.67189
G1 Z7.692 X1.378 Y9.82260
G1 Z7.697 X0.770 Y9.88852
G1 Z7.705 X-0.241 Y9.91652
G1 Z7.713 X-1.254 Y9.83991
G1 Z7.721 X-2.249 Y9.66090
G1 Z7.728 X-3.039 Y9.44146
G1 Z7.736 X-3.985 Y9.08345
G1 Z7.744 X-4.889 Y8.63045
G1 Z7.749 X-5.411 Y8.31237
G1 Z7.757 X-6.208 Y7.73543
G1 Z7.764 X-6.837 Y7.18515
G1 Z7.768 X-7.244 Y6.77572
G1 Z7.775 X-7.796 Y6.13127
G1 Z7.783 X-8.380 Y5.30625
G1 Z7.791 X-8.879 Y4.42160
G1 Z7.800 X-9.283 Y3.49362
G1 Z7.808 X-9.590 Y2.53344
G1 Z7.814 X-9.766 Y1.73395
G1 Z7.819 X-9.854 Y1.13168
G1 Z7.827 X-9.917 Y0.14974
G1 Z7.830 X-9.914 Y-0.27981
G1 Z7.837 X-9.858 Y-1.09634
G1 Z7.842 X-9.777 Y-1.66891
G1 Z7.848 X-9.602 Y-2.48662
G1 Z7.857 X-9.298 Y-3.45381
G1 Z7.861 X-9.067 Y-4.02075
G1 Z7.870 X-8.612 Y-4.92057
G1 Z7.876 X-8.177 Y-5.61411
G1 Z7.884 X-7.563 Y-6.41712
G1 Z7.892 X-6.886 Y-7.13854
G1 Z7.900 X-6.197 Y-7.74393
G1 Z7.907 X-5.459 Y-8.28000
G1 Z7.914 X-4.671 Y-8.75044
G1 Z7.919 X-4.186 Y-8.99254
G1 Z7.923 X-3.688 Y-9.20764
G1 Z7.930 X-2.816 Y-9.51043
G1 Z7.935 X-2.292 Y-9.65053
G1 Z7.939 X-1.761 Y-9.76163
G1 Z7.946 X-0.846 Y-9.88242
G1 Z7.951 X-0.304 Y-9.91453
G1 Z7.958 X0.607 Y-9.90051
G1 Z7.962 X1.149 Y-9.85269 F600.000
G1 Z7.970 X2.054 Y-9.70313
G1 Z7.977 X2.942 Y-9.47256
G1 Z7.982 X3.456 Y-9.29766
G1 Z7.986 X3.959 Y-9.09476
G1 Z7.993 X4.787 Y-8.68755
G1 Z8.000 X5.495 Y-8.25386
G1 Z8.008 X6.520 Y-7.93610 F600.000
G1 Z8.012 X6.944 Y-7.56856
G1 Z8.017 X7.348 Y-7.17703
G1 Z8.024 X7.983 Y-6.46310
G1 Z8.029 X8.324 Y-6.01757
G1 Z8.033 X8.644 Y-5.54839
G1 Z8.037 X8.937 Y-5.06224
G1 Z8.041 X9.184 Y-4.59722
G1 Z8.049 X9.583 Y-3.69643
G1 Z8.056 X9.883 Y-2.79510
G1 Z8.061 X10.022 Y-2.25057
G1 Z8.065 X10.130 Y-1.69904
G1 Z8.072 X10.243 Y-0.75673
G1 Z8.080 X10.269 Y0.21270
G1 Z8.087 X10.217 Y1.05283
G1 Z8.091 X10.134 Y1.67601
G1 Z8.095 X10.057 Y2.08632
G1 Z8.098 X9.964 Y2.49362
G1 Z8.103 X9.792 Y3.10207
G1 Z8.108 X9.582 Y3.69951
G1 Z8.114 X9.250 Y4.46513
G1 Z8.119 X8.977 Y4.98962
G1 Z8.126 X8.513 Y5.74697
G1 Z8.129 X8.277 Y6.08284
G1 Z8.134 X7.886 Y6.58131
G1 Z8.138 X7.492 Y7.02500
G1 Z8.142 X7.173 Y7.35208
G1 Z8.145 X6.869 Y7.63734
G1 Z8.150 X6.385 Y8.04581
G1 Z8.155 X5.909 Y8.40150
G1 Z8.158 X5.532 Y8.65440
G1 Z8.163 X5.021 Y8.96024
G1 Z8.169 X4.242 Y9.35556
G1 Z8.174 X3.657 Y9.59804
G1 Z8.179 X3.096 Y9.79373
G1 Z8.183 X2.658 Y9.92181
G1 Z8.190 X1.673 Y10.13455
G1 Z8.197 X0.794 Y10.24071
G1 Z8.202 X0.165 Y10.27091
G1 Z8.205 X-0.250 Y10.26805
G1 Z8.210 X-0.845 Y10.23693
G1 Z8.213 X-1.300 Y10.18901
G1 Z8.221 X-2.292 Y10.01276
G1 Z8.228 X-3.146 Y9.77894
G1 Z8.233 X-3.702 Y9.58139
G1 Z8.236 X-4.125 Y9.40748
G1 Z8.239 X-4.503 Y9.23273
G1 Z8.244 X-5.065 Y8.93537
G1 Z8.248 X-5.422 Y8.72448
G1 Z8.253 X-5.949 Y8.37395
G1 Z8.257 X-6.423 Y8.01564
G1 Z8.264 X-7.081 Y7.44198
G1 Z8.268 X-7.496 Y7.02147
G1 Z8.275 X-8.074 Y6.34966
G1 Z8.280 X-8.425 Y5.87511
G1 Z8.287 X-8.894 Y5.13843
G1 Z8.292 X-9.195 Y4.57807
G1 Z8.295 X-9.372 Y4.20318
G1 Z8.300 X-9.614 Y3.61582
G1 Z8.303 X-9.752 Y3.22592
G1 Z8.308 X-9.932 Y2.61739
G1 Z8.312 X-10.066 Y2.03908
G1 Z8.316 X-10.148 Y1.58917
G1 Z8.324 X-10.254 Y0.58891
G1 Z8.331 X-10.267 Y-0.30027
G1 Z8.334 X-10.247 Y-0.71113
G1 Z8.339 X-10.183 Y-1.34160
G1 Z8.343 X-10.088 Y-1.92729
G1 Z8.347 X-9.994 Y-2.36898
G1 Z8.353 X-9.765 Y-3.18551
G1 Z8.358 X-9.551 Y-3.77776
G1 Z8.365 X-9.213 Y-4.54138
G1 Z8.369 X-8.936 Y-5.06386
G1 Z8.376 X-8.466 Y-5.81622
G1 Z8.379 X-8.227 Y-6.15009
G1 Z8.384 X-7.830 Y-6.64773
G1 Z8.392 X-7.128 Y-7.39682
G1 Z8.397 X-6.709 Y-7.77863
G1 Z8.401 X-6.301 Y-8.11161
G1 Z8.408 X-5.494 Y-8.67882
G1 Z8.416 X-4.674 Y-9.14614
G1 Z8.423 X-3.814 Y-9.53749
G1 Z8.430 X-2.916 Y-9.84821
G1 Z8.435 X-2.373 Y-9.99367
G1 Z8.439 X-1.823 Y-10.10814
G1 Z8.447 X-0.876 Y-10.23421
G1 Z8.451 X-0.315 Y-10.26670
G1 Z8.458 X0.629 Y-10.25297
G1 Z8.463 X1.190 Y-10.20250 F600.000
G1 Z8.470 X2.132 Y-10.04757
G1 Z8.474 X2.679 Y-9.91606
G1 Z8.478 X3.184 Y-9.76505
G1 Z8.486 X4.105 Y-9.41525
G1 Z8.493 X4.952 Y-8.99857
G1 Z8.500 X5.679 Y-8.55338
G1 Z8.505 X6.451 Y-8.47847 F600.000
G1 Z8.513 X7.201 Y-7.85114
G1 Z8.517 X7.625 Y-7.44058
G1 Z8.521 X8.024 Y-7.00891
G1 Z8.529 X8.633 Y-6.24258
G1 Z8.533 X8.965 Y-5.75502
G1 Z8.537 X9.269 Y-5.25134
G1 Z8.542 X9.530 Y-4.76131
G1 Z8.549 X9.937 Y-3.83909
G1 Z8.557 X10.251 Y-2.89963
G1 Z8.561 X10.394 Y-2.33458
G1 Z8.565 X10.506 Y-1.76253
G1 Z8.573 X10.624 Y-0.78469
G1 Z8.580 X10.651 Y0.22018
G1 Z8.587 X10.597 Y1.09253
G1 Z8.591 X10.517 Y1.69956
G1 Z8.595 X10.431 Y2.16478
G1 Z8.598 X10.335 Y2.58613
G1 Z8.603 X10.155 Y3.22042
G1 Z8.606 X10.017 Y3.62762
G1 Z8.611 X9.773 Y4.24091
G1 Z8.614 X9.594 Y4.63112
G1 Z8.619 X9.289 Y5.21540
G1 Z8.622 X9.071 Y5.58661
G1 Z8.627 X8.711 Y6.13250
G1 Z8.634 X8.176 Y6.83027
G1 Z8.637 X7.895 Y7.15228
G1 Z8.642 X7.440 Y7.62540
G1 Z8.647 X6.986 Y8.04269
G1 Z8.653 X6.278 Y8.60725
G1 Z8.658 X5.736 Y8.97736
G1 Z8.663 X5.207 Y9.29465
G1 Z8.670 X4.399 Y9.70324
G1 Z8.674 X3.833 Y9.93932
G1 Z8.681 X2.961 Y10.23392
G1 Z8.684 X2.549 Y10.34488
G1 Z8.689 X1.904 Y10.48217
G1 Z8.692 X1.480 Y10.55037
G1 Z8.697 X0.827 Y10.62149
G1 Z8.702 X0.211 Y10.65178
G1 Z8.705 X-0.262 Y10.65000
G1 Z8.709 X-0.694 Y10.63136
G1 Z8.714 X-1.350 Y10.56764
G1 Z8.717 X-1.776 Y10.50487
G1 Z8.721 X-2.378 Y10.38496
G1 Z8.728 X-3.265 Y10.14155
G1 Z8.731 X-3.668 Y10.00252
G1 Z8.736 X-4.275 Y9.75841
G1 Z8.743 X-5.063 Y9.37301
G1 Z8.747 X-5.594 Y9.06611
G1 Z8.751 X-5.991 Y8.80933
G1 Z8.754 X-6.344 Y8.55868
G1 Z8.759 X-6.861 Y8.15097
G1 Z8.762 X-7.184 Y7.86617
G1 Z8.767 X-7.657 Y7.40746
G1 Z8.771 X-7.950 Y7.09169
G1 Z8.775 X-8.345 Y6.62177
G1 Z8.782 X-8.885 Y5.87737
G1 Z8.785 X-9.114 Y5.51733
G1 Z8.790 X-9.437 Y4.94262
G1 Z8.793 X-9.629 Y4.55783
G1 Z8.798 X-9.892 Y3.95594
G1 Z8.803 X-10.104 Y3.37623
G1 Z8.806 X-10.244 Y2.92545
G1 Z8.810 X-10.354 Y2.50781
G1 Z8.814 X-10.489 Y1.86110
G1 Z8.818 X-10.556 Y1.43730
G1 Z8.823 X-10.624 Y0.78341
G1 Z8.827 X-10.652 Y0.16770
G1 Z8.831 X-10.649 Y-0.30373
G1 Z8.836 X-10.610 Y-0.96097
G1 Z8.842 X-10.497 Y-1.81978
G1 Z8.847 X-10.374 Y-2.42087
G1 Z8.854 X-10.127 Y-3.30647
G1 Z8.857 X-9.987 Y-3.70943
G1 Z8.862 X-9.740 Y-4.31432
G1 Z8.868 X-9.352 Y-5.10192
G1 Z8.873 X-9.043 Y-5.63102
G1 Z8.876 X-8.786 Y-6.02507
G1 Z8.881 X-8.421 Y-6.52551
G1 Z8.888 X-7.836 Y-7.21709
G1 Z8.892 X-7.396 Y-7.66731
G1 Z8.900 X-6.653 Y-8.32081
G1 Z8.904 X-6.187 Y-8.67278
G1 Z8.908 X-5.727 Y-8.98274
G1 Z8.916 X-4.853 Y-9.48453
G1 Z8.923 X-3.951 Y-9.89307
G1 Z8.928 X-3.403 Y-10.09504
G1 Z8.935 X-2.463 Y-10.36571
G1 Z8.939 X-1.891 Y-10.48479
G1 Z8.947 X-0.909 Y-10.61433
G1 Z8.951 X-0.326 Y-10.64830
G1 Z8.958 X0.652 Y-10.63303
G1 Z8.963 X1.234 Y-10.58105 F600.000
G1 Z8.970 X2.206 Y-10.42223
G1 Z8.977 X3.160 Y-10.17441
G1 Z8.982 X3.712 Y-9.98636
G1 Z8.986 X4.253 Y-9.76731
G1 Z8.994 X5.137 Y-9.33349
G1 Z9.000 X5.878 Y-8.87953
G1 Z9.005 X6.699 Y-8.80835 F600.000
G1 Z9.010 X7.173 Y-8.42704
G1 Z9.017 X7.920 Y-7.72889
G1 Z9.024 X8.600 Y-6.96474
G1 Z9.029 X8.969 Y-6.48329
G1 Z9.033 X9.310 Y-5.98284
G1 Z9.040 X9.825 Y-5.09204
G1 Z9.045 X10.089 Y-4.54660
G1 Z9.049 X10.323 Y-3.98715
G1 Z9.057 X10.648 Y-3.01235
G1 Z9.061 X10.797 Y-2.42590
G1 Z9.065 X10.914 Y-1.83045
G1 Z9.073 X11.036 Y-0.81428
G1 Z9.080 X11.064 Y0.23489
G1 Z9.083 X11.046 Y0.67696
G1 Z9.088 X10.983 Y1.35703
G1 Z9.091 X10.919 Y1.80042
G1 Z9.096 X10.787 Y2.47249
G1 Z9.100 X10.678 Y2.90590
G1 Z9.104 X10.489 Y3.52540
G1 Z9.111 X10.152 Y4.40555
G1 Z9.116 X9.876 Y4.99103
G1 Z9.119 X9.652 Y5.41359
G1 Z9.124 X9.299 Y5.99962
G1 Z9.131 X8.781 Y6.73479
G1 Z9.135 X8.350 Y7.26367
G1 Z9.140 X7.908 Y7.74138
G1 Z9.144 X7.566 Y8.07597
G1 Z9.148 X7.076 Y8.50884
G1 Z9.155 X6.337 Y9.07216
G1 Z9.160 X5.795 Y9.42766
G1 Z9.166 X4.970 Y9.88799
G1 Z9.170 X4.570 Y10.07915
G1 Z9.174 X3.940 Y10.34104
G1 Z9.179 X3.325 Y10.55575
G1 Z9.183 X2.864 Y10.68951
G1 Z9.186 X2.427 Y10.79706
G1 Z9.191 X1.755 Y10.92613
G1 Z9.194 X1.312 Y10.98853
G1 Z9.199 X0.667 Y11.04604
G1 Z9.205 X-0.272 Y11.06397
G1 Z9.212 X-1.178 Y11.00371
G1 Z9.217 X-1.820 Y10.91522
G1 Z9.220 X-2.290 Y10.82780
G1 Z9.225 X-2.925 Y10.67268
G1 Z9.228 X-3.386 Y10.53644
G1 Z9.231 X-3.811 Y10.38999
G1 Z9.236 X-4.446 Y10.13406
G1 Z9.240 X-4.851 Y9.94645
G1 Z9.244 X-5.457 Y9.62751
G1 Z9.248 X-5.841 Y9.39990
G1 Z9.253 X-6.411 Y9.02097
G1 Z9.256 X-6.770 Y8.75436
G1 Z9.261 X-7.299 Y8.31843
G1 Z9.264 X-7.629 Y8.01684
G1 Z9.269 X-8.085 Y7.55634
G1 Z9.275 X-8.700 Y6.83967
G1 Z9.279 X-8.967 Y6.48583
G1 Z9.284 X-9.351 Y5.91889
G1 Z9.287 X-9.582 Y5.53628
G1 Z9.292 X-9.905 Y4.93517
G1 Z9.296 X-10.178 Y4.34488
G1 Z9.300 X-10.357 Y3.89864
G1 Z9.303 X-10.507 Y3.47419
G1 Z9.308 X-10.702 Y2.81826
G1 Z9.311 X-10.807 Y2.38365
G1 Z9.316 X-10.933 Y1.71072
G1 Z9.319 X-10.993 Y1.26713
G1 Z9.324 X-11.048 Y0.62263
G1 Z9.331 X-11.061 Y-0.32396
G1 Z9.334 X-11.040 Y-0.76612
G1 Z9.339 X-10.972 Y-1.44279
G1 Z9.345 X-10.816 Y-2.34293
G1 Z9.349 X-10.713 Y-2.77413
G1 Z9.354 X-10.522 Y-3.42801
G1 Z9.358 X-10.302 Y-4.04172
G1 Z9.362 X-10.119 Y-4.48009
G1 Z9.368 X-9.714 Y-5.30140
G1 Z9.371 X-9.493 Y-5.68759
G1 Z9.376 X-9.125 Y-6.26046
G1 Z9.381 X-8.722 Y-6.81133
G1 Z9.384 X-8.438 Y-7.15992
G1 Z9.388 X-8.140 Y-7.49753
G1 Z9.392 X-7.683 Y-7.96447
G1 Z9.400 X-6.915 Y-8.63928
G1 Z9.407 X-6.091 Y-9.23877
G1 Z9.414 X-5.212 Y-9.76262
G1 Z9.419 X-4.670 Y-10.03317
G1 Z9.423 X-4.109 Y-10.27508
G1 Z9.428 X-3.535 Y-10.48600
G1 Z9.435 X-2.559 Y-10.76633
G1 Z9.439 X-1.964 Y-10.89003
G1 Z9.447 X-0.944 Y-11.02623
G1 Z9.451 X-0.339 Y-11.06180
G1 Z9.458 X0.677 Y-11.04518
G1 Z9.463 X1.282 Y-10.99283 F600.000
G1 Z9.470 X2.292 Y-10.82667
G1 Z9.477 X3.282 Y-10.56852
G1 Z9.482 X3.856 Y-10.37307
G1 Z9.486 X4.418 Y-10.14662
G1 Z9.494 X5.340 Y-9.69283
G1 Z9.500 X6.107 Y-9.22489
G1 Z9.507 X7.138 Y-9.03275 F600.000
G1 Z9.514 X7.936 Y-8.33995
G1 Z9.518 X8.383 Y-7.89040
G1 Z9.526 X9.075 Y-7.08213
G1 Z9.533 X9.688 Y-6.21850
G1 Z9.540 X10.221 Y-5.29723
G1 Z9.545 X10.496 Y-4.73051
G1 Z9.549 X10.739 Y-4.14879
G1 Z9.557 X11.077 Y-3.13488
G1 Z9.561 X11.233 Y-2.52216
G1 Z9.565 X11.354 Y-1.90344
G1 Z9.573 X11.481 Y-0.84252
G1 Z9.577 X11.510 Y-0.21096
G1 Z9.583 X11.491 Y0.70307
G1 Z9.588 X11.425 Y1.41206
G1 Z9.591 X11.359 Y1.87373
G1 Z9.596 X11.223 Y2.56632
G1 Z9.603 X10.973 Y3.48203
G1 Z9.606 X10.824 Y3.92051
G1 Z9.611 X10.561 Y4.58250
G1 Z9.614 X10.368 Y5.00517
G1 Z9.619 X10.038 Y5.63615
G1 Z9.622 X9.802 Y6.03783
G1 Z9.627 X9.419 Y6.61976
G1 Z9.634 X8.837 Y7.37894
G1 Z9.639 X8.375 Y7.89986
G1 Z9.642 X8.044 Y8.23601
G1 Z9.648 X7.337 Y8.87171
G1 Z9.653 X6.787 Y9.29964
G1 Z9.657 X6.398 Y9.57199
G1 Z9.661 X5.803 Y9.94330
G1 Z9.665 X5.385 Y10.17584
G1 Z9.668 X4.967 Y10.38669
G1 Z9.673 X4.316 Y10.67368
G1 Z9.676 X3.881 Y10.83835
G1 Z9.681 X3.206 Y11.05715
G1 Z9.686 X2.529 Y11.23128
G1 Z9.689 X2.061 Y11.32682
G1 Z9.692 X1.599 Y11.40167
G1 Z9.697 X0.894 Y11.47746
G1 Z9.702 X0.186 Y11.51125
G1 Z9.709 X-0.750 Y11.48898
G1 Z9.714 X-1.459 Y11.42097
G1 Z9.717 X-1.919 Y11.35164
G1 Z9.722 X-2.611 Y11.21223
G1 Z9.728 X-3.527 Y10.95994
G1 Z9.731 X-3.964 Y10.80841
G1 Z9.736 X-4.620 Y10.54501
G1 Z9.743 X-5.473 Y10.12871
G1 Z9.746 X-5.876 Y9.90019
G1 Z9.751 X-6.476 Y9.51818
G1 Z9.754 X-6.856 Y9.24885
G1 Z9.759 X-7.414 Y8.80784
G1 Z9.762 X-7.764 Y8.50051
G1 Z9.767 X-8.274 Y8.00450
G1 Z9.771 X-8.591 Y7.66317
G1 Z9.775 X-9.048 Y7.11816
G1 Z9.779 X-9.329 Y6.74683
G1 Z9.784 X-9.726 Y6.15962
G1 Z9.788 X-10.087 Y5.54941
G1 Z9.795 X-10.504 Y4.71113
G1 Z9.800 X-10.774 Y4.05593
G1 Z9.805 X-11.001 Y3.39305
G1 Z9.811 X-11.242 Y2.47944
G1 Z9.816 X-11.371 Y1.79437
G1 Z9.823 X-11.481 Y0.84175
G1 Z9.826 X-11.506 Y0.37921
G1 Z9.831 X-11.508 Y-0.33000
G1 Z9.836 X-11.465 Y-1.03779
G1 Z9.842 X-11.343 Y-1.96552
G1 Z9.847 X-11.201 Y-2.65711
G1 Z9.854 X-10.945 Y-3.56963
G1 Z9.858 X-10.709 Y-4.22555
G1 Z9.862 X-10.527 Y-4.66070
G1 Z9.868 X-10.105 Y-5.51559
G1 Z9.871 X-9.876 Y-5.91607
G1 Z9.876 X-9.491 Y-6.51505
G1 Z9.880 X-9.220 Y-6.89373
G1 Z9.884 X-8.777 Y-7.45071
G1 Z9.888 X-8.468 Y-7.79940
G1 Z9.892 X-7.992 Y-8.28621
G1 Z9.900 X-7.190 Y-8.99125
G1 Z9.904 X-6.686 Y-9.37154
G1 Z9.909 X-6.164 Y-9.72375
G1 Z9.916 X-5.243 Y-10.24919
G1 Z9.923 X-4.270 Y-10.69128
G1 Z9.928 X-3.678 Y-10.90956
G1 Z9.935 X-2.662 Y-11.20076
G1 Z9.939 X-2.043 Y-11.32921
G1 Z9.947 X-0.983 Y-11.47030
G1 Z9.951 X-0.353 Y-11.50758
G1 Z9.958 X0.704 Y-11.49180
G1 Z9.963 X1.334 Y-11.43523 F600.000
G1 Z9.970 X2.384 Y-11.26296
G1 Z9.977 X3.414 Y-10.99469
G1 Z9.982 X4.011 Y-10.79197
G1 Z9.986 X4.596 Y-10.55525
G1 Z9.994 X5.555 Y-10.08334
G1 Z10.000 X6.353 Y-9.59500
G1 Z10.004 X7.084 Y-9.67912 F600.000
G1 Z10.008 X7.611 Y-9.27098
G1 Z10.016 X8.431 Y-8.53247
G1 Z10.023 X9.178 Y-7.72379
G1 Z10.027 X9.591 Y-7.20342
G1 Z10.035 X10.213 Y-6.29194
G1 Z10.042 X10.747 Y-5.32727
G1 Z10.049 X11.190 Y-4.31960
G1 Z10.057 X11.540 Y-3.27209
G1 Z10.061 X11.703 Y-2.62878
G1 Z10.065 X11.830 Y-1.97828
G1 Z10.070 X11.922 Y-1.32097
G1 Z10.077 X11.993 Y-0.22124
G1 Z10.082 X11.985 Y0.49341
G1 Z10.085 X11.955 Y0.98068
G1 Z10.088 X11.905 Y1.46594
G1 Z10.093 X11.792 Y2.19681
G1 Z10.098 X11.635 Y2.91768
G1 Z10.105 X11.359 Y3.85317
G1 Z10.109 X11.099 Y4.54724
G1 Z10.113 X10.906 Y4.99333
G1 Z10.118 X10.580 Y5.65194
G1 Z10.124 X10.064 Y6.52622
G1 Z10.129 X9.662 Y7.10890
G1 Z10.132 X9.367 Y7.49397
G1 Z10.137 X8.886 Y8.05704
G1 Z10.140 X8.555 Y8.40890
G1 Z10.147 X7.832 Y9.08438
G1 Z10.152 X7.261 Y9.54805
G1 Z10.155 X6.869 Y9.83311
G1 Z10.160 X6.248 Y10.23917
G1 Z10.163 X5.827 Y10.48543
G1 Z10.166 X5.395 Y10.71368
G1 Z10.171 X4.726 Y11.02455
G1 Z10.176 X4.038 Y11.29542
G1 Z10.179 X3.578 Y11.44948
G1 Z10.184 X2.864 Y11.64855
G1 Z10.188 X2.394 Y11.75340
G1 Z10.194 X1.414 Y11.91108
G1 Z10.197 X0.934 Y11.95894
G1 Z10.202 X0.194 Y11.99398
G1 Z10.206 X-0.320 Y11.99003
G1 Z10.210 X-1.032 Y11.95012
G1 Z10.214 X-1.514 Y11.89919
G1 Z10.218 X-2.244 Y11.78306
G1 Z10.223 X-2.965 Y11.62393
G1 Z10.227 X-3.430 Y11.49478
G1 Z10.233 X-4.368 Y11.17146
G1 Z10.236 X-4.813 Y10.98732
G1 Z10.241 X-5.478 Y10.67199
G1 Z10.248 X-6.339 Y10.18347
G1 Z10.251 X-6.743 Y9.92033
G1 Z10.256 X-7.343 Y9.48440
G1 Z10.259 X-7.720 Y9.18045
G1 Z10.264 X-8.273 Y8.68552
G1 Z10.267 X-8.617 Y8.34458
G1 Z10.272 X-9.114 Y7.79745
G1 Z10.277 X-9.577 Y7.22232
G1 Z10.284 X-10.132 Y6.42081
G1 Z10.288 X-10.509 Y5.78285
G1 Z10.292 X-10.747 Y5.32690
G1 Z10.297 X-11.045 Y4.67899
G1 Z10.300 X-11.225 Y4.22806
G1 Z10.305 X-11.463 Y3.53270
G1 Z10.311 X-11.720 Y2.55098
G1 Z10.316 X-11.851 Y1.85467
G1 Z10.319 X-11.916 Y1.37190
G1 Z10.323 X-11.964 Y0.85716
G1 Z10.328 X-11.994 Y0.14521
G1 Z10.331 X-11.989 Y-0.36928
G1 Z10.336 X-11.946 Y-1.08033
G1 Z10.339 X-11.889 Y-1.59140
G1 Z10.344 X-11.774 Y-2.29229
G1 Z10.349 X-11.610 Y-3.01217
G1 Z10.352 X-11.480 Y-3.47601
G1 Z10.359 X-11.144 Y-4.43748
G1 Z10.363 X-10.863 Y-5.08617
G1 Z10.367 X-10.647 Y-5.52444
G1 Z10.370 X-10.414 Y-5.95269
G1 Z10.375 X-10.026 Y-6.58476
G1 Z10.378 X-9.752 Y-6.98481
G1 Z10.383 X-9.302 Y-7.57379
G1 Z10.386 X-8.988 Y-7.94394
G1 Z10.391 X-8.479 Y-8.48404
G1 Z10.394 X-8.166 Y-8.78664
G1 Z10.401 X-7.323 Y-9.50013
G1 Z10.406 X-6.786 Y-9.89181
G1 Z10.410 X-6.228 Y-10.25147
G1 Z10.413 X-5.828 Y-10.48392
G1 Z10.417 X-5.261 Y-10.77982
G1 Z10.422 X-4.656 Y-11.05452
G1 Z10.429 X-3.622 Y-11.43583
G1 Z10.433 X-2.986 Y-11.61734
G1 Z10.441 X-1.908 Y-11.84266
G1 Z10.445 X-1.249 Y-11.93034
G1 Z10.450 X-0.587 Y-11.98095
G1 Z10.457 X0.515 Y-11.98433
G1 Z10.464 X1.612 Y-11.88666 F600.000
G1 Z10.469 X2.270 Y-11.77849
G1 Z10.476 X3.341 Y-11.52082
G1 Z10.480 X3.972 Y-11.31834
G1 Z10.485 X4.590 Y-11.08285
G1 Z10.489 X5.197 Y-10.81150
G1 Z10.496 X6.166 Y-10.28883
G1 Z10.500 X6.613 Y-10.00306
G1 Z10.504 X7.394 Y-10.09924 F600.000
G1 Z10.508 X7.942 Y-9.67499
G1 Z10.511 X8.289 Y-9.37899
G1 Z10.515 X8.798 Y-8.90387
G1 Z10.518 X9.116 Y-8.57787
G1 Z10.523 X9.577 Y-8.05858
G1 Z10.527 X10.007 Y-7.51805
G1 Z10.532 X10.408 Y-6.95281
G1 Z10.534 X10.655 Y-6.56881
G1 Z10.539 X11.003 Y-5.96670
G1 Z10.542 X11.213 Y-5.56170
G1 Z10.546 X11.505 Y-4.92958
G1 Z10.549 X11.677 Y-4.50758
G1 Z10.554 X11.908 Y-3.85329
G1 Z10.558 X12.103 Y-3.19081
G1 Z10.562 X12.261 Y-2.51734
G1 Z10.567 X12.381 Y-1.83787
G1 Z10.571 X12.463 Y-1.15040
G1 Z10.576 X12.508 Y-0.45811
G1 Z10.578 X12.516 Y-0.00685
G1 Z10.585 X12.474 Y1.02856
G1 Z10.588 X12.423 Y1.52992
G1 Z10.593 X12.304 Y2.29423
G1 Z10.596 X12.202 Y2.79079
G1 Z10.601 X12.006 Y3.53702
G1 Z10.605 X11.825 Y4.10166
G1 Z10.609 X11.582 Y4.74492
G1 Z10.613 X11.380 Y5.21056
G1 Z10.618 X11.037 Y5.90384
G1 Z10.621 X10.789 Y6.34439
G1 Z10.626 X10.377 Y6.99971
G1 Z10.629 X10.085 Y7.41326
G1 Z10.634 X9.609 Y8.02049
G1 Z10.638 X9.218 Y8.46614
G1 Z10.642 X8.744 Y8.95600
G1 Z10.648 X7.978 Y9.64433
G1 Z10.653 X7.371 Y10.11625
G1 Z10.657 X6.955 Y10.40691
G1 Z10.660 X6.451 Y10.72576
G1 Z10.665 X5.854 Y11.06393
G1 Z10.668 X5.323 Y11.32862
G1 Z10.673 X4.698 Y11.60149
G1 Z10.679 X3.728 Y11.94881
G1 Z10.684 X2.989 Y12.15473
G1 Z10.691 X1.991 Y12.35722
G1 Z10.696 X1.227 Y12.45634
G1 Z10.701 X0.458 Y12.50845
G1 Z10.704 X-0.048 Y12.51601
G1 Z10.709 X-0.821 Y12.48932
G1 Z10.712 X-1.323 Y12.44668
G1 Z10.718 X-2.344 Y12.29516
G1 Z10.723 X-3.094 Y12.12807
G1 Z10.727 X-3.583 Y11.99374
G1 Z10.730 X-4.150 Y11.80858
G1 Z10.735 X-4.792 Y11.56384
G1 Z10.738 X-5.256 Y11.35945
G1 Z10.743 X-5.948 Y11.01376
G1 Z10.746 X-6.388 Y10.76332
G1 Z10.751 X-7.041 Y10.34863
G1 Z10.754 X-7.454 Y10.05518
G1 Z10.759 X-8.056 Y9.57910
G1 Z10.766 X-8.817 Y8.88349
G1 Z10.769 X-9.226 Y8.45794
G1 Z10.774 X-9.677 Y7.93920
G1 Z10.777 X-9.990 Y7.54080
G1 Z10.782 X-10.434 Y6.91372
G1 Z10.788 X-10.968 Y6.03020
G1 Z10.792 X-11.202 Y5.58455
G1 Z10.797 X-11.525 Y4.88287
G1 Z10.800 X-11.713 Y4.41242
G1 Z10.805 X-11.963 Y3.68165
G1 Z10.808 X-12.123 Y3.11030
G1 Z10.813 X-12.276 Y2.44236
G1 Z10.818 X-12.403 Y1.68252
G1 Z10.821 X-12.461 Y1.17628
G1 Z10.824 X-12.499 Y0.66803
G1 Z10.829 X-12.516 Y-0.10095
G1 Z10.836 X-12.465 Y-1.12822
G1 Z10.840 X-12.373 Y-1.89014
G1 Z10.847 X-12.178 Y-2.88963
G1 Z10.852 X-11.977 Y-3.63586
G1 Z10.856 X-11.791 Y-4.19851
G1 Z10.860 X-11.543 Y-4.83977
G1 Z10.863 X-11.338 Y-5.30337
G1 Z10.868 X-10.991 Y-5.98829
G1 Z10.875 X-10.460 Y-6.87376
G1 Z10.878 X-10.176 Y-7.28812
G1 Z10.883 X-9.707 Y-7.90233
G1 Z10.886 X-9.378 Y-8.28999
G1 Z10.891 X-8.850 Y-8.85116
G1 Z10.895 X-8.347 Y-9.32781
G1 Z10.898 X-8.001 Y-9.62581
G1 Z10.903 X-7.455 Y-10.05462
G1 Z10.906 X-7.019 Y-10.36210
G1 Z10.910 X-6.501 Y-10.69636
G1 Z10.914 X-5.898 Y-11.04011
G1 Z10.917 X-5.492 Y-11.24711
G1 Z10.922 X-4.861 Y-11.53481
G1 Z10.926 X-4.217 Y-11.78534
G1 Z10.931 X-3.557 Y-12.00005
G1 Z10.933 X-3.118 Y-12.12205
G1 Z10.938 X-2.440 Y-12.27686
G1 Z10.941 X-1.915 Y-12.36934
G1 Z10.945 X-1.304 Y-12.44860
G1 Z10.950 X-0.614 Y-12.50117
G1 Z10.957 X0.537 Y-12.50598
G1 Z10.961 X1.228 Y-12.45666 F600.000
G1 Z10.965 X1.758 Y-12.39214
G1 Z10.969 X2.366 Y-12.29140
G1 Z10.973 X3.043 Y-12.14107
G1 Z10.976 X3.557 Y-12.00055
G1 Z10.980 X4.144 Y-11.81181
G1 Z10.985 X4.792 Y-11.56356
G1 Z10.988 X5.210 Y-11.38156
G1 Z10.992 X5.832 Y-11.07427
G1 Z10.996 X6.436 Y-10.73590
G1 Z11.000 X6.912 Y-10.43346
G1 Z11.005 X7.921 Y-10.40917 F600.000
G1 Z11.009 X8.411 Y-10.01632
G1 Z11.013 X8.842 Y-9.63956
G1 Z11.017 X9.364 Y-9.13354
G1 Z11.020 X9.690 Y-8.78600
G1 Z11.024 X10.162 Y-8.23689
G1 Z11.029 X10.601 Y-7.66266
G1 Z11.033 X10.957 Y-7.14380
G1 Z11.036 X11.260 Y-6.65704
G1 Z11.040 X11.611 Y-6.02390
G1 Z11.044 X11.886 Y-5.45804
G1 Z11.048 X12.115 Y-4.93233
G1 Z11.052 X12.338 Y-4.34357
G1 Z11.055 X12.517 Y-3.79786
G1 Z11.059 X12.685 Y-3.19009
G1 Z11.065 X12.901 Y-2.16004
G1 Z11.070 X13.000 Y-1.44294
G1 Z11.074 X13.060 Y-0.72172
G1 Z11.078 X13.083 Y-0.00132
G1 Z11.083 X13.055 Y0.80486
G1 Z11.087 X13.012 Y1.33421
G1 Z11.092 X12.905 Y2.13384
G1 Z11.095 X12.808 Y2.65721
G1 Z11.098 X12.689 Y3.17558
G1 Z11.103 X12.469 Y3.95013
G1 Z11.108 X12.203 Y4.71067
G1 Z11.111 X12.003 Y5.19765
G1 Z11.118 X11.533 Y6.17156
G1 Z11.121 X11.275 Y6.63054
G1 Z11.126 X10.846 Y7.31108
G1 Z11.131 X10.375 Y7.96563
G1 Z11.134 X10.043 Y8.38000
G1 Z11.137 X9.694 Y8.78237
G1 Z11.142 X9.137 Y9.36072
G1 Z11.149 X8.335 Y10.08143
G1 Z11.152 X7.922 Y10.40841
G1 Z11.157 X7.266 Y10.87601
G1 Z11.161 X6.675 Y11.24806
G1 Z11.165 X6.118 Y11.56197
G1 Z11.168 X5.643 Y11.80024
G1 Z11.173 X4.906 Y12.12579
G1 Z11.178 X4.151 Y12.40433
G1 Z11.184 X3.128 Y12.70112
G1 Z11.189 X2.443 Y12.84936
G1 Z11.192 X1.812 Y12.95427
G1 Z11.199 X0.751 Y13.05910
G1 Z11.204 X-0.056 Y13.08084
G1 Z11.207 X-0.586 Y13.06701
G1 Z11.212 X-1.391 Y13.00676
G1 Z11.215 X-1.917 Y12.93999
G1 Z11.219 X-2.608 Y12.81723
G1 Z11.223 X-3.231 Y12.67514
G1 Z11.230 X-4.252 Y12.37097
G1 Z11.235 X-5.006 Y12.08451
G1 Z11.240 X-5.740 Y11.75406
G1 Z11.243 X-6.211 Y11.51223
G1 Z11.248 X-6.910 Y11.10698
G1 Z11.251 X-7.354 Y10.81721
G1 Z11.255 X-7.923 Y10.40745
G1 Z11.259 X-8.422 Y10.00836
G1 Z11.262 X-8.822 Y9.65766
G1 Z11.267 X-9.361 Y9.13539
G1 Z11.274 X-10.111 Y8.29830
G1 Z11.277 X-10.440 Y7.88067
G1 Z11.282 X-10.906 Y7.22227
G1 Z11.286 X-11.275 Y6.62932
G1 Z11.290 X-11.585 Y6.07209
G1 Z11.294 X-11.893 Y5.44324
G1 Z11.298 X-12.146 Y4.85614
G1 Z11.301 X-12.333 Y4.35845
G1 Z11.306 X-12.558 Y3.65628
G1 Z11.310 X-12.714 Y3.07360
G1 Z11.316 X-12.922 Y2.02846
G1 Z11.321 X-13.022 Y1.22806
G1 Z11.325 X-13.069 Y0.53111
G1 Z11.329 X-13.080 Y-0.10681
G1 Z11.334 X-13.048 Y-0.91246
G1 Z11.337 X-13.001 Y-1.44283
G1 Z11.341 X-12.931 Y-1.97026
G1 Z11.345 X-12.806 Y-2.66051
G1 Z11.349 X-12.661 Y-3.28341
G1 Z11.352 X-12.518 Y-3.79575
G1 Z11.356 X-12.295 Y-4.46099
G1 Z11.360 X-12.064 Y-5.05476
G1 Z11.364 X-11.776 Y-5.69291
G1 Z11.368 X-11.485 Y-6.26068
G1 Z11.372 X-11.133 Y-6.86582
G1 Z11.376 X-10.786 Y-7.39959
G1 Z11.381 X-10.374 Y-7.96574
G1 Z11.384 X-9.973 Y-8.46365
G1 Z11.388 X-9.621 Y-8.86194
G1 Z11.392 X-9.075 Y-9.42081
G1 Z11.395 X-8.726 Y-9.74422
G1 Z11.400 X-8.173 Y-10.21317
G1 Z11.404 X-7.672 Y-10.59331
G1 Z11.407 X-7.201 Y-10.92060
G1 Z11.411 X-6.666 Y-11.25384
G1 Z11.414 X-6.167 Y-11.53508
G1 Z11.419 X-5.520 Y-11.85888
G1 Z11.423 X-4.855 Y-12.14678
G1 Z11.426 X-4.409 Y-12.31523
G1 Z11.431 X-3.720 Y-12.54013
G1 Z11.435 X-3.022 Y-12.72684
G1 Z11.439 X-2.315 Y-12.87461
G1 Z11.443 X-1.693 Y-12.97075
G1 Z11.447 X-1.124 Y-13.03299
G1 Z11.451 X-0.400 Y-13.07486
G1 Z11.458 X0.802 Y-13.05532
G1 Z11.463 X1.524 Y-12.99119 F600.000
G1 Z11.466 X1.996 Y-12.92765
G1 Z11.470 X2.712 Y-12.79672
G1 Z11.473 X3.176 Y-12.68918
G1 Z11.477 X3.874 Y-12.49307
G1 Z11.482 X4.557 Y-12.26179
G1 Z11.486 X5.227 Y-11.99050
G1 Z11.491 X5.883 Y-11.68239
G1 Z11.496 X6.722 Y-11.22165
G1 Z11.500 X7.214 Y-10.90758
G1 Z11.507 X8.491 Y-10.74432 F600.000
G1 Z11.511 X9.071 Y-10.25941
G1 Z11.515 X9.625 Y-9.74258
G1 Z11.519 X10.061 Y-9.28976
G1 Z11.523 X10.478 Y-8.81894
G1 Z11.527 X10.949 Y-8.22606
G1 Z11.532 X11.388 Y-7.60638
G1 Z11.535 X11.658 Y-7.18642
G1 Z11.539 X12.038 Y-6.53070
G1 Z11.543 X12.380 Y-5.85580
G1 Z11.548 X12.684 Y-5.16389
G1 Z11.552 X12.950 Y-4.45317
G1 Z11.555 X13.104 Y-3.97821
G1 Z11.559 X13.304 Y-3.24649
G1 Z11.564 X13.463 Y-2.50758
G1 Z11.568 X13.581 Y-1.75786
G1 Z11.575 X13.679 Y-0.63031
G1 Z11.578 X13.694 Y-0.00523
G1 Z11.585 X13.648 Y1.12560
G1 Z11.588 X13.592 Y1.67434
G1 Z11.593 X13.463 Y2.50973
G1 Z11.596 X13.350 Y3.05267
G1 Z11.601 X13.137 Y3.86994
G1 Z11.605 X12.921 Y4.53403
G1 Z11.609 X12.675 Y5.18591
G1 Z11.616 X12.204 Y6.21223
G1 Z11.619 X11.944 Y6.69997
G1 Z11.624 X11.508 Y7.42336
G1 Z11.627 X11.198 Y7.88330
G1 Z11.632 X10.691 Y8.55857
G1 Z11.636 X10.240 Y9.09266
G1 Z11.640 X9.763 Y9.60374
G1 Z11.645 X9.153 Y10.18601
G1 Z11.652 X8.294 Y10.89835
G1 Z11.656 X7.724 Y11.30863
G1 Z11.660 X7.135 Y11.68991
G1 Z11.666 X6.160 Y12.23124
G1 Z11.671 X5.393 Y12.58863
G1 Z11.674 X4.879 Y12.79657
G1 Z11.679 X4.082 Y13.07276
G1 Z11.684 X3.270 Y13.29896
G1 Z11.688 X2.728 Y13.42097
G1 Z11.692 X2.037 Y13.54126
G1 Z11.696 X1.341 Y13.62954
G1 Z11.699 X0.787 Y13.67255
G1 Z11.704 X-0.056 Y13.69475
G1 Z11.709 X-0.898 Y13.66594
G1 Z11.712 X-1.448 Y13.61868
G1 Z11.718 X-2.564 Y13.45292
G1 Z11.723 X-3.385 Y13.27091
G1 Z11.727 X-3.920 Y13.12193
G1 Z11.731 X-4.587 Y12.90321
G1 Z11.735 X-5.240 Y12.65230
G1 Z11.740 X-6.009 Y12.30657
G1 Z11.746 X-6.990 Y11.77682
G1 Z11.751 X-7.703 Y11.32221
G1 Z11.754 X-8.156 Y11.00115
G1 Z11.759 X-8.819 Y10.47754
G1 Z11.762 X-9.237 Y10.11056
G1 Z11.766 X-9.742 Y9.62384
G1 Z11.771 X-10.223 Y9.11212
G1 Z11.777 X-10.931 Y8.25046
G1 Z11.782 X-11.419 Y7.55985
G1 Z11.785 X-11.716 Y7.09178
G1 Z11.790 X-12.131 Y6.35417
G1 Z11.793 X-12.378 Y5.85811
G1 Z11.798 X-12.716 Y5.08250
G1 Z11.801 X-12.912 Y4.56252
G1 Z11.806 X-13.128 Y3.89580
G1 Z11.810 X-13.311 Y3.21708
G1 Z11.816 X-13.529 Y2.12342
G1 Z11.821 X-13.634 Y1.28569
G1 Z11.825 X-13.681 Y0.58877
G1 Z11.829 X-13.694 Y-0.11290
G1 Z11.833 X-13.667 Y-0.86475
G1 Z11.837 X-13.611 Y-1.50595
G1 Z11.844 X-13.441 Y-2.61911
G1 Z11.849 X-13.256 Y-3.43910
G1 Z11.855 X-12.932 Y-4.50536
G1 Z11.860 X-12.631 Y-5.29035
G1 Z11.867 X-12.153 Y-6.31259
G1 Z11.870 X-11.889 Y-6.79633
G1 Z11.875 X-11.447 Y-7.51772
G1 Z11.878 X-11.133 Y-7.97466
G1 Z11.883 X-10.621 Y-8.64593
G1 Z11.886 X-10.261 Y-9.06999
G1 Z11.891 X-9.681 Y-9.68642
G1 Z11.894 X-9.322 Y-10.03240
G1 Z11.898 X-8.752 Y-10.53268
G1 Z11.903 X-8.158 Y-10.99978
G1 Z11.907 X-7.538 Y-11.43387
G1 Z11.911 X-6.896 Y-11.83297
G1 Z11.916 X-6.231 Y-12.19514
G1 Z11.920 X-5.664 Y-12.46831
G1 Z11.923 X-5.086 Y-12.71549
G1 Z11.928 X-4.374 Y-12.97773
G1 Z11.931 X-3.774 Y-13.16491
G1 Z11.935 X-3.165 Y-13.32408
G1 Z11.939 X-2.421 Y-13.47943
G1 Z11.942 X-1.929 Y-13.55847
G1 Z11.947 X-1.175 Y-13.64475
G1 Z11.951 X-0.419 Y-13.68893
G1 Z11.957 X0.587 Y-13.68255
G1 Z11.961 X1.345 Y-13.62891 F600.000
G1 Z11.964 X1.841 Y-13.57095
G1 Z11.969 X2.592 Y-13.447041
G1 Z11.972 X3.080 Y-13.344545
G1 Z11.976 X3.814 Y-13.153873
G1 Z11.980 X4.534 Y-12.922182
G1 Z11.985 X5.243 Y-12.651510
G1 Z11.988 X5.700 Y-12.452014
G1 Z11.992 X6.384 Y-12.116359
G1 Z11.995 X6.821 Y-11.875864
G1 Z12.000 X7.559 Y-11.417965
G1 Z12.005 X8.692 Y-11.427566 F600.000
G1 Z12.010 X9.313 Y-10.927162
G1 Z12.013 X9.705 Y-10.581838
G1 Z12.017 X10.276 Y-10.027422
G1 Z12.021 X10.816 Y-9.443007
G1 Z12.024 X11.153 Y-9.042683
G1 Z12.029 X11.636 Y-8.411267
G1 Z12.033 X12.083 Y-7.755834
G1 Z12.037 X12.492 Y-7.077401
G1 Z12.042 X12.865 Y-6.374985
G1 Z12.045 X13.089 Y-5.901661
G1 Z12.049 X13.396 Y-5.165263
G1 Z12.052 X13.576 Y-4.673939
G1 Z12.056 X13.814 Y-3.914524
G1 Z12.061 X14.009 Y-3.146090
G1 Z12.065 X14.161 Y-2.365675
G1 Z12.068 X14.238 Y-1.847351
G1 Z12.073 X14.319 Y-1.056935
G1 Z12.077 X14.355 Y-0.262518
G1 Z12.083 X14.331 Y0.878522
G1 Z12.088 X14.249 Y1.758731
G1 Z12.093 X14.128 Y2.551365
G1 Z12.096 X13.997 Y3.198003
G1 Z12.103 X13.685 Y4.341321
G1 Z12.106 X13.499 Y4.889385
G1 Z12.111 X13.172 Y5.713610
G1 Z12.114 X12.930 Y6.242694
G1 Z12.119 X12.520 Y7.028919
G1 Z12.122 X12.225 Y7.529003
G1 Z12.127 X11.740 Y8.265188
G1 Z12.134 X11.020 Y9.203493
G1 Z12.137 X10.640 Y9.640557
G1 Z12.142 X10.026 Y10.276766
G1 Z12.146 X9.436 Y10.820400
G1 Z12.150 X8.926 Y11.245062
G1 Z12.155 X8.282 Y11.727709
G1 Z12.158 X7.732 Y12.097367
G1 Z12.163 X6.972 Y12.551584
G1 Z12.170 X5.927 Y13.077794
G1 Z12.174 X5.185 Y13.388449
G1 Z12.178 X4.558 Y13.615126
G1 Z12.181 X4.001 Y13.789227
G1 Z12.185 X3.222 Y13.991881
G1 Z12.189 X2.571 Y14.125543
G1 Z12.194 X1.776 Y14.247190
G1 Z12.197 X1.116 Y14.314851
G1 Z12.202 X0.313 Y14.353499
G1 Z12.205 X-0.353 Y14.353176
G1 Z12.209 X-0.937 Y14.327277
G1 Z12.213 X-1.738 Y14.251931
G1 Z12.217 X-2.398 Y14.156608
G1 Z12.220 X-2.971 Y14.047709
G1 Z12.225 X-3.754 Y13.857363
G1 Z12.228 X-4.390 Y13.670021
G1 Z12.233 X-5.225 Y13.373239
G1 Z12.240 X-6.295 Y12.904445
G1 Z12.244 X-7.079 Y12.491669
G1 Z12.248 X-7.579 Y12.194754
G1 Z12.253 X-8.317 Y11.703978
G1 Z12.256 X-8.785 Y11.356063
G1 Z12.261 X-9.469 Y10.793287
G1 Z12.264 X-9.898 Y10.400375
G1 Z12.268 X-10.465 Y9.828029
G1 Z12.272 X-10.911 Y9.333707
G1 Z12.275 X-11.282 Y8.879824
G1 Z12.279 X-11.634 Y8.413928
G1 Z12.284 X-12.130 Y7.681136
G1 Z12.288 X-12.540 Y6.991771
G1 Z12.292 X-12.851 Y6.402448
G1 Z12.295 X-13.101 Y5.874545
G1 Z12.300 X-13.436 Y5.060730
G1 Z12.306 X-13.807 Y3.937035
G1 Z12.310 X-13.955 Y3.377100
G1 Z12.314 X-14.136 Y2.512308
G1 Z12.319 X-14.254 Y1.718943
G1 Z12.323 X-14.318 Y1.057604
G1 Z12.327 X-14.355 Y0.254251
G1 Z12.331 X-14.352 Y-0.410913
G1 Z12.335 X-14.306 Y-1.213560
G1 Z12.339 X-14.235 Y-1.875238
G1 Z12.342 X-14.147 Y-2.452338
G1 Z12.347 X-13.986 Y-3.241993
G1 Z12.350 X-13.821 Y-3.887670
G1 Z12.357 X-13.459 Y-5.000889
G1 Z12.362 X-13.125 Y-5.821114
G1 Z12.365 X-12.878 Y-6.348202
G1 Z12.369 X-12.501 Y-7.060856
G1 Z12.373 X-12.161 Y-7.632533
G1 Z12.376 X-11.839 Y-8.123650
G1 Z12.380 X-11.499 Y-8.598754
G1 Z12.384 X-10.946 Y-9.291979
G1 Z12.388 X-10.561 Y-9.727065
G1 Z12.392 X-9.961 Y-10.340083
G1 Z12.395 X-9.578 Y-10.695755
G1 Z12.400 X-8.971 Y-11.210343
G1 Z12.404 X-8.396 Y-11.646414
G1 Z12.407 X-7.905 Y-11.986606
G1 Z12.411 X-7.230 Y-12.404185
G1 Z12.416 X-6.533 Y-12.785755
G1 Z12.420 X-5.882 Y-13.097826
G1 Z12.423 X-5.333 Y-13.330018
G1 Z12.428 X-4.587 Y-13.605600
G1 Z12.432 X-3.897 Y-13.818671
G1 Z12.435 X-3.319 Y-13.969863
G1 Z12.439 X-2.539 Y-14.131459
G1 Z12.442 X-2.022 Y-14.214135
G1 Z12.447 X-1.232 Y-14.305719
G1 Z12.451 X-0.440 Y-14.351290
G1 Z12.455 X0.210 Y-14.354850
G1 Z12.458 X0.880 Y-14.330561
G1 Z12.463 X1.673 Y-14.260148 F600.000
G1 Z12.466 X2.191 Y-14.189824
G1 Z12.470 X2.974 Y-14.046412
G1 Z12.474 X3.677 Y-13.878483
G1 Z12.477 X4.250 Y-13.714675
G1 Z12.482 X5.002 Y-13.458253
G1 Z12.486 X5.738 Y-13.161820
G1 Z12.491 X6.458 Y-12.823404
G1 Z12.493 X6.921 Y-12.579080
G1 Z12.498 X7.607 Y-12.177668
G1 Z12.500 X7.923 Y-11.968329
G1 Z12.504 X8.907 Y-12.165226 F600.000
G1 Z12.508 X9.567 Y-11.654090
G1 Z12.511 X9.986 Y-11.297952
G1 Z12.515 X10.598 Y-10.725833
G1 Z12.518 X10.982 Y-10.331695
G1 Z12.523 X11.537 Y-9.708559
G1 Z12.527 X12.055 Y-9.057398
G1 Z12.530 X12.379 Y-8.608285
G1 Z12.534 X12.838 Y-7.908167
G1 Z12.537 X13.118 Y-7.434029
G1 Z12.542 X13.509 Y-6.696893
G1 Z12.546 X13.858 Y-5.941739
G1 Z12.551 X14.166 Y-5.164602
G1 Z12.556 X14.507 Y-4.110382
G1 Z12.561 X14.711 Y-3.304225
G1 Z12.565 X14.872 Y-2.484088
G1 Z12.568 X14.953 Y-1.937971
G1 Z12.573 X15.037 Y-1.109814
G1 Z12.577 X15.075 Y-0.278656
G1 Z12.582 X15.065 Y0.619957
G1 Z12.585 X15.027 Y1.232270
G1 Z12.588 X14.965 Y1.843581
G1 Z12.593 X14.823 Y2.763116
G1 Z12.596 X14.698 Y3.361407
G1 Z12.601 X14.464 Y4.259922
G1 Z12.606 X14.175 Y5.140437
G1 Z12.609 X13.954 Y5.713748
G1 Z12.613 X13.708 Y6.279081
G1 Z12.616 X13.440 Y6.834409
G1 Z12.619 X13.151 Y7.376720
G1 Z12.624 X12.671 Y8.173255
G1 Z12.627 X12.329 Y8.680546
G1 Z12.632 X11.770 Y9.424081
G1 Z12.635 X11.379 Y9.893372
G1 Z12.640 X10.747 Y10.576907
G1 Z12.643 X10.309 Y11.003198
G1 Z12.648 X9.613 Y11.616714
G1 Z12.653 X8.880 Y12.185229
G1 Z12.657 X8.377 Y12.537540
G1 Z12.660 X7.857 Y12.869870
G1 Z12.663 X7.327 Y13.178181
G1 Z12.668 X6.500 Y13.605716
G1 Z12.671 X5.941 Y13.858027
G1 Z12.674 X5.369 Y14.090358
G1 Z12.678 X4.791 Y14.296668
G1 Z12.683 X3.900 Y14.565203
G1 Z12.686 X3.304 Y14.712514
G1 Z12.689 X2.702 Y14.834825
G1 Z12.694 X1.782 Y14.972360
G1 Z12.697 X1.170 Y15.032674
G1 Z12.702 X0.244 Y15.076186
G1 Z12.705 X-0.367 Y15.073477
G1 Z12.710 X-1.296 Y15.022012
G1 Z12.713 X-1.904 Y14.957303
G1 Z12.718 X-2.823 Y14.811838
G1 Z12.722 X-3.421 Y14.685129
G1 Z12.727 X-4.321 Y14.446664
G1 Z12.730 X-4.905 Y14.258975
G1 Z12.733 X-5.484 Y14.045306
G1 Z12.736 X-6.051 Y13.810617
G1 Z12.741 X-6.892 Y13.411152
G1 Z12.744 X-7.429 Y13.120443
G1 Z12.749 X-8.222 Y12.639958
G1 Z12.754 X-8.984 Y12.109473
G1 Z12.757 X-9.470 Y11.733784
G1 Z12.761 X-9.942 Y11.336115
G1 Z12.764 X-10.397 Y10.920445
G1 Z12.767 X-10.833 Y10.488756
G1 Z12.772 X-11.459 Y9.800291
G1 Z12.775 X-11.849 Y9.325602
G1 Z12.779 X-12.220 Y8.833933
G1 Z12.782 X-12.569 Y8.328243
G1 Z12.787 X-13.059 Y7.536778
G1 Z12.790 X-13.354 Y7.001069
G1 Z12.795 X-13.760 Y6.164604
G1 Z12.798 X-13.999 Y5.601896
G1 Z12.803 X-14.317 Y4.730411
G1 Z12.808 X-14.581 Y3.840926
G1 Z12.811 X-14.725 Y3.243237
G1 Z12.814 X-14.845 Y2.641548
G1 Z12.819 X-14.979 Y1.720082
G1 Z12.823 X-15.037 Y1.109397
G1 Z12.827 X-15.077 Y0.182908
G1 Z12.831 X-15.072 Y-0.432219
G1 Z12.834 X-15.041 Y-1.048550
G1 Z12.837 X-14.986 Y-1.662884
G1 Z12.842 X-14.855 Y-2.580396
G1 Z12.845 X-14.739 Y-3.180687
G1 Z12.850 X-14.514 Y-4.084222
G1 Z12.853 X-14.337 Y-4.668513
G1 Z12.858 X-14.022 Y-5.544048
G1 Z12.862 X-13.784 Y-6.111362
G1 Z12.866 X-13.382 Y-6.946874
G1 Z12.870 X-13.090 Y-7.483165
G1 Z12.875 X-12.603 Y-8.276700
G1 Z12.878 X-12.258 Y-8.780991
G1 Z12.883 X-11.694 Y-9.518511
G1 Z12.886 X-11.295 Y-9.988837
G1 Z12.892 X-10.465 Y-10.855264
G1 Z12.897 X-9.848 Y-11.417126
G1 Z12.901 X-9.201 Y-11.945990
G1 Z12.904 X-8.759 Y-12.272852
G1 Z12.908 X-8.067 Y-12.739716
G1 Z12.913 X-7.351 Y-13.164562
G1 Z12.917 X-6.611 Y-13.551426
G1 Z12.920 X-6.112 Y-13.783288
G1 Z12.925 X-5.340 Y-14.101152
G1 Z12.929 X-4.551 Y-14.375015
G1 Z12.932 X-4.024 Y-14.531877
G1 Z12.936 X-3.213 Y-14.731741
G1 Z12.941 X-2.395 Y-14.886587
G1 Z12.945 X-1.570 Y-14.996433
G1 Z12.949 X-0.737 Y-15.060296
G1 Z12.952 X-0.182 Y-15.077201
G1 Z12.957 X0.647 Y-15.064023
G1 Z12.961 X1.478 Y-15.005869 F600.000
G1 Z12.966 X2.306 Y-14.900733
G1 Z12.969 X2.848 Y-14.806595
G1 Z12.973 X3.666 Y-14.625476
G1 Z12.976 X4.200 Y-14.481359
G1 Z12.980 X4.992 Y-14.227202
G1 Z12.985 X5.772 Y-13.929066
G1 Z12.988 X6.277 Y-13.709928
G1 Z12.992 X7.026 Y-13.341792
G1 Z12.996 X7.754 Y-12.931656
G1 Z13.000 X8.334 Y-12.562484
G1 Z13.002 X9.140 Y-12.982518 F600.000
G1 Z13.007 X9.844 Y-12.456691
G1 Z13.011 X10.517 Y-11.894847
G1 Z13.015 X11.159 Y-11.293020
G1 Z13.018 X11.564 Y-10.878089
G1 Z13.023 X12.148 Y-10.222262
G1 Z13.027 X12.695 Y-9.534433
G1 Z13.030 X13.035 Y-9.064504
G1 Z13.034 X13.518 Y-8.326695
G1 Z13.037 X13.813 Y-7.828764
G1 Z13.042 X14.225 Y-7.051937
G1 Z13.046 X14.593 Y-6.254102
G1 Z13.050 X14.852 Y-5.609981
G1 Z13.053 X15.105 Y-4.888347
G1 Z13.058 X15.352 Y-4.046508
G1 Z13.062 X15.553 Y-3.190682
G1 Z13.065 X15.659 Y-2.621750
G1 Z13.070 X15.780 Y-1.750924
G1 Z13.074 X15.852 Y-0.876079
G1 Z13.078 X15.876 Y-0.001229
G1 Z13.083 X15.846 Y0.976094
G1 Z13.086 X15.793 Y1.623651
G1 Z13.090 X15.714 Y2.264184
G1 Z13.094 X15.584 Y3.028626
G1 Z13.098 X15.400 Y3.860607
G1 Z13.101 X15.231 Y4.482134
G1 Z13.106 X14.925 Y5.412013
G1 Z13.109 X14.693 Y6.016553
G1 Z13.113 X14.435 Y6.609095
G1 Z13.117 X14.000 Y7.487972
G1 Z13.121 X13.685 Y8.049503
G1 Z13.125 X13.275 Y8.707944
G1 Z13.129 X12.789 Y9.407925
G1 Z13.132 X12.395 Y9.921471
G1 Z13.135 X11.981 Y10.417012
G1 Z13.140 X11.317 Y11.135881
G1 Z13.144 X10.761 Y11.671302
G1 Z13.148 X10.120 Y12.233284
G1 Z13.152 X9.616 Y12.633810
G1 Z13.156 X8.818 Y13.202689
G1 Z13.160 X8.273 Y13.550229
G1 Z13.163 X7.713 Y13.877780
G1 Z13.167 X7.027 Y14.236221
G1 Z13.171 X6.253 Y14.593203
G1 Z13.174 X5.656 Y14.835729
G1 Z13.179 X4.730 Y15.155608
G1 Z13.183 X4.112 Y15.335128
G1 Z13.187 X3.158 Y15.559007
G1 Z13.191 X2.525 Y15.674528
G1 Z13.196 X1.556 Y15.800387
G1 Z13.200 X0.582 Y15.866246
G1 Z13.204 X-0.062 Y15.876766
G1 Z13.209 X-1.041 Y15.842645
G1 Z13.212 X-1.685 Y15.787186
G1 Z13.215 X-2.327 Y15.705726
G1 Z13.220 X-3.291 Y15.532605
G1 Z13.223 X-3.921 Y15.385145
G1 Z13.226 X-4.544 Y15.212685
G1 Z13.231 X-5.473 Y14.903564
G1 Z13.235 X-6.076 Y14.668104
G1 Z13.238 X-6.670 Y14.407664
G1 Z13.241 X-7.254 Y14.122224
G1 Z13.244 X-7.823 Y13.815765
G1 Z13.249 X-8.660 Y13.306643
G1 Z13.252 X-9.192 Y12.944164
G1 Z13.257 X-9.972 Y12.354033
G1 Z13.261 X-10.560 Y11.854454
G1 Z13.266 X-11.182 Y11.271436
G1 Z13.269 X-11.630 Y10.808963
G1 Z13.274 X-12.274 Y10.070841
G1 Z13.277 X-12.673 Y9.564362
G1 Z13.282 X-13.238 Y8.764241
G1 Z13.285 X-13.583 Y8.220761
G1 Z13.290 X-14.064 Y7.367640
G1 Z13.293 X-14.351 Y6.789171
G1 Z13.297 X-14.665 Y6.081612
G1 Z13.301 X-14.971 Y5.286594
G1 Z13.305 X-15.173 Y4.673120
G1 Z13.309 X-15.432 Y3.729999
G1 Z13.313 X-15.571 Y3.099530
G1 Z13.317 X-15.703 Y2.335970
G1 Z13.321 X-15.806 Y1.491943
G1 Z13.325 X-15.859 Y0.720370
G1 Z13.329 X-15.876 Y-0.131342
G1 Z13.333 X-15.850 Y-0.903769
G1 Z13.337 X-15.779 Y-1.752751
G1 Z13.340 X-15.695 Y-2.392284
G1 Z13.345 X-15.547 Y-3.214151
G1 Z13.349 X-15.368 Y-3.985707
G1 Z13.352 X-15.193 Y-4.609256
G1 Z13.355 X-14.992 Y-5.223796
G1 Z13.360 X-14.642 Y-6.138675
G1 Z13.363 X-14.380 Y-6.728206
G1 Z13.367 X-14.034 Y-7.421647
G1 Z13.371 X-13.617 Y-8.164629
G1 Z13.375 X-13.272 Y-8.712175
G1 Z13.378 X-12.907 Y-9.245715
G1 Z13.383 X-12.313 Y-10.022577
G1 Z13.386 X-11.895 Y-10.515114
G1 Z13.391 X-11.224 Y-11.229997
G1 Z13.394 X-10.807 Y-11.630060
G1 Z13.398 X-10.145 Y-12.212251
G1 Z13.401 X-9.693 Y-12.574319
G1 Z13.406 X-8.980 Y-13.093511
G1 Z13.408 X-8.496 Y-13.412579
G1 Z13.413 X-7.740 Y-13.862753
G1 Z13.417 X-6.964 Y-14.268908
G1 Z13.422 X-6.163 Y-14.631082
G1 Z13.425 X-5.625 Y-14.846150
G1 Z13.429 X-4.795 Y-15.135323
G1 Z13.433 X-3.952 Y-15.377479
G1 Z13.438 X-3.095 Y-15.572652
G1 Z13.441 X-2.525 Y-15.674721
G1 Z13.445 X-1.653 Y-15.790894
G1 Z13.449 X-0.779 Y-15.857048
G1 Z13.454 X0.031 Y-15.874742
G1 Z13.457 X0.681 Y-15.862303
G1 Z13.461 X1.556 Y-15.800465 F600.000
G1 Z13.466 X2.428 Y-15.690638
G1 Z13.468 X2.999 Y-15.591707
G1 Z13.473 X3.858 Y-15.401880
G1 Z13.477 X4.702 Y-15.164036
G1 Z13.482 X5.534 Y-14.881209
G1 Z13.485 X6.075 Y-14.668287
G1 Z13.488 X6.713 Y-14.387184
G1 Z13.492 X7.397 Y-14.048550
G1 Z13.496 X8.164 Y-13.616728
G1 Z13.500 X8.782 Y-13.224866
G1 Z13.502 X9.646 Y-13.696090 F600.000
G1 Z13.506 X10.346 Y-13.174219
G1 Z13.512 X11.324 Y-12.344223
G1 Z13.517 X11.989 Y-11.699736
G1 Z13.521 X12.617 Y-11.019233
G1 Z13.525 X13.174 Y-10.347363
G1 Z13.529 X13.575 Y-9.815043
G1 Z13.533 X14.097 Y-9.049551
G1 Z13.537 X14.575 Y-8.256048
G1 Z13.541 X14.985 Y-7.486178
G1 Z13.545 X15.272 Y-6.884858
G1 Z13.549 X15.630 Y-6.026384
G1 Z13.552 X15.839 Y-5.452679
G1 Z13.556 X16.117 Y-4.567191
G1 Z13.561 X16.344 Y-3.670686
G1 Z13.565 X16.522 Y-2.763181
G1 Z13.570 X16.650 Y-1.844694
G1 Z13.572 X16.706 Y-1.235988
G1 Z13.577 X16.749 Y-0.306517
G1 Z13.580 X16.748 Y0.342070
G1 Z13.583 X16.720 Y1.024864
G1 Z13.588 X16.625 Y2.053119
G1 Z13.591 X16.528 Y2.726894
G1 Z13.596 X16.341 Y3.681724
G1 Z13.600 X16.163 Y4.402943
G1 Z13.603 X15.969 Y5.059750
G1 Z13.606 X15.750 Y5.705542
G1 Z13.611 X15.368 Y6.665797
G1 Z13.614 X15.085 Y7.283569
G1 Z13.619 X14.607 Y8.200825
G1 Z13.622 X14.263 Y8.786599
G1 Z13.627 X13.728 Y9.598429
G1 Z13.630 X13.289 Y10.198649
G1 Z13.634 X12.862 Y10.733456
G1 Z13.637 X12.414 Y11.247247
G1 Z13.642 X11.697 Y11.991503
G1 Z13.645 X11.201 Y12.456275
G1 Z13.650 X10.411 Y13.123531
G1 Z13.653 X9.871 Y13.534303
G1 Z13.658 X9.017 Y14.117558
G1 Z13.661 X8.437 Y14.471330
G1 Z13.666 X7.529 Y14.964586
G1 Z13.669 X6.916 Y15.257360
G1 Z13.674 X6.018 Y15.632190
G1 Z13.678 X5.319 Y15.885410
G1 Z13.681 X4.668 Y16.088197
G1 Z13.686 X3.668 Y16.345453
G1 Z13.689 X3.001 Y16.480227
G1 Z13.694 X2.040 Y16.626057
G1 Z13.697 X1.300 Y16.701277
G1 Z13.700 X0.619 Y16.740064
G1 Z13.705 X-0.414 Y16.746319
G1 Z13.709 X-1.096 Y16.716111
G1 Z13.712 X-1.776 Y16.657905
G1 Z13.716 X-2.740 Y16.525735
G1 Z13.720 X-3.470 Y16.388955
G1 Z13.723 X-4.134 Y16.233741
G1 Z13.728 X-5.124 Y15.948978
G1 Z13.733 X-6.095 Y15.603214
G1 Z13.736 X-6.723 Y15.343985
G1 Z13.741 X-7.656 Y14.899241
G1 Z13.744 X-8.257 Y14.575033
G1 Z13.748 X-8.843 Y14.227825
G1 Z13.753 X-9.702 Y13.656063
G1 Z13.757 X-10.476 Y13.071873
G1 Z13.761 X-11.046 Y12.594093
G1 Z13.764 X-11.549 Y12.134882
G1 Z13.769 X-12.233 Y11.443712
G1 Z13.772 X-12.729 Y10.889932
G1 Z13.775 X-13.162 Y10.362721
G1 Z13.780 X-13.741 Y9.580551
G1 Z13.783 X-14.153 Y8.961771
G1 Z13.787 X-14.506 Y8.378558
G1 Z13.792 X-14.995 Y7.468814
G1 Z13.795 X-15.285 Y6.854585
G1 Z13.800 X-15.679 Y5.898841
G1 Z13.803 X-15.906 Y5.255633
G1 Z13.806 X-16.108 Y4.600444
G1 Z13.809 X-16.281 Y3.940236
G1 Z13.814 X-16.493 Y2.931474
G1 Z13.819 X-16.634 Y1.972285
G1 Z13.822 X-16.706 Y1.232504
G1 Z13.826 X-16.742 Y0.551291
G1 Z13.831 X-16.744 Y-0.482547
G1 Z13.834 X-16.711 Y-1.161319
G1 Z13.839 X-16.608 Y-2.189575
G1 Z13.842 X-16.505 Y-2.861349
G1 Z13.847 X-16.311 Y-3.814179
G1 Z13.850 X-16.126 Y-4.534398
G1 Z13.853 X-15.928 Y-5.187188
G1 Z13.858 X-15.600 Y-6.103018
G1 Z13.862 X-15.314 Y-6.789237
G1 Z13.865 X-15.024 Y-7.409044
G1 Z13.868 X-14.708 Y-8.017855
G1 Z13.871 X-14.370 Y-8.610647
G1 Z13.876 X-13.811 Y-9.479903
G1 Z13.879 X-13.416 Y-10.032675
G1 Z13.884 X-12.772 Y-10.840930
G1 Z13.888 X-12.321 Y-11.349704
G1 Z13.892 X-11.623 Y-12.063720
G1 Z13.895 X-11.175 Y-12.479010
G1 Z13.900 X-10.467 Y-13.078523
G1 Z13.904 X-9.729 Y-13.636020
G1 Z13.908 X-9.005 Y-14.124150
G1 Z13.911 X-8.437 Y-14.472830
G1 Z13.916 X-7.621 Y-14.917356
G1 Z13.919 X-7.071 Y-15.186651
G1 Z13.923 X-6.220 Y-15.554165
G1 Z13.927 X-5.401 Y-15.856295
G1 Z13.930 X-4.766 Y-16.059975
G1 Z13.935 X-3.871 Y-16.298483
G1 Z13.939 X-2.965 Y-16.487978
G1 Z13.944 X-2.048 Y-16.626491
G1 Z13.947 X-1.440 Y-16.689786
G1 Z13.951 X-0.514 Y-16.744301
G1 Z13.955 X0.305 Y-16.747049
G1 Z13.958 X1.026 Y-16.720116
G1 Z13.963 X1.949 Y-16.638620 F600.000
G1 Z13.967 X2.813 Y-16.513750
G1 Z13.970 X3.468 Y-16.389430
G1 Z13.974 X4.369 Y-16.172938
G1 Z13.979 X5.257 Y-15.905451
G1 Z13.982 X5.834 Y-15.703745
G1 Z13.986 X6.697 Y-15.355276
G1 Z13.989 X7.253 Y-15.100571
G1 Z13.993 X8.077 Y-14.675083
G1 Z13.998 X8.875 Y-14.207578
G1 Z14.000 X9.263 Y-13.949852
G1 Z14.004 X10.475 Y-14.308403 F600.000
G1 Z14.008 X11.251 Y-13.706302
G1 Z14.011 X11.744 Y-13.285850
G1 Z14.015 X12.461 Y-12.615743
G1 Z14.020 X13.139 Y-11.908618
G1 Z14.024 X13.776 Y-11.165493
G1 Z14.028 X14.373 Y-10.385386
G1 Z14.031 X14.743 Y-9.852943
G1 Z14.035 X15.162 Y-9.194425
G1 Z14.039 X15.586 Y-8.455405
G1 Z14.043 X16.030 Y-7.581286
G1 Z14.048 X16.424 Y-6.685161
G1 Z14.052 X16.768 Y-5.767045
G1 Z14.055 X17.004 Y-5.026509
G1 Z14.059 X17.227 Y-4.204490
G1 Z14.064 X17.433 Y-3.243388
G1 Z14.067 X17.540 Y-2.604936
G1 Z14.071 X17.657 Y-1.627847
G1 Z14.074 X17.705 Y-0.981395
G1 Z14.078 X17.732 Y-0.001282
G1 Z14.083 X17.699 Y1.090946
G1 Z14.086 X17.639 Y1.813040
G1 Z14.090 X17.551 Y2.529103
G1 Z14.094 X17.405 Y3.384193
G1 Z14.098 X17.200 Y4.310858
G1 Z14.101 X17.011 Y5.006918
G1 Z14.106 X16.670 Y6.045596
G1 Z14.109 X16.410 Y6.719669
G1 Z14.112 X16.121 Y7.384763
G1 Z14.116 X15.806 Y8.037855
G1 Z14.119 X15.465 Y8.674929
G1 Z14.124 X14.901 Y9.611607
G1 Z14.127 X14.499 Y10.208660
G1 Z14.132 X13.843 Y11.081329
G1 Z14.136 X13.286 Y11.742400
G1 Z14.140 X12.639 Y12.437064
G1 Z14.143 X12.124 Y12.940124
G1 Z14.148 X11.303 Y13.663802
G1 Z14.152 X10.737 Y14.112875
G1 Z14.155 X10.153 Y14.538949
G1 Z14.160 X9.238 Y15.136627
G1 Z14.163 X8.615 Y15.499691
G1 Z14.167 X7.846 Y15.901781
G1 Z14.171 X6.987 Y16.297426
G1 Z14.176 X5.971 Y16.696090
G1 Z14.179 X5.289 Y16.925144
G1 Z14.184 X4.235 Y17.219822
G1 Z14.187 X3.530 Y17.377896
G1 Z14.191 X2.820 Y17.506969
G1 Z14.195 X1.735 Y17.647647
G1 Z14.199 X1.018 Y17.703701
G1 Z14.204 X-0.075 Y17.732379
G1 Z14.207 X-0.795 Y17.714432
G1 Z14.212 X-1.885 Y17.632111
G1 Z14.215 X-2.600 Y17.540174
G1 Z14.219 X-3.455 Y17.391265
G1 Z14.223 X-4.381 Y17.182930
G1 Z14.226 X-5.078 Y16.990009
G1 Z14.230 X-5.766 Y16.769082
G1 Z14.235 X-6.788 Y16.381760
G1 Z14.238 X-7.449 Y16.092824
G1 Z14.242 X-8.226 Y15.707914
G1 Z14.246 X-9.056 Y15.245579
G1 Z14.249 X-9.669 Y14.864649
G1 Z14.253 X-10.383 Y14.373739
G1 Z14.257 X-11.138 Y13.797404
G1 Z14.261 X-11.689 Y13.334463
G1 Z14.265 X-12.487 Y12.590122
G1 Z14.270 X-13.237 Y11.798780
G1 Z14.274 X-13.707 Y11.249854
G1 Z14.277 X-14.154 Y10.681927
G1 Z14.282 X-14.785 Y9.789605
G1 Z14.285 X-15.170 Y9.181659
G1 Z14.290 X-15.707 Y8.228337
G1 Z14.293 X-16.029 Y7.583401
G1 Z14.297 X-16.380 Y6.789491
G1 Z14.301 X-16.721 Y5.904156
G1 Z14.304 X-16.947 Y5.217235
G1 Z14.308 X-17.146 Y4.522308
G1 Z14.313 X-17.391 Y3.459967
G1 Z14.318 X-17.571 Y2.384625
G1 Z14.321 X-17.654 Y1.667689
G1 Z14.325 X-17.713 Y0.802779
G1 Z14.329 X-17.732 Y-0.147444
G1 Z14.332 X-17.711 Y-0.869514
G1 Z14.336 X-17.646 Y-1.734604
G1 Z14.340 X-17.529 Y-2.676269
G1 Z14.344 X-17.406 Y-3.387338
G1 Z14.347 X-17.218 Y-4.234429
G1 Z14.352 X-16.969 Y-5.147074
G1 Z14.357 X-16.620 Y-6.181738
G1 Z14.360 X-16.355 Y-6.851802
G1 Z14.364 X-16.000 Y-7.643892
G1 Z14.368 X-15.568 Y-8.488557
G1 Z14.371 X-15.211 Y-9.114616
G1 Z14.376 X-14.620 Y-10.034295
G1 Z14.379 X-14.201 Y-10.619348
G1 Z14.384 X-13.519 Y-11.474026
G1 Z14.388 X-13.041 Y-12.015100
G1 Z14.391 X-12.539 Y-12.538188
G1 Z14.394 X-11.975 Y-13.077665
G1 Z14.398 X-11.334 Y-13.637646
G1 Z14.402 X-10.563 Y-14.243527
G1 Z14.407 X-9.759 Y-14.805420
G1 Z14.410 X-9.211 Y-15.152968
G1 Z14.414 X-8.357 Y-15.640878
G1 Z14.417 X-7.780 Y-15.934427
G1 Z14.422 X-6.884 Y-16.341337
G1 Z14.424 X-6.282 Y-16.582886
G1 Z14.429 X-5.355 Y-16.904779
G1 Z14.433 X-4.414 Y-17.174654
G1 Z14.438 X-3.457 Y-17.392547
G1 Z14.441 X-2.819 Y-17.507095
G1 Z14.445 X-1.846 Y-17.636988
G1 Z14.449 X-0.870 Y-17.711864
G1 Z14.453 X-0.011 Y-17.729900
G1 Z14.457 X0.761 Y-17.716316
G1 Z14.461 X1.739 Y-17.647205 F600.000
G1 Z14.465 X2.512 Y-17.553669
G1 Z14.468 X3.352 Y-17.412650
G1 Z14.473 X4.310 Y-17.200539
G1 Z14.476 X5.060 Y-16.994003
G1 Z14.480 X5.870 Y-16.732984
G1 Z14.485 X6.787 Y-16.382873
G1 Z14.488 X7.499 Y-16.068337
G1 Z14.492 X8.262 Y-15.690318
G1 Z14.496 X9.117 Y-15.209207
G1 Z14.500 X9.825 Y-14.759100
G1 Z14.502 X10.847 Y-15.399595 F600.000
G1 Z14.507 X11.697 Y-14.764043
G1 Z14.511 X12.469 Y-14.118111
G1 Z14.515 X13.246 Y-13.392578
G1 Z14.518 X13.723 Y-12.902380
G1 Z14.523 X14.429 Y-12.107848
G1 Z14.527 X15.056 Y-11.319918
G1 Z14.531 X15.640 Y-10.496006
G1 Z14.534 X16.040 Y-9.875191
G1 Z14.539 X16.547 Y-9.000291
G1 Z14.542 X16.887 Y-8.345476
G1 Z14.546 X17.311 Y-7.426580
G1 Z14.549 X17.569 Y-6.792385
G1 Z14.553 X17.925 Y-5.788868
G1 Z14.556 X18.123 Y-5.133670
G1 Z14.561 X18.384 Y-4.102137
G1 Z14.565 X18.577 Y-3.114208
G1 Z14.569 X18.717 Y-2.114296
G1 Z14.572 X18.786 Y-1.379481
G1 Z14.577 X18.832 Y-0.369579
G1 Z14.580 X18.832 Y0.404011
G1 Z14.585 X18.774 Y1.521861
G1 Z14.588 X18.692 Y2.325539
G1 Z14.593 X18.521 Y3.430388
G1 Z14.596 X18.357 Y4.221065
G1 Z14.601 X18.074 Y5.303914
G1 Z14.604 X17.829 Y6.076610
G1 Z14.608 X17.571 Y6.787925
G1 Z14.612 X17.137 Y7.818778
G1 Z14.616 X16.784 Y8.549473
G1 Z14.619 X16.428 Y9.216787
G1 Z14.624 X15.851 Y10.174640
G1 Z14.627 X15.400 Y10.846318
G1 Z14.632 X14.730 Y11.740167
G1 Z14.635 X14.213 Y12.361844
G1 Z14.640 X13.454 Y13.182693
G1 Z14.643 X12.876 Y13.748370
G1 Z14.648 X12.038 Y14.487219
G1 Z14.652 X11.405 Y14.991897
G1 Z14.656 X10.496 Y15.640746
G1 Z14.660 X9.815 Y16.077423
G1 Z14.664 X8.844 Y16.630272
G1 Z14.668 X8.120 Y16.996968
G1 Z14.671 X7.428 Y17.310301
G1 Z14.674 X6.724 Y17.595634
G1 Z14.678 X5.958 Y17.869348
G1 Z14.681 X5.235 Y18.094664
G1 Z14.686 X4.152 Y18.372516
G1 Z14.689 X3.360 Y18.534193
G1 Z14.694 X2.255 Y18.700042
G1 Z14.697 X1.450 Y18.780720
G1 Z14.702 X0.334 Y18.833569
G1 Z14.705 X-0.475 Y18.830246
G1 Z14.710 X-1.591 Y18.769095
G1 Z14.713 X-2.395 Y18.683772
G1 Z14.718 X-3.499 Y18.508622
G1 Z14.722 X-4.290 Y18.341299
G1 Z14.726 X-5.370 Y18.054148
G1 Z14.730 X-6.143 Y17.806844
G1 Z14.733 X-6.853 Y17.545158
G1 Z14.738 X-7.882 Y17.107011
G1 Z14.741 X-8.612 Y16.752707
G1 Z14.744 X-9.277 Y16.393019
G1 Z14.749 X-10.279 Y15.784251
G1 Z14.752 X-10.903 Y15.360546
G1 Z14.757 X-11.837 Y14.652777
G1 Z14.761 X-12.414 Y14.167072
G1 Z14.765 X-13.271 Y13.367304
G1 Z14.769 X-13.796 Y12.825598
G1 Z14.774 X-14.567 Y11.942830
G1 Z14.777 X-15.035 Y11.347146
G1 Z14.780 X-15.480 Y10.732479
G1 Z14.783 X-15.927 Y10.055175
G1 Z14.788 X-16.496 Y9.092027
G1 Z14.791 X-16.848 Y8.422342
G1 Z14.795 X-17.195 Y7.689038
G1 Z14.800 X-17.621 Y6.656887
G1 Z14.803 X-17.891 Y5.891583
G1 Z14.806 X-18.113 Y5.167898
G1 Z14.811 X-18.388 Y4.083750
G1 Z14.814 X-18.546 Y3.290427
G1 Z14.819 X-18.709 Y2.184277
G1 Z14.822 X-18.785 Y1.380954
G1 Z14.827 X-18.834 Y0.263803
G1 Z14.831 X-18.828 Y-0.546480
G1 Z14.835 X-18.762 Y-1.662329
G1 Z14.839 X-18.674 Y-2.465006
G1 Z14.843 X-18.495 Y-3.569856
G1 Z14.847 X-18.325 Y-4.359533
G1 Z14.852 X-18.034 Y-5.438382
G1 Z14.855 X-17.783 Y-6.210078
G1 Z14.858 X-17.518 Y-6.922411
G1 Z14.861 X-17.225 Y-7.622744
G1 Z14.865 X-16.881 Y-8.357440
G1 Z14.870 X-16.355 Y-9.344292
G1 Z14.873 X-15.967 Y-9.993608
G1 Z14.876 X-15.521 Y-10.671303
G1 Z14.881 X-14.861 Y-11.573152
G1 Z14.884 X-14.351 Y-12.200830
G1 Z14.889 X-13.602 Y-13.030680
G1 Z14.892 X-13.055 Y-13.578112
G1 Z14.897 X-12.310 Y-14.257195
G1 Z14.901 X-11.486 Y-14.929662
G1 Z14.904 X-10.936 Y-15.336466
G1 Z14.908 X-10.097 Y-15.901570
G1 Z14.911 X-9.466 Y-16.285755
G1 Z14.916 X-8.580 Y-16.768840
G1 Z14.920 X-7.620 Y-17.226306
G1 Z14.923 X-6.989 Y-17.491111
G1 Z14.927 X-6.042 Y-17.840199
G1 Z14.932 X-5.028 Y-18.152649
G1 Z14.936 X-4.049 Y-18.395734
G1 Z14.939 X-3.325 Y-18.540919
G1 Z14.943 X-2.325 Y-18.692019
G1 Z14.947 X-1.591 Y-18.769204
G1 Z14.951 X-0.583 Y-18.827291
G1 Z14.955 X0.426 Y-18.831379
G1 Z14.958 X1.164 Y-18.800564
G1 Z14.962 X2.171 Y-18.710664 F600.000
G1 Z14.966 X2.903 Y-18.611849
G1 Z14.970 X3.895 Y-18.429936
G1 Z14.974 X4.877 Y-18.193024
G1 Z14.977 X5.586 Y-17.989209
G1 Z14.981 X6.541 Y-17.664293
G1 Z14.986 X7.526 Y-17.267743
G1 Z14.990 X8.439 Y-16.839829
G1 Z14.993 X9.093 Y-16.496014
G1 Z14.998 X9.963 Y-15.985098
G1 Z15.000 X10.432 Y-15.674051
ID=1 WHEN $AC_TIMER[1]>=0 DO M51
M0
;TURN OFF POWDER!!!
M0
G4F5

;End of Programm--------------------
M55				;home mirror
M30				;program end

; filament used = 143.9mm (1.0cm3)

; avoid_crossing_perimeters = 0
; bed_shape = -150x-150,150x-150,150x150,-150x150
; bed_temperature = 0
; before_layer_gcode = 
; bridge_acceleration = 0
; bridge_fan_speed = 100
; brim_width = 0
; complete_objects = 0
; cooling = 0
; default_acceleration = 0
; disable_fan_first_layers = 3
; duplicate_distance = 6
; end_gcode = M0\n;TURN OFF POWDER!!!\nM0\nG4F5\n\n;End of Programm--------------------\nM55				;home mirror\nM30				;program end\n
; extruder_clearance_height = 20
; extruder_clearance_radius = 20
; extruder_offset = 0x0
; extrusion_axis = E
; extrusion_multiplier = 1
; fan_always_on = 0
; fan_below_layer_time = 60
; filament_colour = #FFFFFF
; filament_diameter = 3
; first_layer_acceleration = 0
; first_layer_bed_temperature = 0
; first_layer_extrusion_width = 0
; first_layer_speed = 100%
; first_layer_temperature = 205
; gcode_arcs = 0
; gcode_comments = 0
; gcode_flavor = reprap
; infill_acceleration = 0
; infill_first = 0
; layer_gcode = 
; max_fan_speed = 100
; max_print_speed = 80
; max_volumetric_speed = 0
; min_fan_speed = 35
; min_print_speed = 33
; min_skirt_length = 0
; notes = 
; nozzle_diameter = 3
; only_retract_when_crossing_perimeters = 0
; ooze_prevention = 0
; output_filename_format = [input_filename_base].gcode
; perimeter_acceleration = 0
; post_process = 
; pressure_advance = 0
; resolution = 0
; retract_before_travel = 2
; retract_layer_change = 0
; retract_length = 0
; retract_length_toolchange = 10
; retract_lift = 0
; retract_restart_extra = 0
; retract_restart_extra_toolchange = 0
; retract_speed = 40
; skirt_distance = 6
; skirt_height = 1
; skirts = 0
; slowdown_below_layer_time = 5
; spiral_vase = 1
; standby_temperature_delta = -5
; start_gcode = $AC_TIMER[1]=0\n\n;General Config.--------------------\nG641			;\nG603			;\nM55			;home mirror\nG4F4			;necessary delay for positioning of the mirror				\nM0			;wait for user-input\n\n;Process Start-up-------------------\nM56			;set canal 1 as laser-source\nG4F4			;necessary delay for positioning of the mirror\nM0			;wait for user-input\n;START POWDER!!!\nG4F15\n\nG54\n
; temperature = 200
; threads = 2
; toolchange_gcode = 
; travel_speed = 33
; use_firmware_retraction = 0
; use_relative_e_distances = 0
; use_volumetric_e = 0
; vibration_limit = 0
; wipe = 0
; z_offset = 0
; dont_support_bridges = 1
; extrusion_width = 1.1
; first_layer_height = 100%
; infill_only_where_needed = 0
; interface_shells = 0
; layer_height = 0.5
; raft_layers = 0
; seam_position = aligned
; support_material = 0
; support_material_angle = 0
; support_material_contact_distance = 0.2
; support_material_enforce_layers = 0
; support_material_extruder = 1
; support_material_extrusion_width = 0
; support_material_interface_extruder = 1
; support_material_interface_layers = 3
; support_material_interface_spacing = 0
; support_material_interface_speed = 100%
; support_material_pattern = pillars
; support_material_spacing = 2.5
; support_material_speed = 60
; support_material_threshold = 0
; xy_size_compensation = 0
; bottom_solid_layers = 0
; bridge_flow_ratio = 1
; bridge_speed = 33.3333
; external_fill_pattern = rectilinear
; external_perimeter_extrusion_width = 0
; external_perimeter_speed = 100%
; external_perimeters_first = 0
; extra_perimeters = 1
; fill_angle = 45
; fill_density = 0%
; fill_pattern = rectilinear
; gap_fill_speed = 33.3333
; infill_every_layers = 1
; infill_extruder = 1
; infill_extrusion_width = 0
; infill_overlap = 15%
; infill_speed = 33.3333
; overhangs = 1
; perimeter_extruder = 1
; perimeter_extrusion_width = 0
; perimeter_speed = 10
; perimeters = 1
; small_perimeter_speed = 100%
; solid_infill_below_area = 70
; solid_infill_every_layers = 0
; solid_infill_extruder = 1
; solid_infill_extrusion_width = 0
; solid_infill_speed = 100%
; thin_walls = 1
; top_infill_extrusion_width = 0
; top_solid_infill_speed = 100%
; top_solid_layers = 0
