; generated by Slic3r 1.2.9 on 2017-06-06 at 09:46:12

; external perimeters extrusion width = 1.10mm
; perimeters extrusion width = 1.10mm
; infill extrusion width = 1.10mm
; solid infill extrusion width = 1.10mm
; top infill extrusion width = 1.10mm

H=1500
$AC_TIMER[1]=0

;General Config.--------------------
G641			;
G603			;
M55			;home mirror
G4F4			;necessary delay for positioning of the mirror				
M0			;wait for user-input

;Process Start-up-------------------
M56			;set canal 1 as laser-source
G4F4			;necessary delay for positioning of the mirror
M0			;wait for user-input
;START POWDER!!!
G4F15

M0

G54

G90 ; use absolute coordinates
G1 X10.902 Y0.507 F1980.000
ID=1 WHEN $AC_TIMER[1]>=0 DO M50
G1 X10.878 Y1.0228 F600.000
G1 X10.834 Y1.4130
G1 X10.698 Y2.2199
G1 X10.502 Y3.0128
G1 X10.386 Y3.3919
G1 X10.102 Y4.1624
G1 X9.944 Y4.5264
G1 X9.576 Y5.2619
G1 X9.051 Y6.1179
G1 X8.691 Y6.6203
G1 X8.181 Y7.2416
G1 X7.613 Y7.8361
G1 X6.861 Y8.5001
G1 X6.370 Y8.8774
G1 X6.043 Y9.1036
G1 X5.344 Y9.5308
G1 X4.810 Y9.8081
G1 X4.253 Y10.0649
G1 X3.490 Y10.3536
G1 X2.915 Y10.5280
G1 X2.318 Y10.6770
G1 X1.725 Y10.7875
G1 X1.115 Y10.8695
G1 X0.513 Y10.9120
G1 X-0.105 Y10.9253
G1 X-0.502 Y10.9145
G1 X-1.317 Y10.8464
G1 X-2.124 Y10.7173
G1 X-2.511 Y10.6334
G1 X-3.304 Y10.4149
G1 X-3.679 Y10.2889
G1 X-4.438 Y9.9848
G1 X-5.172 Y9.6247
G1 X-5.517 Y9.4307
G1 X-6.206 Y8.9917
G1 X-6.857 Y8.5060
G1 X-7.474 Y7.9699
G1 X-7.758 Y7.6939
G1 X-8.315 Y7.0884
G1 X-8.566 Y6.7825
G1 X-9.052 Y6.1180
G1 X-9.268 Y5.7860
G1 X-9.677 Y5.0735
G1 X-10.100 Y4.1625
G1 X-10.321 Y3.5859
G1 X-10.556 Y2.8162
G1 X-10.738 Y2.0147
G1 X-10.876 Y1.0207
G1 X-10.926 Y0.0050
G1 X-10.895 Y-0.8132
G1 X-10.832 Y-1.4125
G1 X-10.737 Y-2.0195
G1 X-10.608 Y-2.6080
G1 X-10.321 Y-3.5856
G1 X-10.104 Y-4.1515
G1 X-9.676 Y-5.0741
G1 X-9.377 Y-5.6030
G1 X-9.050 Y-6.1218
G1 X-8.568 Y-6.7795
G1 X-8.180 Y-7.2398
G1 X-7.762 Y-7.6886
G1 X-7.167 Y-8.2463
G1 X-6.701 Y-8.6277
G1 X-6.206 Y-8.9927
G1 X-5.700 Y-9.3192
G1 X-5.167 Y-9.6272
G1 X-4.627 Y-9.8957
G1 X-4.065 Y-10.1414
G1 X-3.294 Y-10.4175
G1 X-2.914 Y-10.5305
G1 X-2.114 Y-10.7190
G1 X-1.724 Y-10.7891
G1 X-0.908 Y-10.8886
G1 X-0.511 Y-10.9148
G1 X0.096 Y-10.9238
G1 X0.714 Y-10.9021
G1 X1.513 Y-10.8204 F600.000
G1 X2.318 Y-10.6773
G1 X3.106 Y-10.4759
G1 X3.677 Y-10.2863
G1 X4.618 Y-9.9026
G1 X5.345 Y-9.5295
G1 X6.043 Y-9.1034
G1 X6.370 Y-8.8777
G1 X6.851 Y-8.5086
G1 X7.323 Y-8.1080
G1 X7.613 Y-7.8361
G1 X8.181 Y-7.2417
G1 X8.438 Y-6.9407
G1 X8.936 Y-6.2862
G1 X9.158 Y-5.9582
G1 X9.579 Y-5.2554
G1 X9.852 Y-4.7197
G1 X10.103 Y-4.1595
G1 X10.386 Y-3.3915
G1 X10.502 Y-3.0126
G1 X10.698 Y-2.2177
G1 X10.802 Y-1.6241
G1 X10.878 Y-1.0180
G1 X10.923 Y0.0570
G1 Z0.507 X11.080 Y1.0383 F600.000
G1 Z0.510 X11.035 Y1.4404
G1 Z0.515 X10.923 Y2.1218
G1 Z0.519 X10.806 Y2.6619
G1 Z0.525 X10.576 Y3.4642
G1 Z0.528 X10.444 Y3.8455
G1 Z0.534 X10.127 Y4.6140
G1 Z0.540 X9.756 Y5.3557
G1 Z0.544 X9.406 Y5.9445
G1 Z0.548 X9.098 Y6.4092
G1 Z0.551 X8.858 Y6.7370
G1 Z0.556 X8.425 Y7.2686
G1 Z0.563 X7.757 Y7.9802
G1 Z0.569 X7.144 Y8.5333
G1 Z0.574 X6.604 Y8.9551
G1 Z0.578 X6.153 Y9.2732
G1 Z0.584 X5.444 Y9.7066
G1 Z0.589 X4.836 Y10.0214
G1 Z0.596 X3.950 Y10.4048
G1 Z0.601 X3.303 Y10.6253
G1 Z0.608 X2.359 Y10.8760
G1 Z0.614 X1.541 Y11.0229
G1 Z0.616 X1.140 Y11.0700
G1 Z0.621 X0.452 Y11.1183
G1 Z0.625 X-0.101 Y11.1285
G1 Z0.631 X-0.931 Y11.0909
G1 Z0.636 X-1.611 Y11.0107
G1 Z0.640 X-2.156 Y10.9188
G1 Z0.646 X-2.968 Y10.7261
G1 Z0.649 X-3.355 Y10.6114
G1 Z0.655 X-4.144 Y10.3295
G1 Z0.658 X-4.517 Y10.1716
G1 Z0.663 X-5.132 Y9.8731
G1 Z0.670 X-5.979 Y9.3868
G1 Z0.676 X-6.662 Y8.9147
G1 Z0.679 X-6.982 Y8.6668
G1 Z0.683 X-7.504 Y8.2162
G1 Z0.690 X-8.188 Y7.5378
G1 Z0.696 X-8.728 Y6.9043
G1 Z0.702 X-9.220 Y6.2328
G1 Z0.705 X-9.440 Y5.8942
G1 Z0.711 X-9.856 Y5.1673
G1 Z0.714 X-10.037 Y4.8076
G1 Z0.720 X-10.368 Y4.0431
G1 Z0.726 X-10.642 Y3.2577
G1 Z0.729 X-10.753 Y2.8690
G1 Z0.735 X-10.938 Y2.0521
G1 Z0.738 X-11.005 Y1.6532
G1 Z0.743 X-11.084 Y0.9737
G1 Z0.750 X-11.129 Y-0.0070
G1 Z0.753 X-11.121 Y-0.4105
G1 Z0.757 X-11.073 Y-1.0920
G1 Z0.764 X-10.936 Y-2.0596
G1 Z0.770 X-10.753 Y-2.8695
G1 Z0.773 X-10.642 Y-3.2579
G1 Z0.779 X-10.368 Y-4.0434
G1 Z0.785 X-10.037 Y-4.8079
G1 Z0.788 X-9.856 Y-5.1673
G1 Z0.794 X-9.442 Y-5.8898
G1 Z0.800 X-8.976 Y-6.5793
G1 Z0.806 X-8.469 Y-7.2200
G1 Z0.812 X-7.902 Y-7.8362
G1 Z0.815 X-7.613 Y-8.1185
G1 Z0.821 X-6.981 Y-8.6676
G1 Z0.824 X-6.661 Y-8.9157
G1 Z0.828 X-6.100 Y-9.3062
G1 Z0.835 X-5.257 Y-9.8094
G1 Z0.838 X-4.900 Y-9.9922
G1 Z0.844 X-4.134 Y-10.3323
G1 Z0.847 X-3.756 Y-10.4764
G1 Z0.852 X-3.104 Y-10.6859
G1 Z0.859 X-2.151 Y-10.9192
G1 Z0.862 X-1.756 Y-10.9899
G1 Z0.868 X-0.925 Y-11.0900
G1 Z0.871 X-0.521 Y-11.1171
G1 Z0.876 X0.163 Y-11.1266
G1 Z0.883 X1.143 Y-11.0709
G1 Z0.886 X1.541 Y-11.0226 F600.000
G1 Z0.892 X2.361 Y-10.8751
G1 Z0.898 X3.163 Y-10.6708
G1 Z0.902 X3.813 Y-10.4536
G1 Z0.906 X4.328 Y-10.2537
G1 Z0.912 X5.085 Y-9.8990
G1 Z0.915 X5.440 Y-9.7093
G1 Z0.921 X6.155 Y-9.2724
G1 Z0.924 X6.487 Y-9.0438
G1 Z0.930 X7.149 Y-8.5299
G1 Z0.933 X7.453 Y-8.2652
G1 Z0.939 X8.053 Y-7.6813
G1 Z0.942 X8.327 Y-7.3834
G1 Z0.947 X8.764 Y-6.8569
G1 Z0.954 X9.333 Y-6.0626
G1 Z0.960 X9.759 Y-5.3505
G1 Z0.963 X9.946 Y-4.9928
G1 Z0.969 X10.291 Y-4.2353
G1 Z0.974 X10.579 Y-3.4549
G1 Z0.977 X10.698 Y-3.0682
G1 Z0.983 X10.897 Y-2.2607
G1 Z0.989 X11.035 Y-1.4392
G1 Z0.992 X11.080 Y-1.0386
G1 Z1.000 X11.127 Y0.0575
G1 Z1.007 X11.259 Y1.0505 F600.000
G1 Z1.012 X11.162 Y1.8043
G1 Z1.016 X11.073 Y2.2931
G1 Z1.022 X10.870 Y3.1174
G1 Z1.025 X10.748 Y3.5140
G1 Z1.028 X10.611 Y3.9070
G1 Z1.033 X10.324 Y4.61006
G1 Z1.040 X9.912 Y5.44116
G1 Z1.046 X9.479 Y6.16645
G1 Z1.048 X9.249 Y6.50625
G1 Z1.054 X8.734 Y7.18300
G1 Z1.057 X8.467 Y7.49580
G1 Z1.063 X7.883 Y8.10618
G1 Z1.069 X7.259 Y8.67025
G1 Z1.075 X6.659 Y9.13763
G1 Z1.081 X5.899 Y9.64794
G1 Z1.086 X5.237 Y10.02130
G1 Z1.093 X4.394 Y10.41976
G1 Z1.096 X4.015 Y10.57147
G1 Z1.102 X3.208 Y10.84321
G1 Z1.105 X2.812 Y10.95305
G1 Z1.110 X2.070 Y11.11541
G1 Z1.117 X1.148 Y11.24988
G1 Z1.119 X0.740 Y11.28458
G1 Z1.125 X-0.110 Y11.30733
G1 Z1.128 X-0.521 Y11.29617
G1 Z1.134 X-1.278 Y11.23453
G1 Z1.140 X-2.194 Y11.09363
G1 Z1.146 X-3.012 Y10.89960
G1 Z1.151 X-3.737 Y10.67198
G1 Z1.155 X-4.203 Y10.49890
G1 Z1.160 X-4.901 Y10.18953
G1 Z1.164 X-5.345 Y9.96545
G1 Z1.169 X-6.005 Y9.58007
G1 Z1.173 X-6.421 Y9.30895
G1 Z1.179 X-7.098 Y8.80326
G1 Z1.184 X-7.672 Y8.30564
G1 Z1.187 X-8.030 Y7.96153
G1 Z1.193 X-8.602 Y7.33983
G1 Z1.199 X-9.075 Y6.74421
G1 Z1.202 X-9.366 Y6.33546
G1 Z1.205 X-9.592 Y5.98950
G1 Z1.211 X-10.015 Y5.25024
G1 Z1.214 X-10.199 Y4.88405
G1 Z1.220 X-10.537 Y4.10379
G1 Z1.223 X-10.679 Y3.71863
G1 Z1.228 X-10.903 Y2.99299
G1 Z1.235 X-11.114 Y2.08445
G1 Z1.238 X-11.182 Y1.68020
G1 Z1.243 X-11.269 Y0.92556
G1 Z1.250 X-11.308 Y-0.00602
G1 Z1.253 X-11.300 Y-0.41676
G1 Z1.258 X-11.245 Y-1.17412
G1 Z1.264 X-11.112 Y-2.09659
G1 Z1.267 X-11.029 Y-2.49733
G1 Z1.273 X-10.835 Y-3.23269
G1 Z1.279 X-10.533 Y-4.11415
G1 Z1.282 X-10.377 Y-4.49390
G1 Z1.287 X-10.051 Y-5.17926
G1 Z1.294 X-9.594 Y-5.98536
G1 Z1.300 X-9.120 Y-6.68565
G1 Z1.306 X-8.605 Y-7.33696
G1 Z1.312 X-8.029 Y-7.96271
G1 Z1.315 X-7.735 Y-8.24955
G1 Z1.320 X-7.162 Y-8.74891
G1 Z1.327 X-6.418 Y-9.31037
G1 Z1.329 X-6.078 Y-9.53607
G1 Z1.335 X-5.343 Y-9.96682
G1 Z1.338 X-4.978 Y-10.15362
G1 Z1.344 X-4.206 Y-10.49601
G1 Z1.350 X-3.409 Y-10.78239
G1 Z1.353 X-3.016 Y-10.89820
G1 Z1.359 X-2.193 Y-11.09358
G1 Z1.365 X-1.358 Y-11.22697
G1 Z1.371 X-0.530 Y-11.29532
G1 Z1.376 X0.230 Y-11.30468
G1 Z1.383 X1.161 Y-11.24814
G1 Z1.386 X1.566 Y-11.19985 F600.000
G1 Z1.392 X2.399 Y-11.05023
G1 Z1.398 X3.218 Y-10.84062
G1 Z1.400 X3.609 Y-10.71642
G1 Z1.406 X4.400 Y-10.41781
G1 Z1.412 X5.166 Y-10.05919
G1 Z1.415 X5.528 Y-9.86599
G1 Z1.421 X6.254 Y-9.42174
G1 Z1.424 X6.591 Y-9.18854
G1 Z1.430 X7.264 Y-8.66729
G1 Z1.433 X7.573 Y-8.39709
G1 Z1.439 X8.179 Y-7.80847
G1 Z1.445 X8.740 Y-7.17586
G1 Z1.448 X8.995 Y-6.85366
G1 Z1.454 X9.482 Y-6.16205
G1 Z1.460 X9.916 Y-5.43643
G1 Z1.463 X10.106 Y-5.07323
G1 Z1.469 X10.459 Y-4.29898
G1 Z1.471 X10.608 Y-3.91678
G1 Z1.477 X10.871 Y-3.11217
G1 Z1.483 X11.073 Y-2.29155
G1 Z1.486 X11.149 Y-1.88836
G1 Z1.492 X11.260 Y-1.04410
G1 Z1.495 X11.290 Y-0.63590
G1 Z1.500 X11.303 Y0.05434
G1 Z1.507 X11.414 Y1.06451 F600.000
G1 Z1.513 X11.303 Y1.91471
G1 Z1.519 X11.132 Y2.73985
G1 Z1.525 X10.904 Y3.53503
G1 Z1.531 X10.601 Y4.36392
G1 Z1.536 X10.258 Y5.11708
G1 Z1.543 X9.841 Y5.88119
G1 Z1.548 X9.373 Y6.59939
G1 Z1.554 X8.857 Y7.27825
G1 Z1.560 X8.308 Y7.89844
G1 Z1.566 X7.685 Y8.50657
G1 Z1.572 X7.050 Y9.03975
G1 Z1.578 X6.331 Y9.55799
G1 Z1.581 X5.981 Y9.78016
G1 Z1.587 X5.228 Y10.20272
G1 Z1.590 X4.855 Y10.38593
G1 Z1.596 X4.060 Y10.72149
G1 Z1.599 X3.669 Y10.86171
G1 Z1.604 X2.874 Y11.09789
G1 Z1.611 X2.013 Y11.28577
G1 Z1.617 X1.165 Y11.40494
G1 Z1.619 X0.750 Y11.43914
G1 Z1.625 X-0.112 Y11.46370
G1 Z1.628 X-0.528 Y11.45292
G1 Z1.634 X-1.353 Y11.38311
G1 Z1.640 X-2.224 Y11.24698
G1 Z1.646 X-3.058 Y11.04815
G1 Z1.649 X-3.456 Y10.93036
G1 Z1.655 X-4.268 Y10.63992
G1 Z1.658 X-4.652 Y10.47812
G1 Z1.664 X-5.426 Y10.09868
G1 Z1.667 X-5.789 Y9.89590
G1 Z1.673 X-6.488 Y9.45009
G1 Z1.679 X-7.199 Y8.92132
G1 Z1.682 X-7.518 Y8.65450
G1 Z1.688 X-8.144 Y8.06870
G1 Z1.693 X-8.721 Y7.44155
G1 Z1.699 X-9.235 Y6.79174
G1 Z1.705 X-9.724 Y6.07187
G1 Z1.711 X-10.137 Y5.35206
G1 Z1.717 X-10.518 Y4.55894
G1 Z1.723 X-10.820 Y3.78710
G1 Z1.729 X-11.076 Y2.95523
G1 Z1.735 X-11.260 Y2.14742
G1 Z1.741 X-11.393 Y1.27065
G1 Z1.744 X-11.432 Y0.85783
G1 Z1.750 X-11.464 Y-0.00003
G1 Z1.756 X-11.432 Y-0.85723
G1 Z1.758 X-11.393 Y-1.27143
G1 Z1.764 X-11.265 Y-2.12499
G1 Z1.767 X-11.181 Y-2.53120
G1 Z1.773 X-10.959 Y-3.36476
G1 Z1.776 X-10.830 Y-3.76098
G1 Z1.782 X-10.529 Y-4.53216
G1 Z1.788 X-10.148 Y-5.33240
G1 Z1.791 X-9.948 Y-5.69757
G1 Z1.797 X-9.494 Y-6.42477
G1 Z1.803 X-8.991 Y-7.11263
G1 Z1.809 X-8.453 Y-7.74382
G1 Z1.812 X-8.147 Y-8.06507
G1 Z1.818 X-7.522 Y-8.65123
G1 Z1.823 X-6.877 Y-9.17243
G1 Z1.827 X-6.516 Y-9.43269
G1 Z1.832 X-5.813 Y-9.88019
G1 Z1.835 X-5.425 Y-10.09945
G1 Z1.841 X-4.677 Y-10.46696
G1 Z1.844 X-4.268 Y-10.64021
G1 Z1.850 X-3.456 Y-10.93072
G1 Z1.853 X-3.058 Y-11.04893
G1 Z1.859 X-2.223 Y-11.24614
G1 Z1.865 X-1.405 Y-11.37734
G1 Z1.871 X-0.538 Y-11.45146
G1 Z1.877 X0.291 Y-11.45965
G1 Z1.883 X1.176 Y-11.40388
G1 Z1.886 X1.588 Y-11.35306 F600.000
G1 Z1.892 X2.437 Y-11.20262
G1 Z1.895 X2.842 Y-11.10684
G1 Z1.900 X3.637 Y-10.87102
G1 Z1.906 X4.461 Y-10.56090
G1 Z1.912 X5.237 Y-10.19706
G1 Z1.915 X5.604 Y-10.00127
G1 Z1.921 X6.340 Y-9.55183
G1 Z1.924 X6.682 Y-9.31504
G1 Z1.930 X7.360 Y-8.78925
G1 Z1.936 X7.975 Y-8.23444
G1 Z1.939 X8.289 Y-7.91969
G1 Z1.945 X8.861 Y-7.27420
G1 Z1.948 X9.119 Y-6.94741
G1 Z1.954 X9.612 Y-6.24661
G1 Z1.960 X10.052 Y-5.51181
G1 Z1.963 X10.246 Y-5.14202
G1 Z1.969 X10.601 Y-4.36222
G1 Z1.974 X10.896 Y-3.56306
G1 Z1.980 X11.132 Y-2.73826
G1 Z1.983 X11.225 Y-2.32883
G1 Z1.986 X11.303 Y-1.91440
G1 Z1.992 X11.415 Y-1.05996
G1 Z1.995 X11.446 Y-0.64416
G1 Z2.000 X11.459 Y0.05100
G1 Z2.004 X11.578 Y0.64972 F600.000
G1 Z2.010 X11.499 Y1.50071
G1 Z2.016 X11.354 Y2.35560
G1 Z2.022 X11.148 Y3.19214
G1 Z2.028 X10.879 Y4.01603
G1 Z2.031 X10.726 Y4.40858
G1 Z2.037 X10.364 Y5.20283
G1 Z2.040 X10.169 Y5.57539
G1 Z2.045 X9.723 Y6.31928
G1 Z2.051 X9.224 Y7.02817
G1 Z2.054 X8.963 Y7.35872
G1 Z2.060 X8.385 Y8.01198
G1 Z2.066 X7.756 Y8.62046
G1 Z2.072 X7.109 Y9.16167
G1 Z2.078 X6.409 Y9.66421
G1 Z2.084 X5.669 Y10.11611
G1 Z2.087 X5.298 Y10.31566
G1 Z2.093 X4.512 Y10.68255
G1 Z2.099 X3.701 Y10.99044
G1 Z2.102 X3.300 Y11.11700
G1 Z2.108 X2.455 Y11.33325
G1 Z2.111 X2.042 Y11.41580
G1 Z2.117 X1.179 Y11.53602
G1 Z2.120 X0.735 Y11.57328
G1 Z2.125 X-0.108 Y11.59649
G1 Z2.131 X-0.969 Y11.55603
G1 Z2.137 X-1.830 Y11.45193
G1 Z2.140 X-2.244 Y11.37748
G1 Z2.146 X-3.093 Y11.17673
G1 Z2.152 X-3.927 Y10.91121
G1 Z2.158 X-4.715 Y10.59579
G1 Z2.161 X-5.096 Y10.41735
G1 Z2.167 X-5.860 Y10.00624
G1 Z2.173 X-6.587 Y9.54377
G1 Z2.179 X-7.282 Y9.02567
G1 Z2.182 X-7.605 Y8.75422
G1 Z2.188 X-8.241 Y8.15847
G1 Z2.190 X-8.532 Y7.85403
G1 Z2.196 X-9.095 Y7.19492
G1 Z2.202 X-9.604 Y6.49845
G1 Z2.208 X-10.063 Y5.76334
G1 Z2.211 X-10.266 Y5.39490
G1 Z2.217 X-10.640 Y4.61179
G1 Z2.223 X-10.953 Y3.80832
G1 Z2.229 X-11.207 Y2.97921
G1 Z2.235 X-11.396 Y2.14803
G1 Z2.241 X-11.525 Y1.28628
G1 Z2.244 X-11.564 Y0.86783
G1 Z2.250 X-11.596 Y-0.00073
G1 Z2.256 X-11.564 Y-0.86762
G1 Z2.258 X-11.525 Y-1.28617
G1 Z2.264 X-11.396 Y-2.14304
G1 Z2.270 X-11.199 Y-3.00727
G1 Z2.276 X-10.952 Y-3.81348
G1 Z2.279 X-10.806 Y-4.20801
G1 Z2.285 X-10.450 Y-5.02561
G1 Z2.291 X-10.058 Y-5.77181
G1 Z2.297 X-9.607 Y-6.49464
G1 Z2.303 X-9.092 Y-7.19889
G1 Z2.306 X-8.825 Y-7.52344
G1 Z2.312 X-8.238 Y-8.16134
G1 Z2.318 X-7.609 Y-8.75187
G1 Z2.324 X-6.934 Y-9.29576
G1 Z2.329 X-6.232 Y-9.77958
G1 Z2.335 X-5.480 Y-10.22079
G1 Z2.339 X-5.084 Y-10.42205
G1 Z2.344 X-4.313 Y-10.76426
G1 Z2.350 X-3.497 Y-11.05613
G1 Z2.353 X-3.070 Y-11.18239
G1 Z2.359 X-2.244 Y-11.37796
G1 Z2.362 X-1.830 Y-11.45152
G1 Z2.368 X-0.969 Y-11.55539
G1 Z2.374 X-0.084 Y-11.59562
G1 Z2.380 X0.759 Y-11.57183
G1 Z2.383 X1.178 Y-11.53639 F600.000
G1 Z2.389 X2.042 Y-11.41564
G1 Z2.392 X2.455 Y-11.33317
G1 Z2.398 X3.318 Y-11.11176
G1 Z2.404 X4.117 Y-10.84197
G1 Z2.406 X4.508 Y-10.68453
G1 Z2.412 X5.293 Y-10.31743
G1 Z2.418 X6.050 Y-9.89332
G1 Z2.421 X6.405 Y-9.66787
G1 Z2.427 X7.109 Y-9.16176
G1 Z2.433 X7.774 Y-8.60566
G1 Z2.439 X8.385 Y-8.01147
G1 Z2.445 X8.963 Y-7.35872
G1 Z2.448 X9.224 Y-7.02828
G1 Z2.454 X9.726 Y-6.31549
G1 Z2.457 X9.961 Y-5.93775
G1 Z2.463 X10.366 Y-5.19796
G1 Z2.469 X10.726 Y-4.40886
G1 Z2.471 X10.879 Y-4.01642
G1 Z2.477 X11.148 Y-3.19231
G1 Z2.483 X11.356 Y-2.35020
G1 Z2.486 X11.434 Y-1.93676
G1 Z2.492 X11.547 Y-1.07101
G1 Z2.495 X11.578 Y-0.64974
G1 Z2.500 X11.595 Y0.05519
G1 Z2.504 X11.688 Y0.65512 F600.000
G1 Z2.510 X11.608 Y1.51469
G1 Z2.516 X11.461 Y2.38251
G1 Z2.519 X11.367 Y2.79736
G1 Z2.525 X11.126 Y3.63882
G1 Z2.531 X10.825 Y4.45593
G1 Z2.537 X10.463 Y5.25029
G1 Z2.540 X10.229 Y5.69031
G1 Z2.545 X9.813 Y6.38302
G1 Z2.548 X9.575 Y6.73590
G1 Z2.554 X9.042 Y7.43462
G1 Z2.558 X8.717 Y7.81264
G1 Z2.563 X8.158 Y8.39535
G1 Z2.566 X7.848 Y8.68623
G1 Z2.572 X7.176 Y9.24869
G1 Z2.578 X6.470 Y9.75680
G1 Z2.584 X5.727 Y10.20991
G1 Z2.590 X4.948 Y10.60937
G1 Z2.593 X4.556 Y10.78347
G1 Z2.596 X4.088 Y10.96885
G1 Z2.602 X3.328 Y11.22312
G1 Z2.608 X2.412 Y11.45443
G1 Z2.614 X1.622 Y11.59377
G1 Z2.616 X1.200 Y11.64564
G1 Z2.622 X0.321 Y11.70247
G1 Z2.625 X-0.104 Y11.70631
G1 Z2.631 X-0.978 Y11.66577
G1 Z2.637 X-1.847 Y11.56024
G1 Z2.640 X-2.264 Y11.48500
G1 Z2.647 X-3.187 Y11.26364
G1 Z2.652 X-3.951 Y11.01997
G1 Z2.658 X-4.816 Y10.66947
G1 Z2.664 X-5.540 Y10.31218
G1 Z2.667 X-5.911 Y10.10405
G1 Z2.673 X-6.649 Y9.63444
G1 Z2.679 X-7.403 Y9.06772
G1 Z2.685 X-8.007 Y8.53905
G1 Z2.687 X-8.312 Y8.24393
G1 Z2.693 X-8.905 Y7.59839
G1 Z2.699 X-9.448 Y6.91286
G1 Z2.702 X-9.693 Y6.56470
G1 Z2.708 X-10.158 Y5.81752
G1 Z2.711 X-10.365 Y5.44072
G1 Z2.714 X-10.558 Y5.05692
G1 Z2.720 X-10.908 Y4.24875
G1 Z2.723 X-11.055 Y3.84959
G1 Z2.729 X-11.312 Y3.01206
G1 Z2.735 X-11.505 Y2.15952
G1 Z2.738 X-11.576 Y1.74036
G1 Z2.744 X-11.674 Y0.87083
G1 Z2.750 X-11.706 Y-0.00529
G1 Z2.753 X-11.698 Y-0.43013
G1 Z2.758 X-11.633 Y-1.30360
G1 Z2.764 X-11.504 Y-2.16263
G1 Z2.771 X-11.292 Y-3.08290
G1 Z2.776 X-11.055 Y-3.84924
G1 Z2.783 X-10.713 Y-4.71673
G1 Z2.788 X-10.363 Y-5.44445
G1 Z2.791 X-10.158 Y-5.81732
G1 Z2.797 X-9.695 Y-6.56079
G1 Z2.803 X-9.178 Y-7.26625
G1 Z2.806 X-8.908 Y-7.59509
G1 Z2.812 X-8.312 Y-8.24392
G1 Z2.815 X-8.008 Y-8.53976
G1 Z2.821 X-7.348 Y-9.11214
G1 Z2.827 X-6.589 Y-9.67442
G1 Z2.832 X-5.912 Y-10.10476
G1 Z2.838 X-5.154 Y-10.51118
G1 Z2.844 X-4.354 Y-10.86665
G1 Z2.850 X-3.534 Y-11.16075
G1 Z2.856 X-2.691 Y-11.39322
G1 Z2.859 X-2.275 Y-11.48306
G1 Z2.865 X-1.406 Y-11.62188
G1 Z2.868 X-0.984 Y-11.66564
G1 Z2.874 X-0.036 Y-11.70528
G1 Z2.880 X0.766 Y-11.68162
G1 Z2.886 X1.622 Y-11.59304 F600.000
G1 Z2.892 X2.483 Y-11.44050
G1 Z2.898 X3.326 Y-11.22361
G1 Z2.903 X4.156 Y-10.94408
G1 Z2.906 X4.550 Y-10.78692
G1 Z2.912 X5.348 Y-10.41374
G1 Z2.915 X5.723 Y-10.21258
G1 Z2.921 X6.470 Y-9.75605
G1 Z2.927 X7.181 Y-9.24552
G1 Z2.930 X7.511 Y-8.97936
G1 Z2.936 X8.161 Y-8.39282
G1 Z2.942 X8.765 Y-7.76019
G1 Z2.945 X9.086 Y-7.37920
G1 Z2.951 X9.574 Y-6.73592
G1 Z2.954 X9.813 Y-6.38379
G1 Z2.960 X10.264 Y-5.62952
G1 Z2.963 X10.494 Y-5.18653
G1 Z2.969 X10.825 Y-4.45681
G1 Z2.975 X11.148 Y-3.56912
G1 Z2.980 X11.367 Y-2.79746
G1 Z2.983 X11.462 Y-2.37769
G1 Z2.986 X11.542 Y-1.95489
G1 Z2.992 X11.656 Y-1.08171
G1 Z2.995 X11.688 Y-0.65573
G1 Z3.000 X11.705 Y0.05883
G1 Z3.007 X11.745 Y1.09016 F600.000
G1 Z3.013 X11.630 Y1.96945
G1 Z3.016 X11.550 Y2.39053
G1 Z3.022 X11.338 Y3.25182
G1 Z3.025 X11.213 Y3.66189
G1 Z3.031 X10.906 Y4.49318
G1 Z3.034 X10.735 Y4.88625
G1 Z3.040 X10.340 Y5.67518
G1 Z3.045 X9.890 Y6.42775
G1 Z3.051 X9.382 Y7.14868
G1 Z3.057 X8.832 Y7.81854
G1 Z3.063 X8.223 Y8.45647
G1 Z3.069 X7.568 Y9.04739
G1 Z3.072 X7.235 Y9.31547
G1 Z3.078 X6.515 Y9.83376
G1 Z3.081 X6.153 Y10.06383
G1 Z3.087 X5.386 Y10.49364
G1 Z3.094 X4.480 Y10.90960
G1 Z3.099 X3.766 Y11.17820
G1 Z3.102 X3.357 Y11.30732
G1 Z3.108 X2.497 Y11.52861
G1 Z3.111 X2.077 Y11.61169
G1 Z3.116 X1.204 Y11.73362
G1 Z3.122 X0.324 Y11.79155
G1 Z3.125 X-0.105 Y11.79562
G1 Z3.131 X-0.989 Y11.75476
G1 Z3.135 X-1.533 Y11.69323
G1 Z3.140 X-2.290 Y11.57106
G1 Z3.144 X-2.825 Y11.45059
G1 Z3.149 X-3.561 Y11.24521
G1 Z3.155 X-4.387 Y10.94984
G1 Z3.161 X-5.193 Y10.59177
G1 Z3.164 X-5.574 Y10.39584
G1 Z3.170 X-6.335 Y9.94977
G1 Z3.176 X-7.061 Y9.44870
G1 Z3.182 X-7.735 Y8.90455
G1 Z3.187 X-8.379 Y8.30148
G1 Z3.193 X-8.976 Y7.65241
G1 Z3.196 X-9.248 Y7.32149
G1 Z3.202 X-9.768 Y6.61129
G1 Z3.209 X-10.290 Y5.76225
G1 Z3.214 X-10.642 Y5.08685
G1 Z3.217 X-10.820 Y4.69598
G1 Z3.223 X-11.142 Y3.87112
G1 Z3.227 X-11.308 Y3.34959
G1 Z3.232 X-11.503 Y2.60743
G1 Z3.236 X-11.611 Y2.06995
G1 Z3.241 X-11.722 Y1.31084
G1 Z3.244 X-11.766 Y0.81569
G1 Z3.250 X-11.795 Y0.00096
G1 Z3.256 X-11.762 Y-0.88192
G1 Z3.258 X-11.722 Y-1.30899
G1 Z3.264 X-11.591 Y-2.18313
G1 Z3.268 X-11.476 Y-2.71960
G1 Z3.273 X-11.278 Y-3.45410
G1 Z3.280 X-10.944 Y-4.39412
G1 Z3.285 X-10.639 Y-5.09372
G1 Z3.292 X-10.175 Y-5.96287
G1 Z3.297 X-9.770 Y-6.60837
G1 Z3.304 X-9.176 Y-7.40838
G1 Z3.309 X-8.679 Y-7.98898
G1 Z3.312 X-8.381 Y-8.30032
G1 Z3.315 X-7.981 Y-8.68315
G1 Z3.321 X-7.400 Y-9.18513
G1 Z3.324 X-7.061 Y-9.44826
G1 Z3.329 X-6.335 Y-9.94919
G1 Z3.335 X-5.574 Y-10.39512
G1 Z3.338 X-5.193 Y-10.59119
G1 Z3.344 X-4.387 Y-10.94912
G1 Z3.350 X-3.559 Y-11.24590
G1 Z3.354 X-3.032 Y-11.39738
G1 Z3.359 X-2.285 Y-11.57221
G1 Z3.363 X-1.745 Y-11.66473
G1 Z3.368 X-0.988 Y-11.75323
G1 Z3.375 X0.008 Y-11.79325
G1 Z3.380 X0.771 Y-11.77085
G1 Z3.386 X1.634 Y-11.68176 F600.000
G1 Z3.392 X2.501 Y-11.52756
G1 Z3.398 X3.464 Y-11.27352
G1 Z3.403 X4.187 Y-11.02712
G1 Z3.406 X4.583 Y-10.86813
G1 Z3.413 X5.488 Y-10.43945
G1 Z3.418 X6.153 Y-10.06305
G1 Z3.421 X6.515 Y-9.83317
G1 Z3.427 X7.231 Y-9.31810
G1 Z3.433 X7.907 Y-8.75203
G1 Z3.436 X8.220 Y-8.45911
G1 Z3.442 X8.831 Y-7.81925
G1 Z3.446 X9.183 Y-7.40072
G1 Z3.451 X9.647 Y-6.78770
G1 Z3.454 X9.887 Y-6.43183
G1 Z3.460 X10.340 Y-5.67576
G1 Z3.466 X10.735 Y-4.88669
G1 Z3.468 X10.905 Y-4.49564
G1 Z3.475 X11.245 Y-3.55396
G1 Z3.480 X11.453 Y-2.81956
G1 Z3.483 X11.549 Y-2.39504
G1 Z3.486 X11.630 Y-1.96948
G1 Z3.492 X11.745 Y-1.09076
G1 Z3.495 X11.777 Y-0.66002
G1 Z3.500 X11.793 Y0.06164
G1 Z3.504 X11.845 Y0.66487 F600.000
G1 Z3.510 X11.764 Y1.53426
G1 Z3.516 X11.616 Y2.40738
G1 Z3.523 X11.358 Y3.41972
G1 Z3.528 X11.130 Y4.10767
G1 Z3.531 X10.973 Y4.51000
G1 Z3.537 X10.603 Y5.32265
G1 Z3.539 X10.404 Y5.70174
G1 Z3.547 X9.858 Y6.59743
G1 Z3.551 X9.437 Y7.18938
G1 Z3.557 X8.883 Y7.86367
G1 Z3.563 X8.267 Y8.50831
G1 Z3.566 X7.953 Y8.80357
G1 Z3.572 X7.273 Y9.37285
G1 Z3.578 X6.558 Y9.88662
G1 Z3.585 X5.663 Y10.42295
G1 Z3.590 X5.016 Y10.75190
G1 Z3.593 X4.616 Y10.92959
G1 Z3.596 X4.212 Y11.09120
G1 Z3.602 X3.373 Y11.37333
G1 Z3.609 X2.360 Y11.62466
G1 Z3.614 X1.645 Y11.74961
G1 Z3.619 X0.776 Y11.83890
G1 Z3.625 X-0.115 Y11.86355
G1 Z3.628 X-0.546 Y11.85180
G1 Z3.634 X-1.435 Y11.77645
G1 Z3.637 X-1.862 Y11.71670
G1 Z3.643 X-2.730 Y11.54582
G1 Z3.650 X-3.734 Y11.25815
G1 Z3.655 X-4.416 Y11.01111
G1 Z3.658 X-4.814 Y10.84344
G1 Z3.664 X-5.611 Y10.45372
G1 Z3.670 X-6.376 Y10.00401
G1 Z3.673 X-6.733 Y9.76810
G1 Z3.680 X-7.569 Y9.13379
G1 Z3.685 X-8.114 Y8.65474
G1 Z3.687 X-8.424 Y8.35307
G1 Z3.693 X-9.024 Y7.70036
G1 Z3.699 X-9.575 Y7.00565
G1 Z3.706 X-10.145 Y6.14508
G1 Z3.711 X-10.503 Y5.51689
G1 Z3.718 X-10.946 Y4.56930
G1 Z3.723 X-11.207 Y3.89226
G1 Z3.730 X-11.501 Y2.90276
G1 Z3.735 X-11.659 Y2.19474
G1 Z3.741 X-11.790 Y1.31892
G1 Z3.745 X-11.839 Y0.72758
G1 Z3.750 X-11.863 Y0.00340
G1 Z3.757 X-11.816 Y-1.04181
G1 Z3.761 X-11.732 Y-1.76276
G1 Z3.768 X-11.532 Y-2.77527
G1 Z3.773 X-11.343 Y-3.47625
G1 Z3.779 X-11.052 Y-4.31243
G1 Z3.783 X-10.821 Y-4.85909
G1 Z3.788 X-10.503 Y-5.51743
G1 Z3.791 X-10.295 Y-5.89576
G1 Z3.797 X-9.827 Y-6.64688
G1 Z3.804 X-9.203 Y-7.48422
G1 Z3.809 X-8.729 Y-8.03417
G1 Z3.812 X-8.431 Y-8.34650
G1 Z3.818 X-7.780 Y-8.95614
G1 Z3.821 X-7.450 Y-9.23340
G1 Z3.827 X-6.735 Y-9.76604
G1 Z3.829 X-6.376 Y-10.00429
G1 Z3.835 X-5.606 Y-10.45594
G1 Z3.838 X-5.223 Y-10.65219
G1 Z3.844 X-4.412 Y-11.01248
G1 Z3.850 X-3.577 Y-11.31176
G1 Z3.853 X-3.164 Y-11.43402
G1 Z3.859 X-2.296 Y-11.63966
G1 Z3.862 X-1.872 Y-11.71591
G1 Z3.868 X-0.986 Y-11.82256
G1 Z3.871 X-0.554 Y-11.85194
G1 Z3.875 X0.094 Y-11.86147
G1 Z3.880 X0.775 Y-11.83831
G1 Z3.883 X1.206 Y-11.80267 F600.000
G1 Z3.889 X2.089 Y-11.67832
G1 Z3.892 X2.512 Y-11.59457
G1 Z3.898 X3.376 Y-11.37322
G1 Z3.900 X3.787 Y-11.24347
G1 Z3.906 X4.621 Y-10.92712
G1 Z3.909 X5.015 Y-10.75237
G1 Z3.915 X5.804 Y-10.34765
G1 Z3.921 X6.556 Y-9.88758
G1 Z3.927 X7.277 Y-9.36987
G1 Z3.930 X7.612 Y-9.09912
G1 Z3.936 X8.271 Y-8.50541
G1 Z3.942 X8.883 Y-7.86369
G1 Z3.945 X9.163 Y-7.53594
G1 Z3.951 X9.700 Y-6.83023
G1 Z3.957 X10.184 Y-6.08652
G1 Z3.963 X10.603 Y-5.32273
G1 Z3.969 X10.971 Y-4.51402
G1 Z3.974 X11.276 Y-3.68794
G1 Z3.980 X11.520 Y-2.83423
G1 Z3.983 X11.615 Y-2.41448
G1 Z3.989 X11.764 Y-1.53413
G1 Z3.992 X11.812 Y-1.10174
G1 Z3.995 X11.845 Y-0.66453
G1 Z4.000 X11.862 Y0.06355
G1 Z4.007 X11.861 Y1.10041 F600.000
G1 Z4.013 X11.744 Y1.98931
G1 Z4.016 X11.664 Y2.41469
G1 Z4.022 X11.451 Y3.28037
G1 Z4.026 X11.258 Y3.88601
G1 Z4.031 X11.014 Y4.53675
G1 Z4.034 X10.841 Y4.93423
G1 Z4.040 X10.440 Y5.73513
G1 Z4.042 X10.225 Y6.11051
G1 Z4.048 X9.737 Y6.86240
G1 Z4.051 X9.481 Y7.21178
G1 Z4.057 X8.916 Y7.89932
G1 Z4.063 X8.301 Y8.54386
G1 Z4.066 X7.984 Y8.84037
G1 Z4.070 X7.495 Y9.25538
G1 Z4.075 X6.945 Y9.67812
G1 Z4.081 X6.214 Y10.16268
G1 Z4.087 X5.437 Y10.59822
G1 Z4.093 X4.635 Y10.97340
G1 Z4.099 X3.807 Y11.28758
G1 Z4.105 X2.953 Y11.54012
G1 Z4.110 X2.098 Y11.72558
G1 Z4.116 X1.211 Y11.85047
G1 Z4.119 X0.780 Y11.88685
G1 Z4.125 X-0.116 Y11.91175
G1 Z4.128 X-0.550 Y11.89926
G1 Z4.133 X-1.189 Y11.85027
G1 Z4.137 X-1.878 Y11.76301
G1 Z4.140 X-2.307 Y11.68663
G1 Z4.144 X-2.932 Y11.54364
G1 Z4.149 X-3.600 Y11.35538
G1 Z4.152 X-4.013 Y11.21500
G1 Z4.156 X-4.610 Y10.98101
G1 Z4.161 X-5.243 Y10.69674
G1 Z4.164 X-5.631 Y10.49736
G1 Z4.168 X-6.186 Y10.17737
G1 Z4.173 X-6.767 Y9.80389
G1 Z4.177 X-7.280 Y9.42564
G1 Z4.182 X-7.814 Y8.99002
G1 Z4.187 X-8.462 Y8.38330
G1 Z4.193 X-9.065 Y7.72884
G1 Z4.196 X-9.339 Y7.39422
G1 Z4.202 X-9.868 Y6.67111
G1 Z4.205 X-10.104 Y6.30849
G1 Z4.211 X-10.550 Y5.53139
G1 Z4.214 X-10.744 Y5.14390
G1 Z4.218 X-11.003 Y4.55691
G1 Z4.223 X-11.252 Y3.90865
G1 Z4.226 X-11.388 Y3.49427
G1 Z4.230 X-11.557 Y2.87628
G1 Z4.235 X-11.707 Y2.19802
G1 Z4.238 X-11.780 Y1.76864
G1 Z4.242 X-11.856 Y1.13264
G1 Z4.247 X-11.903 Y0.43938
G1 Z4.250 X-11.912 Y0.00586
G1 Z4.256 X-11.878 Y-0.88754
G1 Z4.260 X-11.812 Y-1.51919
G1 Z4.264 X-11.706 Y-2.20593
G1 Z4.267 X-11.617 Y-2.63255
G1 Z4.272 X-11.457 Y-3.25355
G1 Z4.276 X-11.250 Y-3.91529
G1 Z4.279 X-11.099 Y-4.32491
G1 Z4.283 X-10.848 Y-4.91492
G1 Z4.288 X-10.545 Y-5.53966
G1 Z4.291 X-10.336 Y-5.92022
G1 Z4.296 X-9.951 Y-6.54361
G1 Z4.303 X-9.344 Y-7.38762
G1 Z4.307 X-8.932 Y-7.87863
G1 Z4.312 X-8.463 Y-8.38201
G1 Z4.318 X-7.812 Y-8.99265
G1 Z4.321 X-7.480 Y-9.27003
G1 Z4.327 X-6.762 Y-9.80693
G1 Z4.329 X-6.402 Y-10.04530
G1 Z4.335 X-5.629 Y-10.49820
G1 Z4.338 X-5.244 Y-10.69558
G1 Z4.344 X-4.430 Y-11.05711
G1 Z4.350 X-3.592 Y-11.35765
G1 Z4.353 X-3.177 Y-11.48003
G1 Z4.359 X-2.308 Y-11.68671
G1 Z4.363 X-1.681 Y-11.79036
G1 Z4.368 X-0.992 Y-11.87010
G1 Z4.371 X-0.557 Y-11.89971
G1 Z4.375 X0.084 Y-11.90972
G1 Z4.380 X0.778 Y-11.88646
G1 Z4.383 X1.211 Y-11.85094 F600.000
G1 Z4.389 X2.098 Y-11.72584
G1 Z4.395 X2.955 Y-11.53944
G1 Z4.399 X3.571 Y-11.36245
G1 Z4.403 X4.227 Y-11.13619
G1 Z4.409 X5.037 Y-10.79489
G1 Z4.414 X5.609 Y-10.50690
G1 Z4.418 X6.213 Y-10.16364
G1 Z4.421 X6.579 Y-9.93011
G1 Z4.427 X7.302 Y-9.41065
G1 Z4.433 X7.985 Y-8.83919
G1 Z4.436 X8.301 Y-8.54357
G1 Z4.442 X8.917 Y-7.89724
G1 Z4.446 X9.324 Y-7.40989
G1 Z4.451 X9.742 Y-6.85463
G1 Z4.454 X9.985 Y-6.49511
G1 Z4.460 X10.442 Y-5.73165
G1 Z4.466 X10.841 Y-4.93419
G1 Z4.471 X11.175 Y-4.12379
G1 Z4.476 X11.379 Y-3.51580
G1 Z4.480 X11.566 Y-2.84754
G1 Z4.483 X11.663 Y-2.42215
G1 Z4.488 X11.774 Y-1.79116
G1 Z4.492 X11.860 Y-1.10290
G1 Z4.495 X11.893 Y-0.66656
G1 Z4.500 X11.910 Y0.06486
G1 Z4.504 X11.921 Y0.66290 F600.000
G1 Z4.509 X11.862 Y1.34072
G1 Z4.513 X11.772 Y1.99187
G1 Z4.516 X11.692 Y2.41945
G1 Z4.522 X11.477 Y3.29149
G1 Z4.525 X11.350 Y3.70694
G1 Z4.531 X11.041 Y4.54574
G1 Z4.535 X10.764 Y5.16220
G1 Z4.540 X10.468 Y5.74299
G1 Z4.545 X10.011 Y6.50644
G1 Z4.551 X9.497 Y7.23612
G1 Z4.557 X8.940 Y7.91473
G1 Z4.563 X8.320 Y8.56378
G1 Z4.566 X8.003 Y8.86134
G1 Z4.571 X7.483 Y9.30116
G1 Z4.575 X6.961 Y9.70031
G1 Z4.578 X6.603 Y9.94888
G1 Z4.584 X5.837 Y10.41693
G1 Z4.587 X5.455 Y10.62138
G1 Z4.593 X4.646 Y10.99806
G1 Z4.599 X3.811 Y11.31575
G1 Z4.602 X3.398 Y11.44620
G1 Z4.608 X2.528 Y11.66924
G1 Z4.610 X2.103 Y11.75369
G1 Z4.616 X1.217 Y11.87748
G1 Z4.621 X0.543 Y11.92595
G1 Z4.625 X-0.114 Y11.93909
G1 Z4.628 X-0.550 Y11.92767
G1 Z4.634 X-1.439 Y11.85236
G1 Z4.640 X-2.321 Y11.71204
G1 Z4.643 X-2.744 Y11.62049
G1 Z4.649 X-3.610 Y11.38153
G1 Z4.652 X-4.021 Y11.24298
G1 Z4.658 X-4.854 Y10.90803
G1 Z4.661 X-5.249 Y10.72459
G1 Z4.665 X-5.850 Y10.40641
G1 Z4.670 X-6.415 Y10.07056
G1 Z4.673 X-6.778 Y9.82914
G1 Z4.679 X-7.498 Y9.29218
G1 Z4.682 X-7.830 Y9.01363
G1 Z4.687 X-8.485 Y8.40067
G1 Z4.690 X-8.785 Y8.08612
G1 Z4.696 X-9.364 Y7.40781
G1 Z4.702 X-9.892 Y6.68749
G1 Z4.705 X-10.128 Y6.32394
G1 Z4.711 X-10.574 Y5.54499
G1 Z4.714 X-10.769 Y5.15555
G1 Z4.719 X-11.044 Y4.53237
G1 Z4.723 X-11.279 Y3.91852
G1 Z4.726 X-11.414 Y3.50221
G1 Z4.730 X-11.593 Y2.84503
G1 Z4.735 X-11.733 Y2.20881
G1 Z4.741 X-11.865 Y1.32738
G1 Z4.745 X-11.920 Y0.65484
G1 Z4.750 X-11.939 Y0.00263
G1 Z4.756 X-11.906 Y-0.88816
G1 Z4.760 X-11.828 Y-1.61657
G1 Z4.767 X-11.645 Y-2.63636
G1 Z4.773 X-11.414 Y-3.50441
G1 Z4.776 X-11.279 Y-3.91897
G1 Z4.781 X-11.035 Y-4.55479
G1 Z4.785 X-10.770 Y-5.15594
G1 Z4.791 X-10.361 Y-5.93367
G1 Z4.797 X-9.889 Y-6.69136
G1 Z4.803 X-9.363 Y-7.40879
G1 Z4.807 X-8.927 Y-7.92525
G1 Z4.812 X-8.479 Y-8.40640
G1 Z4.815 X-8.167 Y-8.70998
G1 Z4.821 X-7.490 Y-9.29802
G1 Z4.824 X-7.146 Y-9.56559
G1 Z4.828 X-6.588 Y-9.95541
G1 Z4.832 X-6.031 Y-10.30455
G1 Z4.838 X-5.256 Y-10.72029
G1 Z4.844 X-4.441 Y-11.08397
G1 Z4.850 X-3.603 Y-11.38341
G1 Z4.855 X-2.953 Y-11.56687
G1 Z4.859 X-2.312 Y-11.71402
G1 Z4.862 X-1.884 Y-11.79060
G1 Z4.868 X-0.993 Y-11.89864
G1 Z4.871 X-0.558 Y-11.92720
G1 Z4.875 X0.123 Y-11.93702
G1 Z4.880 X0.780 Y-11.91417
G1 Z4.883 X1.215 Y-11.87886 F600.000
G1 Z4.887 X1.890 Y-11.78768
G1 Z4.892 X2.536 Y-11.66783
G1 Z4.895 X2.962 Y-11.56652
G1 Z4.899 X3.616 Y-11.37734
G1 Z4.903 X4.237 Y-11.16349
G1 Z4.906 X4.641 Y-11.00107
G1 Z4.912 X5.455 Y-10.62111
G1 Z4.915 X5.837 Y-10.41656
G1 Z4.921 X6.600 Y-9.94936
G1 Z4.926 X7.151 Y-9.55882
G1 Z4.930 X7.668 Y-9.15297
G1 Z4.933 X7.996 Y-8.86654
G1 Z4.939 X8.636 Y-8.24423
G1 Z4.945 X9.228 Y-7.57691
G1 Z4.948 X9.497 Y-7.23636
G1 Z4.954 X10.011 Y-6.50605
G1 Z4.960 X10.469 Y-5.74073
G1 Z4.963 X10.671 Y-5.35618
G1 Z4.969 X11.042 Y-4.54298
G1 Z4.973 X11.279 Y-3.90944
G1 Z4.977 X11.479 Y-3.28359
G1 Z4.980 X11.592 Y-2.86128
G1 Z4.985 X11.734 Y-2.19510
G1 Z4.989 X11.839 Y-1.54624
G1 Z4.992 X11.888 Y-1.10818
G1 Z4.995 X11.921 Y-0.67199
G1 Z5.000 X11.934 Y0.06354
G1 Z5.004 X11.929 Y0.66151 F600.000
G1 Z5.010 X11.846 Y1.55024
G1 Z5.016 X11.699 Y2.42661
G1 Z5.022 X11.485 Y3.29333
G1 Z5.025 X11.358 Y3.70880
G1 Z5.031 X11.049 Y4.54653
G1 Z5.037 X10.678 Y5.35926
G1 Z5.039 X10.477 Y5.74473
G1 Z5.045 X10.015 Y6.51581
G1 Z5.048 X9.772 Y6.87429
G1 Z5.054 X9.228 Y7.58937
G1 Z5.057 X8.946 Y7.91984
G1 Z5.063 X8.330 Y8.56557
G1 Z5.069 X7.666 Y9.16430
G1 Z5.072 X7.329 Y9.43677
G1 Z5.078 X6.599 Y9.96085
G1 Z5.081 X6.233 Y10.19332
G1 Z5.087 X5.454 Y10.63005
G1 Z5.093 X4.649 Y11.00642
G1 Z5.099 X3.814 Y11.32314
G1 Z5.102 X3.400 Y11.45461
G1 Z5.108 X2.530 Y11.67770
G1 Z5.110 X2.104 Y11.76117
G1 Z5.116 X1.219 Y11.88590
G1 Z5.122 X0.328 Y11.94362
G1 Z5.128 X-0.550 Y11.93527
G1 Z5.134 X-1.445 Y11.86036
G1 Z5.137 X-1.875 Y11.80083
G1 Z5.143 X-2.751 Y11.62656
G1 Z5.149 X-3.612 Y11.38928
G1 Z5.152 X-4.024 Y11.25076
G1 Z5.158 X-4.853 Y10.91848
G1 Z5.164 X-5.655 Y10.52521
G1 Z5.167 X-6.033 Y10.31268
G1 Z5.173 X-6.787 Y9.83341
G1 Z5.179 X-7.503 Y9.29813
G1 Z5.181 X-7.835 Y9.02060
G1 Z5.187 X-8.491 Y8.40569
G1 Z5.190 X-8.791 Y8.09116
G1 Z5.196 X-9.371 Y7.41289
G1 Z5.202 X-9.898 Y6.69161
G1 Z5.205 X-10.135 Y6.32708
G1 Z5.211 X-10.582 Y5.54817
G1 Z5.214 X-10.777 Y5.15973
G1 Z5.219 X-11.066 Y4.50024
G1 Z5.223 X-11.286 Y3.92176
G1 Z5.229 X-11.544 Y3.07956
G1 Z5.235 X-11.742 Y2.20829
G1 Z5.241 X-11.874 Y1.32502
G1 Z5.244 X-11.914 Y0.89349
G1 Z5.250 X-11.947 Y0.00021
G1 Z5.256 X-11.914 Y-0.88967
G1 Z5.260 X-11.838 Y-1.59982
G1 Z5.264 X-11.741 Y-2.21134
G1 Z5.267 X-11.653 Y-2.63905
G1 Z5.272 X-11.471 Y-3.33556
G1 Z5.276 X-11.284 Y-3.92608
G1 Z5.282 X-10.964 Y-4.74897
G1 Z5.287 X-10.657 Y-5.39848
G1 Z5.291 X-10.364 Y-5.94400
G1 Z5.297 X-9.898 Y-6.69181
G1 Z5.303 X-9.370 Y-7.41362
G1 Z5.308 X-8.909 Y-7.95877
G1 Z5.312 X-8.485 Y-8.41129
G1 Z5.315 X-8.172 Y-8.71601
G1 Z5.319 X-7.631 Y-9.19052
G1 Z5.324 X-7.146 Y-9.57503
G1 Z5.329 X-6.421 Y-10.07584
G1 Z5.335 X-5.649 Y-10.52866
G1 Z5.340 X-5.009 Y-10.84581
G1 Z5.344 X-4.446 Y-11.09096
G1 Z5.350 X-3.606 Y-11.39058
G1 Z5.355 X-2.919 Y-11.58473
G1 Z5.359 X-2.314 Y-11.72124
G1 Z5.362 X-1.885 Y-11.79887
G1 Z5.368 X-0.993 Y-11.90696
G1 Z5.371 X-0.559 Y-11.93552
G1 Z5.376 X0.160 Y-11.94503
G1 Z5.380 X0.780 Y-11.92254
G1 Z5.386 X1.655 Y-11.83235 F600.000
G1 Z5.392 X2.540 Y-11.67544
G1 Z5.395 X2.962 Y-11.57591
G1 Z5.400 X3.818 Y-11.32163
G1 Z5.406 X4.649 Y-11.00600
G1 Z5.412 X5.454 Y-10.63037
G1 Z5.418 X6.233 Y-10.19310
G1 Z5.424 X6.964 Y-9.70875
G1 Z5.430 X7.674 Y-9.15783
G1 Z5.433 X8.002 Y-8.87230
G1 Z5.439 X8.642 Y-8.25003
G1 Z5.445 X9.231 Y-7.58540
G1 Z5.451 X9.772 Y-6.87412
G1 Z5.454 X10.015 Y-6.51559
G1 Z5.460 X10.477 Y-5.74468
G1 Z5.463 X10.678 Y-5.35915
G1 Z5.469 X11.051 Y-4.54224
G1 Z5.471 X11.209 Y-4.13777
G1 Z5.476 X11.444 Y-3.42446
G1 Z5.483 X11.700 Y-2.41929
G1 Z5.486 X11.780 Y-1.99562
G1 Z5.492 X11.897 Y-1.10471
G1 Z5.495 X11.929 Y-0.67118
G1 Z5.500 X11.942 Y0.06375
G1 Z5.507 X11.884 Y1.11351 F600.000
G1 Z5.510 X11.836 Y1.54495
G1 Z5.516 X11.687 Y2.42465
G1 Z5.521 X11.493 Y3.21690
G1 Z5.528 X11.201 Y4.12486
G1 Z5.534 X10.861 Y4.94953
G1 Z5.540 X10.464 Y5.74283
G1 Z5.545 X10.005 Y6.50850
G1 Z5.551 X9.500 Y7.22615
G1 Z5.556 X9.025 Y7.80888
G1 Z5.563 X8.316 Y8.56255
G1 Z5.566 X8.001 Y8.85791
G1 Z5.571 X7.427 Y9.34164
G1 Z5.578 X6.591 Y9.95131
G1 Z5.581 X6.226 Y10.18467
G1 Z5.586 X5.572 Y10.55340
G1 Z5.593 X4.642 Y10.99677
G1 Z5.598 X3.942 Y11.26438
G1 Z5.605 X2.969 Y11.56181
G1 Z5.611 X2.092 Y11.75183
G1 Z5.613 X1.663 Y11.81934
G1 Z5.618 X0.916 Y11.89907
G1 Z5.625 X-0.118 Y11.93573
G1 Z5.628 X-0.550 Y11.92309
G1 Z5.633 X-1.299 Y11.86382
G1 Z5.640 X-2.317 Y11.70913
G1 Z5.646 X-3.179 Y11.50436
G1 Z5.651 X-3.896 Y11.28011
G1 Z5.658 X-4.843 Y10.90954
G1 Z5.664 X-5.645 Y10.51720
G1 Z5.670 X-6.415 Y10.06686
G1 Z5.673 X-6.776 Y9.82631
G1 Z5.679 X-7.495 Y9.28933
G1 Z5.681 X-7.828 Y9.01177
G1 Z5.687 X-8.483 Y8.39779
G1 Z5.690 X-8.783 Y8.08330
G1 Z5.695 X-9.272 Y7.51303
G1 Z5.702 X-9.887 Y6.68640
G1 Z5.707 X-10.286 Y6.05201
G1 Z5.714 X-10.766 Y5.15450
G1 Z5.719 X-11.067 Y4.46623
G1 Z5.726 X-11.412 Y3.49560
G1 Z5.731 X-11.608 Y2.77222
G1 Z5.738 X-11.804 Y1.77370
G1 Z5.743 X-11.890 Y1.02743
G1 Z5.750 X-11.936 Y-0.00381
G1 Z5.755 X-11.910 Y-0.75242
G1 Z5.758 X-11.862 Y-1.32687
G1 Z5.764 X-11.730 Y-2.20636
G1 Z5.770 X-11.534 Y-3.07167
G1 Z5.776 X-11.272 Y-3.92533
G1 Z5.779 X-11.122 Y-4.33177
G1 Z5.785 X-10.765 Y-5.15580
G1 Z5.788 X-10.571 Y-5.54224
G1 Z5.794 X-10.125 Y-6.32126
G1 Z5.797 X-9.888 Y-6.68570
G1 Z5.803 X-9.358 Y-7.40973
G1 Z5.806 X-9.083 Y-7.74417
G1 Z5.812 X-8.475 Y-8.40419
G1 Z5.815 X-8.164 Y-8.70770
G1 Z5.820 X-7.599 Y-9.20243
G1 Z5.827 X-6.778 Y-9.82580
G1 Z5.832 X-6.147 Y-10.22941
G1 Z5.838 X-5.255 Y-10.71783
G1 Z5.844 X-4.439 Y-11.07950
G1 Z5.850 X-3.599 Y-11.38016
G1 Z5.853 X-3.183 Y-11.50460
G1 Z5.859 X-2.310 Y-11.71063
G1 Z5.862 X-1.883 Y-11.78607
G1 Z5.868 X-0.992 Y-11.89509
G1 Z5.871 X-0.558 Y-11.92363
G1 Z5.876 X0.149 Y-11.93331
G1 Z5.880 X0.779 Y-11.91056
G1 Z5.883 X1.214 Y-11.87422 F600.000
G1 Z5.888 X1.963 Y-11.77133
G1 Z5.895 X2.959 Y-11.56375
G1 Z5.900 X3.815 Y-11.31042
G1 Z5.906 X4.649 Y-10.99308
G1 Z5.909 X5.045 Y-10.81752
G1 Z5.915 X5.844 Y-10.40755
G1 Z5.918 X6.218 Y-10.18899
G1 Z5.924 X6.966 Y-9.69201
G1 Z5.927 X7.313 Y-9.43345
G1 Z5.933 X7.998 Y-8.86012
G1 Z5.939 X8.637 Y-8.23878
G1 Z5.942 X8.931 Y-7.91829
G1 Z5.947 X9.410 Y-7.34002
G1 Z5.954 X10.009 Y-6.50233
G1 Z5.960 X10.466 Y-5.73885
G1 Z5.963 X10.670 Y-5.35065
G1 Z5.966 X10.860 Y-4.95351
G1 Z5.971 X11.148 Y-4.26024
G1 Z5.977 X11.475 Y-3.28355
G1 Z5.983 X11.688 Y-2.41907
G1 Z5.986 X11.769 Y-1.99258
G1 Z5.991 X11.869 Y-1.24269
G1 Z5.995 X11.917 Y-0.66814
G1 Z6.000 X11.931 Y0.06452
G1 Z6.007 X11.853 Y1.10567 F600.000
G1 Z6.013 X11.737 Y1.98717
G1 Z6.019 X11.559 Y2.84459
G1 Z6.025 X11.313 Y3.70445
G1 Z6.028 X11.171 Y4.11385
G1 Z6.033 X10.873 Y4.84215
G1 Z6.040 X10.433 Y5.73390
G1 Z6.042 X10.218 Y6.10715
G1 Z6.048 X9.731 Y6.85701
G1 Z6.051 X9.475 Y7.20741
G1 Z6.057 X8.976 Y7.81671
G1 Z6.063 X8.295 Y8.53947
G1 Z6.066 X7.980 Y8.83476
G1 Z6.071 X7.377 Y9.34106
G1 Z6.078 X6.573 Y9.92581
G1 Z6.081 X6.210 Y10.15611
G1 Z6.086 X5.524 Y10.54341
G1 Z6.093 X4.631 Y10.96680
G1 Z6.099 X3.804 Y11.28088
G1 Z6.104 X3.049 Y11.50520
G1 Z6.110 X2.096 Y11.71875
G1 Z6.116 X1.215 Y11.84224
G1 Z6.122 X0.327 Y11.90074
G1 Z6.125 X-0.106 Y11.90415
G1 Z6.131 X-0.898 Y11.86983
G1 Z6.134 X-1.432 Y11.81845
G1 Z6.140 X-2.314 Y11.67717
G1 Z6.143 X-2.736 Y11.58553
G1 Z6.149 X-3.599 Y11.34739
G1 Z6.152 X-4.009 Y11.20979
G1 Z6.157 X-4.741 Y10.91709
G1 Z6.164 X-5.636 Y10.48685
G1 Z6.167 X-6.011 Y10.27509
G1 Z6.173 X-6.767 Y9.79495
G1 Z6.176 X-7.118 Y9.54136
G1 Z6.181 X-7.733 Y9.04966
G1 Z6.187 X-8.457 Y8.37705
G1 Z6.193 X-9.059 Y7.72344
G1 Z6.196 X-9.333 Y7.38980
G1 Z6.202 X-9.862 Y6.66766
G1 Z6.205 X-10.098 Y6.30401
G1 Z6.211 X-10.543 Y5.52887
G1 Z6.214 X-10.737 Y5.14128
G1 Z6.219 X-11.052 Y4.41958
G1 Z6.226 X-11.382 Y3.48797
G1 Z6.232 X-11.610 Y2.62936
G1 Z6.235 X-11.698 Y2.20572
G1 Z6.241 X-11.831 Y1.32057
G1 Z6.244 X-11.871 Y0.88993
G1 Z6.250 X-11.904 Y-0.00579
G1 Z6.253 X-11.896 Y-0.43819
G1 Z6.258 X-11.839 Y-1.22449
G1 Z6.264 X-11.699 Y-2.20289
G1 Z6.270 X-11.503 Y-3.06392
G1 Z6.276 X-11.242 Y-3.91442
G1 Z6.282 X-10.924 Y-4.72984
G1 Z6.288 X-10.538 Y-5.53770
G1 Z6.291 X-10.330 Y-5.91610
G1 Z6.296 X-9.915 Y-6.58540
G1 Z6.303 X-9.332 Y-7.39015
G1 Z6.306 X-9.059 Y-7.72340
G1 Z6.312 X-8.456 Y-8.37890
G1 Z6.318 X-7.807 Y-8.98740
G1 Z6.321 X-7.475 Y-9.26476
G1 Z6.326 X-6.762 Y-9.79730
G1 Z6.332 X-6.098 Y-10.22263
G1 Z6.335 X-5.632 Y-10.48729
G1 Z6.341 X-4.922 Y-10.83784
G1 Z6.347 X-4.018 Y-11.20539
G1 Z6.353 X-3.170 Y-11.47488
G1 Z6.359 X-2.308 Y-11.67807
G1 Z6.364 X-1.530 Y-11.80439
G1 Z6.371 X-0.557 Y-11.89198
G1 Z6.376 X0.230 Y-11.90028
G1 Z6.383 X1.222 Y-11.84104
G1 Z6.386 X1.649 Y-11.78929 F600.000
G1 Z6.392 X2.530 Y-11.63214
G1 Z6.395 X2.952 Y-11.53255
G1 Z6.400 X3.707 Y-11.31085
G1 Z6.406 X4.634 Y-10.96529
G1 Z6.412 X5.347 Y-10.63450
G1 Z6.418 X6.202 Y-10.16109
G1 Z6.423 X6.859 Y-9.72739
G1 Z6.430 X7.648 Y-9.12314
G1 Z6.433 X7.973 Y-8.84039
G1 Z6.439 X8.614 Y-8.21625
G1 Z6.442 X8.907 Y-7.89765
G1 Z6.447 X9.409 Y-7.29095
G1 Z6.454 X9.985 Y-6.48171
G1 Z6.457 X10.213 Y-6.11596
G1 Z6.463 X10.644 Y-5.33181
G1 Z6.466 X10.831 Y-4.94022
G1 Z6.471 X11.132 Y-4.21252
G1 Z6.477 X11.445 Y-3.27591
G1 Z6.483 X11.657 Y-2.41230
G1 Z6.486 X11.737 Y-1.98766
G1 Z6.492 X11.853 Y-1.10052
G1 Z6.495 X11.885 Y-0.66987
G1 Z6.500 X11.899 Y0.06434
G1 Z6.507 X11.801 Y1.10550 F600.000
G1 Z6.510 X11.753 Y1.53372
G1 Z6.516 X11.605 Y2.40795
G1 Z6.522 X11.394 Y3.26385
G1 Z6.527 X11.139 Y4.04774
G1 Z6.531 X10.962 Y4.50736
G1 Z6.537 X10.595 Y5.31253
G1 Z6.542 X10.199 Y6.03642
G1 Z6.548 X9.694 Y6.81988
G1 Z6.554 X9.157 Y7.52513
G1 Z6.560 X8.611 Y8.14202
G1 Z6.563 X8.266 Y8.49467
G1 Z6.569 X7.652 Y9.05083
G1 Z6.572 X7.269 Y9.36145
G1 Z6.578 X6.550 Y9.87859
G1 Z6.584 X5.794 Y10.34082
G1 Z6.587 X5.415 Y10.54304
G1 Z6.593 X4.612 Y10.91827
G1 Z6.599 X3.783 Y11.23250
G1 Z6.602 X3.373 Y11.36272
G1 Z6.608 X2.509 Y11.58431
G1 Z6.610 X2.087 Y11.66753
G1 Z6.616 X1.205 Y11.79112
G1 Z6.619 X0.776 Y11.82734
G1 Z6.625 X-0.115 Y11.85293
G1 Z6.628 X-0.546 Y11.84018
G1 Z6.634 X-1.367 Y11.77205
G1 Z6.640 X-2.300 Y11.62731
G1 Z6.646 X-3.156 Y11.42411
G1 Z6.652 X-4.001 Y11.15734
G1 Z6.655 X-4.404 Y11.00459
G1 Z6.660 X-5.162 Y10.66884
G1 Z6.664 X-5.602 Y10.44546
G1 Z6.670 X-6.366 Y9.99763
G1 Z6.675 X-7.045 Y9.53052
G1 Z6.681 X-7.773 Y8.94898
G1 Z6.687 X-8.420 Y8.34221
G1 Z6.693 X-9.016 Y7.69310
G1 Z6.699 X-9.529 Y7.04799
G1 Z6.705 X-10.054 Y6.27745
G1 Z6.711 X-10.495 Y5.50871
G1 Z6.717 X-10.851 Y4.76460
G1 Z6.720 X-11.041 Y4.30924
G1 Z6.726 X-11.314 Y3.52741
G1 Z6.729 X-11.452 Y3.05402
G1 Z6.735 X-11.649 Y2.18653
G1 Z6.738 X-11.721 Y1.76177
G1 Z6.743 X-11.814 Y0.94265
G1 Z6.750 X-11.852 Y-0.00191
G1 Z6.755 X-11.819 Y-0.88174
G1 Z6.761 X-11.729 Y-1.70063
G1 Z6.764 X-11.648 Y-2.19260
G1 Z6.767 X-11.560 Y-2.61713
G1 Z6.773 X-11.349 Y-3.41400
G1 Z6.779 X-11.042 Y-4.30729
G1 Z6.785 X-10.715 Y-5.06311
G1 Z6.788 X-10.494 Y-5.50909
G1 Z6.791 X-10.285 Y-5.89061
G1 Z6.796 X-9.850 Y-6.59048
G1 Z6.803 X-9.295 Y-7.35477
G1 Z6.808 X-8.761 Y-7.98159
G1 Z6.812 X-8.422 Y-8.33924
G1 Z6.817 X-7.818 Y-8.90740
G1 Z6.823 X-7.095 Y-9.49488
G1 Z6.829 X-6.417 Y-9.96476
G1 Z6.835 X-5.604 Y-10.44405
G1 Z6.841 X-4.865 Y-10.80787
G1 Z6.847 X-4.001 Y-11.15735
G1 Z6.853 X-3.215 Y-11.40723
G1 Z6.859 X-2.298 Y-11.62749
G1 Z6.865 X-1.424 Y-11.76765
G1 Z6.871 X-0.555 Y-11.83983
G1 Z6.876 X0.269 Y-11.84870
G1 Z6.883 X1.211 Y-11.79099
G1 Z6.888 X2.027 Y-11.67781 F600.000
G1 Z6.892 X2.511 Y-11.58343
G1 Z6.898 X3.373 Y-11.36293
G1 Z6.900 X3.783 Y-11.23215
G1 Z6.906 X4.617 Y-10.91674
G1 Z6.909 X5.010 Y-10.74196
G1 Z6.915 X5.799 Y-10.33722
G1 Z6.921 X6.503 Y-9.90811
G1 Z6.924 X6.914 Y-9.62708
G1 Z6.927 X7.263 Y-9.36763
G1 Z6.932 X7.855 Y-8.87380
G1 Z6.939 X8.574 Y-8.18279
G1 Z6.945 X9.158 Y-7.52456
G1 Z6.950 X9.658 Y-6.86946
G1 Z6.954 X9.939 Y-6.45743
G1 Z6.957 X10.169 Y-6.08995
G1 Z6.962 X10.566 Y-5.36683
G1 Z6.969 X10.961 Y-4.50909
G1 Z6.974 X11.267 Y-3.67925
G1 Z6.977 X11.393 Y-3.26747
G1 Z6.983 X11.605 Y-2.40770
G1 Z6.989 X11.753 Y-1.53393
G1 Z6.992 X11.801 Y-1.10518
G1 Z6.998 X11.848 Y-0.27743
G1 Z7.000 X11.850 Y0.06436
G1 Z7.007 X11.729 Y1.09370 F600.000
G1 Z7.013 X11.618 Y1.94821
G1 Z7.016 X11.536 Y2.38862
G1 Z7.022 X11.329 Y3.22945
G1 Z7.025 X11.197 Y3.66221
G1 Z7.028 X11.055 Y4.07059
G1 Z7.033 X10.727 Y4.86708
G1 Z7.040 X10.325 Y5.67230
G1 Z7.042 X10.112 Y6.04331
G1 Z7.048 X9.629 Y6.78653
G1 Z7.051 X9.377 Y7.13156
G1 Z7.057 X8.817 Y7.81241
G1 Z7.063 X8.213 Y8.44590
G1 Z7.069 X7.559 Y9.03576
G1 Z7.072 X7.226 Y9.30479
G1 Z7.078 X6.510 Y9.81764
G1 Z7.084 X5.759 Y10.27750
G1 Z7.087 X5.382 Y10.47953
G1 Z7.093 X4.584 Y10.85239
G1 Z7.099 X3.778 Y11.15890
G1 Z7.105 X2.930 Y11.41002
G1 Z7.110 X2.088 Y11.59352
G1 Z7.116 X1.202 Y11.71937
G1 Z7.122 X0.323 Y11.77620
G1 Z7.125 X-0.104 Y11.78024
G1 Z7.131 X-0.989 Y11.73945
G1 Z7.134 X-1.415 Y11.69548
G1 Z7.140 X-2.290 Y11.55669
G1 Z7.143 X-2.708 Y11.46574
G1 Z7.149 X-3.538 Y11.23624
G1 Z7.155 X-4.382 Y10.93509
G1 Z7.161 X-5.182 Y10.57957
G1 Z7.167 X-5.941 Y10.17208
G1 Z7.170 X-6.323 Y9.93949
G1 Z7.176 X-7.036 Y9.44832
G1 Z7.179 X-7.390 Y9.17473
G1 Z7.184 X-8.044 Y8.60657
G1 Z7.187 X-8.365 Y8.29497
G1 Z7.193 X-8.965 Y7.64315
G1 Z7.196 X-9.236 Y7.31219
G1 Z7.202 X-9.757 Y6.60104
G1 Z7.208 X-10.223 Y5.85489
G1 Z7.211 X-10.428 Y5.47992
G1 Z7.217 X-10.809 Y4.68478
G1 Z7.223 X-11.129 Y3.86463
G1 Z7.226 X-11.261 Y3.45766
G1 Z7.232 X-11.489 Y2.60187
G1 Z7.235 X-11.576 Y2.18291
G1 Z7.241 X-11.707 Y1.31177
G1 Z7.247 X-11.771 Y0.45228
G1 Z7.252 X-11.772 Y-0.43339
G1 Z7.258 X-11.707 Y-1.31124
G1 Z7.264 X-11.576 Y-2.18209
G1 Z7.267 X-11.489 Y-2.60113
G1 Z7.273 X-11.261 Y-3.45734
G1 Z7.276 X-11.129 Y-3.86437
G1 Z7.282 X-10.807 Y-4.68958
G1 Z7.285 X-10.629 Y-5.07963
G1 Z7.291 X-10.229 Y-5.84212
G1 Z7.297 X-9.756 Y-6.60298
G1 Z7.303 X-9.239 Y-7.30845
G1 Z7.309 X-8.667 Y-7.97831
G1 Z7.312 X-8.372 Y-8.28734
G1 Z7.318 X-7.726 Y-8.89355
G1 Z7.321 X-7.398 Y-9.16859
G1 Z7.327 X-6.688 Y-9.69880
G1 Z7.329 X-6.331 Y-9.93483
G1 Z7.335 X-5.567 Y-10.38204
G1 Z7.338 X-5.186 Y-10.57708
G1 Z7.344 X-4.377 Y-10.93729
G1 Z7.347 X-3.977 Y-11.08933
G1 Z7.353 X-3.155 Y-11.34983
G1 Z7.359 X-2.279 Y-11.55805
G1 Z7.362 X-1.859 Y-11.63306
G1 Z7.368 X-0.979 Y-11.73927
G1 Z7.371 X-0.552 Y-11.76731
G1 Z7.377 X0.309 Y-11.77681
G1 Z7.383 X1.208 Y-11.71803
G1 Z7.386 X1.632 Y-11.66704 F600.000
G1 Z7.392 X2.499 Y-11.51289
G1 Z7.398 X3.352 Y-11.29375
G1 Z7.400 X3.760 Y-11.16478
G1 Z7.406 X4.584 Y-10.85263
G1 Z7.412 X5.382 Y-10.47948
G1 Z7.415 X5.759 Y-10.27752
G1 Z7.421 X6.510 Y-9.81737
G1 Z7.427 X7.226 Y-9.30422
G1 Z7.433 X7.890 Y-8.74800
G1 Z7.439 X8.525 Y-8.13021
G1 Z7.442 X8.814 Y-7.81624
G1 Z7.448 X9.373 Y-7.13510
G1 Z7.454 X9.878 Y-6.41959
G1 Z7.460 X10.327 Y-5.66708
G1 Z7.466 X10.722 Y-4.88093
G1 Z7.471 X11.051 Y-4.08071
G1 Z7.477 X11.327 Y-3.23792
G1 Z7.480 X11.437 Y-2.82496
G1 Z7.486 X11.616 Y-1.96281
G1 Z7.492 X11.729 Y-1.09331
G1 Z7.500 X11.778 Y0.06467
G1 Z7.504 X11.668 Y0.65427 F600.000
G1 Z7.510 X11.588 Y1.51173
G1 Z7.516 X11.442 Y2.37841
G1 Z7.519 X11.341 Y2.81705
G1 Z7.525 X11.108 Y3.63259
G1 Z7.531 X10.805 Y4.45297
G1 Z7.534 X10.637 Y4.84176
G1 Z7.540 X10.245 Y5.62209
G1 Z7.546 X9.784 Y6.38994
G1 Z7.551 X9.296 Y7.08247
G1 Z7.557 X8.751 Y7.74677
G1 Z7.563 X8.144 Y8.38249
G1 Z7.566 X7.834 Y8.67228
G1 Z7.572 X7.164 Y9.23364
G1 Z7.578 X6.459 Y9.73965
G1 Z7.584 X5.717 Y10.19265
G1 Z7.590 X4.940 Y10.59101
G1 Z7.593 X4.547 Y10.76616
G1 Z7.596 X4.149 Y10.92531
G1 Z7.602 X3.321 Y11.20567
G1 Z7.608 X2.474 Y11.42204
G1 Z7.610 X2.058 Y11.50483
G1 Z7.616 X1.188 Y11.62655
G1 Z7.619 X0.765 Y11.66134
G1 Z7.625 X-0.109 Y11.68670
G1 Z7.631 X-0.976 Y11.64570
G1 Z7.637 X-1.844 Y11.54007
G1 Z7.640 X-2.262 Y11.46686
G1 Z7.646 X-3.117 Y11.26358
G1 Z7.649 X-3.524 Y11.14337
G1 Z7.655 X-4.346 Y10.84873
G1 Z7.661 X-5.145 Y10.49309
G1 Z7.664 X-5.527 Y10.29724
G1 Z7.667 X-5.901 Y10.08739
G1 Z7.673 X-6.642 Y9.61507
G1 Z7.676 X-7.008 Y9.35271
G1 Z7.682 X-7.668 Y8.81925
G1 Z7.687 X-8.301 Y8.22524
G1 Z7.694 X-8.906 Y7.56509
G1 Z7.699 X-9.432 Y6.90062
G1 Z7.705 X-9.913 Y6.18992
G1 Z7.711 X-10.350 Y5.42664
G1 Z7.714 X-10.540 Y5.04743
G1 Z7.720 X-10.890 Y4.24111
G1 Z7.723 X-11.045 Y3.81875
G1 Z7.729 X-11.293 Y3.00729
G1 Z7.735 X-11.486 Y2.15567
G1 Z7.738 X-11.557 Y1.73746
G1 Z7.744 X-11.654 Y0.86882
G1 Z7.750 X-11.686 Y-0.00082
G1 Z7.756 X-11.654 Y-0.87315
G1 Z7.759 X-11.611 Y-1.32178
G1 Z7.764 X-11.485 Y-2.16033
G1 Z7.770 X-11.292 Y-3.01266
G1 Z7.773 X-11.167 Y-3.44430
G1 Z7.779 X-10.888 Y-4.24584
G1 Z7.785 X-10.540 Y-5.04721
G1 Z7.788 X-10.350 Y-5.42600
G1 Z7.794 X-9.913 Y-6.18972
G1 Z7.797 X-9.682 Y-6.54551
G1 Z7.803 X-9.163 Y-7.25424
G1 Z7.806 X-8.893 Y-7.58203
G1 Z7.812 X-8.299 Y-8.22871
G1 Z7.815 X-7.975 Y-8.54235
G1 Z7.821 X-7.331 Y-9.10121
G1 Z7.824 X-6.975 Y-9.37686
G1 Z7.829 X-6.277 Y-9.85840
G1 Z7.835 X-5.522 Y-10.29977
G1 Z7.838 X-5.145 Y-10.49356
G1 Z7.844 X-4.346 Y-10.84892
G1 Z7.850 X-3.524 Y-11.14329
G1 Z7.853 X-3.117 Y-11.26308
G1 Z7.859 X-2.262 Y-11.46680
G1 Z7.862 X-1.844 Y-11.54059
G1 Z7.868 X-0.977 Y-11.64592
G1 Z7.874 X-0.083 Y-11.68677
G1 Z7.880 X0.765 Y-11.66130
G1 Z7.886 X1.619 Y-11.57460 F600.000
G1 Z7.892 X2.479 Y-11.42096
G1 Z7.898 X3.321 Y-11.20597
G1 Z7.903 X4.149 Y-10.92533
G1 Z7.906 X4.543 Y-10.76712
G1 Z7.912 X5.339 Y-10.39684
G1 Z7.915 X5.713 Y-10.19563
G1 Z7.921 X6.459 Y-9.73999
G1 Z7.927 X7.164 Y-9.23300
G1 Z7.933 X7.834 Y-8.67236
G1 Z7.936 X8.144 Y-8.38215
G1 Z7.942 X8.751 Y-7.74687
G1 Z7.945 X9.026 Y-7.42366
G1 Z7.951 X9.559 Y-6.72438
G1 Z7.954 X9.796 Y-6.37217
G1 Z7.960 X10.247 Y-5.61886
G1 Z7.963 X10.456 Y-5.21950
G1 Z7.969 X10.807 Y-4.44704
G1 Z7.974 X11.109 Y-3.62741
G1 Z7.977 X11.234 Y-3.22220
G1 Z7.983 X11.443 Y-2.37356
G1 Z7.989 X11.588 Y-1.51192
G1 Z7.992 X11.636 Y-1.08507
G1 Z7.995 X11.668 Y-0.65440
G1 Z8.000 X11.685 Y0.06268
G1 Z8.004 X11.553 Y0.64704 F600.000
G1 Z8.010 X11.474 Y1.49691
G1 Z8.016 X11.330 Y2.34858
G1 Z8.022 X11.102 Y3.25627
G1 Z8.028 X10.855 Y4.00778
G1 Z8.034 X10.531 Y4.79350
G1 Z8.040 X10.144 Y5.56617
G1 Z8.046 X9.660 Y6.36686
G1 Z8.051 X9.204 Y7.01238
G1 Z8.054 X8.943 Y7.34290
G1 Z8.060 X8.366 Y7.99302
G1 Z8.066 X7.757 Y8.58670
G1 Z8.072 X7.093 Y9.14146
G1 Z8.078 X6.396 Y9.64277
G1 Z8.084 X5.595 Y10.12646
G1 Z8.090 X4.891 Y10.48697
G1 Z8.093 X4.507 Y10.65750
G1 Z8.099 X3.695 Y10.96551
G1 Z8.102 X3.222 Y11.11229
G1 Z8.108 X2.450 Y11.30818
G1 Z8.111 X2.038 Y11.39070
G1 Z8.116 X1.176 Y11.51182
G1 Z8.119 X0.757 Y11.54631
G1 Z8.125 X-0.108 Y11.57007
G1 Z8.131 X-0.967 Y11.53047
G1 Z8.137 X-1.826 Y11.42623
G1 Z8.140 X-2.239 Y11.35271
G1 Z8.146 X-3.086 Y11.15283
G1 Z8.149 X-3.489 Y11.03232
G1 Z8.155 X-4.308 Y10.73944
G1 Z8.158 X-4.695 Y10.57593
G1 Z8.164 X-5.477 Y10.19304
G1 Z8.167 X-5.843 Y9.98753
G1 Z8.173 X-6.573 Y9.52229
G1 Z8.179 X-7.262 Y9.00869
G1 Z8.185 X-7.915 Y8.44045
G1 Z8.190 X-8.513 Y7.83613
G1 Z8.196 X-9.075 Y7.17889
G1 Z8.202 X-9.583 Y6.48429
G1 Z8.208 X-10.040 Y5.75194
G1 Z8.212 X-10.276 Y5.31672
G1 Z8.217 X-10.618 Y4.59762
G1 Z8.220 X-10.778 Y4.20814
G1 Z8.226 X-11.064 Y3.38715
G1 Z8.229 X-11.198 Y2.91193
G1 Z8.235 X-11.371 Y2.13947
G1 Z8.241 X-11.499 Y1.28416
G1 Z8.244 X-11.543 Y0.79193
G1 Z8.250 X-11.571 Y0.00239
G1 Z8.256 X-11.532 Y-0.93311
G1 Z8.261 X-11.442 Y-1.71962
G1 Z8.264 X-11.373 Y-2.13206
G1 Z8.271 X-11.161 Y-3.04910
G1 Z8.276 X-10.928 Y-3.80462
G1 Z8.279 X-10.782 Y-4.19914
G1 Z8.285 X-10.437 Y-4.99616
G1 Z8.289 X-10.212 Y-5.43793
G1 Z8.294 X-9.815 Y-6.12783
G1 Z8.297 X-9.586 Y-6.48035
G1 Z8.303 X-9.072 Y-7.18247
G1 Z8.306 X-8.805 Y-7.50796
G1 Z8.312 X-8.216 Y-8.14707
G1 Z8.315 X-7.915 Y-8.44056
G1 Z8.321 X-7.263 Y-9.00724
G1 Z8.327 X-6.511 Y-9.56392
G1 Z8.332 X-5.843 Y-9.98744
G1 Z8.338 X-5.094 Y-10.38915
G1 Z8.344 X-4.303 Y-10.74191
G1 Z8.350 X-3.490 Y-11.03257
G1 Z8.354 X-3.015 Y-11.17035
G1 Z8.359 X-2.240 Y-11.35224
G1 Z8.362 X-1.826 Y-11.42676
G1 Z8.368 X-0.968 Y-11.53044
G1 Z8.374 X-0.033 Y-11.56912
G1 Z8.380 X0.757 Y-11.54664
G1 Z8.383 X1.176 Y-11.51116 F600.000
G1 Z8.389 X2.038 Y-11.39028
G1 Z8.392 X2.449 Y-11.30968
G1 Z8.398 X3.359 Y-11.07173
G1 Z8.403 X4.107 Y-10.81724
G1 Z8.406 X4.498 Y-10.66176
G1 Z8.412 X5.286 Y-10.29388
G1 Z8.415 X5.656 Y-10.09437
G1 Z8.421 X6.395 Y-9.64313
G1 Z8.427 X7.093 Y-9.14153
G1 Z8.433 X7.757 Y-8.58629
G1 Z8.436 X8.062 Y-8.29969
G1 Z8.442 X8.709 Y-7.61674
G1 Z8.448 X9.210 Y-7.00525
G1 Z8.451 X9.460 Y-6.66203
G1 Z8.454 X9.738 Y-6.24617
G1 Z8.460 X10.143 Y-5.56770
G1 Z8.466 X10.531 Y-4.79349
G1 Z8.472 X10.879 Y-3.93736
G1 Z8.477 X11.124 Y-3.18590
G1 Z8.483 X11.330 Y-2.35033
G1 Z8.489 X11.474 Y-1.49609
G1 Z8.492 X11.521 Y-1.07493
G1 Z8.495 X11.553 Y-0.64796
G1 Z8.500 X11.569 Y0.05956
G1 Z8.507 X11.383 Y1.06466 F600.000
G1 Z8.513 X11.273 Y1.90952
G1 Z8.520 X11.070 Y2.85333
G1 Z8.525 X10.867 Y3.55246
G1 Z8.531 X10.571 Y4.35556
G1 Z8.534 X10.406 Y4.73669
G1 Z8.540 X10.022 Y5.50393
G1 Z8.543 X9.748 Y5.97206
G1 Z8.548 X9.349 Y6.58119
G1 Z8.554 X8.834 Y7.25894
G1 Z8.560 X8.267 Y7.89898
G1 Z8.566 X7.665 Y8.48494
G1 Z8.572 X7.005 Y9.03634
G1 Z8.575 X6.673 Y9.28447
G1 Z8.581 X5.960 Y9.75751
G1 Z8.587 X5.214 Y10.17555
G1 Z8.590 X4.842 Y10.35768
G1 Z8.596 X4.050 Y10.69208
G1 Z8.599 X3.659 Y10.83221
G1 Z8.605 X2.839 Y11.07525
G1 Z8.611 X2.009 Y11.25593
G1 Z8.617 X1.162 Y11.37497
G1 Z8.619 X0.748 Y11.40910
G1 Z8.625 X-0.106 Y11.43314
G1 Z8.631 X-0.960 Y11.39319
G1 Z8.634 X-1.373 Y11.35131
G1 Z8.640 X-2.217 Y11.21635
G1 Z8.646 X-3.050 Y11.01940
G1 Z8.649 X-3.447 Y10.90152
G1 Z8.655 X-4.257 Y10.61192
G1 Z8.658 X-4.639 Y10.45005
G1 Z8.664 X-5.412 Y10.07145
G1 Z8.667 X-5.773 Y9.86858
G1 Z8.673 X-6.499 Y9.40698
G1 Z8.676 X-6.836 Y9.16511
G1 Z8.682 X-7.502 Y8.62815
G1 Z8.688 X-8.122 Y8.04783
G1 Z8.693 X-8.699 Y7.41971
G1 Z8.697 X-9.040 Y6.99785
G1 Z8.702 X-9.472 Y6.40434
G1 Z8.705 X-9.698 Y6.05553
G1 Z8.711 X-10.123 Y5.31543
G1 Z8.718 X-10.538 Y4.43012
G1 Z8.723 X-10.801 Y3.75122
G1 Z8.729 X-11.047 Y2.94725
G1 Z8.735 X-11.236 Y2.11421
G1 Z8.741 X-11.369 Y1.20008
G1 Z8.747 X-11.426 Y0.42097
G1 Z8.750 X-11.433 Y0.00700
G1 Z8.756 X-11.390 Y-0.97504
G1 Z8.762 X-11.306 Y-1.69814
G1 Z8.764 X-11.238 Y-2.10620
G1 Z8.771 X-11.013 Y-3.06424
G1 Z8.776 X-10.798 Y-3.75934
G1 Z8.779 X-10.655 Y-4.14740
G1 Z8.786 X-10.257 Y-5.04644
G1 Z8.791 X-9.917 Y-5.69054
G1 Z8.797 X-9.472 Y-6.40357
G1 Z8.803 X-8.964 Y-7.09797
G1 Z8.806 X-8.701 Y-7.41710
G1 Z8.812 X-8.120 Y-8.04934
G1 Z8.816 X-7.727 Y-8.42448
G1 Z8.821 X-7.178 Y-8.89947
G1 Z8.827 X-6.389 Y-9.47921
G1 Z8.833 X-5.774 Y-9.86832
G1 Z8.835 X-5.412 Y-10.07151
G1 Z8.841 X-4.639 Y-10.45091
G1 Z8.844 X-4.257 Y-10.61104
G1 Z8.850 X-3.449 Y-10.90028
G1 Z8.854 X-2.927 Y-11.05041
G1 Z8.859 X-2.213 Y-11.21790
G1 Z8.862 X-1.804 Y-11.29009
G1 Z8.868 X-0.957 Y-11.39300
G1 Z8.875 X0.020 Y-11.43168
G1 Z8.880 X0.748 Y-11.40978
G1 Z8.886 X1.584 Y-11.32381 F600.000
G1 Z8.892 X2.431 Y-11.17221
G1 Z8.895 X2.836 Y-11.07648
G1 Z8.899 X3.428 Y-10.90572
G1 Z8.904 X4.058 Y-10.68948
G1 Z8.909 X4.833 Y-10.36255
G1 Z8.915 X5.593 Y-9.97159
G1 Z8.921 X6.317 Y-9.52913
G1 Z8.928 X7.108 Y-8.95382
G1 Z8.933 X7.664 Y-8.48492
G1 Z8.936 X7.967 Y-8.20011
G1 Z8.942 X8.561 Y-7.57851
G1 Z8.945 X8.831 Y-7.26264
G1 Z8.951 X9.352 Y-6.57804
G1 Z8.954 X9.584 Y-6.23417
G1 Z8.960 X10.026 Y-5.49657
G1 Z8.963 X10.218 Y-5.12970
G1 Z8.969 X10.573 Y-4.35174
G1 Z8.975 X10.869 Y-3.54878
G1 Z8.977 X10.990 Y-3.15291
G1 Z8.983 X11.196 Y-2.31731
G1 Z8.986 X11.273 Y-1.90944
G1 Z8.992 X11.383 Y-1.06430
G1 Z9.000 X11.430 Y0.05272
G1 Z9.007 X11.224 Y1.04930 F600.000
G1 Z9.013 X11.115 Y1.88233
G1 Z9.016 X11.039 Y2.28404
G1 Z9.022 X10.836 Y3.10861
G1 Z9.025 X10.717 Y3.49932
G1 Z9.031 X10.426 Y4.28733
G1 Z9.038 X9.992 Y5.21521
G1 Z9.043 X9.673 Y5.79046
G1 Z9.046 X9.454 Y6.14042
G1 Z9.050 X9.113 Y6.63353
G1 Z9.054 X8.708 Y7.16017
G1 Z9.057 X8.442 Y7.47298
G1 Z9.063 X7.859 Y8.08218
G1 Z9.069 X7.237 Y8.64303
G1 Z9.075 X6.571 Y9.16023
G1 Z9.078 X6.237 Y9.39176
G1 Z9.085 X5.354 Y9.91899
G1 Z9.090 X4.766 Y10.21625
G1 Z9.096 X4.002 Y10.53947
G1 Z9.102 X3.203 Y10.80868
G1 Z9.108 X2.390 Y11.01767
G1 Z9.112 X1.805 Y11.12642
G1 Z9.117 X1.150 Y11.21485
G1 Z9.121 X0.556 Y11.25869
G1 Z9.125 X-0.103 Y11.27397
G1 Z9.131 X-0.947 Y11.23328
G1 Z9.134 X-1.354 Y11.19299
G1 Z9.140 X-2.186 Y11.05920
G1 Z9.146 X-3.007 Y10.86540
G1 Z9.149 X-3.399 Y10.74911
G1 Z9.155 X-4.198 Y10.46368
G1 Z9.158 X-4.574 Y10.30439
G1 Z9.164 X-5.336 Y9.93095
G1 Z9.167 X-5.693 Y9.73066
G1 Z9.173 X-6.404 Y9.27887
G1 Z9.179 X-7.075 Y8.77672
G1 Z9.185 X-7.712 Y8.22392
G1 Z9.190 X-8.294 Y7.63505
G1 Z9.196 X-8.842 Y6.99426
G1 Z9.202 X-9.335 Y6.32092
G1 Z9.210 X-9.868 Y5.44679
G1 Z9.214 X-10.171 Y4.86105
G1 Z9.217 X-10.342 Y4.48886
G1 Z9.223 X-10.650 Y3.69742
G1 Z9.226 X-10.777 Y3.30913
G1 Z9.232 X-10.994 Y2.49248
G1 Z9.236 X-11.109 Y1.90823
G1 Z9.241 X-11.203 Y1.25371
G1 Z9.245 X-11.249 Y0.71288
G1 Z9.250 X-11.273 Y0.00463
G1 Z9.257 X-11.225 Y-1.02057
G1 Z9.262 X-11.148 Y-1.67483
G1 Z9.267 X-10.995 Y-2.48905
G1 Z9.273 X-10.778 Y-3.30426
G1 Z9.279 X-10.501 Y-4.10047
G1 Z9.282 X-10.346 Y-4.47818
G1 Z9.288 X-9.983 Y-5.23619
G1 Z9.295 X-9.465 Y-6.11907
G1 Z9.300 X-9.093 Y-6.66332
G1 Z9.306 X-8.579 Y-7.31455
G1 Z9.312 X-8.010 Y-7.93257
G1 Z9.319 X-7.256 Y-8.62544
G1 Z9.324 X-6.741 Y-9.03670
G1 Z9.327 X-6.408 Y-9.27551
G1 Z9.333 X-5.693 Y-9.73007
G1 Z9.340 X-4.798 Y-10.19902
G1 Z9.344 X-4.194 Y-10.46430
G1 Z9.350 X-3.399 Y-10.74960
G1 Z9.353 X-3.007 Y-10.86531
G1 Z9.359 X-2.184 Y-11.06066
G1 Z9.363 X-1.598 Y-11.15741
G1 Z9.368 X-0.946 Y-11.23351
G1 Z9.375 X0.078 Y-11.27148
G1 Z9.380 X0.737 Y-11.24973
G1 Z9.386 X1.562 Y-11.16596 F600.000
G1 Z9.392 X2.389 Y-11.01798
G1 Z9.399 X3.378 Y-10.75385
G1 Z9.404 X4.001 Y-10.53911
G1 Z9.406 X4.382 Y-10.38792
G1 Z9.412 X5.151 Y-10.02848
G1 Z9.415 X5.511 Y-9.83519
G1 Z9.421 X6.228 Y-9.39621
G1 Z9.428 X7.054 Y-8.79108
G1 Z9.433 X7.556 Y-8.36634
G1 Z9.439 X8.151 Y-7.78857
G1 Z9.445 X8.713 Y-7.15313
G1 Z9.448 X8.967 Y-6.83284
G1 Z9.454 X9.453 Y-6.14305
G1 Z9.460 X9.883 Y-5.42490
G1 Z9.466 X10.261 Y-4.67010
G1 Z9.469 X10.424 Y-4.29396
G1 Z9.473 X10.636 Y-3.73207
G1 Z9.477 X10.837 Y-3.10435
G1 Z9.483 X11.039 Y-2.28465
G1 Z9.486 X11.115 Y-1.88236
G1 Z9.492 X11.224 Y-1.04939
G1 Z9.500 X11.271 Y0.04525
G1 Z9.507 X11.042 Y1.03155 F600.000
G1 Z9.512 X10.961 Y1.67621
G1 Z9.519 X10.769 Y2.64987
G1 Z9.525 X10.539 Y3.45148
G1 Z9.528 X10.407 Y3.83381
G1 Z9.532 X10.163 Y4.43543
G1 Z9.540 X9.720 Y5.33912
G1 Z9.544 X9.391 Y5.89658
G1 Z9.549 X9.066 Y6.38789
G1 Z9.551 X8.828 Y6.71327
G1 Z9.557 X8.301 Y7.35452
G1 Z9.563 X7.732 Y7.95041
G1 Z9.569 X7.116 Y8.50665
G1 Z9.572 X6.803 Y8.75889
G1 Z9.578 X6.129 Y9.24214
G1 Z9.584 X5.421 Y9.67539
G1 Z9.587 X5.067 Y9.86562
G1 Z9.593 X4.315 Y10.21687
G1 Z9.599 X3.543 Y10.50985
G1 Z9.603 X2.921 Y10.69751
G1 Z9.608 X2.355 Y10.83745
G1 Z9.614 X1.536 Y10.98385
G1 Z9.617 X1.137 Y11.03208
G1 Z9.622 X0.304 Y11.08669
G1 Z9.628 X-0.511 Y11.07896
G1 Z9.633 X-1.159 Y11.02758
G1 Z9.640 X-2.153 Y10.87917
G1 Z9.646 X-2.954 Y10.68997
G1 Z9.651 X-3.575 Y10.49663
G1 Z9.658 X-4.500 Y10.13629
G1 Z9.664 X-5.249 Y9.76990
G1 Z9.667 X-5.601 Y9.57222
G1 Z9.671 X-6.151 Y9.22585
G1 Z9.679 X-6.962 Y8.63244
G1 Z9.685 X-7.586 Y8.08950
G1 Z9.690 X-8.159 Y7.51168
G1 Z9.696 X-8.698 Y6.88093
G1 Z9.702 X-9.185 Y6.21582
G1 Z9.708 X-9.622 Y5.51480
G1 Z9.713 X-9.927 Y4.94046
G1 Z9.717 X-10.177 Y4.40776
G1 Z9.720 X-10.331 Y4.03414
G1 Z9.726 X-10.603 Y3.25039
G1 Z9.732 X-10.816 Y2.44864
G1 Z9.735 X-10.898 Y2.05587
G1 Z9.741 X-11.021 Y1.23321
G1 Z9.745 X-11.073 Y0.58587
G1 Z9.750 X-11.090 Y0.00191
G1 Z9.754 X-11.069 Y-0.65171
G1 Z9.759 X-11.021 Y-1.23265
G1 Z9.765 X-10.898 Y-2.055904
G1 Z9.767 X-10.816 Y-2.450737
G1 Z9.772 X-10.652 Y-3.078300
G1 Z9.779 X-10.330 Y-4.036395
G1 Z9.782 X-10.177 Y-4.407209
G1 Z9.787 X-9.900 Y-4.994772
G1 Z9.794 X-9.406 Y-5.876867
G1 Z9.797 X-9.188 Y-6.211671
G1 Z9.803 X-8.695 Y-6.884532
G1 Z9.806 X-8.440 Y-7.195355
G1 Z9.812 X-7.875 Y-7.809216
G1 Z9.815 X-7.586 Y-8.089040
G1 Z9.821 X-6.960 Y-8.634865
G1 Z9.827 X-6.299 Y-9.128663
G1 Z9.831 X-5.752 Y-9.480228
G1 Z9.835 X-5.247 Y-9.770323
G1 Z9.841 X-4.500 Y-10.136162
G1 Z9.847 X-3.743 Y-10.439889
G1 Z9.852 X-3.124 Y-10.639452
G1 Z9.859 X-2.143 Y-10.881547
G1 Z9.862 X-1.750 Y-10.951351
G1 Z9.868 X-0.922 Y-11.052212
G1 Z9.871 X-0.519 Y-11.078045
G1 Z9.876 X0.131 Y-11.087608
G1 Z9.883 X1.140 Y-11.031703
G1 Z9.886 X1.536 Y-10.983507 F600.000
G1 Z9.892 X2.358 Y-10.837368
G1 Z9.895 X2.750 Y-10.744201
G1 Z9.899 X3.374 Y-10.562764
G1 Z9.907 X4.322 Y-10.213859
G1 Z9.909 X4.687 Y-10.051663
G1 Z9.915 X5.430 Y-9.670524
G1 Z9.918 X5.777 Y-9.467347
G1 Z9.924 X6.468 Y-9.008172
G1 Z9.930 X7.124 Y-8.500997
G1 Z9.933 X7.427 Y-8.236821
G1 Z9.939 X8.025 Y-7.654682
G1 Z9.942 X8.298 Y-7.358505
G1 Z9.948 X8.824 Y-6.717330
G1 Z9.954 X9.299 Y-6.043119
G1 Z9.960 X9.723 Y-5.334917
G1 Z9.964 X10.017 Y-4.754483
G1 Z9.969 X10.255 Y-4.221587
G1 Z9.973 X10.484 Y-3.610166
G1 Z9.977 X10.661 Y-3.054261
G1 Z9.983 X10.860 Y-2.247100
G1 Z9.986 X10.934 Y-1.852924
G1 Z9.992 X11.042 Y-1.029749
G1 Z10.000 X11.088 Y0.045297
G1 Z10.007 X10.835 Y1.011077 F600.000
G1 Z10.012 X10.745 Y1.715064
G1 Z10.019 X10.567 Y2.600402
G1 Z10.024 X10.374 Y3.283387
G1 Z10.031 X10.063 Y4.143810
G1 Z10.036 X9.771 Y4.789786
G1 Z10.040 X9.542 Y5.233293
G1 Z10.046 X9.125 Y5.930000
G1 Z10.051 X8.717 Y6.512988
G1 Z10.054 X8.410 Y6.907500
G1 Z10.060 X7.938 Y7.442509
G1 Z10.066 X7.296 Y8.075841
G1 Z10.072 X6.671 Y8.598558
G1 Z10.078 X6.014 Y9.069239
G1 Z10.084 X5.320 Y9.494955
G1 Z10.090 X4.608 Y9.859567
G1 Z10.095 X3.924 Y10.149786
G1 Z10.102 X3.091 Y10.434974
G1 Z10.107 X2.404 Y10.612954
G1 Z10.114 X1.517 Y10.776286
G1 Z10.119 X0.708 Y10.859002
G1 Z10.125 X-0.101 Y10.882683
G1 Z10.131 X-0.910 Y10.844369
G1 Z10.137 X-1.615 Y10.761356
G1 Z10.143 X-2.501 Y10.591689
G1 Z10.149 X-3.291 Y10.373441
G1 Z10.152 X-3.665 Y10.247215
G1 Z10.157 X-4.325 Y9.985201
G1 Z10.164 X-5.153 Y9.585655
G1 Z10.167 X-5.495 Y9.393412
G1 Z10.173 X-6.182 Y8.956128
G1 Z10.179 X-6.831 Y8.472814
G1 Z10.184 X-7.368 Y8.007802
G1 Z10.190 X-8.007 Y7.370134
G1 Z10.196 X-8.538 Y6.747886
G1 Z10.199 X-8.778 Y6.433661
G1 Z10.205 X-9.177 Y5.846646
G1 Z10.211 X-9.639 Y5.051100
G1 Z10.214 X-9.815 Y4.700857
G1 Z10.220 X-10.141 Y3.949610
G1 Z10.223 X-10.278 Y3.578384
G1 Z10.228 X-10.487 Y2.900369
G1 Z10.235 X-10.695 Y2.010787
G1 Z10.241 X-10.815 Y1.211461
G1 Z10.246 X-10.870 Y0.502449
G1 Z10.253 X-10.875 Y-0.400786
G1 Z10.258 X-10.824 Y-1.108771
G1 Z10.264 X-10.695 Y-2.013189
G1 Z10.270 X-10.515 Y-2.805894
G1 Z10.273 X-10.406 Y-3.184663
G1 Z10.279 X-10.137 Y-3.958415
G1 Z10.282 X-9.987 Y-4.323185
G1 Z10.288 X-9.634 Y-5.062937
G1 Z10.291 X-9.444 Y-5.408711
G1 Z10.296 X-9.069 Y-6.012696
G1 Z10.303 X-8.534 Y-6.753120
G1 Z10.308 X-8.075 Y-7.293095
G1 Z10.312 X-7.733 Y-7.657602
G1 Z10.318 X-7.137 Y-8.216341
G1 Z10.321 X-6.834 Y-8.469110
G1 Z10.327 X-6.178 Y-8.959862
G1 Z10.330 X-5.849 Y-9.177631
G1 Z10.336 X-5.142 Y-9.591384
G1 Z10.338 X-4.791 Y-9.771153
G1 Z10.344 X-4.047 Y-10.102870
G1 Z10.350 X-3.281 Y-10.376586
G1 Z10.353 X-2.903 Y-10.488355
G1 Z10.359 X-2.110 Y-10.676077
G1 Z10.364 X-1.409 Y-10.790065
G1 Z10.371 X-0.510 Y-10.871402
G1 Z10.376 X0.200 Y-10.879387
G1 Z10.383 X1.117 Y-10.825841
G1 Z10.386 X1.507 Y-10.778598 F600.000
G1 Z10.392 X2.309 Y-10.635315
G1 Z10.398 X3.093 Y-10.434001
G1 Z10.403 X3.767 Y-10.208988
G1 Z10.409 X4.600 Y-9.862326
G1 Z10.415 X5.233 Y-9.540311
G1 Z10.421 X6.016 Y-9.068734
G1 Z10.426 X6.593 Y-8.656710
G1 Z10.433 X7.288 Y-8.082042
G1 Z10.439 X7.872 Y-7.514758
G1 Z10.445 X8.412 Y-6.905475
G1 Z10.448 X8.656 Y-6.595244
G1 Z10.454 X9.125 Y-5.930961
G1 Z10.460 X9.540 Y-5.236642
G1 Z10.466 X9.905 Y-4.508358
G1 Z10.469 X10.062 Y-4.146127
G1 Z10.475 X10.344 Y-3.381849
G1 Z10.480 X10.541 Y-2.699837
G1 Z10.483 X10.655 Y-2.213344
G1 Z10.489 X10.791 Y-1.407082
G1 Z10.492 X10.835 Y-1.014856
G1 Z10.500 X10.880 Y0.046311
G1 Z10.504 X10.633 Y0.589089 F600.000
G1 Z10.510 X10.562 Y1.360532
G1 Z10.516 X10.428 Y2.163245
G1 Z10.522 X10.237 Y2.936837
G1 Z10.525 X10.124 Y3.305546
G1 Z10.531 X9.848 Y4.053142
G1 Z10.536 X9.527 Y4.758586
G1 Z10.542 X9.142 Y5.463224
G1 Z10.548 X8.720 Y6.113667
G1 Z10.554 X8.228 Y6.761380
G1 Z10.560 X7.700 Y7.357972
G1 Z10.563 X7.428 Y7.631680
G1 Z10.569 X6.837 Y8.165276
G1 Z10.575 X6.225 Y8.641720
G1 Z10.578 X5.890 Y8.873582
G1 Z10.584 X5.206 Y9.291210
G1 Z10.590 X4.510 Y9.647697
G1 Z10.596 X3.776 Y9.957292
G1 Z10.602 X3.026 Y10.210851
G1 Z10.608 X2.254 Y10.408446
G1 Z10.613 X1.485 Y10.546938
G1 Z10.619 X0.767 Y10.621006
G1 Z10.625 X-0.100 Y10.649096
G1 Z10.631 X-0.890 Y10.612647
G1 Z10.637 X-1.681 Y10.516242
G1 Z10.640 X-2.060 Y10.448950
G1 Z10.646 X-2.836 Y10.265546
G1 Z10.652 X-3.575 Y10.031990
G1 Z10.658 X-4.321 Y9.734627
G1 Z10.664 X-5.041 Y9.381258
G1 Z10.667 X-5.378 Y9.192968
G1 Z10.673 X-6.032 Y8.776411
G1 Z10.679 X-6.688 Y8.287159
G1 Z10.682 X-6.984 Y8.040865
G1 Z10.688 X-7.569 Y7.492496
G1 Z10.690 X-7.835 Y7.213205
G1 Z10.696 X-8.339 Y6.623648
G1 Z10.702 X-8.820 Y5.967362
G1 Z10.708 X-9.231 Y5.310803
G1 Z10.714 X-9.605 Y4.600441
G1 Z10.720 X-9.914 Y3.889884
G1 Z10.726 X-10.184 Y3.116633
G1 Z10.729 X-10.290 Y2.745339
G1 Z10.735 X-10.466 Y1.968934
G1 Z10.741 X-10.584 Y1.180529
G1 Z10.744 X-10.620 Y0.796237
G1 Z10.750 X-10.649 Y-0.000833
G1 Z10.755 X-10.621 Y-0.775277
G1 Z10.758 X-10.584 Y-1.181139
G1 Z10.764 X-10.466 Y-1.968730
G1 Z10.770 X-10.290 Y-2.745326
G1 Z10.773 X-10.184 Y-3.116034
G1 Z10.779 X-9.920 Y-3.874665
G1 Z10.782 X-9.773 Y-4.230373
G1 Z10.788 X-9.427 Y-4.954004
G1 Z10.791 X-9.242 Y-5.292713
G1 Z10.797 X-8.832 Y-5.950156
G1 Z10.803 X-8.349 Y-6.611905
G1 Z10.806 X-8.105 Y-6.909611
G1 Z10.812 X-7.565 Y-7.495206
G1 Z10.818 X-6.984 Y-8.040801
G1 Z10.821 X-6.688 Y-8.288509
G1 Z10.827 X-6.045 Y-8.767140
G1 Z10.829 X-5.724 Y-8.981848
G1 Z10.835 X-5.032 Y-9.386479
G1 Z10.838 X-4.689 Y-9.562188
G1 Z10.844 X-3.956 Y-9.888819
G1 Z10.847 X-3.595 Y-10.024528
G1 Z10.853 X-2.857 Y-10.259971
G1 Z10.859 X-2.065 Y-10.447685
G1 Z10.865 X-1.300 Y-10.570126
G1 Z10.871 X-0.500 Y-10.638764
G1 Z10.877 X0.275 Y-10.646207
G1 Z10.883 X1.087 Y-10.594920
G1 Z10.889 X1.876 Y-10.483512 F600.000
G1 Z10.892 X2.259 Y-10.407256
G1 Z10.895 X2.640 Y-10.317001
G1 Z10.901 X3.404 Y-10.091596
G1 Z10.906 X4.149 Y-9.808191
G1 Z10.909 X4.501 Y-9.652900
G1 Z10.915 X5.191 Y-9.298343
G1 Z10.921 X5.886 Y-8.875057
G1 Z10.927 X6.516 Y-8.423498
G1 Z10.930 X6.837 Y-8.165396
G1 Z10.933 X7.132 Y-7.909137
G1 Z10.939 X7.707 Y-7.350768
G1 Z10.942 X7.968 Y-7.066476
G1 Z10.948 X8.474 Y-6.450071
G1 Z10.954 X8.933 Y-5.799666
G1 Z10.957 X9.137 Y-5.471375
G1 Z10.962 X9.510 Y-4.792818
G1 Z10.969 X9.848 Y-4.052531
G1 Z10.975 X10.124 Y-3.305123
G1 Z10.977 X10.237 Y-2.936832
G1 Z10.983 X10.428 Y-2.162427
G1 Z10.989 X10.560 Y-1.377022
G1 Z10.992 X10.604 Y-0.988766
G1 Z10.995 X10.633 Y-0.599510
G1 Z11.000 X10.645 Y0.051071
G1 Z11.007 X10.341 Y0.967594 F600.000
G1 Z11.013 X10.241 Y1.735034
G1 Z11.019 X10.086 Y2.481384
G1 Z11.025 X9.872 Y3.228842
G1 Z11.031 X9.603 Y3.957300
G1 Z11.034 X9.454 Y4.302939
G1 Z11.040 X9.106 Y4.997397
G1 Z11.046 X8.707 Y5.664855
G1 Z11.048 X8.496 Y5.975495
G1 Z11.054 X8.022 Y6.598989
G1 Z11.057 X7.778 Y6.884628
G1 Z11.063 X7.241 Y7.446086
G1 Z11.069 X6.664 Y7.967544
G1 Z11.072 X6.372 Y8.203183
G1 Z11.078 X5.736 Y8.659677
G1 Z11.081 X5.419 Y8.861317
G1 Z11.087 X4.738 Y9.243800
G1 Z11.090 X4.339 Y9.436916
G1 Z11.096 X3.684 Y9.711905
G1 Z11.102 X2.948 Y9.960355
G1 Z11.105 X2.520 Y10.075471
G1 Z11.111 X1.820 Y10.226496
G1 Z11.114 X1.448 Y10.285139
G1 Z11.120 X0.675 Y10.365597
G1 Z11.125 X-0.100 Y10.386044
G1 Z11.129 X-0.544 Y10.371160
G1 Z11.134 X-1.250 Y10.311140
G1 Z11.141 X-2.080 Y10.175041
G1 Z11.146 X-2.770 Y10.011027
G1 Z11.153 X-3.559 Y9.757846
G1 Z11.158 X-4.222 Y9.490861
G1 Z11.161 X-4.623 Y9.300979
G1 Z11.167 X-5.249 Y8.963968
G1 Z11.173 X-5.900 Y8.548393
G1 Z11.179 X-6.523 Y8.083851
G1 Z11.182 X-6.811 Y7.842491
G1 Z11.188 X-7.378 Y7.310949
G1 Z11.194 X-7.905 Y6.738407
G1 Z11.196 X-8.143 Y6.448046
G1 Z11.202 X-8.602 Y5.821504
G1 Z11.208 X-9.014 Y5.161962
G1 Z11.211 X-9.195 Y4.832602
G1 Z11.217 X-9.530 Y4.131051
G1 Z11.224 X-9.831 Y3.348948
G1 Z11.229 X-10.038 Y2.668935
G1 Z11.235 X-10.207 Y1.925289
G1 Z11.241 X-10.323 Y1.152772
G1 Z11.244 X-10.361 Y0.710888
G1 Z11.250 X-10.387 Y0.000876
G1 Z11.256 X-10.358 Y-0.777338
G1 Z11.259 X-10.323 Y-1.151977
G1 Z11.264 X-10.208 Y-1.920435
G1 Z11.270 X-10.036 Y-2.678893
G1 Z11.273 X-9.932 Y-3.039533
G1 Z11.279 X-9.675 Y-3.778026
G1 Z11.282 X-9.532 Y-4.126666
G1 Z11.288 X-9.197 Y-4.827124
G1 Z11.294 X-8.810 Y-5.501582
G1 Z11.297 X-8.605 Y-5.816221
G1 Z11.303 X-8.144 Y-6.446705
G1 Z11.306 X-7.861 Y-6.788820
G1 Z11.312 X-7.379 Y-7.310809
G1 Z11.318 X-6.811 Y-7.842270
G1 Z11.321 X-6.523 Y-8.083910
G1 Z11.327 X-5.896 Y-8.551404
G1 Z11.330 X-5.583 Y-8.759043
G1 Z11.336 X-4.909 Y-9.153527
G1 Z11.339 X-4.513 Y-9.354642
G1 Z11.344 X-3.859 Y-9.643667
G1 Z11.347 X-3.507 Y-9.777310
G1 Z11.353 X-2.766 Y-10.012768
G1 Z11.359 X-2.014 Y-10.189190
G1 Z11.365 X-1.247 Y-10.312648
G1 Z11.368 X-0.874 Y-10.350279
G1 Z11.374 X-0.030 Y-10.386212
G1 Z11.380 X0.680 Y-10.365199
G1 Z11.386 X1.438 Y-10.287553 F600.000
G1 Z11.392 X2.204 Y-10.150010
G1 Z11.398 X2.955 Y-9.958458
G1 Z11.401 X3.377 Y-9.821573
G1 Z11.407 X4.041 Y-9.568562
G1 Z11.412 X4.746 Y-9.239023
G1 Z11.415 X5.077 Y-9.061663
G1 Z11.421 X5.740 Y-8.656121
G1 Z11.427 X6.372 Y-8.203579
G1 Z11.430 X6.664 Y-7.967218
G1 Z11.436 X7.241 Y-7.446676
G1 Z11.442 X7.778 Y-6.884134
G1 Z11.448 X8.262 Y-6.295484
G1 Z11.454 X8.709 Y-5.660942
G1 Z11.460 X9.108 Y-4.993400
G1 Z11.463 X9.283 Y-4.660039
G1 Z11.469 X9.605 Y-3.952497
G1 Z11.475 X9.872 Y-3.228919
G1 Z11.481 X10.086 Y-2.481377
G1 Z11.483 X10.170 Y-2.111042
G1 Z11.487 X10.251 Y-1.669194
G1 Z11.492 X10.341 Y-0.967165
G1 Z11.500 X10.385 Y0.039232
G1 Z11.507 X10.050 Y0.941675 F600.000
G1 Z11.511 X9.985 Y1.465376
G1 Z11.516 X9.884 Y2.048536
G1 Z11.522 X9.704 Y2.778815
G1 Z11.528 X9.469 Y3.496120
G1 Z11.531 X9.336 Y3.836683
G1 Z11.537 X9.023 Y4.524988
G1 Z11.543 X8.660 Y5.186293
G1 Z11.546 X8.465 Y5.498870
G1 Z11.550 X8.161 Y5.937626
G1 Z11.555 X7.798 Y6.409801
G1 Z11.559 X7.449 Y6.809530
G1 Z11.563 X7.038 Y7.235690
G1 Z11.569 X6.480 Y7.739968
G1 Z11.575 X5.883 Y8.202273
G1 Z11.581 X5.266 Y8.611470
G1 Z11.587 X4.610 Y8.979757
G1 Z11.594 X3.782 Y9.356143
G1 Z11.602 X2.860 Y9.680005
G1 Z11.605 X2.512 Y9.776544
G1 Z11.611 X1.773 Y9.937849
G1 Z11.617 X1.028 Y10.041132
G1 Z11.621 X0.500 Y10.080852
G1 Z11.626 X-0.090 Y10.093993
G1 Z11.633 X-0.999 Y10.042389
G1 Z11.640 X-1.966 Y9.900251
G1 Z11.643 X-2.319 Y9.824790
G1 Z11.649 X-3.048 Y9.623095
G1 Z11.655 X-3.754 Y9.370364
G1 Z11.661 X-4.442 Y9.064647
G1 Z11.665 X-4.910 Y8.817367
G1 Z11.673 X-5.730 Y8.310133
G1 Z11.679 X-6.339 Y7.855474
G1 Z11.682 X-6.619 Y7.621037
G1 Z11.688 X-7.170 Y7.104342
G1 Z11.694 X-7.682 Y6.548647
G1 Z11.697 X-7.914 Y6.266210
G1 Z11.703 X-8.363 Y5.652551
G1 Z11.705 X-8.562 Y5.346115
G1 Z11.711 X-8.936 Y4.693401
G1 Z11.718 X-9.321 Y3.869787
G1 Z11.726 X-9.653 Y2.950649
G1 Z11.729 X-9.753 Y2.602188
G1 Z11.735 X-9.920 Y1.866493
G1 Z11.741 X-10.032 Y1.118798
G1 Z11.744 X-10.066 Y0.755361
G1 Z11.750 X-10.094 Y0.003647
G1 Z11.757 X-10.051 Y-0.906034
G1 Z11.765 X-9.918 Y-1.874895
G1 Z11.768 X-9.845 Y-2.228434
G1 Z11.773 X-9.651 Y-2.955720
G1 Z11.781 X-9.344 Y-3.812107
G1 Z11.788 X-8.934 Y-4.698969
G1 Z11.791 X-8.760 Y-5.015508
G1 Z11.797 X-8.360 Y-5.656813
G1 Z11.803 X-7.914 Y-6.266117
G1 Z11.806 X-7.682 Y-6.548681
G1 Z11.812 X-7.170 Y-7.104986
G1 Z11.818 X-6.619 Y-7.621291
G1 Z11.824 X-6.043 Y-8.085488
G1 Z11.830 X-5.423 Y-8.513774
G1 Z11.837 X-4.634 Y-8.965161
G1 Z11.845 X-3.749 Y-9.372001
G1 Z11.849 X-3.255 Y-9.553697
G1 Z11.853 X-2.689 Y-9.729856
G1 Z11.859 X-1.953 Y-9.903171
G1 Z11.862 X-1.593 Y-9.967734
G1 Z11.868 X-0.845 Y-10.058025
G1 Z11.875 X0.020 Y-10.092106
G1 Z11.880 X0.660 Y-10.072606
G1 Z11.886 X1.398 Y-9.997809 F600.000
G1 Z11.892 X2.143 Y-9.864129
G1 Z11.896 X2.658 Y-9.736848
G1 Z11.901 X3.225 Y-9.565008
G1 Z11.907 X3.930 Y-9.297301
G1 Z11.911 X4.411 Y-9.077021
G1 Z11.915 X4.937 Y-8.804181
G1 Z11.921 X5.578 Y-8.412459
G1 Z11.927 X6.192 Y-7.971764
G1 Z11.930 X6.476 Y-7.742327
G1 Z11.936 X7.037 Y-7.236632
G1 Z11.942 X7.559 Y-6.690937
G1 Z11.945 X7.796 Y-6.412500
G1 Z11.951 X8.253 Y-5.811805
G1 Z11.957 X8.665 Y-5.177110
G1 Z11.963 X9.021 Y-4.528308
G1 Z11.969 X9.333 Y-3.843594
G1 Z11.976 X9.639 Y-2.987980
G1 Z11.984 X9.884 Y-2.046806
G1 Z11.989 X10.009 Y-1.305087
G1 Z11.992 X10.050 Y-0.944632
G1 Z12.000 X10.092 Y0.025446
G1 Z12.007 X9.727 Y0.912637 F600.000
G1 Z12.010 X9.688 Y1.263115
G1 Z12.016 X9.566 Y1.984251
G1 Z12.022 X9.391 Y2.694387
G1 Z12.025 X9.288 Y3.031866
G1 Z12.031 X9.035 Y3.718001
G1 Z12.037 X8.733 Y4.379107
G1 Z12.042 X8.435 Y4.926479
G1 Z12.046 X8.193 Y5.322738
G1 Z12.051 X7.835 Y5.834129
G1 Z12.054 X7.550 Y6.200382
G1 Z12.060 X7.063 Y6.750537
G1 Z12.063 X6.811 Y7.004052
G1 Z12.071 X6.074 Y7.650939
G1 Z12.078 X5.394 Y8.146848
G1 Z12.086 X4.555 Y8.641686
G1 Z12.093 X3.800 Y9.000560
G1 Z12.099 X3.118 Y9.259682
G1 Z12.102 X2.781 Y9.366160
G1 Z12.108 X2.072 Y9.548302
G1 Z12.113 X1.459 Y9.659674
G1 Z12.117 X0.999 Y9.719930
G1 Z12.122 X0.329 Y9.763650
G1 Z12.125 X-0.088 Y9.769577
G1 Z12.131 X-0.714 Y9.742974
G1 Z12.134 X-1.175 Y9.699227
G1 Z12.140 X-1.900 Y9.583382
G1 Z12.148 X-2.846 Y9.345234
G1 Z12.155 X-3.635 Y9.068107
G1 Z12.161 X-4.298 Y8.774200
G1 Z12.166 X-4.847 Y8.481571
G1 Z12.170 X-5.246 Y8.242830
G1 Z12.175 X-5.761 Y7.889221
G1 Z12.182 X-6.407 Y7.376007
G1 Z12.188 X-6.940 Y6.876143
G1 Z12.194 X-7.432 Y6.341249
G1 Z12.199 X-7.820 Y5.854620
G1 Z12.205 X-8.287 Y5.175406
G1 Z12.211 X-8.653 Y4.536577
G1 Z12.219 X-9.061 Y3.649429
G1 Z12.226 X-9.343 Y2.856338
G1 Z12.229 X-9.440 Y2.519803
G1 Z12.235 X-9.601 Y1.806939
G1 Z12.241 X-9.709 Y1.087045
G1 Z12.246 X-9.757 Y0.466416
G1 Z12.250 X-9.770 Y0.003669
G1 Z12.256 X-9.743 Y-0.727795
G1 Z12.261 X-9.675 Y-1.346166
G1 Z12.265 X-9.601 Y-1.808455
G1 Z12.267 X-9.529 Y-2.156953
G1 Z12.273 X-9.339 Y-2.868125
G1 Z12.276 X-9.229 Y-3.204610
G1 Z12.281 X-9.005 Y-3.785979
G1 Z12.288 X-8.647 Y-4.547888
G1 Z12.291 X-8.479 Y-4.854353
G1 Z12.297 X-8.092 Y-5.475489
G1 Z12.303 X-7.662 Y-6.062595
G1 Z12.308 X-7.259 Y-6.536966
G1 Z12.312 X-6.942 Y-6.874219
G1 Z12.318 X-6.407 Y-7.376375
G1 Z12.321 X-6.136 Y-7.603853
G1 Z12.327 X-5.546 Y-8.043025
G1 Z12.330 X-5.252 Y-8.238504
G1 Z12.336 X-4.616 Y-8.611676
G1 Z12.338 X-4.302 Y-8.772154
G1 Z12.344 X-3.634 Y-9.069290
G1 Z12.350 X-2.945 Y-9.315426
G1 Z12.353 X-2.607 Y-9.416904
G1 Z12.359 X-1.890 Y-9.585076
G1 Z12.362 X-1.542 Y-9.647555
G1 Z12.368 X-0.811 Y-9.736726
G1 Z12.371 X-0.458 Y-9.759211
G1 Z12.376 X0.164 Y-9.767580
G1 Z12.383 X1.004 Y-9.718489
G1 Z12.386 X1.353 Y-9.676954 F600.000
G1 Z12.392 X2.073 Y-9.547090
G1 Z12.398 X2.777 Y-9.367196
G1 Z12.403 X3.368 Y-9.170568
G1 Z12.407 X3.800 Y-9.001827
G1 Z12.412 X4.367 Y-8.738218
G1 Z12.418 X5.090 Y-8.340009
G1 Z12.423 X5.609 Y-7.997378
G1 Z12.430 X6.278 Y-7.486288
G1 Z12.433 X6.543 Y-7.256753
G1 Z12.439 X7.067 Y-6.746889
G1 Z12.445 X7.552 Y-6.198024
G1 Z12.448 X7.771 Y-5.922503
G1 Z12.454 X8.192 Y-5.323639
G1 Z12.460 X8.567 Y-4.696775
G1 Z12.463 X8.731 Y-4.383253
G1 Z12.469 X9.037 Y-3.713425
G1 Z12.472 X9.165 Y-3.384904
G1 Z12.478 X9.392 Y-2.689039
G1 Z12.484 X9.567 Y-1.979175
G1 Z12.486 X9.633 Y-1.632654
G1 Z12.492 X9.728 Y-0.902826
G1 Z12.500 X9.765 Y0.031380
G1 Z12.507 X9.370 Y0.876436 F600.000
G1 Z12.513 X9.279 Y1.572367
G1 Z12.516 X9.217 Y1.906752
G1 Z12.522 X9.047 Y2.595737
G1 Z12.525 X8.947 Y2.920122
G1 Z12.531 X8.702 Y3.586107
G1 Z12.534 X8.567 Y3.898492
G1 Z12.540 X8.251 Y4.528440
G1 Z12.546 X7.889 Y5.133389
G1 Z12.549 X7.699 Y5.414774
G1 Z12.555 X7.272 Y5.975723
G1 Z12.561 X6.804 Y6.502672
G1 Z12.563 X6.565 Y6.744057
G1 Z12.569 X6.042 Y7.216006
G1 Z12.575 X5.485 Y7.648955
G1 Z12.578 X5.206 Y7.841337
G1 Z12.584 X4.590 Y8.216404
G1 Z12.590 X3.977 Y8.530236
G1 Z12.596 X3.342 Y8.798078
G1 Z12.602 X2.674 Y9.023027
G1 Z12.608 X1.997 Y9.197940
G1 Z12.614 X1.303 Y9.321889
G1 Z12.617 X0.961 Y9.363307
G1 Z12.620 X0.601 Y9.392846
G1 Z12.626 X-0.087 Y9.411679
G1 Z12.632 X-0.786 Y9.379592
G1 Z12.637 X-1.486 Y9.294541
G1 Z12.640 X-1.820 Y9.234926
G1 Z12.646 X-2.511 Y9.070911
G1 Z12.652 X-3.168 Y8.862752
G1 Z12.658 X-3.827 Y8.598737
G1 Z12.661 X-4.135 Y8.455122
G1 Z12.667 X-4.756 Y8.121071
G1 Z12.673 X-5.346 Y7.745984
G1 Z12.679 X-5.911 Y7.324933
G1 Z12.682 X-6.171 Y7.106318
G1 Z12.688 X-6.689 Y6.620302
G1 Z12.691 X-6.924 Y6.375687
G1 Z12.697 X-7.381 Y5.839636
G1 Z12.703 X-7.795 Y5.274549
G1 Z12.708 X-8.168 Y4.676498
G1 Z12.711 X-8.331 Y4.378883
G1 Z12.717 X-8.637 Y3.738865
G1 Z12.720 X-8.772 Y3.408368
G1 Z12.726 X-8.998 Y2.759198
G1 Z12.732 X-9.182 Y2.066230
G1 Z12.738 X-9.308 Y1.390062
G1 Z12.744 X-9.386 Y0.688019
G1 Z12.750 X-9.411 Y0.000850
G1 Z12.756 X-9.384 Y-0.716881
G1 Z12.762 X-9.307 Y-1.399714
G1 Z12.765 X-9.250 Y-1.734100
G1 Z12.771 X-9.093 Y-2.426081
G1 Z12.774 X-8.995 Y-2.769584
G1 Z12.780 X-8.767 Y-3.424453
G1 Z12.782 X-8.638 Y-3.738839
G1 Z12.788 X-8.331 Y-4.378821
G1 Z12.791 X-8.159 Y-4.690324
G1 Z12.797 X-7.795 Y-5.274154
G1 Z12.803 X-7.371 Y-5.851186
G1 Z12.809 X-6.924 Y-6.375018
G1 Z12.812 X-6.689 Y-6.620404
G1 Z12.818 X-6.175 Y-7.102353
G1 Z12.824 X-5.627 Y-7.545302
G1 Z12.830 X-5.059 Y-7.936143
G1 Z12.836 X-4.447 Y-8.295128
G1 Z12.839 X-4.144 Y-8.450513
G1 Z12.845 X-3.500 Y-8.736462
G1 Z12.851 X-2.837 Y-8.974407
G1 Z12.854 X-2.495 Y-9.075910
G1 Z12.859 X-1.825 Y-9.233744
G1 Z12.865 X-1.129 Y-9.344693
G1 Z12.868 X-0.792 Y-9.378076
G1 Z12.874 X-0.071 Y-9.411142
G1 Z12.880 X0.617 Y-9.391975
G1 Z12.886 X1.303 Y-9.321817 F600.000
G1 Z12.892 X1.996 Y-9.197763
G1 Z12.898 X2.690 Y-9.018794
G1 Z12.904 X3.342 Y-8.798626
G1 Z12.907 X3.657 Y-8.672012
G1 Z12.913 X4.301 Y-8.372997
G1 Z12.916 X4.600 Y-8.211382
G1 Z12.921 X5.201 Y-7.844331
G1 Z12.927 X5.774 Y-7.432280
G1 Z12.930 X6.038 Y-7.219665
G1 Z12.936 X6.561 Y-6.747614
G1 Z12.942 X7.048 Y-6.238559
G1 Z12.945 X7.279 Y-5.966062
G1 Z12.951 X7.698 Y-5.414931
G1 Z12.954 X7.889 Y-5.133317
G1 Z12.960 X8.251 Y-4.528266
G1 Z12.966 X8.567 Y-3.898215
G1 Z12.972 X8.829 Y-3.260056
G1 Z12.978 X9.048 Y-2.590005
G1 Z12.984 X9.217 Y-1.906954
G1 Z12.987 X9.279 Y-1.572339
G1 Z12.992 X9.370 Y-0.876270
G1 Z13.000 X9.411 Y0.015529
G1 Z13.007 X8.970 Y0.844461 F600.000
G1 Z13.010 X8.934 Y1.164724
G1 Z13.016 X8.822 Y1.830463
G1 Z13.022 X8.662 Y2.480166
G1 Z13.031 X8.334 Y3.424183
G1 Z13.037 X8.053 Y4.040936
G1 Z13.046 X7.554 Y4.910979
G1 Z13.055 X6.961 Y5.720032
G1 Z13.059 X6.647 Y6.080380
G1 Z13.064 X6.282 Y6.458073
G1 Z13.070 X5.780 Y6.911821
G1 Z13.078 X4.978 Y7.510853
G1 Z13.083 X4.574 Y7.761191
G1 Z13.087 X4.114 Y8.016884
G1 Z13.096 X3.200 Y8.423910
G1 Z13.102 X2.560 Y8.638649
G1 Z13.108 X1.911 Y8.805352
G1 Z13.117 X0.920 Y8.963405
G1 Z13.126 X-0.081 Y9.009439
G1 Z13.133 X-0.895 Y8.963161
G1 Z13.141 X-1.748 Y8.838218
G1 Z13.148 X-2.536 Y8.644916
G1 Z13.155 X-3.354 Y8.362992
G1 Z13.164 X-4.257 Y7.941985
G1 Z13.170 X-4.843 Y7.597760
G1 Z13.179 X-5.659 Y7.011813
G1 Z13.182 X-5.908 Y6.803093
G1 Z13.191 X-6.628 Y6.103146
G1 Z13.197 X-7.066 Y5.589885
G1 Z13.203 X-7.462 Y5.049588
G1 Z13.209 X-7.819 Y4.476327
G1 Z13.214 X-8.126 Y3.892959
G1 Z13.220 X-8.394 Y3.273698
G1 Z13.226 X-8.615 Y2.638415
G1 Z13.235 X-8.854 Y1.667444
G1 Z13.241 X-8.954 Y1.001171
G1 Z13.250 X-9.010 Y0.005176
G1 Z13.258 X-8.966 Y-0.864286
G1 Z13.265 X-8.854 Y-1.665964
G1 Z13.272 X-8.667 Y-2.455667
G1 Z13.280 X-8.391 Y-3.281780
G1 Z13.289 X-7.975 Y-4.192809
G1 Z13.297 X-7.462 Y-5.049825
G1 Z13.303 X-7.063 Y-5.593565
G1 Z13.312 X-6.399 Y-6.343596
G1 Z13.321 X-5.654 Y-7.015639
G1 Z13.325 X-5.274 Y-7.303986
G1 Z13.330 X-4.840 Y-7.599679
G1 Z13.336 X-4.257 Y-7.941428
G1 Z13.345 X-3.351 Y-8.363445
G1 Z13.351 X-2.718 Y-8.590163
G1 Z13.359 X-1.747 Y-8.839206
G1 Z13.368 X-0.757 Y-8.978225
G1 Z13.376 X0.059 Y-9.008957
G1 Z13.383 X0.928 Y-8.962069
G1 Z13.392 X1.911 Y-8.805062 F600.000
G1 Z13.398 X2.562 Y-8.638779
G1 Z13.407 X3.502 Y-8.301789
G1 Z13.414 X4.238 Y-7.949520
G1 Z13.422 X4.982 Y-7.507597
G1 Z13.428 X5.523 Y-7.118276
G1 Z13.433 X6.041 Y-6.685015
G1 Z13.439 X6.514 Y-6.225646
G1 Z13.445 X6.959 Y-5.722367
G1 Z13.452 X7.447 Y-5.069088
G1 Z13.460 X7.900 Y-4.332165
G1 Z13.469 X8.329 Y-3.436139
G1 Z13.476 X8.605 Y-2.664896
G1 Z13.484 X8.823 Y-1.826973
G1 Z13.493 X8.970 Y-0.844947
G1 Z13.500 X9.009 Y0.000879
G1 Z13.507 X8.530 Y0.795468 F600.000
G1 Z13.513 X8.447 Y1.432976
G1 Z13.519 X8.319 Y2.045377
G1 Z13.525 X8.144 Y2.658852
G1 Z13.534 X7.809 Y3.520345
G1 Z13.540 X7.510 Y4.123071
G1 Z13.549 X7.007 Y4.929740
G1 Z13.555 X6.619 Y5.439243
G1 Z13.560 X6.220 Y5.890468
G1 Z13.567 X5.744 Y6.356148
G1 Z13.572 X5.256 Y6.765623
G1 Z13.581 X4.495 Y7.292117
G1 Z13.587 X3.905 Y7.625876
G1 Z13.596 X3.038 Y8.010540
G1 Z13.605 X2.132 Y8.297210
G1 Z13.611 X1.510 Y8.433686
G1 Z13.619 X0.592 Y8.546179
G1 Z13.629 X-0.393 Y8.558094
G1 Z13.635 X-1.033 Y8.504602
G1 Z13.643 X-1.968 Y8.338272
G1 Z13.649 X-2.587 Y8.167780
G1 Z13.655 X-3.187 Y7.952255
G1 Z13.664 X-4.044 Y7.552897
G1 Z13.673 X-4.837 Y7.070419
G1 Z13.679 X-5.378 Y6.669142
G1 Z13.685 X-5.861 Y6.248644
G1 Z13.694 X-6.520 Y5.557350
G1 Z13.703 X-7.093 Y4.805988
G1 Z13.711 X-7.569 Y4.012481
G1 Z13.717 X-7.861 Y3.406204
G1 Z13.726 X-8.188 Y2.520836
G1 Z13.735 X-8.412 Y1.618365
G1 Z13.741 X-8.515 Y0.948124
G1 Z13.750 X-8.567 Y-0.005824
G1 Z13.753 X-8.561 Y-0.313989
G1 Z13.759 X-8.514 Y-0.954497
G1 Z13.765 X-8.419 Y-1.588005
G1 Z13.774 X-8.192 Y-2.506642
G1 Z13.782 X-7.873 Y-3.374136
G1 Z13.788 X-7.585 Y-3.982859
G1 Z13.797 X-7.098 Y-4.797523
G1 Z13.803 X-6.719 Y-5.315033
G1 Z13.812 X-6.089 Y-6.027709
G1 Z13.821 X-5.381 Y-6.666407
G1 Z13.827 X-4.862 Y-7.054951
G1 Z13.836 X-4.047 Y-7.551658
G1 Z13.845 X-3.190 Y-7.951301
G1 Z13.853 X-2.377 Y-8.229334
G1 Z13.859 X-1.659 Y-8.405520
G1 Z13.868 X-0.726 Y-8.536143
G1 Z13.877 X0.204 Y-8.564672
G1 Z13.883 X0.876 Y-8.522398
G1 Z13.892 X1.814 Y-8.373067 F600.000
G1 Z13.898 X2.435 Y-8.214572
G1 Z13.903 X2.973 Y-8.034556
G1 Z13.910 X3.620 Y-7.765475
G1 Z13.916 X4.196 Y-7.469019
G1 Z13.925 X4.997 Y-6.959689
G1 Z13.930 X5.500 Y-6.568164
G1 Z13.936 X5.947 Y-6.165389
G1 Z13.942 X6.409 Y-5.685069
G1 Z13.948 X6.817 Y-5.189577
G1 Z13.954 X7.184 Y-4.668052
G1 Z13.963 X7.654 Y-3.847694
G1 Z13.972 X8.025 Y-2.996216
G1 Z13.978 X8.238 Y-2.352975
G1 Z13.987 X8.447 Y-1.427639
G1 Z13.993 X8.530 Y-0.795111
G1 Z14.000 X8.566 Y0.000700
G1 Z14.007 X8.034 Y0.746947 F600.000
G1 Z14.016 X7.900 Y1.641299
G1 Z14.023 X7.722 Y2.334326
G1 Z14.031 X7.462 Y3.069797
G1 Z14.040 X7.071 Y3.886161
G1 Z14.046 X6.769 Y4.392301
G1 Z14.055 X6.234 Y5.122653
G1 Z14.064 X5.625 Y5.784969
G1 Z14.073 X4.943 Y6.378321
G1 Z14.078 X4.460 Y6.725497
G1 Z14.084 X3.952 Y7.035673
G1 Z14.093 X3.135 Y7.435061
G1 Z14.099 X2.584 Y7.644202
G1 Z14.108 X1.712 Y7.885554
G1 Z14.117 X0.824 Y8.027870
G1 Z14.126 X-0.080 Y8.069222
G1 Z14.132 X-0.669 Y8.041362
G1 Z14.141 X-1.565 Y7.915714
G1 Z14.149 X-2.436 Y7.692030
G1 Z14.158 X-3.282 Y7.371382
G1 Z14.164 X-3.812 Y7.112522
G1 Z14.173 X-4.588 Y6.638910
G1 Z14.179 X-5.060 Y6.285051
G1 Z14.188 X-5.732 Y5.679403
G1 Z14.197 X-6.332 Y5.002755
G1 Z14.203 X-6.683 Y4.522931
G1 Z14.209 X-6.998 Y4.017107
G1 Z14.217 X-7.403 Y3.209459
G1 Z14.226 X-7.714 Y2.365775
G1 Z14.235 X-7.931 Y1.486127
G1 Z14.241 X-8.018 Y0.903268
G1 Z14.250 X-8.069 Y-0.005656
G1 Z14.256 X-8.047 Y-0.594796
G1 Z14.265 X-7.929 Y-1.496184
G1 Z14.271 X-7.799 Y-2.071324
G1 Z14.280 X-7.516 Y-2.936712
G1 Z14.285 X-7.281 Y-3.477852
G1 Z14.294 X-6.846 Y-4.270204
G1 Z14.303 X-6.328 Y-5.006520
G1 Z14.312 X-5.728 Y-5.683872
G1 Z14.318 X-5.298 Y-6.086013
G1 Z14.327 X-4.584 Y-6.640365
G1 Z14.336 X-3.816 Y-7.109681
G1 Z14.345 X-2.999 Y-7.491015
G1 Z14.352 X-2.322 Y-7.726042
G1 Z14.359 X-1.566 Y-7.915514
G1 Z14.368 X-0.672 Y-8.041859
G1 Z14.375 X0.044 Y-8.067886
G1 Z14.383 X0.822 Y-8.027357
G1 Z14.392 X1.717 Y-7.884721 F600.000
G1 Z14.398 X2.288 Y-7.738861
G1 Z14.407 X3.144 Y-7.431249
G1 Z14.413 X3.679 Y-7.182389
G1 Z14.422 X4.462 Y-6.723759
G1 Z14.429 X5.039 Y-6.300786
G1 Z14.436 X5.628 Y-5.782294
G1 Z14.442 X6.036 Y-5.355445
G1 Z14.451 X6.597 Y-4.645797
G1 Z14.460 X7.074 Y-3.882113
G1 Z14.469 X7.464 Y-3.066465
G1 Z14.475 X7.668 Y-2.513606
G1 Z14.484 X7.901 Y-1.638958
G1 Z14.493 X8.034 Y-0.746292
G1 Z14.500 X8.069 Y-0.000538
G1 Z14.507 X7.482 Y0.695423 F600.000
G1 Z14.516 X7.357 Y1.531357
G1 Z14.522 X7.223 Y2.070259
G1 Z14.531 X6.949 Y2.859126
G1 Z14.540 X6.587 Y3.615009
G1 Z14.549 X6.141 Y4.330927
G1 Z14.555 X5.809 Y4.766777
G1 Z14.564 X5.239 Y5.387695
G1 Z14.573 X4.603 Y5.940613
G1 Z14.578 X4.157 Y6.260464
G1 Z14.587 X3.426 Y6.688417
G1 Z14.593 X2.922 Y6.923318
G1 Z14.602 X2.135 Y7.204186
G1 Z14.611 X1.320 Y7.397068
G1 Z14.620 X0.483 Y7.499986
G1 Z14.626 X-0.065 Y7.514837
G1 Z14.635 X-0.906 Y7.459755
G1 Z14.643 X-1.730 Y7.312637
G1 Z14.652 X-2.538 Y7.073554
G1 Z14.658 X-3.047 Y6.869405
G1 Z14.667 X-3.802 Y6.482359
G1 Z14.673 X-4.264 Y6.187210
G1 Z14.682 X-4.934 Y5.667164
G1 Z14.688 X-5.338 Y5.289050
G1 Z14.694 X-5.713 Y4.881937
G1 Z14.703 X-6.226 Y4.207891
G1 Z14.709 X-6.517 Y3.741742
G1 Z14.718 X-6.897 Y2.984694
G1 Z14.723 X-7.098 Y2.466596
G1 Z14.732 X-7.328 Y1.662463
G1 Z14.741 X-7.467 Y0.836346
G1 Z14.750 X-7.514 Y-0.005262
G1 Z14.756 X-7.493 Y-0.560164
G1 Z14.765 X-7.385 Y-1.389032
G1 Z14.774 X-7.183 Y-2.207949
G1 Z14.780 X-7.000 Y-2.732851
G1 Z14.788 X-6.653 Y-3.492718
G1 Z14.797 X-6.221 Y-4.215635
G1 Z14.803 X-5.892 Y-4.663537
G1 Z14.812 X-5.338 Y-5.288405
G1 Z14.821 X-4.712 Y-5.853322
G1 Z14.827 X-4.267 Y-6.185224
G1 Z14.836 X-3.554 Y-6.621091
G1 Z14.845 X-2.790 Y-6.977008
G1 Z14.851 X-2.267 Y-7.164910
G1 Z14.859 X-1.457 Y-7.371777
G1 Z14.868 X-0.623 Y-7.488695
G1 Z14.874 X-0.068 Y-7.514597
G1 Z14.883 X0.767 Y-7.475464
G1 Z14.892 X1.599 Y-7.342381 F600.000
G1 Z14.898 X2.137 Y-7.204283
G1 Z14.907 X2.924 Y-6.922150
G1 Z14.916 X3.681 Y-6.551069
G1 Z14.922 X4.153 Y-6.263955
G1 Z14.927 X4.603 Y-5.940842
G1 Z14.936 X5.239 Y-5.387760
G1 Z14.945 X5.809 Y-4.766678
G1 Z14.951 X6.141 Y-4.330529
G1 Z14.960 X6.587 Y-3.615446
G1 Z14.969 X6.951 Y-2.855363
G1 Z14.975 X7.143 Y-2.333265
G1 Z14.984 X7.357 Y-1.526132
G1 Z14.993 X7.482 Y-0.695033
G1 Z15.000 X7.514 Y-0.000917
G1 Z15.009 X6.828 Y0.836630 F600.000
G1 Z15.016 X6.736 Y1.399632
G1 Z15.022 X6.615 Y1.889177
G1 Z15.031 X6.362 Y2.618598
G1 Z15.040 X6.029 Y3.314019
G1 Z15.046 X5.772 Y3.744539
G1 Z15.054 X5.315 Y4.367960
G1 Z15.063 X4.796 Y4.932345
G1 Z15.072 X4.214 Y5.438766
G1 Z15.078 X3.807 Y5.731286
G1 Z15.087 X3.140 Y6.121713
G1 Z15.095 X2.493 Y6.411692
G1 Z15.102 X1.958 Y6.595658
G1 Z15.111 X1.209 Y6.773068
G1 Z15.120 X0.442 Y6.866490
G1 Z15.125 X-0.064 Y6.880045
G1 Z15.131 X-0.570 Y6.856600
G1 Z15.140 X-1.334 Y6.749022
G1 Z15.149 X-2.082 Y6.557443
G1 Z15.155 X-2.554 Y6.388962
G1 Z15.164 X-3.258 Y6.059420
G1 Z15.170 X-3.691 Y5.806939
G1 Z15.179 X-4.318 Y5.356360
G1 Z15.188 X-4.891 Y4.838781
G1 Z15.193 X-5.230 Y4.470301
G1 Z15.202 X-5.698 Y3.855722
G1 Z15.211 X-6.092 Y3.196113
G1 Z15.219 X-6.388 Y2.552092
G1 Z15.226 X-6.577 Y2.020059
G1 Z15.235 X-6.761 Y1.271475
G1 Z15.243 X-6.855 Y0.568454
G1 Z15.250 X-6.880 Y0.004421
G1 Z15.259 X-6.836 Y-0.771866
G1 Z15.265 X-6.761 Y-1.272422
G1 Z15.270 X-6.649 Y-1.765977
G1 Z15.279 X-6.409 Y-2.499399
G1 Z15.288 X-6.091 Y-3.198790
G1 Z15.296 X-5.729 Y-3.808769
G1 Z15.303 X-5.398 Y-4.265735
G1 Z15.312 X-4.884 Y-4.846181
G1 Z15.318 X-4.518 Y-5.188701
G1 Z15.327 X-3.908 Y-5.662122
G1 Z15.336 X-3.254 Y-6.062507
G1 Z15.344 X-2.558 Y-6.386899
G1 Z15.353 X-1.887 Y-6.615878
G1 Z15.359 X-1.338 Y-6.748844
G1 Z15.368 X-0.574 Y-6.856260
G1 Z15.376 X0.135 Y-6.878239
G1 Z15.383 X0.699 Y-6.844206
G1 Z15.392 X1.465 Y-6.722652 F600.000
G1 Z15.398 X1.950 Y-6.598171
G1 Z15.407 X2.682 Y-6.336628
G1 Z15.412 X3.136 Y-6.124148
G1 Z15.421 X3.802 Y-5.733569
G1 Z15.430 X4.417 Y-5.275954
G1 Z15.439 X4.980 Y-4.747375
G1 Z15.445 X5.312 Y-4.372895
G1 Z15.454 X5.772 Y-3.745352
G1 Z15.460 X6.029 Y-3.314872
G1 Z15.469 X6.362 Y-2.618293
G1 Z15.478 X6.614 Y-1.893684
G1 Z15.486 X6.773 Y-1.202663
G1 Z15.492 X6.850 Y-0.642630
G1 Z15.500 X6.874 Y0.024308
G1 Z15.507 X6.124 Y0.566927 F600.000
G1 Z15.516 X6.022 Y1.249777
G1 Z15.525 X5.845 Y1.913600
G1 Z15.532 X5.625 Y2.484901
G1 Z15.539 X5.393 Y2.956595
G1 Z15.548 X5.026 Y3.545466
G1 Z15.554 X4.755 Y3.901605
G1 Z15.563 X4.284 Y4.413491
G1 Z15.569 X3.952 Y4.712629
G1 Z15.578 X3.395 Y5.129516
G1 Z15.584 X3.013 Y5.362654
G1 Z15.593 X2.393 Y5.665504
G1 Z15.601 X1.748 Y5.896319
G1 Z15.610 X1.075 Y6.056169
G1 Z15.616 X0.633 Y6.118307
G1 Z15.625 X-0.062 Y6.150194
G1 Z15.631 X-0.509 Y6.129332
G1 Z15.640 X-1.198 Y6.033219
G1 Z15.646 X-1.633 Y5.930357
G1 Z15.655 X-2.287 Y5.709207
G1 Z15.664 X-2.909 Y5.419022
G1 Z15.672 X-3.498 Y5.059872
G1 Z15.678 X-3.856 Y4.791010
G1 Z15.687 X-4.373 Y4.325897
G1 Z15.693 X-4.675 Y3.996035
G1 Z15.702 X-5.094 Y3.446885
G1 Z15.711 X-5.446 Y2.857708
G1 Z15.719 X-5.703 Y2.301009
G1 Z15.726 X-5.879 Y1.805703
G1 Z15.735 X-6.044 Y1.135547
G1 Z15.743 X-6.127 Y0.528848
G1 Z15.749 X-6.150 Y-0.002578
G1 Z15.755 X-6.134 Y-0.452737
G1 Z15.764 X-6.044 Y-1.138596
G1 Z15.772 X-5.900 Y-1.733897
G1 Z15.779 X-5.731 Y-2.231591
G1 Z15.788 X-5.445 Y-2.859435
G1 Z15.796 X-5.133 Y-3.386736
G1 Z15.803 X-4.826 Y-3.813430
G1 Z15.811 X-4.368 Y-4.329274
G1 Z15.819 X-3.915 Y-4.742575
G1 Z15.826 X-3.496 Y-5.060269
G1 Z15.835 X-2.909 Y-5.419104
G1 Z15.844 X-2.286 Y-5.709927
G1 Z15.852 X-1.707 Y-5.908228
G1 Z15.859 X-1.196 Y-6.033921
G1 Z15.868 X-0.513 Y-6.129765
G1 Z15.876 X0.100 Y-6.149066
G1 Z15.882 X0.625 Y-6.118760
G1 Z15.891 X1.310 Y-6.009631 F600.000
G1 Z15.897 X1.743 Y-5.898770
G1 Z15.906 X2.394 Y-5.665629
G1 Z15.914 X2.946 Y-5.398930
G1 Z15.921 X3.397 Y-5.127624
G1 Z15.930 X3.948 Y-4.715459
G1 Z15.939 X4.452 Y-4.243309
G1 Z15.945 X4.749 Y-3.908448
G1 Z15.953 X5.157 Y-3.351298
G1 Z15.962 X5.498 Y-2.756112
G1 Z15.971 X5.772 Y-2.123962
G1 Z15.977 X5.911 Y-1.698101
G1 Z15.986 X6.065 Y-1.019987
G1 Z15.992 X6.123 Y-0.576126
G1 Z16.000 X6.147 Y0.051530
G1 Z16.009 X5.245 Y0.692816 F600.000
G1 Z16.015 X5.181 Y1.074542
G1 Z16.021 X5.088 Y1.451268
G1 Z16.030 X4.892 Y2.014449
G1 Z16.038 X4.652 Y2.519382
G1 Z16.045 X4.438 Y2.880320
G1 Z16.053 X4.088 Y3.359489
G1 Z16.062 X3.688 Y3.793630
G1 Z16.071 X3.243 Y4.180776
G1 Z16.080 X2.783 Y4.499708
G1 Z16.086 X2.418 Y4.705647
G1 Z16.095 X1.871 Y4.949852
G1 Z16.101 X1.508 Y5.071542
G1 Z16.110 X0.924 Y5.209755
G1 Z16.116 X0.545 Y5.262445
G1 Z16.125 X-0.054 Y5.290658
G1 Z16.130 X-0.437 Y5.273348
G1 Z16.139 X-1.027 Y5.190529
G1 Z16.148 X-1.569 Y5.052462
G1 Z16.154 X-1.964 Y4.912400
G1 Z16.163 X-2.503 Y4.661573
G1 Z16.171 X-2.981 Y4.370506
G1 Z16.178 X-3.317 Y4.121444
G1 Z16.187 X-3.759 Y3.723617
G1 Z16.195 X-4.131 Y3.305550
G1 Z16.201 X-4.380 Y2.968493
G1 Z16.210 X-4.670 Y2.484453
G1 Z16.216 X-4.855 Y2.103427
G1 Z16.222 X-4.996 Y1.742145
G1 Z16.231 X-5.159 Y1.170322
G1 Z16.240 X-5.257 Y0.589463
G1 Z16.249 X-5.291 Y-0.005641
G1 Z16.255 X-5.276 Y-0.388330
G1 Z16.264 X-5.199 Y-0.983544
G1 Z16.269 X-5.114 Y-1.356234
G1 Z16.278 X-4.927 Y-1.927447
G1 Z16.284 X-4.775 Y-2.278137
G1 Z16.293 X-4.489 Y-2.800314
G1 Z16.302 X-4.149 Y-3.282455
G1 Z16.311 X-3.758 Y-3.724601
G1 Z16.319 X-3.343 Y-4.100533
G1 Z16.326 X-3.009 Y-4.352472
G1 Z16.335 X-2.502 Y-4.661640
G1 Z16.344 X-1.963 Y-4.913818
G1 Z16.349 X-1.602 Y-5.042508
G1 Z16.358 X-1.026 Y-5.190685
G1 Z16.367 X-0.441 Y-5.272830
G1 Z16.376 X0.118 Y-5.289763
G1 Z16.382 X0.536 Y-5.263701
G1 Z16.391 X1.122 Y-5.170870 F600.000
G1 Z16.400 X1.696 Y-5.011047
G1 Z16.406 X2.059 Y-4.874773
G1 Z16.411 X2.410 Y-4.710499
G1 Z16.420 X2.924 Y-4.409676
G1 Z16.429 X3.396 Y-4.056817
G1 Z16.438 X3.830 Y-3.649995
G1 Z16.444 X4.084 Y-3.363685
G1 Z16.453 X4.439 Y-2.879898
G1 Z16.459 X4.636 Y-2.550588
G1 Z16.468 X4.895 Y-2.009801
G1 Z16.474 X5.027 Y-1.649491
G1 Z16.482 X5.180 Y-1.074668
G1 Z16.491 X5.267 Y-0.491809
G1 Z16.500 X5.289 Y0.083841
G1 Z16.507 X4.206 Y0.389346 F600.000
G1 Z16.516 X4.135 Y0.863706
G1 Z16.521 X4.062 Y1.158839
G1 Z16.531 X3.904 Y1.612217
G1 Z16.536 X3.778 Y1.889350
G1 Z16.545 X3.542 Y2.301693
G1 Z16.554 X3.263 Y2.681999
G1 Z16.563 X2.945 Y3.028305
G1 Z16.572 X2.589 Y3.337611
G1 Z16.581 X2.198 Y3.607954
G1 Z16.587 X1.933 Y3.756087
G1 Z16.596 X1.493 Y3.951465
G1 Z16.601 X1.205 Y4.048598
G1 Z16.610 X0.742 Y4.158941
G1 Z16.619 X0.270 Y4.215283
G1 Z16.625 X-0.037 Y4.224435
G1 Z16.632 X-0.410 Y4.203058
G1 Z16.640 X-0.823 Y4.143989
G1 Z16.646 X-1.120 Y4.073132
G1 Z16.655 X-1.571 Y3.921474
G1 Z16.664 X-1.998 Y3.722781
G1 Z16.672 X-2.399 Y3.476087
G1 Z16.681 X-2.775 Y3.184429
G1 Z16.693 X-3.210 Y2.746765
G1 Z16.702 X-3.500 Y2.365126
G1 Z16.709 X-3.692 Y2.050713
G1 Z16.717 X-3.875 Y1.681608
G1 Z16.726 X-4.040 Y1.233960
G1 Z16.732 X-4.118 Y0.939093
G1 Z16.741 X-4.197 Y0.470436
G1 Z16.749 X-4.224 Y-0.001750
G1 Z16.757 X-4.202 Y-0.422711
G1 Z16.764 X-4.152 Y-0.779239
G1 Z16.772 X-4.049 Y-1.202298
G1 Z16.779 X-3.937 Y-1.531741
G1 Z16.788 X-3.739 Y-1.965090
G1 Z16.795 X-3.553 Y-2.283677
G1 Z16.803 X-3.314 Y-2.619572
G1 Z16.812 X-2.997 Y-2.977924
G1 Z16.817 X-2.775 Y-3.184057
G1 Z16.826 X-2.399 Y-3.476399
G1 Z16.835 X-1.998 Y-3.721706
G1 Z16.844 X-1.568 Y-3.922031
G1 Z16.851 X-1.221 Y-4.043618
G1 Z16.859 X-0.821 Y-4.143513
G1 Z16.868 X-0.350 Y-4.209849
G1 Z16.875 X0.018 Y-4.223435
G1 Z16.882 X0.430 Y-4.202330
G1 Z16.891 X0.901 Y-4.127683 F600.000
G1 Z16.897 X1.195 Y-4.051816
G1 Z16.906 X1.648 Y-3.889194
G1 Z16.912 X1.924 Y-3.761327
G1 Z16.921 X2.339 Y-3.517706
G1 Z16.927 X2.585 Y-3.340839
G1 Z16.936 X2.945 Y-3.028181
G1 Z16.945 X3.265 Y-2.679506
G1 Z16.952 X3.486 Y-2.384093
G1 Z16.959 X3.702 Y-2.033988
G1 Z16.968 X3.906 Y-1.607305
G1 Z16.977 X4.062 Y-1.158647
G1 Z16.983 X4.135 Y-0.863780
G1 Z16.992 X4.206 Y-0.389141
G1 Z17.000 X4.222 Y0.033111
G1 Z17.015 X2.709 Y0.562681 F600.000
G1 Z17.024 X2.630 Y0.860847
G1 Z17.038 X2.428 Y1.327417
G1 Z17.047 X2.262 Y1.594627
G1 Z17.055 X2.089 Y1.813587
G1 Z17.068 X1.780 Y2.118635
G1 Z17.077 X1.529 Y2.306837
G1 Z17.086 X1.263 Y2.462002
G1 Z17.095 X0.980 Y2.587176
G1 Z17.109 X0.484 Y2.724788
G1 Z17.124 X-0.027 Y2.767389
G1 Z17.139 X-0.534 Y2.715965
G1 Z17.148 X-0.838 Y2.637170
G1 Z17.163 X-1.307 Y2.439747
G1 Z17.171 X-1.573 Y2.276933
G1 Z17.186 X-1.964 Y1.949517
G1 Z17.194 X-2.152 Y1.738500
G1 Z17.201 X-2.290 Y1.553120
G1 Z17.216 X-2.537 Y1.105712
G1 Z17.225 X-2.645 Y0.811914
G1 Z17.239 X-2.749 Y0.313484
G1 Z17.248 X-2.767 Y-0.001694
G1 Z17.263 X-2.720 Y-0.508270
G1 Z17.272 X-2.645 Y-0.812466
G1 Z17.287 X-2.451 Y-1.283043
G1 Z17.296 X-2.289 Y-1.555266
G1 Z17.310 X-1.965 Y-1.947837
G1 Z17.320 X-1.733 Y-2.157039
G1 Z17.334 X-1.308 Y-2.438609
G1 Z17.349 X-0.840 Y-2.636180
G1 Z17.358 X-0.537 Y-2.714381
G1 Z17.367 X-0.230 Y-2.757555
G1 Z17.381 X0.279 Y-2.753131
G1 Z17.391 X0.592 Y-2.703355 F600.000
G1 Z17.405 X1.077 Y-2.549926
G1 Z17.414 X1.355 Y-2.412099
G1 Z17.422 X1.591 Y-2.263059
G1 Z17.429 X1.774 Y-2.123679
G1 Z17.438 X2.001 Y-1.910867
G1 Z17.452 X2.320 Y-1.508473
G1 Z17.467 X2.561 Y-1.048116
G1 Z17.482 X2.709 Y-0.562686
G1 Z17.491 X2.755 Y-0.257852
G1 Z17.500 X2.766 Y0.057054
ID=1 WHEN $AC_TIMER[1]>=0 DO M51
M0
;TURN OFF POWDER!!!
M0
G4F5

;End of Programm--------------------
M55				;home mirror
M30				;program end

; filament used = 155.1mm (1.1cm3)

; avoid_crossing_perimeters = 0
; bed_shape = -150x-150,150x-150,150x150,-150x150
; bed_temperature = 0
; before_layer_gcode = 
; bridge_acceleration = 0
; bridge_fan_speed = 100
; brim_width = 0
; complete_objects = 0
; cooling = 0
; default_acceleration = 0
; disable_fan_first_layers = 3
; duplicate_distance = 6
; end_gcode = M0\n;TURN OFF POWDER!!!\nM0\nG4F5\n\n;End of Programm--------------------\nM55				;home mirror\nM30				;program end\n
; extruder_clearance_height = 20
; extruder_clearance_radius = 20
; extruder_offset = 0x0
; extrusion_axis = E
; extrusion_multiplier = 1
; fan_always_on = 0
; fan_below_layer_time = 60
; filament_colour = #FFFFFF
; filament_diameter = 3
; first_layer_acceleration = 0
; first_layer_bed_temperature = 0
; first_layer_extrusion_width = 0
; first_layer_speed = 100%
; first_layer_temperature = 205
; gcode_arcs = 0
; gcode_comments = 0
; gcode_flavor = reprap
; infill_acceleration = 0
; infill_first = 0
; layer_gcode = 
; max_fan_speed = 100
; max_print_speed = 80
; max_volumetric_speed = 0
; min_fan_speed = 35
; min_print_speed = 33
; min_skirt_length = 0
; notes = 
; nozzle_diameter = 3
; only_retract_when_crossing_perimeters = 0
; ooze_prevention = 0
; output_filename_format = [input_filename_base].gcode
; perimeter_acceleration = 0
; post_process = 
; pressure_advance = 0
; resolution = 0
; retract_before_travel = 2
; retract_layer_change = 0
; retract_length = 0
; retract_length_toolchange = 10
; retract_lift = 0
; retract_restart_extra = 0
; retract_restart_extra_toolchange = 0
; retract_speed = 40
; skirt_distance = 6
; skirt_height = 1
; skirts = 0
; slowdown_below_layer_time = 5
; spiral_vase = 1
; standby_temperature_delta = -5
; start_gcode = $AC_TIMER[1]=0\n\n;General Config.--------------------\nG641			;\nG603			;\nM55			;home mirror\nG4F4			;necessary delay for positioning of the mirror				\nM0			;wait for user-input\n\n;Process Start-up-------------------\nM56			;set canal 1 as laser-source\nG4F4			;necessary delay for positioning of the mirror\nM0			;wait for user-input\n;START POWDER!!!\nG4F15\n\nM0\n\nG54\n
; temperature = 200
; threads = 2
; toolchange_gcode = 
; travel_speed = 33
; use_firmware_retraction = 0
; use_relative_e_distances = 0
; use_volumetric_e = 0
; vibration_limit = 0
; wipe = 0
; z_offset = 0
; dont_support_bridges = 1
; extrusion_width = 1.1
; first_layer_height = 100%
; infill_only_where_needed = 0
; interface_shells = 0
; layer_height = 0.5
; raft_layers = 0
; seam_position = aligned
; support_material = 0
; support_material_angle = 0
; support_material_contact_distance = 0.2
; support_material_enforce_layers = 0
; support_material_extruder = 1
; support_material_extrusion_width = 0
; support_material_interface_extruder = 1
; support_material_interface_layers = 3
; support_material_interface_spacing = 0
; support_material_interface_speed = 100%
; support_material_pattern = pillars
; support_material_spacing = 2.5
; support_material_speed = 60
; support_material_threshold = 0
; xy_size_compensation = 0
; bottom_solid_layers = 0
; bridge_flow_ratio = 1
; bridge_speed = 33.3333
; external_fill_pattern = rectilinear
; external_perimeter_extrusion_width = 0
; external_perimeter_speed = 100%
; external_perimeters_first = 0
; extra_perimeters = 1
; fill_angle = 45
; fill_density = 0%
; fill_pattern = rectilinear
; gap_fill_speed = 33.3333
; infill_every_layers = 1
; infill_extruder = 1
; infill_extrusion_width = 0
; infill_overlap = 15%
; infill_speed = 33.3333
; overhangs = 1
; perimeter_extruder = 1
; perimeter_extrusion_width = 0
; perimeter_speed = 10
; perimeters = 1
; small_perimeter_speed = 100%
; solid_infill_below_area = 70
; solid_infill_every_layers = 0
; solid_infill_extruder = 1
; solid_infill_extrusion_width = 0
; solid_infill_speed = 100%
; thin_walls = 1
; top_infill_extrusion_width = 0
; top_solid_infill_speed = 100%
; top_solid_layers = 0
