; Generated by RP3 on 2019-02-11
; Job 0 - LMD

; General Config.--------------------
$ac_timer[1]=0
G91   ; relative positioning
G64   ;
M55   ; home mirror
G4F4  ; necessary delay for positioning of the mirror
M0    ; wait for user-input

; Process Start-up--------------------
M56   ; set canal 1 as laser-source
G4F4  ; necessary delay for positioning of the mirror
M0    ; wait for user-input
; START POWDER!!!
G4F5
M0
G54   ; set process starting point (machine zero)

; Laser On and Path------------------
H1=63
G90   ; use absolute coordinates

; Layer 1
G1 Z1.300 F1500
X10.4869 Y26.7246 F1500
ID=1 WHEN $AC_TIMER[1]>=0 DO M50
X9.550 Y26.006 F300
X8.696 Y25.189
X7.930 Y24.295
X7.257 Y23.331
X6.682 Y22.291
X6.210 Y21.210
X5.866 Y20.086
X5.627 Y18.921
X5.500 Y17.772
X5.500 Y16.572
X5.627 Y15.398
X5.865 Y14.236
X6.210 Y13.120
X6.682 Y12.030
X7.256 Y11.001
X7.932 Y10.033
X8.696 Y9.132
X9.550 Y8.324
X10.487 Y7.596
X11.487 Y6.978
X12.544 Y6.458
X13.657 Y6.048
X14.791 Y5.748
X15.965 Y5.575
X17.140 Y5.512
X18.324 Y5.575
X19.488 Y5.748
X20.623 Y6.048
X21.736 Y6.458
X22.795 Y6.979
X23.803 Y7.596
X24.728 Y8.322
X25.586 Y9.134
X26.360 Y10.035
X27.033 Y10.999
X27.624 Y12.069
X28.070 Y13.120
X28.426 Y14.240
X28.662 Y15.393
X28.780 Y16.568
X28.780 Y17.752
X28.662 Y18.927
X28.425 Y20.081
X28.070 Y21.210
X27.606 Y22.294
X27.033 Y23.331
X26.362 Y24.292
X25.586 Y25.186
X24.728 Y26.008
X23.803 Y26.725
X22.791 Y27.353
X21.736 Y27.872
X20.628 Y28.281
X19.488 Y28.572
X18.320 Y28.755
X17.140 Y28.818
X15.970 Y28.755
X14.791 Y28.572
X13.652 Y28.281
X12.544 Y27.872
X11.491 Y27.354
X10.572 Y26.778
ID=1 WHEN $AC_TIMER[1]>=0 DO M51
X10.9943 Y17.061 F1500
ID=1 WHEN $AC_TIMER[1]>=0 DO M50
X10.995 Y17.271 F300
X11.085 Y18.201
X11.120 Y18.389
X11.330 Y19.169
X11.402 Y19.364
X11.802 Y20.204
X11.899 Y20.370
X12.369 Y21.040
X12.503 Y21.199
X13.163 Y21.849
X13.323 Y21.981
X14.043 Y22.471
X14.218 Y22.569
X15.018 Y22.929
X15.191 Y22.990
X15.971 Y23.200
X16.184 Y23.237
X17.114 Y23.307
X17.299 Y23.306
X18.109 Y23.236
X18.321 Y23.197
X19.211 Y22.947
X19.398 Y22.876
X20.188 Y22.496
X20.361 Y22.394
X21.071 Y21.884
X21.213 Y21.763
X21.783 Y21.193
X21.917 Y21.032
X22.447 Y20.262
X22.545 Y20.090
X22.885 Y19.350
X22.949 Y19.174
X23.179 Y18.334
X23.217 Y18.117
X23.287 Y17.197
X23.286 Y17.012
X23.216 Y16.192
X23.177 Y15.979
X22.927 Y15.089
X22.860 Y14.908
X22.510 Y14.168
X22.410 Y13.998
X21.910 Y13.288
X21.777 Y13.131
X21.117 Y12.481
X20.970 Y12.359
X20.300 Y11.889
X20.128 Y11.789
X19.338 Y11.419
X19.135 Y11.346
X18.235 Y11.116
X18.049 Y11.084
X17.239 Y11.014
X17.028 Y11.015
X16.108 Y11.105
X15.925 Y11.139
X15.135 Y11.349
X14.942 Y11.419
X14.152 Y11.789
X13.978 Y11.890
X13.268 Y12.390
X13.117 Y12.517
X12.497 Y13.137
X12.370 Y13.288
X11.870 Y13.998
X11.769 Y14.172
X11.399 Y14.962
X11.326 Y15.165
X11.096 Y16.065
X11.064 Y16.251
X11.003 Y16.961
ID=1 WHEN $AC_TIMER[1]>=0 DO M51

; Inicio do trecho do raster
X26.5442 Y14.7982 F1500
ID=1 WHEN $AC_TIMER[1]>=0 DO M50
X19.526 Y7.780 F300
ID=1 WHEN $AC_TIMER[1]>=0 DO M51
X16.4863 Y7.50504 F1500
ID=1 WHEN $AC_TIMER[1]>=0 DO M50
X18.109 Y9.128 F300
ID=1 WHEN $AC_TIMER[1]>=0 DO M51
X25.1721 Y16.1909 F1500
ID=1 WHEN $AC_TIMER[1]>=0 DO M50
X26.808 Y17.826 F300
ID=1 WHEN $AC_TIMER[1]>=0 DO M51
X26.3572 Y20.1407 F1500
ID=1 WHEN $AC_TIMER[1]>=0 DO M50
X25.059 Y18.843 F300
ID=1 WHEN $AC_TIMER[1]>=0 DO M51
X15.4585 Y9.24198 F1500
ID=1 WHEN $AC_TIMER[1]>=0 DO M50
X14.162 Y7.945 F300
ID=1 WHEN $AC_TIMER[1]>=0 DO M51
X12.2538 Y8.80206 F1500
ID=1 WHEN $AC_TIMER[1]>=0 DO M50
X13.427 Y9.975 F300
ID=1 WHEN $AC_TIMER[1]>=0 DO M51
X24.3328 Y20.8811 F1500
ID=1 WHEN $AC_TIMER[1]>=0 DO M50
X25.505 Y22.053 F300
ID=1 WHEN $AC_TIMER[1]>=0 DO M51
X24.3336 Y23.6467 F1500
ID=1 WHEN $AC_TIMER[1]>=0 DO M50
X23.209 Y22.522 F300
ID=1 WHEN $AC_TIMER[1]>=0 DO M51
X11.7808 Y11.0939 F1500
ID=1 WHEN $AC_TIMER[1]>=0 DO M50
X10.656 Y9.969 F300
ID=1 WHEN $AC_TIMER[1]>=0 DO M51
X9.34542 Y11.4233 F1500
ID=1 WHEN $AC_TIMER[1]>=0 DO M50
X10.490 Y12.568 F300
ID=1 WHEN $AC_TIMER[1]>=0 DO M51
X21.7344 Y23.8123 F1500
ID=1 WHEN $AC_TIMER[1]>=0 DO M50
X22.885 Y24.963 F300
ID=1 WHEN $AC_TIMER[1]>=0 DO M51
X21.1425 Y25.9851 F1500
ID=1 WHEN $AC_TIMER[1]>=0 DO M50
X19.924 Y24.767 F300
ID=1 WHEN $AC_TIMER[1]>=0 DO M51
X9.53359 Y14.3763 F1500
ID=1 WHEN $AC_TIMER[1]>=0 DO M50
X8.322 Y13.164 F300
ID=1 WHEN $AC_TIMER[1]>=0 DO M51
X7.65144 Y15.2589 F1500
ID=1 WHEN $AC_TIMER[1]>=0 DO M50
X9.070 Y16.677 F300
ID=1 WHEN $AC_TIMER[1]>=0 DO M51
X17.6305 Y25.2379 F1500
ID=1 WHEN $AC_TIMER[1]>=0 DO M50
X19.054 Y26.661 F300
ID=1 WHEN $AC_TIMER[1]>=0 DO M51
X16.4508 Y26.823 F1500
ID=1 WHEN $AC_TIMER[1]>=0 DO M50
X14.416 Y24.789 F300
ID=1 WHEN $AC_TIMER[1]>=0 DO M51
X9.5096 Y19.8818 F1500
ID=1 WHEN $AC_TIMER[1]>=0 DO M50
X7.475 Y17.848 F300
ID=1 WHEN $AC_TIMER[1]>=0 DO M51
X8.62271 Y21.7597 F1500
ID=1 WHEN $AC_TIMER[1]>=0 DO M50
X12.568 Y25.706 F300
ID=1 WHEN $AC_TIMER[1]>=0 DO M51
; Final do trecho do raster

; Layer 2
G1 Z2.600 F1500
X10.1392 Y27.2259 F1500
ID=1 WHEN $AC_TIMER[1]>=0 DO M50
X9.160 Y26.467 F300
X8.255 Y25.607
X7.450 Y24.664
X6.736 Y23.648
X6.136 Y22.568
X5.650 Y21.422
X5.273 Y20.227
X5.030 Y19.031
X4.900 Y17.781
X4.900 Y16.539
X5.028 Y15.304
X5.275 Y14.089
X5.650 Y12.909
X6.135 Y11.765
X6.738 Y10.677
X7.442 Y9.674
X8.255 Y8.713
X9.158 Y7.865
X10.139 Y7.104
X11.190 Y6.446
X12.303 Y5.899
X13.473 Y5.469
X14.674 Y5.157
X15.899 Y4.965
X17.140 Y4.902
X18.381 Y4.965
X19.607 Y5.158
X20.816 Y5.469
X21.975 Y5.898
X23.090 Y6.446
X24.143 Y7.105
X25.132 Y7.865
X26.023 Y8.711
X26.829 Y9.663
X27.544 Y10.681
X28.147 Y11.768
X28.640 Y12.909
X29.006 Y14.089
X29.261 Y15.304
X29.380 Y16.535
X29.380 Y17.785
X29.261 Y19.016
X29.005 Y20.232
X28.639 Y21.422
X28.147 Y22.562
X27.544 Y23.649
X26.830 Y24.664
X26.023 Y25.610
X25.129 Y26.467
X24.143 Y27.225
X23.090 Y27.884
X21.975 Y28.432
X20.816 Y28.861
X19.611 Y29.171
X18.385 Y29.354
X17.140 Y29.418
X15.895 Y29.354
X14.670 Y29.172
X13.473 Y28.861
X12.303 Y28.431
X11.190 Y27.884
X10.224 Y27.279
ID=1 WHEN $AC_TIMER[1]>=0 DO M51
X10.9948 Y17.0547 F1500
ID=1 WHEN $AC_TIMER[1]>=0 DO M50
X10.995 Y17.265 F300
X11.075 Y18.135
X11.108 Y18.321
X11.328 Y19.161
X11.399 Y19.358
X11.769 Y20.148
X11.865 Y20.316
X12.365 Y21.036
X12.503 Y21.200
X13.123 Y21.810
X13.268 Y21.930
X13.978 Y22.430
X14.152 Y22.531
X14.942 Y22.901
X15.126 Y22.969
X15.966 Y23.199
X16.178 Y23.236
X17.048 Y23.306
X17.232 Y23.306
X18.102 Y23.236
X18.314 Y23.199
X19.154 Y22.969
X19.338 Y22.901
X20.128 Y22.531
X20.302 Y22.430
X21.012 Y21.930
X21.157 Y21.810
X21.777 Y21.200
X21.915 Y21.036
X22.415 Y20.316
X22.511 Y20.148
X22.881 Y19.358
X22.949 Y19.174
X23.179 Y18.334
X23.216 Y18.122
X23.286 Y17.252
X23.286 Y17.068
X23.216 Y16.198
X23.179 Y15.986
X22.949 Y15.146
X22.881 Y14.962
X22.511 Y14.172
X22.410 Y13.998
X21.910 Y13.288
X21.783 Y13.137
X21.163 Y12.517
X21.012 Y12.390
X20.302 Y11.890
X20.128 Y11.789
X19.338 Y11.419
X19.141 Y11.348
X18.301 Y11.128
X18.115 Y11.095
X17.245 Y11.015
X17.035 Y11.015
X16.165 Y11.095
X15.979 Y11.128
X15.139 Y11.348
X14.889 Y11.445
X14.165 Y11.783
X13.978 Y11.890
X13.268 Y12.390
X13.117 Y12.517
X12.497 Y13.137
X12.370 Y13.288
X11.870 Y13.998
X11.769 Y14.172
X11.399 Y14.962
X11.328 Y15.159
X11.108 Y15.999
X11.075 Y16.185
X11.004 Y16.955
ID=1 WHEN $AC_TIMER[1]>=0 DO M51

; Inicio do trecho do raster
X19.3859 Y27.2106 F1500
ID=1 WHEN $AC_TIMER[1]>=0 DO M50
X27.179 Y19.417 F300
ID=1 WHEN $AC_TIMER[1]>=0 DO M51
X27.4055 Y16.4263 F1500
ID=1 WHEN $AC_TIMER[1]>=0 DO M50
X25.085 Y18.747 F300
ID=1 WHEN $AC_TIMER[1]>=0 DO M51
X18.7265 Y25.1052 F1500
ID=1 WHEN $AC_TIMER[1]>=0 DO M50
X16.408 Y27.423 F300
ID=1 WHEN $AC_TIMER[1]>=0 DO M51
X14.0707 Y26.9963 F1500
ID=1 WHEN $AC_TIMER[1]>=0 DO M50
X15.900 Y25.166 F300
ID=1 WHEN $AC_TIMER[1]>=0 DO M51
X25.1472 Y15.9198 F1500
ID=1 WHEN $AC_TIMER[1]>=0 DO M50
X26.963 Y14.104 F300
ID=1 WHEN $AC_TIMER[1]>=0 DO M51
X26.1334 Y12.1687 F1500
ID=1 WHEN $AC_TIMER[1]>=0 DO M50
X24.496 Y13.806 F300
ID=1 WHEN $AC_TIMER[1]>=0 DO M51
X13.7869 Y24.5153 F1500
ID=1 WHEN $AC_TIMER[1]>=0 DO M50
X12.134 Y26.168 F300
ID=1 WHEN $AC_TIMER[1]>=0 DO M51
X10.5033 Y25.0341 F1500
ID=1 WHEN $AC_TIMER[1]>=0 DO M50
X12.068 Y23.469 F300
ID=1 WHEN $AC_TIMER[1]>=0 DO M51
X23.4487 Y12.0887 F1500
ID=1 WHEN $AC_TIMER[1]>=0 DO M50
X25.004 Y10.533 F300
ID=1 WHEN $AC_TIMER[1]>=0 DO M51
X23.6106 Y9.16195 F1500
ID=1 WHEN $AC_TIMER[1]>=0 DO M50
X22.045 Y10.727 F300
ID=1 WHEN $AC_TIMER[1]>=0 DO M51
X10.7075 Y22.0651 F1500
ID=1 WHEN $AC_TIMER[1]>=0 DO M50
X9.140 Y23.633 F300
ID=1 WHEN $AC_TIMER[1]>=0 DO M51
X8.03936 Y21.9684 F1500
ID=1 WHEN $AC_TIMER[1]>=0 DO M50
X9.690 Y20.317 F300
ID=1 WHEN $AC_TIMER[1]>=0 DO M51
X20.294 Y9.71381 F1500
ID=1 WHEN $AC_TIMER[1]>=0 DO M50
X21.946 Y8.062 F300
ID=1 WHEN $AC_TIMER[1]>=0 DO M51
X19.9725 Y7.27048 F1500
ID=1 WHEN $AC_TIMER[1]>=0 DO M50
X18.110 Y9.133 F300
ID=1 WHEN $AC_TIMER[1]>=0 DO M51
X9.11529 Y18.1277 F1500
ID=1 WHEN $AC_TIMER[1]>=0 DO M50
X7.250 Y19.993 F300
ID=1 WHEN $AC_TIMER[1]>=0 DO M51
X6.855 Y17.6232 F1500
ID=1 WHEN $AC_TIMER[1]>=0 DO M50
X9.307 Y15.172 F300
ID=1 WHEN $AC_TIMER[1]>=0 DO M51
X15.1562 Y9.32198 F1500
ID=1 WHEN $AC_TIMER[1]>=0 DO M50
X17.596 Y6.883 F300
ID=1 WHEN $AC_TIMER[1]>=0 DO M51
X14.488 Y7.22542 F1500
ID=1 WHEN $AC_TIMER[1]>=0 DO M50
X7.187 Y14.526 F300
ID=1 WHEN $AC_TIMER[1]>=0 DO M51
; Final do trecho do raster

; Layer 3
G1 Z3.900 F1500
X10.9948 Y17.0547 F1500
ID=1 WHEN $AC_TIMER[1]>=0 DO M50
X10.995 Y17.265 F300
X11.075 Y18.135
X11.108 Y18.321
X11.328 Y19.161
X11.399 Y19.358
X11.769 Y20.148
X11.865 Y20.316
X12.365 Y21.036
X12.503 Y21.200
X13.123 Y21.810
X13.268 Y21.930
X13.978 Y22.430
X14.152 Y22.531
X14.942 Y22.901
X15.126 Y22.969
X15.966 Y23.199
X16.178 Y23.236
X17.048 Y23.306
X17.232 Y23.306
X18.102 Y23.236
X18.314 Y23.199
X19.154 Y22.969
X19.338 Y22.901
X20.128 Y22.531
X20.302 Y22.430
X21.012 Y21.930
X21.157 Y21.810
X21.777 Y21.200
X21.915 Y21.036
X22.415 Y20.316
X22.511 Y20.148
X22.881 Y19.358
X22.949 Y19.174
X23.179 Y18.334
X23.216 Y18.122
X23.286 Y17.252
X23.286 Y17.068
X23.216 Y16.198
X23.179 Y15.986
X22.949 Y15.146
X22.881 Y14.962
X22.511 Y14.172
X22.410 Y13.998
X21.910 Y13.288
X21.783 Y13.137
X21.163 Y12.517
X21.012 Y12.390
X20.302 Y11.890
X20.128 Y11.789
X19.338 Y11.419
X19.141 Y11.348
X18.301 Y11.128
X18.115 Y11.095
X17.245 Y11.015
X17.035 Y11.015
X16.165 Y11.095
X15.979 Y11.128
X15.139 Y11.348
X14.942 Y11.419
X14.152 Y11.789
X13.978 Y11.890
X13.268 Y12.390
X13.117 Y12.517
X12.497 Y13.137
X12.370 Y13.288
X11.870 Y13.998
X11.769 Y14.172
X11.399 Y14.962
X11.328 Y15.159
X11.108 Y15.999
X11.075 Y16.185
X11.004 Y16.955
ID=1 WHEN $AC_TIMER[1]>=0 DO M51
X10.8997 Y5.91607 F1500
ID=1 WHEN $AC_TIMER[1]>=0 DO M50
X12.064 Y5.338 F300
X13.294 Y4.889
X14.552 Y4.558
X15.834 Y4.366
X17.140 Y4.301
X18.446 Y4.366
X19.729 Y4.558
X20.995 Y4.889
X22.214 Y5.338
X23.380 Y5.916
X24.493 Y6.605
X25.519 Y7.403
X26.466 Y8.303
X27.311 Y9.287
X28.062 Y10.358
X28.685 Y11.494
X29.201 Y12.701
X29.595 Y13.939
X29.852 Y15.215
X29.990 Y16.511
X29.990 Y17.809
X29.852 Y19.116
X29.595 Y20.391
X29.201 Y21.629
X28.685 Y22.836
X28.063 Y23.970
X27.311 Y25.034
X26.464 Y26.028
X25.519 Y26.927
X24.492 Y27.725
X23.383 Y28.412
X22.214 Y28.983
X20.995 Y29.441
X19.729 Y29.762
X18.442 Y29.964
X17.140 Y30.029
X15.838 Y29.964
X14.552 Y29.762
X13.294 Y29.441
X12.064 Y28.982
X10.897 Y28.412
X9.787 Y27.725
X8.761 Y26.927
X7.816 Y26.028
X6.971 Y25.036
X6.226 Y23.970
X5.594 Y22.833
X5.079 Y21.629
X4.685 Y20.391
X4.428 Y19.116
X4.290 Y17.809
X4.290 Y16.511
X4.428 Y15.215
X4.685 Y13.939
X5.079 Y12.701
X5.594 Y11.497
X6.228 Y10.358
X6.971 Y9.284
X7.814 Y8.303
X8.761 Y7.403
X9.787 Y6.605
X10.815 Y5.969
ID=1 WHEN $AC_TIMER[1]>=0 DO M51

; Inicio do trecho do raster
X6.67689 Y20.2034 F1500
ID=1 WHEN $AC_TIMER[1]>=0 DO M50
X14.103 Y27.630 F300
ID=1 WHEN $AC_TIMER[1]>=0 DO M51
X17.3016 Y28.0633 F1500
ID=1 WHEN $AC_TIMER[1]>=0 DO M50
X13.725 Y24.487 F300
ID=1 WHEN $AC_TIMER[1]>=0 DO M51
X9.81283 Y20.5745 F1500
ID=1 WHEN $AC_TIMER[1]>=0 DO M50
X6.245 Y17.007 F300
ID=1 WHEN $AC_TIMER[1]>=0 DO M51
X6.55557 Y14.5525 F1500
ID=1 WHEN $AC_TIMER[1]>=0 DO M50
X9.041 Y17.038 F300
ID=1 WHEN $AC_TIMER[1]>=0 DO M51
X17.2605 Y25.2574 F1500
ID=1 WHEN $AC_TIMER[1]>=0 DO M50
X19.744 Y27.741 F300
ID=1 WHEN $AC_TIMER[1]>=0 DO M51
X21.7848 Y27.0169 F1500
ID=1 WHEN $AC_TIMER[1]>=0 DO M50
X19.628 Y24.860 F300
ID=1 WHEN $AC_TIMER[1]>=0 DO M51
X9.43527 Y14.6674 F1500
ID=1 WHEN $AC_TIMER[1]>=0 DO M50
X7.284 Y12.516 F300
ID=1 WHEN $AC_TIMER[1]>=0 DO M51
X8.31311 Y10.7804 F1500
ID=1 WHEN $AC_TIMER[1]>=0 DO M50
X10.331 Y12.798 F300
ID=1 WHEN $AC_TIMER[1]>=0 DO M51
X21.5057 Y23.973 F1500
ID=1 WHEN $AC_TIMER[1]>=0 DO M50
X23.530 Y25.997 F300
ID=1 WHEN $AC_TIMER[1]>=0 DO M51
X25.0102 Y24.7128 F1500
ID=1 WHEN $AC_TIMER[1]>=0 DO M50
X23.014 Y22.717 F300
ID=1 WHEN $AC_TIMER[1]>=0 DO M51
X11.5842 Y11.2868 F1500
ID=1 WHEN $AC_TIMER[1]>=0 DO M50
X9.600 Y9.303 F300
ID=1 WHEN $AC_TIMER[1]>=0 DO M51
X11.1335 Y8.07125 F1500
ID=1 WHEN $AC_TIMER[1]>=0 DO M50
X13.164 Y10.102 F300
ID=1 WHEN $AC_TIMER[1]>=0 DO M51
X24.1957 Y21.1335 F1500
ID=1 WHEN $AC_TIMER[1]>=0 DO M50
X26.233 Y23.171 F300
ID=1 WHEN $AC_TIMER[1]>=0 DO M51
X27.1888 Y21.3618 F1500
ID=1 WHEN $AC_TIMER[1]>=0 DO M50
X24.978 Y19.151 F300
ID=1 WHEN $AC_TIMER[1]>=0 DO M51
X15.1527 Y9.32564 F1500
ID=1 WHEN $AC_TIMER[1]>=0 DO M50
X12.930 Y7.103 F300
ID=1 WHEN $AC_TIMER[1]>=0 DO M51
X15.0518 Y6.45997 F1500
ID=1 WHEN $AC_TIMER[1]>=0 DO M50
X17.689 Y9.097 F300
ID=1 WHEN $AC_TIMER[1]>=0 DO M51
X25.209 Y16.6171 F1500
ID=1 WHEN $AC_TIMER[1]>=0 DO M50
X27.833 Y19.241 F300
ID=1 WHEN $AC_TIMER[1]>=0 DO M51
X28.035 Y16.6784 F1500
ID=1 WHEN $AC_TIMER[1]>=0 DO M50
X23.457 Y12.101 F300
ID=1 WHEN $AC_TIMER[1]>=0 DO M51
X22.1907 Y10.8341 F1500
ID=1 WHEN $AC_TIMER[1]>=0 DO M50
X17.640 Y6.283 F300
ID=1 WHEN $AC_TIMER[1]>=0 DO M51
X21.1507 Y7.02927 F1500
ID=1 WHEN $AC_TIMER[1]>=0 DO M50
X27.263 Y13.142 F300
ID=1 WHEN $AC_TIMER[1]>=0 DO M51
; Final do trecho do raster

; Layer 4
G1 Z5.200 F1500
X10.9948 Y17.0547 F1500
ID=1 WHEN $AC_TIMER[1]>=0 DO M50
X10.995 Y17.265 F300
X11.075 Y18.135
X11.108 Y18.321
X11.328 Y19.161
X11.399 Y19.358
X11.769 Y20.148
X11.865 Y20.316
X12.365 Y21.036
X12.503 Y21.200
X13.123 Y21.810
X13.268 Y21.930
X13.978 Y22.430
X14.152 Y22.531
X14.942 Y22.901
X15.126 Y22.969
X15.966 Y23.199
X16.178 Y23.236
X17.048 Y23.306
X17.232 Y23.306
X18.102 Y23.236
X18.314 Y23.199
X19.154 Y22.969
X19.338 Y22.901
X20.128 Y22.531
X20.278 Y22.447
X20.652 Y22.196
X21.032 Y21.916
X21.157 Y21.810
X21.777 Y21.200
X21.915 Y21.036
X22.415 Y20.316
X22.511 Y20.148
X22.881 Y19.358
X22.949 Y19.174
X23.179 Y18.334
X23.216 Y18.122
X23.286 Y17.252
X23.286 Y17.068
X23.216 Y16.198
X23.179 Y15.986
X22.949 Y15.146
X22.881 Y14.962
X22.511 Y14.172
X22.410 Y13.998
X21.910 Y13.288
X21.783 Y13.137
X21.163 Y12.517
X21.012 Y12.390
X20.302 Y11.890
X20.128 Y11.789
X19.338 Y11.419
X19.141 Y11.348
X18.301 Y11.128
X18.115 Y11.095
X17.245 Y11.015
X17.035 Y11.015
X16.165 Y11.095
X15.979 Y11.128
X15.139 Y11.348
X14.942 Y11.419
X14.152 Y11.789
X13.978 Y11.890
X13.268 Y12.390
X13.117 Y12.517
X12.497 Y13.137
X12.370 Y13.288
X11.870 Y13.998
X11.769 Y14.172
X11.399 Y14.962
X11.328 Y15.159
X11.108 Y15.999
X11.075 Y16.185
X11.004 Y16.955
ID=1 WHEN $AC_TIMER[1]>=0 DO M51
X10.6142 Y5.38328 F1500
ID=1 WHEN $AC_TIMER[1]>=0 DO M50
X11.821 Y4.789 F300
X13.106 Y4.309
X14.429 Y3.968
X15.777 Y3.765
X17.140 Y3.692
X18.503 Y3.765
X19.851 Y3.968
X21.174 Y4.309
X22.455 Y4.788
X23.682 Y5.387
X24.833 Y6.105
X25.920 Y6.944
X26.905 Y7.882
X27.789 Y8.915
X28.574 Y10.040
X29.236 Y11.227
X29.770 Y12.480
X30.185 Y13.787
X30.452 Y15.122
X30.590 Y16.479
X30.590 Y17.842
X30.451 Y19.209
X30.185 Y20.542
X29.771 Y21.839
X29.235 Y23.095
X28.574 Y24.289
X27.789 Y25.406
X26.903 Y26.449
X25.922 Y27.384
X24.833 Y28.215
X23.679 Y28.944
X22.458 Y29.541
X21.174 Y30.012
X19.847 Y30.362
X18.507 Y30.564
X17.140 Y30.629
X15.773 Y30.564
X14.433 Y30.362
X13.106 Y30.012
X11.823 Y29.541
X10.611 Y28.944
X9.448 Y28.215
X8.367 Y27.384
X7.376 Y26.447
X6.491 Y25.406
X5.706 Y24.289
X5.045 Y23.095
X4.511 Y21.842
X4.105 Y20.542
X3.828 Y19.205
X3.690 Y17.842
X3.690 Y16.479
X3.828 Y15.125
X4.105 Y13.787
X4.511 Y12.477
X5.044 Y11.227
X5.706 Y10.040
X6.491 Y8.915
X7.374 Y7.884
X8.370 Y6.944
X9.448 Y6.105
X10.529 Y5.436
ID=1 WHEN $AC_TIMER[1]>=0 DO M51

; Inicio do trecho do raster
X13.2527 Y6.34086 F1500
ID=1 WHEN $AC_TIMER[1]>=0 DO M50
X6.307 Y13.287 F300
ID=1 WHEN $AC_TIMER[1]>=0 DO M51
X5.645 Y16.7133 F1500
ID=1 WHEN $AC_TIMER[1]>=0 DO M50
X16.684 Y5.674 F300
ID=1 WHEN $AC_TIMER[1]>=0 DO M51
X19.2657 Y5.85735 F1500
ID=1 WHEN $AC_TIMER[1]>=0 DO M50
X15.968 Y9.155 F300
ID=1 WHEN $AC_TIMER[1]>=0 DO M51
X9.13002 Y15.9931 F1500
ID=1 WHEN $AC_TIMER[1]>=0 DO M50
X5.841 Y19.283 F300
ID=1 WHEN $AC_TIMER[1]>=0 DO M51
X6.45946 Y21.4284 F1500
ID=1 WHEN $AC_TIMER[1]>=0 DO M50
X9.193 Y18.695 F300
ID=1 WHEN $AC_TIMER[1]>=0 DO M51
X18.6765 Y9.2114 F1500
ID=1 WHEN $AC_TIMER[1]>=0 DO M50
X21.406 Y6.482 F300
ID=1 WHEN $AC_TIMER[1]>=0 DO M51
X23.238 Y7.41467 F1500
ID=1 WHEN $AC_TIMER[1]>=0 DO M50
X20.736 Y9.917 F300
ID=1 WHEN $AC_TIMER[1]>=0 DO M51
X9.89846 Y20.7542 F1500
ID=1 WHEN $AC_TIMER[1]>=0 DO M50
X7.381 Y23.272 F300
ID=1 WHEN $AC_TIMER[1]>=0 DO M51
X8.57629 Y24.8412 F1500
ID=1 WHEN $AC_TIMER[1]>=0 DO M50
X10.988 Y22.429 F300
ID=1 WHEN $AC_TIMER[1]>=0 DO M51
X22.4079 Y11.0096 F1500
ID=1 WHEN $AC_TIMER[1]>=0 DO M50
X24.821 Y8.597 F300
ID=1 WHEN $AC_TIMER[1]>=0 DO M51
X26.1621 Y10.0202 F1500
ID=1 WHEN $AC_TIMER[1]>=0 DO M50
X23.717 Y12.465 F300
ID=1 WHEN $AC_TIMER[1]>=0 DO M51
X12.4442 Y23.7381 F1500
ID=1 WHEN $AC_TIMER[1]>=0 DO M50
X10.005 Y26.177 F300
ID=1 WHEN $AC_TIMER[1]>=0 DO M51
X11.6635 Y27.2835 F1500
ID=1 WHEN $AC_TIMER[1]>=0 DO M50
X14.229 Y24.718 F300
ID=1 WHEN $AC_TIMER[1]>=0 DO M51
X24.6974 Y14.2496 F1500
ID=1 WHEN $AC_TIMER[1]>=0 DO M50
X27.256 Y11.691 F300
ID=1 WHEN $AC_TIMER[1]>=0 DO M51
X28.0835 Y13.6283 F1500
ID=1 WHEN $AC_TIMER[1]>=0 DO M50
X25.200 Y16.512 F300
ID=1 WHEN $AC_TIMER[1]>=0 DO M51
X16.4918 Y25.22 F1500
ID=1 WHEN $AC_TIMER[1]>=0 DO M50
X13.601 Y28.111 F300
ID=1 WHEN $AC_TIMER[1]>=0 DO M51
X15.8744 Y28.6022 F1500
ID=1 WHEN $AC_TIMER[1]>=0 DO M50
X19.612 Y24.865 F300
ID=1 WHEN $AC_TIMER[1]>=0 DO M51
X24.8521 Y19.6245 F1500
ID=1 WHEN $AC_TIMER[1]>=0 DO M50
X28.567 Y15.910 F300
ID=1 WHEN $AC_TIMER[1]>=0 DO M51
X28.5376 Y18.7038 F1500
ID=1 WHEN $AC_TIMER[1]>=0 DO M50
X18.681 Y28.561 F300
ID=1 WHEN $AC_TIMER[1]>=0 DO M51
X22.8523 Y27.1539 F1500
ID=1 WHEN $AC_TIMER[1]>=0 DO M50
X27.111 Y22.895 F300
ID=1 WHEN $AC_TIMER[1]>=0 DO M51
; Final do trecho do raster

; Layer 5
G1 Z6.500 F1500
X10.3093 Y29.4734 F1500
ID=1 WHEN $AC_TIMER[1]>=0 DO M50
X9.098 Y28.715 F300
X7.970 Y27.846
X6.936 Y26.859
X6.011 Y25.775
X5.197 Y24.610
X4.504 Y23.362
X3.940 Y22.050
X3.515 Y20.692
X3.228 Y19.295
X3.080 Y17.870
X3.080 Y16.450
X3.228 Y15.036
X3.515 Y13.637
X3.940 Y12.270
X4.503 Y10.969
X5.198 Y9.718
X6.012 Y8.543
X6.935 Y7.463
X7.970 Y6.483
X9.098 Y5.605
X10.306 Y4.858
X11.596 Y4.227
X12.924 Y3.729
X14.311 Y3.378
X15.716 Y3.156
X17.140 Y3.091
X18.564 Y3.156
X19.978 Y3.378
X21.356 Y3.729
X22.694 Y4.227
X23.972 Y4.857
X25.182 Y5.605
X26.310 Y6.483
X27.345 Y7.463
X28.268 Y8.543
X29.082 Y9.718
X29.777 Y10.969
X30.340 Y12.270
X30.765 Y13.637
X31.052 Y15.036
X31.200 Y16.450
X31.200 Y17.870
X31.052 Y19.295
X30.765 Y20.692
X30.340 Y22.050
X29.776 Y23.362
X29.083 Y24.610
X28.269 Y25.775
X27.344 Y26.859
X26.310 Y27.846
X25.182 Y28.715
X23.969 Y29.474
X22.697 Y30.101
X21.356 Y30.591
X19.978 Y30.952
X18.564 Y31.164
X17.140 Y31.238
X15.716 Y31.164
X14.311 Y30.952
X12.924 Y30.591
X11.592 Y30.101
X10.399 Y29.517
ID=1 WHEN $AC_TIMER[1]>=0 DO M51
X10.9948 Y17.0547 F1500
ID=1 WHEN $AC_TIMER[1]>=0 DO M50
X10.995 Y17.265 F300
X11.075 Y18.135
X11.108 Y18.321
X11.328 Y19.161
X11.399 Y19.358
X11.769 Y20.148
X11.865 Y20.316
X12.365 Y21.036
X12.503 Y21.200
X13.123 Y21.810
X13.251 Y21.918
X13.702 Y22.247
X14.002 Y22.447
X14.152 Y22.531
X14.942 Y22.901
X15.126 Y22.969
X15.966 Y23.199
X16.178 Y23.236
X17.048 Y23.306
X17.232 Y23.306
X18.102 Y23.236
X18.314 Y23.199
X19.154 Y22.969
X19.338 Y22.901
X20.128 Y22.531
X20.302 Y22.430
X21.012 Y21.930
X21.157 Y21.810
X21.777 Y21.200
X21.915 Y21.036
X22.415 Y20.316
X22.511 Y20.148
X22.881 Y19.358
X22.949 Y19.174
X23.179 Y18.334
X23.216 Y18.122
X23.286 Y17.252
X23.286 Y17.068
X23.216 Y16.198
X23.179 Y15.986
X22.949 Y15.146
X22.881 Y14.962
X22.511 Y14.172
X22.410 Y13.998
X21.910 Y13.288
X21.783 Y13.137
X21.163 Y12.517
X21.012 Y12.390
X20.302 Y11.890
X20.128 Y11.789
X19.338 Y11.419
X19.141 Y11.348
X18.301 Y11.128
X18.115 Y11.095
X17.245 Y11.015
X17.035 Y11.015
X16.165 Y11.095
X15.979 Y11.128
X15.139 Y11.348
X14.942 Y11.419
X14.152 Y11.789
X13.978 Y11.890
X13.268 Y12.390
X13.117 Y12.517
X12.497 Y13.137
X12.370 Y13.288
X11.870 Y13.998
X11.760 Y14.191
X11.560 Y14.638
X11.411 Y14.936
X11.328 Y15.159
X11.108 Y15.999
X11.075 Y16.185
X11.004 Y16.955
ID=1 WHEN $AC_TIMER[1]>=0 DO M51

; Inicio do trecho do raster
X27.5229 Y10.9369 F1500
ID=1 WHEN $AC_TIMER[1]>=0 DO M50
X23.368 Y6.782 F300
ID=1 WHEN $AC_TIMER[1]>=0 DO M51
X19.029 Y5.20771 F1500
ID=1 WHEN $AC_TIMER[1]>=0 DO M50
X29.108 Y15.287 F300
ID=1 WHEN $AC_TIMER[1]>=0 DO M51
X29.2055 Y18.149 F1500
ID=1 WHEN $AC_TIMER[1]>=0 DO M50
X24.132 Y13.076 F300
ID=1 WHEN $AC_TIMER[1]>=0 DO M51
X21.2205 Y10.164 F1500
ID=1 WHEN $AC_TIMER[1]>=0 DO M50
X16.150 Y5.093 F300
ID=1 WHEN $AC_TIMER[1]>=0 DO M51
X13.8125 Y5.52084 F1500
ID=1 WHEN $AC_TIMER[1]>=0 DO M50
X17.361 Y9.070 F300
ID=1 WHEN $AC_TIMER[1]>=0 DO M51
X25.2356 Y16.9439 F1500
ID=1 WHEN $AC_TIMER[1]>=0 DO M50
X28.780 Y20.489 F300
ID=1 WHEN $AC_TIMER[1]>=0 DO M51
X28.0215 Y22.4946 F1500
ID=1 WHEN $AC_TIMER[1]>=0 DO M50
X24.915 Y19.388 F300
ID=1 WHEN $AC_TIMER[1]>=0 DO M51
X14.9164 Y9.38948 F1500
ID=1 WHEN $AC_TIMER[1]>=0 DO M50
X11.821 Y6.294 F300
ID=1 WHEN $AC_TIMER[1]>=0 DO M51
X10.0802 Y7.31811 F1500
ID=1 WHEN $AC_TIMER[1]>=0 DO M50
X12.977 Y10.215 F300
ID=1 WHEN $AC_TIMER[1]>=0 DO M51
X24.0864 Y21.3242 F1500
ID=1 WHEN $AC_TIMER[1]>=0 DO M50
X26.976 Y24.214 F300
ID=1 WHEN $AC_TIMER[1]>=0 DO M51
X25.7114 Y25.7141 F1500
ID=1 WHEN $AC_TIMER[1]>=0 DO M50
X22.864 Y22.867 F300
ID=1 WHEN $AC_TIMER[1]>=0 DO M51
X11.4352 Y11.4378 F1500
ID=1 WHEN $AC_TIMER[1]>=0 DO M50
X8.588 Y8.591 F300
ID=1 WHEN $AC_TIMER[1]>=0 DO M51
X7.32016 Y10.0876 F1500
ID=1 WHEN $AC_TIMER[1]>=0 DO M50
X10.209 Y12.976 F300
ID=1 WHEN $AC_TIMER[1]>=0 DO M51
X21.3242 Y24.0916 F1500
ID=1 WHEN $AC_TIMER[1]>=0 DO M50
X24.221 Y26.988 F300
ID=1 WHEN $AC_TIMER[1]>=0 DO M51
X22.491 Y28.0232 F1500
ID=1 WHEN $AC_TIMER[1]>=0 DO M50
X19.394 Y24.926 F300
ID=1 WHEN $AC_TIMER[1]>=0 DO M51
X9.37428 Y14.9065 F1500
ID=1 WHEN $AC_TIMER[1]>=0 DO M50
X6.274 Y11.806 F300
ID=1 WHEN $AC_TIMER[1]>=0 DO M51
X5.5096 Y13.8066 F1500
ID=1 WHEN $AC_TIMER[1]>=0 DO M50
X9.046 Y17.343 F300
ID=1 WHEN $AC_TIMER[1]>=0 DO M51
X16.9576 Y25.2546 F1500
ID=1 WHEN $AC_TIMER[1]>=0 DO M50
X20.498 Y28.795 F300
ID=1 WHEN $AC_TIMER[1]>=0 DO M51
X18.1657 Y29.2275 F1500
ID=1 WHEN $AC_TIMER[1]>=0 DO M50
X13.142 Y24.204 F300
ID=1 WHEN $AC_TIMER[1]>=0 DO M51
X10.0938 Y21.1556 F1500
ID=1 WHEN $AC_TIMER[1]>=0 DO M50
X5.078 Y16.140 F300
ID=1 WHEN $AC_TIMER[1]>=0 DO M51
X5.16166 Y18.9883 F1500
ID=1 WHEN $AC_TIMER[1]>=0 DO M50
X15.297 Y29.124 F300
ID=1 WHEN $AC_TIMER[1]>=0 DO M51
X11.0212 Y27.6126 F1500
ID=1 WHEN $AC_TIMER[1]>=0 DO M50
X6.701 Y23.293 F300
ID=1 WHEN $AC_TIMER[1]>=0 DO M51
; Final do trecho do raster

; Layer 6
G1 Z7.800 F1500
X10.0214 Y30.0047 F1500
ID=1 WHEN $AC_TIMER[1]>=0 DO M50
X8.758 Y29.215 F300
X7.579 Y28.305
X6.494 Y27.276
X5.530 Y26.155
X4.678 Y24.932
X3.964 Y23.634
X3.369 Y22.259
X2.925 Y20.842
X2.628 Y19.387
X2.480 Y17.912
X2.480 Y16.418
X2.628 Y14.942
X2.925 Y13.477
X3.369 Y12.063
X3.963 Y10.698
X4.678 Y9.398
X5.531 Y8.173
X6.484 Y7.056
X6.724 Y6.841
X7.581 Y6.023
X8.758 Y5.115
X10.020 Y4.326
X11.354 Y3.669
X12.746 Y3.158
X14.184 Y2.778
X15.655 Y2.556
X17.140 Y2.481
X18.625 Y2.556
X20.096 Y2.778
X21.535 Y3.158
X22.938 Y3.669
X24.270 Y4.326
X25.531 Y5.114
X26.701 Y6.025
X27.786 Y7.044
X28.749 Y8.173
X29.604 Y9.400
X30.326 Y10.698
X30.910 Y12.060
X31.355 Y13.477
X31.652 Y14.942
X31.800 Y16.418
X31.800 Y17.912
X31.652 Y19.387
X31.355 Y20.842
X30.910 Y22.262
X30.326 Y23.634
X29.604 Y24.930
X28.750 Y26.155
X27.786 Y27.276
X26.699 Y28.307
X25.531 Y29.216
X24.272 Y30.002
X22.938 Y30.651
X21.535 Y31.171
X20.096 Y31.543
X18.634 Y31.773
X17.136 Y31.848
X15.658 Y31.774
X14.184 Y31.543
X12.746 Y31.172
X11.340 Y30.647
X11.063 Y30.521
X10.111 Y30.049
ID=1 WHEN $AC_TIMER[1]>=0 DO M51
X10.9948 Y17.0547 F1500
ID=1 WHEN $AC_TIMER[1]>=0 DO M50
X10.995 Y17.265 F300
X11.075 Y18.135
X11.108 Y18.321
X11.328 Y19.161
X11.399 Y19.358
X11.769 Y20.148
X11.865 Y20.316
X12.365 Y21.036
X12.503 Y21.200
X13.123 Y21.810
X13.268 Y21.930
X13.978 Y22.430
X14.152 Y22.531
X14.942 Y22.901
X15.126 Y22.969
X15.966 Y23.199
X16.178 Y23.236
X17.048 Y23.306
X17.232 Y23.306
X18.102 Y23.236
X18.314 Y23.199
X19.154 Y22.969
X19.338 Y22.901
X20.128 Y22.531
X20.302 Y22.430
X21.012 Y21.930
X21.157 Y21.810
X21.777 Y21.200
X21.915 Y21.036
X22.415 Y20.316
X22.511 Y20.148
X22.881 Y19.358
X22.949 Y19.174
X23.179 Y18.334
X23.216 Y18.122
X23.286 Y17.252
X23.286 Y17.068
X23.216 Y16.198
X23.179 Y15.986
X22.949 Y15.146
X22.881 Y14.962
X22.511 Y14.172
X22.410 Y13.998
X21.910 Y13.288
X21.783 Y13.137
X21.163 Y12.517
X21.012 Y12.390
X20.302 Y11.890
X20.128 Y11.789
X19.338 Y11.419
X19.141 Y11.348
X18.301 Y11.128
X18.115 Y11.095
X17.245 Y11.015
X17.035 Y11.015
X16.165 Y11.095
X15.979 Y11.128
X15.139 Y11.348
X14.942 Y11.419
X14.152 Y11.789
X13.978 Y11.890
X13.268 Y12.390
X13.117 Y12.517
X12.497 Y13.137
X12.370 Y13.288
X11.870 Y13.998
X11.769 Y14.172
X11.399 Y14.962
X11.328 Y15.159
X11.108 Y15.999
X11.075 Y16.185
X11.004 Y16.955
ID=1 WHEN $AC_TIMER[1]>=0 DO M51

; Inicio do trecho do raster
X24.8835 Y27.2425 F1500
ID=1 WHEN $AC_TIMER[1]>=0 DO M50
X27.276 Y24.850 F300
ID=1 WHEN $AC_TIMER[1]>=0 DO M51
X29.5751 Y19.7862 F1500
ID=1 WHEN $AC_TIMER[1]>=0 DO M50
X19.748 Y29.614 F300
ID=1 WHEN $AC_TIMER[1]>=0 DO M51
X16.7261 Y29.8704 F1500
ID=1 WHEN $AC_TIMER[1]>=0 DO M50
X29.845 Y16.751 F300
ID=1 WHEN $AC_TIMER[1]>=0 DO M51
X29.5276 Y14.3041 F1500
ID=1 WHEN $AC_TIMER[1]>=0 DO M50
X25.085 Y18.747 F300
ID=1 WHEN $AC_TIMER[1]>=0 DO M51
X18.7265 Y25.1052 F1500
ID=1 WHEN $AC_TIMER[1]>=0 DO M50
X14.283 Y29.549 F300
ID=1 WHEN $AC_TIMER[1]>=0 DO M51
X12.1897 Y28.8772 F1500
ID=1 WHEN $AC_TIMER[1]>=0 DO M50
X15.900 Y25.166 F300
ID=1 WHEN $AC_TIMER[1]>=0 DO M51
X25.1472 Y15.9198 F1500
ID=1 WHEN $AC_TIMER[1]>=0 DO M50
X28.850 Y12.217 F300
ID=1 WHEN $AC_TIMER[1]>=0 DO M51
X27.9111 Y10.391 F1500
ID=1 WHEN $AC_TIMER[1]>=0 DO M50
X24.496 Y13.806 F300
ID=1 WHEN $AC_TIMER[1]>=0 DO M51
X13.7869 Y24.5153 F1500
ID=1 WHEN $AC_TIMER[1]>=0 DO M50
X10.379 Y27.923 F300
ID=1 WHEN $AC_TIMER[1]>=0 DO M51
X8.78379 Y26.7536 F1500
ID=1 WHEN $AC_TIMER[1]>=0 DO M50
X12.068 Y23.469 F300
ID=1 WHEN $AC_TIMER[1]>=0 DO M51
X23.4487 Y12.0887 F1500
ID=1 WHEN $AC_TIMER[1]>=0 DO M50
X26.725 Y8.813 F300
ID=1 WHEN $AC_TIMER[1]>=0 DO M51
X25.3344 Y7.43815 F1500
ID=1 WHEN $AC_TIMER[1]>=0 DO M50
X22.045 Y10.727 F300
ID=1 WHEN $AC_TIMER[1]>=0 DO M51
X10.7075 Y22.0651 F1500
ID=1 WHEN $AC_TIMER[1]>=0 DO M50
X7.419 Y25.353 F300
ID=1 WHEN $AC_TIMER[1]>=0 DO M51
X6.25866 Y23.7491 F1500
ID=1 WHEN $AC_TIMER[1]>=0 DO M50
X9.690 Y20.317 F300
ID=1 WHEN $AC_TIMER[1]>=0 DO M51
X20.294 Y9.71381 F1500
ID=1 WHEN $AC_TIMER[1]>=0 DO M50
X23.720 Y6.288 F300
ID=1 WHEN $AC_TIMER[1]>=0 DO M51
X21.8789 Y5.36414 F1500
ID=1 WHEN $AC_TIMER[1]>=0 DO M50
X18.110 Y9.133 F300
ID=1 WHEN $AC_TIMER[1]>=0 DO M51
X9.11529 Y18.1277 F1500
ID=1 WHEN $AC_TIMER[1]>=0 DO M50
X5.344 Y21.899 F300
ID=1 WHEN $AC_TIMER[1]>=0 DO M51
X4.70275 Y19.7755 F1500
ID=1 WHEN $AC_TIMER[1]>=0 DO M50
X9.307 Y15.172 F300
ID=1 WHEN $AC_TIMER[1]>=0 DO M51
X15.1525 Y9.32568 F1500
ID=1 WHEN $AC_TIMER[1]>=0 DO M50
X19.766 Y4.713 F300
ID=1 WHEN $AC_TIMER[1]>=0 DO M51
X17.2681 Y4.44529 F1500
ID=1 WHEN $AC_TIMER[1]>=0 DO M50
X4.435 Y17.278 F300
ID=1 WHEN $AC_TIMER[1]>=0 DO M51
X4.7798 Y14.1688 F1500
ID=1 WHEN $AC_TIMER[1]>=0 DO M50
X14.136 Y4.813 F300
ID=1 WHEN $AC_TIMER[1]>=0 DO M51
; Final do trecho do raster

; Layer 7
G1 Z9.100 F1500
X23.2863 Y17.2522 F1500
ID=1 WHEN $AC_TIMER[1]>=0 DO M50
X23.286 Y17.068 F300
X23.216 Y16.198
X23.179 Y15.986
X22.949 Y15.146
X22.881 Y14.962
X22.511 Y14.172
X22.410 Y13.998
X21.910 Y13.288
X21.783 Y13.137
X21.163 Y12.517
X21.012 Y12.390
X20.302 Y11.890
X20.128 Y11.789
X19.338 Y11.419
X19.141 Y11.348
X18.301 Y11.128
X18.115 Y11.095
X17.245 Y11.015
X17.035 Y11.015
X16.165 Y11.095
X15.979 Y11.128
X15.139 Y11.348
X14.942 Y11.419
X14.152 Y11.789
X13.978 Y11.890
X13.268 Y12.390
X13.117 Y12.517
X12.497 Y13.137
X12.370 Y13.288
X11.870 Y13.998
X11.769 Y14.172
X11.399 Y14.962
X11.328 Y15.159
X11.108 Y15.999
X11.075 Y16.185
X10.995 Y17.055
X10.995 Y17.265
X11.075 Y18.135
X11.108 Y18.321
X11.328 Y19.161
X11.399 Y19.358
X11.769 Y20.148
X11.865 Y20.316
X12.365 Y21.036
X12.503 Y21.200
X13.123 Y21.810
X13.268 Y21.930
X13.978 Y22.430
X14.152 Y22.531
X14.942 Y22.901
X15.126 Y22.969
X15.966 Y23.199
X16.178 Y23.236
X17.048 Y23.306
X17.232 Y23.306
X18.102 Y23.236
X18.314 Y23.199
X19.154 Y22.969
X19.338 Y22.901
X20.128 Y22.531
X20.302 Y22.430
X21.012 Y21.930
X21.157 Y21.810
X21.777 Y21.200
X21.915 Y21.036
X22.415 Y20.316
X22.511 Y20.148
X22.881 Y19.358
X22.949 Y19.174
X23.179 Y18.334
X23.216 Y18.122
X23.278 Y17.352
ID=1 WHEN $AC_TIMER[1]>=0 DO M51
X24.5624 Y3.79759 F1500
ID=1 WHEN $AC_TIMER[1]>=0 DO M50
X25.872 Y4.615 F300
X27.100 Y5.564
X28.225 Y6.633
X29.229 Y7.804
X30.113 Y9.080
X30.867 Y10.429
X31.481 Y11.851
X31.945 Y13.327
X32.252 Y14.843
X32.410 Y16.389
X32.410 Y17.941
X32.252 Y19.477
X31.945 Y20.993
X31.481 Y22.469
X30.867 Y23.892
X30.112 Y25.252
X29.229 Y26.526
X28.225 Y27.697
X27.100 Y28.766
X25.872 Y29.715
X24.562 Y30.532
X23.167 Y31.212
X21.714 Y31.752
X20.218 Y32.142
X18.686 Y32.374
X17.140 Y32.449
X15.594 Y32.374
X14.062 Y32.142
X12.566 Y31.752
X11.113 Y31.212
X9.737 Y30.542
X8.405 Y29.713
X7.182 Y28.767
X6.065 Y27.697
X5.050 Y26.524
X4.168 Y25.252
X3.413 Y23.892
X2.801 Y22.472
X2.345 Y20.993
X2.028 Y19.473
X1.870 Y17.941
X1.870 Y16.389
X2.028 Y14.846
X2.345 Y13.327
X2.801 Y11.848
X3.413 Y10.430
X4.167 Y9.080
X5.050 Y7.806
X6.065 Y6.633
X7.182 Y5.563
X8.408 Y4.615
X9.718 Y3.798
X11.113 Y3.118
X12.566 Y2.578
X14.062 Y2.188
X15.598 Y1.955
X17.140 Y1.872
X18.682 Y1.955
X20.218 Y2.188
X21.873 Y2.627
X23.163 Y3.117
X24.472 Y3.754
ID=1 WHEN $AC_TIMER[1]>=0 DO M51

; Inicio do trecho do raster
X13.7486 Y30.0398 F1500
ID=1 WHEN $AC_TIMER[1]>=0 DO M50
X4.252 Y20.543 F300
ID=1 WHEN $AC_TIMER[1]>=0 DO M51
X3.825 Y17.3515 F1500
ID=1 WHEN $AC_TIMER[1]>=0 DO M50
X16.956 Y30.483 F300
ID=1 WHEN $AC_TIMER[1]>=0 DO M51
X19.5103 Y30.2719 F1500
ID=1 WHEN $AC_TIMER[1]>=0 DO M50
X13.725 Y24.487 F300
ID=1 WHEN $AC_TIMER[1]>=0 DO M51
X9.81283 Y20.5745 F1500
ID=1 WHEN $AC_TIMER[1]>=0 DO M50
X4.035 Y14.797 F300
ID=1 WHEN $AC_TIMER[1]>=0 DO M51
X4.61196 Y12.6089 F1500
ID=1 WHEN $AC_TIMER[1]>=0 DO M50
X9.041 Y17.038 F300
ID=1 WHEN $AC_TIMER[1]>=0 DO M51
X17.2605 Y25.2574 F1500
ID=1 WHEN $AC_TIMER[1]>=0 DO M50
X21.681 Y29.678 F300
ID=1 WHEN $AC_TIMER[1]>=0 DO M51
X23.5963 Y28.8284 F1500
ID=1 WHEN $AC_TIMER[1]>=0 DO M50
X19.628 Y24.860 F300
ID=1 WHEN $AC_TIMER[1]>=0 DO M51
X9.43527 Y14.6674 F1500
ID=1 WHEN $AC_TIMER[1]>=0 DO M50
X5.489 Y10.721 F300
ID=1 WHEN $AC_TIMER[1]>=0 DO M51
X6.57299 Y9.04033 F1500
ID=1 WHEN $AC_TIMER[1]>=0 DO M50
X10.331 Y12.798 F300
ID=1 WHEN $AC_TIMER[1]>=0 DO M51
X21.5057 Y23.973 F1500
ID=1 WHEN $AC_TIMER[1]>=0 DO M50
X25.254 Y27.722 F300
ID=1 WHEN $AC_TIMER[1]>=0 DO M51
X26.724 Y26.4265 F1500
ID=1 WHEN $AC_TIMER[1]>=0 DO M50
X23.014 Y22.717 F300
ID=1 WHEN $AC_TIMER[1]>=0 DO M51
X11.5842 Y11.2868 F1500
ID=1 WHEN $AC_TIMER[1]>=0 DO M50
X7.889 Y7.592 F300
ID=1 WHEN $AC_TIMER[1]>=0 DO M51
X9.38942 Y6.32718 F1500
ID=1 WHEN $AC_TIMER[1]>=0 DO M50
X13.164 Y10.102 F300
ID=1 WHEN $AC_TIMER[1]>=0 DO M51
X24.1957 Y21.1335 F1500
ID=1 WHEN $AC_TIMER[1]>=0 DO M50
X27.971 Y24.909 F300
ID=1 WHEN $AC_TIMER[1]>=0 DO M51
X29.0192 Y23.1922 F1500
ID=1 WHEN $AC_TIMER[1]>=0 DO M50
X24.978 Y19.151 F300
ID=1 WHEN $AC_TIMER[1]>=0 DO M51
X15.1527 Y9.32564 F1500
ID=1 WHEN $AC_TIMER[1]>=0 DO M50
X11.118 Y5.291 F300
ID=1 WHEN $AC_TIMER[1]>=0 DO M51
X13.0689 Y4.47705 F1500
ID=1 WHEN $AC_TIMER[1]>=0 DO M50
X17.689 Y9.097 F300
ID=1 WHEN $AC_TIMER[1]>=0 DO M51
X25.209 Y16.6171 F1500
ID=1 WHEN $AC_TIMER[1]>=0 DO M50
X29.821 Y21.229 F300
ID=1 WHEN $AC_TIMER[1]>=0 DO M51
X30.3375 Y18.9809 F1500
ID=1 WHEN $AC_TIMER[1]>=0 DO M50
X23.457 Y12.101 F300
ID=1 WHEN $AC_TIMER[1]>=0 DO M51
X22.1907 Y10.8341 F1500
ID=1 WHEN $AC_TIMER[1]>=0 DO M50
X15.330 Y3.973 F300
ID=1 WHEN $AC_TIMER[1]>=0 DO M51
X17.9974 Y3.87605 F1500
ID=1 WHEN $AC_TIMER[1]>=0 DO M50
X30.437 Y16.316 F300
ID=1 WHEN $AC_TIMER[1]>=0 DO M51
X29.7496 Y12.8634 F1500
ID=1 WHEN $AC_TIMER[1]>=0 DO M50
X21.440 Y4.554 F300
ID=1 WHEN $AC_TIMER[1]>=0 DO M51
; Final do trecho do raster

; Layer 8
G1 Z10.400 F1500
X10.9948 Y17.0547 F1500
ID=1 WHEN $AC_TIMER[1]>=0 DO M50
X10.995 Y17.265 F300
X11.075 Y18.135
X11.108 Y18.321
X11.328 Y19.161
X11.399 Y19.358
X11.769 Y20.148
X11.865 Y20.316
X12.365 Y21.036
X12.503 Y21.200
X13.123 Y21.810
X13.268 Y21.930
X13.978 Y22.430
X14.152 Y22.531
X14.942 Y22.901
X15.126 Y22.969
X15.966 Y23.199
X16.178 Y23.236
X17.048 Y23.306
X17.232 Y23.306
X18.102 Y23.236
X18.314 Y23.199
X19.154 Y22.969
X19.338 Y22.901
X20.128 Y22.531
X20.290 Y22.438
X20.990 Y21.958
X21.153 Y21.823
X21.783 Y21.193
X21.915 Y21.036
X22.415 Y20.316
X22.511 Y20.148
X22.881 Y19.358
X22.949 Y19.174
X23.179 Y18.334
X23.216 Y18.122
X23.286 Y17.252
X23.286 Y17.068
X23.216 Y16.198
X23.179 Y15.986
X22.949 Y15.146
X22.881 Y14.962
X22.511 Y14.172
X22.410 Y13.998
X21.910 Y13.288
X21.783 Y13.137
X21.163 Y12.517
X21.012 Y12.390
X20.302 Y11.890
X20.128 Y11.789
X19.338 Y11.419
X19.141 Y11.348
X18.301 Y11.128
X18.115 Y11.095
X17.245 Y11.015
X17.035 Y11.015
X16.165 Y11.095
X15.979 Y11.128
X15.139 Y11.348
X14.942 Y11.419
X14.152 Y11.789
X13.978 Y11.890
X13.268 Y12.390
X13.117 Y12.517
X12.497 Y13.137
X12.370 Y13.288
X11.870 Y13.998
X11.769 Y14.172
X11.399 Y14.962
X11.328 Y15.159
X11.108 Y15.999
X11.075 Y16.185
X11.004 Y16.955
ID=1 WHEN $AC_TIMER[1]>=0 DO M51
X10.9012 Y2.54923 F1500
ID=1 WHEN $AC_TIMER[1]>=0 DO M50
X12.414 Y1.989 F300
X13.970 Y1.588
X15.563 Y1.346
X17.170 Y1.271
X18.754 Y1.346
X20.364 Y1.597
X21.923 Y2.008
X23.433 Y2.567
X24.879 Y3.285
X26.242 Y4.135
X27.520 Y5.124
X28.684 Y6.232
X29.727 Y7.452
X30.642 Y8.778
X31.426 Y10.187
X32.059 Y11.667
X32.534 Y13.204
X32.852 Y14.784
X33.020 Y16.390
X33.020 Y17.968
X32.843 Y19.601
X32.515 Y21.182
X32.050 Y22.680
X31.397 Y24.191
X30.614 Y25.598
X29.690 Y26.915
X28.665 Y28.117
X27.473 Y29.243
X26.195 Y30.223
X24.833 Y31.072
X23.377 Y31.781
X21.866 Y32.341
X20.313 Y32.741
X18.717 Y32.974
X17.110 Y33.058
X15.510 Y32.975
X13.914 Y32.723
X12.354 Y32.321
X10.876 Y31.773
X9.403 Y31.045
X8.038 Y30.185
X6.762 Y29.208
X5.607 Y28.090
X4.549 Y26.864
X3.648 Y25.571
X2.856 Y24.137
X2.231 Y22.653
X1.745 Y21.113
X1.429 Y19.540
X1.270 Y17.933
X1.270 Y16.330
X1.438 Y14.727
X1.764 Y13.150
X2.249 Y11.611
X2.883 Y10.138
X3.667 Y8.730
X4.588 Y7.408
X5.642 Y6.195
X6.811 Y5.083
X8.057 Y4.116
X9.455 Y3.249
X10.811 Y2.593
ID=1 WHEN $AC_TIMER[1]>=0 DO M51

; Inicio do trecho do raster
X3.87647 Y12.9523 F1500
ID=1 WHEN $AC_TIMER[1]>=0 DO M50
X12.956 Y3.873 F300
ID=1 WHEN $AC_TIMER[1]>=0 DO M51
X16.3259 Y3.26762 F1500
ID=1 WHEN $AC_TIMER[1]>=0 DO M50
X3.232 Y16.361 F300
ID=1 WHEN $AC_TIMER[1]>=0 DO M51
X3.34161 Y19.0167 F1500
ID=1 WHEN $AC_TIMER[1]>=0 DO M50
X18.996 Y3.362 F300
ID=1 WHEN $AC_TIMER[1]>=0 DO M51
X21.2665 Y3.85657 F1500
ID=1 WHEN $AC_TIMER[1]>=0 DO M50
X15.968 Y9.155 F300
ID=1 WHEN $AC_TIMER[1]>=0 DO M51
X9.13002 Y15.9931 F1500
ID=1 WHEN $AC_TIMER[1]>=0 DO M50
X3.847 Y21.276 F300
ID=1 WHEN $AC_TIMER[1]>=0 DO M51
X4.61382 Y23.2741 F1500
ID=1 WHEN $AC_TIMER[1]>=0 DO M50
X9.193 Y18.695 F300
ID=1 WHEN $AC_TIMER[1]>=0 DO M51
X18.6765 Y9.2114 F1500
ID=1 WHEN $AC_TIMER[1]>=0 DO M50
X23.236 Y4.652 F300
ID=1 WHEN $AC_TIMER[1]>=0 DO M51
X24.9927 Y5.65996 F1500
ID=1 WHEN $AC_TIMER[1]>=0 DO M50
X20.736 Y9.917 F300
ID=1 WHEN $AC_TIMER[1]>=0 DO M51
X9.89846 Y20.7542 F1500
ID=1 WHEN $AC_TIMER[1]>=0 DO M50
X5.641 Y25.012 F300
ID=1 WHEN $AC_TIMER[1]>=0 DO M51
X6.86384 Y26.5536 F1500
ID=1 WHEN $AC_TIMER[1]>=0 DO M50
X10.988 Y22.429 F300
ID=1 WHEN $AC_TIMER[1]>=0 DO M51
X22.4079 Y11.0096 F1500
ID=1 WHEN $AC_TIMER[1]>=0 DO M50
X26.534 Y6.884 F300
ID=1 WHEN $AC_TIMER[1]>=0 DO M51
X27.8811 Y8.30117 F1500
ID=1 WHEN $AC_TIMER[1]>=0 DO M50
X23.717 Y12.465 F300
ID=1 WHEN $AC_TIMER[1]>=0 DO M51
X12.4442 Y23.7381 F1500
ID=1 WHEN $AC_TIMER[1]>=0 DO M50
X8.277 Y27.905 F300
ID=1 WHEN $AC_TIMER[1]>=0 DO M51
X9.89947 Y29.0476 F1500
ID=1 WHEN $AC_TIMER[1]>=0 DO M50
X14.229 Y24.718 F300
ID=1 WHEN $AC_TIMER[1]>=0 DO M51
X24.6974 Y14.2496 F1500
ID=1 WHEN $AC_TIMER[1]>=0 DO M50
X29.036 Y9.911 F300
ID=1 WHEN $AC_TIMER[1]>=0 DO M51
X29.9663 Y11.7455 F1500
ID=1 WHEN $AC_TIMER[1]>=0 DO M50
X25.200 Y16.512 F300
ID=1 WHEN $AC_TIMER[1]>=0 DO M51
X16.4918 Y25.22 F1500
ID=1 WHEN $AC_TIMER[1]>=0 DO M50
X11.714 Y29.998 F300
ID=1 WHEN $AC_TIMER[1]>=0 DO M51
X13.8016 Y30.675 F1500
ID=1 WHEN $AC_TIMER[1]>=0 DO M50
X19.612 Y24.865 F300
ID=1 WHEN $AC_TIMER[1]>=0 DO M51
X24.8521 Y19.6245 F1500
ID=1 WHEN $AC_TIMER[1]>=0 DO M50
X30.663 Y13.814 F300
ID=1 WHEN $AC_TIMER[1]>=0 DO M51
X31.0351 Y16.2063 F1500
ID=1 WHEN $AC_TIMER[1]>=0 DO M50
X16.189 Y31.053 F300
ID=1 WHEN $AC_TIMER[1]>=0 DO M51
X19.0575 Y30.9487 F1500
ID=1 WHEN $AC_TIMER[1]>=0 DO M50
X30.934 Y19.073 F300
ID=1 WHEN $AC_TIMER[1]>=0 DO M51
X29.7906 Y22.9804 F1500
ID=1 WHEN $AC_TIMER[1]>=0 DO M50
X22.962 Y29.809 F300
ID=1 WHEN $AC_TIMER[1]>=0 DO M51
; Final do trecho do raster

M0
; TURN OFF POWDER!!!
M0
; End of Programm--------------------
G4F5
M55   ; home mirror
M30   ; program end