; generated by Slic3r 1.2.9 on 2017-06-01 at 16:09:57

; external perimeters extrusion width = 1.00mm
; perimeters extrusion width = 1.00mm
; infill extrusion width = 1.00mm
; solid infill extrusion width = 1.00mm
; top infill extrusion width = 1.00mm

H=15000
$AC_TIMER[1]=0

;General Config.--------------------
G641			;
G603			;
M55			;home mirror
G4F4			;necessary delay for positioning of the mirror				
M0			;wait for user-input

;Process Start-up-------------------
M56			;set canal 1 as laser-source
G4F4			;necessary delay for positioning of the mirror
M0			;wait for user-input
;START POWDER!!!
G4F15

M0

G54

G90 ; use absolute coordinates
G1 Z0.500 F1999.980
G1 X3.557 Y13.130 F1999.980
ID=1 WHEN $AC_TIMER[1]>=0 DO M50
G1 X2.691 Y13.3383 F600.000
G1 X2.099 Y13.4445
G1 X1.502 Y13.5246
G1 X0.902 Y13.5778
G1 X0.301 Y13.6040
G1 X-0.301 Y13.6041
G1 X-0.902 Y13.5773
G1 X-1.502 Y13.5244
G1 X-2.099 Y13.4446
G1 X-2.691 Y13.3387
G1 X-3.279 Y13.2069
G1 X-3.860 Y13.0480
G1 X-4.433 Y12.8652
G1 X-4.998 Y12.6564
G1 X-5.553 Y12.4225
G1 X-6.097 Y12.1657
G1 X-6.629 Y11.8838
G1 X-7.148 Y11.5780
G1 X-7.653 Y11.2511
G1 X-8.143 Y10.9013
G1 X-8.618 Y10.5304
G1 X-9.075 Y10.1396
G1 X-9.515 Y9.7277
G1 X-9.936 Y9.2979
G1 X-10.337 Y8.8481
G1 X-10.718 Y8.3832
G1 X-11.079 Y7.9004
G1 X-11.417 Y7.4025
G1 X-11.733 Y6.8907
G1 X-12.027 Y6.3648
G1 X-12.297 Y5.8260
G1 X-12.542 Y5.2771
G1 X-12.763 Y4.7173
G1 X-12.959 Y4.1474
G1 X-13.130 Y3.5706
G1 X-13.275 Y2.9874
G1 X-13.396 Y2.3832
G1 X-13.487 Y1.8011
G1 X-13.554 Y1.2032
G1 X-13.594 Y0.6024
G1 X-13.607 Y-0.0005
G1 X-13.594 Y-0.6027
G1 X-13.554 Y-1.2038
G1 X-13.487 Y-1.8010
G1 X-13.394 Y-2.3961
G1 X-13.275 Y-2.9863
G1 X-13.130 Y-3.5704
G1 X-12.959 Y-4.1476
G1 X-12.763 Y-4.7178
G1 X-12.542 Y-5.2779
G1 X-12.297 Y-5.8261
G1 X-12.027 Y-6.3642
G1 X-11.733 Y-6.8904
G1 X-11.418 Y-7.4021
G1 X-11.071 Y-7.9110
G1 X-10.718 Y-8.3838
G1 X-10.337 Y-8.8480
G1 X-9.936 Y-9.2971
G1 X-9.515 Y-9.7273
G1 X-9.075 Y-10.1394
G1 X-8.618 Y-10.5306
G1 X-8.143 Y-10.9018
G1 X-7.653 Y-11.2519
G1 X-7.148 Y-11.5781
G1 X-6.629 Y-11.8838
G1 X-6.085 Y-12.1707
G1 X-5.553 Y-12.4225
G1 X-4.998 Y-12.6567
G1 X-4.433 Y-12.8658
G1 X-3.860 Y-13.0480
G1 X-3.279 Y-13.2061
G1 X-2.691 Y-13.3383
G1 X-2.099 Y-13.4444
G1 X-1.502 Y-13.5246
G1 X-0.902 Y-13.5778
G1 X-0.302 Y-13.6045
G1 X0.314 Y-13.6034
G1 X0.902 Y-13.5772 F600.000
G1 X1.502 Y-13.5244
G1 X2.099 Y-13.4445
G1 X2.691 Y-13.3387
G1 X3.279 Y-13.2068
G1 X3.860 Y-13.0480
G1 X4.433 Y-12.8651
G1 X4.998 Y-12.6563
G1 X5.553 Y-12.4224
G1 X6.097 Y-12.1656
G1 X6.629 Y-11.8838
G1 X7.148 Y-11.5789
G1 X7.653 Y-11.2511
G1 X8.143 Y-10.9012
G1 X8.618 Y-10.5304
G1 X9.075 Y-10.1395
G1 X9.515 Y-9.7277
G1 X9.936 Y-9.2978
G1 X10.337 Y-8.8480
G1 X10.718 Y-8.3831
G1 X11.079 Y-7.9003
G1 X11.417 Y-7.4025
G1 X11.733 Y-6.8906
G1 X12.027 Y-6.3648
G1 X12.297 Y-5.8269
G1 X12.542 Y-5.2771
G1 X12.763 Y-4.7172
G1 X12.959 Y-4.1474
G1 X13.130 Y-3.5705
G1 X13.275 Y-2.9867
G1 X13.394 Y-2.3968
G1 X13.487 Y-1.8010
G1 X13.554 Y-1.2032
G1 X13.594 Y-0.6023
G1 X13.607 Y-0.0005
G1 X13.594 Y0.6026
G1 X13.554 Y1.2038
G1 X13.487 Y1.8019
G1 X13.394 Y2.3961
G1 X13.275 Y2.9862
G1 X13.130 Y3.5704
G1 X12.959 Y4.1475
G1 X12.763 Y4.7177
G1 X12.542 Y5.2779
G1 X12.297 Y5.8260
G1 X12.027 Y6.3642
G1 X11.733 Y6.8903
G1 X11.417 Y7.4025
G1 X11.079 Y7.9006
G1 X10.718 Y8.3838
G1 X10.337 Y8.8489
G1 X9.936 Y9.2971
G1 X9.515 Y9.7272
G1 X9.075 Y10.1394
G1 X8.618 Y10.5306
G1 X8.143 Y10.9017
G1 X7.653 Y11.2519
G1 X7.148 Y11.5780
G1 X6.629 Y11.8832
G1 X6.097 Y12.1653
G1 X5.553 Y12.4225
G1 X4.998 Y12.6566
G1 X3.990 Y13.0065
ID=1 WHEN $AC_TIMER[1]>=0 DO M51
G1 X3.791 Y13.992 F1999.980
ID=1 WHEN $AC_TIMER[1]>=0 DO M50
G1 X2.868 Y14.2137 F600.000
G1 X2.237 Y14.3268
G1 X1.601 Y14.4119
G1 X0.962 Y14.4680
G1 X0.321 Y14.4961
G1 X-0.321 Y14.4962
G1 X-0.962 Y14.4683
G1 X-1.601 Y14.4114
G1 X-2.237 Y14.3265
G1 X-2.868 Y14.2136
G1 X-3.494 Y14.0737
G1 X-4.113 Y13.9048
G1 X-4.724 Y13.7099
G1 X-5.326 Y13.4860
G1 X-5.917 Y13.2381
G1 X-6.497 Y12.9632
G1 X-7.064 Y12.6633
G1 X-7.617 Y12.3384
G1 X-8.155 Y11.9895
G1 X-8.678 Y11.6166
G1 X-9.183 Y11.2217
G1 X-9.670 Y10.8048
G1 X-10.139 Y10.3669
G1 X-10.588 Y9.9070
G1 X-11.015 Y9.4291
G1 X-11.422 Y8.9332
G1 X-11.806 Y8.4193
G1 X-12.166 Y7.8884
G1 X-12.503 Y7.3425
G1 X-12.816 Y6.7826
G1 X-13.103 Y6.2097
G1 X-13.365 Y5.6239
G1 X-13.601 Y5.0260
G1 X-13.810 Y4.4201
G1 X-13.992 Y3.8042
G1 X-14.146 Y3.1821
G1 X-14.275 Y2.5409
G1 X-14.372 Y1.9194
G1 X-14.443 Y1.2825
G1 X-14.486 Y0.6417
G1 X-14.500 Y-0.0008
G1 X-14.486 Y-0.6419
G1 X-14.443 Y-1.2820
G1 X-14.372 Y-1.9191
G1 X-14.273 Y-2.5532
G1 X-14.146 Y-3.1823
G1 X-13.992 Y-3.8044
G1 X-13.810 Y-4.4205
G1 X-13.601 Y-5.0266
G1 X-13.365 Y-5.6237
G1 X-13.103 Y-6.2098
G1 X-12.816 Y-6.7829
G1 X-12.503 Y-7.3420
G1 X-12.167 Y-7.8889
G1 X-11.797 Y-8.4307
G1 X-11.422 Y-8.9333
G1 X-11.015 Y-9.4294
G1 X-10.588 Y-9.9075
G1 X-10.139 Y-10.3666
G1 X-9.670 Y-10.8047
G1 X-9.183 Y-11.2218
G1 X-8.678 Y-11.6169
G1 X-8.155 Y-11.9890
G1 X-7.617 Y-12.3381
G1 X-7.064 Y-12.6630
G1 X-6.485 Y-12.9699
G1 X-5.917 Y-13.2384
G1 X-5.326 Y-13.4865
G1 X-4.724 Y-13.7096
G1 X-4.113 Y-13.9047
G1 X-3.494 Y-14.0738
G1 X-2.868 Y-14.2139
G1 X-2.237 Y-14.3260
G1 X-1.601 Y-14.4111
G1 X-0.962 Y-14.4682
G1 X-0.321 Y-14.4961
G1 X0.334 Y-14.4960
G1 X0.962 Y-14.4685 F600.000
G1 X1.601 Y-14.4116
G1 X2.237 Y-14.3267
G1 X2.868 Y-14.2138
G1 X3.494 Y-14.0739
G1 X4.113 Y-13.9040
G1 X4.724 Y-13.7091
G1 X5.326 Y-13.4862
G1 X5.917 Y-13.2383
G1 X6.497 Y-12.9634
G1 X7.064 Y-12.6635
G1 X7.617 Y-12.3386
G1 X8.155 Y-11.9897
G1 X8.678 Y-11.6168
G1 X9.183 Y-11.2219
G1 X9.670 Y-10.8040
G1 X10.139 Y-10.3661
G1 X10.588 Y-9.9072
G1 X11.015 Y-9.4293
G1 X11.422 Y-8.9334
G1 X11.806 Y-8.4195
G1 X12.166 Y-7.8886
G1 X12.503 Y-7.3427
G1 X12.816 Y-6.7828
G1 X13.103 Y-6.2099
G1 X13.365 Y-5.6230
G1 X13.601 Y-5.0261
G1 X13.810 Y-4.4202
G1 X13.992 Y-3.8043
G1 X14.146 Y-3.1824
G1 X14.273 Y-2.5535
G1 X14.372 Y-1.9196
G1 X14.443 Y-1.2827
G1 X14.486 Y-0.6418
G1 X14.500 Y-0.0009
G1 X14.486 Y0.6410
G1 X14.443 Y1.28231
G1 X14.372 Y1.91982
G1 X14.273 Y2.55333
G1 X14.146 Y3.18284
G1 X13.992 Y3.80435
G1 X13.810 Y4.42086
G1 X13.601 Y5.02637
G1 X13.365 Y5.62388
G1 X13.103 Y6.20939
G1 X12.816 Y6.78290
G1 X12.503 Y7.34241
G1 X12.166 Y7.88892
G1 X11.806 Y8.41943
G1 X11.422 Y8.93394
G1 X11.015 Y9.42945
G1 X10.588 Y9.90796
G1 X10.139 Y10.36647
G1 X9.670 Y10.80498
G1 X9.183 Y11.22149
G1 X8.678 Y11.61600
G1 X8.155 Y11.98951
G1 X7.617 Y12.33802
G1 X7.064 Y12.66353
G1 X6.497 Y12.96304
G1 X5.917 Y13.23855
G1 X5.326 Y13.48606
G1 X4.724 Y13.70957
G1 X4.224 Y13.86975
ID=1 WHEN $AC_TIMER[1]>=0 DO M51
G1 X3.124 Y13.316 F1999.980
G1 Z1.000 F1999.980
G1 X3.557 Y13.130 F1999.980
ID=1 WHEN $AC_TIMER[1]>=0 DO M50
G1 X2.691 Y13.33893 F600.000
G1 X2.099 Y13.44495
G1 X1.502 Y13.52497
G1 X0.902 Y13.57798
G1 X0.301 Y13.60400
G1 X-0.301 Y13.60401
G1 X-0.902 Y13.57703
G1 X-1.502 Y13.52404
G1 X-2.097 Y13.44494
G1 X-3.279 Y13.20607
G1 X-3.860 Y13.04809
G1 X-4.433 Y12.86510
G1 X-4.998 Y12.65612
G1 X-5.553 Y12.42213
G1 X-6.097 Y12.16515
G1 X-6.629 Y11.88316
G1 X-7.148 Y11.57818
G1 X-7.653 Y11.25119
G1 X-8.143 Y10.90121
G1 X-8.618 Y10.53022
G1 X-9.075 Y10.13924
G1 X-9.515 Y9.72726
G1 X-9.936 Y9.29727
G1 X-10.337 Y8.84829
G1 X-10.718 Y8.38330
G1 X-11.078 Y7.90220
G1 X-11.438 Y7.36984
G1 X-11.733 Y6.89035
G1 X-12.027 Y6.36436
G1 X-12.297 Y5.82638
G1 X-12.542 Y5.27739
G1 X-12.763 Y4.71741
G1 X-12.959 Y4.14742
G1 X-13.130 Y3.57044
G1 X-13.275 Y2.98645
G1 X-13.394 Y2.39647
G1 X-13.487 Y1.80149
G1 X-13.554 Y1.20350
G1 X-13.594 Y0.60252
G1 X-13.607 Y-0.00053
G1 X-13.594 Y-0.60255
G1 X-13.554 Y-1.20356
G1 X-13.487 Y-1.80158
G1 X-13.395 Y-2.39130
G1 X-13.248 Y-3.09786
G1 X-12.959 Y-4.14762
G1 X-12.763 Y-4.71763
G1 X-12.542 Y-5.27765
G1 X-12.297 Y-5.82666
G1 X-12.027 Y-6.36468
G1 X-11.733 Y-6.89069
G1 X-11.418 Y-7.40160
G1 X-11.063 Y-7.92135
G1 X-10.361 Y-8.82145
G1 X-9.936 Y-9.29775
G1 X-9.515 Y-9.72777
G1 X-9.075 Y-10.13979
G1 X-8.618 Y-10.53080
G1 X-8.143 Y-10.90182
G1 X-7.653 Y-11.25183
G1 X-7.148 Y-11.57885
G1 X-6.631 Y-11.88275
G1 X-6.061 Y-12.18238
G1 X-5.553 Y-12.42289
G1 X-4.998 Y-12.65691
G1 X-4.433 Y-12.86592
G1 X-3.860 Y-13.04894
G1 X-3.279 Y-13.20695
G1 X-2.691 Y-13.33897
G1 X-2.099 Y-13.44498
G1 X-1.502 Y-13.52400
G1 X-0.902 Y-13.57701
G1 X-0.303 Y-13.60492
G1 X0.341 Y-13.60255
G1 X0.902 Y-13.57706 F600.000
G1 X1.502 Y-13.52407
G1 X2.099 Y-13.44409
G1 X2.691 Y-13.33811
G1 X3.774 Y-13.07643
G1 X4.433 Y-12.86515
G1 X4.998 Y-12.65616
G1 X5.553 Y-12.42218
G1 X6.097 Y-12.16519
G1 X6.629 Y-11.88321
G1 X7.148 Y-11.57822
G1 X7.653 Y-11.25124
G1 X8.143 Y-10.90125
G1 X8.618 Y-10.53027
G1 X9.075 Y-10.13929
G1 X9.515 Y-9.72730
G1 X9.936 Y-9.29732
G1 X10.337 Y-8.84833
G1 X10.718 Y-8.38335
G1 X11.079 Y-7.90036
G1 X11.417 Y-7.40238
G1 X11.733 Y-6.89039
G1 X12.027 Y-6.36441
G1 X12.297 Y-5.82642
G1 X12.542 Y-5.27744
G1 X12.763 Y-4.71746
G1 X12.959 Y-4.14747
G1 X13.130 Y-3.57049
G1 X13.275 Y-2.98650
G1 X13.394 Y-2.39652
G1 X13.487 Y-1.80153
G1 X13.554 Y-1.20355
G1 X13.594 Y-0.60256
G1 X13.607 Y-0.00058
G1 X13.594 Y0.60259
G1 X13.554 Y1.20361
G1 X13.487 Y1.80163
G1 X13.394 Y2.39664
G1 X13.275 Y2.98666
G1 X13.130 Y3.57067
G1 X12.959 Y4.14769
G1 X12.763 Y4.71770
G1 X12.542 Y5.27772
G1 X12.297 Y5.82673
G1 X12.027 Y6.36475
G1 X11.733 Y6.89076
G1 X11.417 Y7.40278
G1 X11.079 Y7.90080
G1 X10.718 Y8.38381
G1 X10.337 Y8.84883
G1 X9.936 Y9.29784
G1 X9.515 Y9.72786
G1 X9.075 Y10.13987
G1 X8.618 Y10.53089
G1 X8.143 Y10.90190
G1 X7.653 Y11.25192
G1 X7.148 Y11.57893
G1 X6.629 Y11.88395
G1 X6.097 Y12.16597
G1 X5.553 Y12.42298
G1 X4.998 Y12.65600
G1 X3.989 Y13.00743
ID=1 WHEN $AC_TIMER[1]>=0 DO M51
G1 X3.791 Y13.992 F1999.980
ID=1 WHEN $AC_TIMER[1]>=0 DO M50
G1 X2.868 Y14.21336 F600.000
G1 X2.237 Y14.32687
G1 X1.601 Y14.41138
G1 X0.962 Y14.46889
G1 X0.321 Y14.49640
G1 X-0.321 Y14.49691
G1 X-0.962 Y14.46842
G1 X-1.601 Y14.41193
G1 X-2.236 Y14.32640
G1 X-2.908 Y14.20452
G1 X-3.494 Y14.07345
G1 X-4.113 Y13.90496
G1 X-4.724 Y13.70947
G1 X-5.326 Y13.48698
G1 X-5.917 Y13.23849
G1 X-6.497 Y12.96300
G1 X-7.064 Y12.66352
G1 X-7.617 Y12.33803
G1 X-8.155 Y11.98954
G1 X-8.678 Y11.61605
G1 X-9.183 Y11.22156
G1 X-9.670 Y10.80407
G1 X-10.139 Y10.36658
G1 X-10.588 Y9.90709
G1 X-11.015 Y9.42960
G1 X-11.422 Y8.93311
G1 X-11.805 Y8.41958
G1 X-12.188 Y7.85370
G1 X-12.503 Y7.34263
G1 X-12.816 Y6.78214
G1 X-13.103 Y6.20965
G1 X-13.365 Y5.62316
G1 X-13.601 Y5.02667
G1 X-13.810 Y4.42018
G1 X-13.992 Y3.80469
G1 X-14.146 Y3.18220
G1 X-14.273 Y2.55371
G1 X-14.372 Y1.91922
G1 X-14.443 Y1.28174
G1 X-14.486 Y0.64125
G1 X-14.500 Y-0.00076
G1 X-14.486 Y-0.64127
G1 X-14.443 Y-1.28278
G1 X-14.372 Y-1.91929
G1 X-14.274 Y-2.55169
G1 X-14.118 Y-3.29675
G1 X-13.992 Y-3.80481
G1 X-13.810 Y-4.42032
G1 X-13.601 Y-5.02683
G1 X-13.365 Y-5.62334
G1 X-13.103 Y-6.20985
G1 X-12.816 Y-6.78236
G1 X-12.503 Y-7.34287
G1 X-12.167 Y-7.88834
G1 X-11.784 Y-8.44715
G1 X-11.047 Y-9.39492
G1 X-10.588 Y-9.90741
G1 X-10.139 Y-10.36692
G1 X-9.670 Y-10.80443
G1 X-9.183 Y-11.22194
G1 X-8.678 Y-11.61645
G1 X-8.155 Y-11.98996
G1 X-7.617 Y-12.33847
G1 X-7.065 Y-12.66394
G1 X-6.460 Y-12.98006
G1 X-5.917 Y-13.23899
G1 X-5.326 Y-13.48650
G1 X-4.724 Y-13.70901
G1 X-4.113 Y-13.90452
G1 X-3.494 Y-14.07303
G1 X-2.868 Y-14.21354
G1 X-2.237 Y-14.32605
G1 X-1.601 Y-14.41156
G1 X-0.962 Y-14.46808
G1 X-0.321 Y-14.49654
G1 X0.362 Y-14.49567
G1 X0.962 Y-14.46860 F600.000
G1 X1.601 Y-14.41111
G1 X2.237 Y-14.32662
G1 X2.868 Y-14.21313
G1 X4.024 Y-13.93323
G1 X4.724 Y-13.70966
G1 X5.326 Y-13.48617
G1 X5.917 Y-13.23868
G1 X6.497 Y-12.96319
G1 X7.064 Y-12.66370
G1 X7.617 Y-12.33821
G1 X8.155 Y-11.98972
G1 X8.678 Y-11.61623
G1 X9.183 Y-11.22174
G1 X9.670 Y-10.80425
G1 X10.139 Y-10.36676
G1 X10.588 Y-9.90727
G1 X11.015 Y-9.42978
G1 X11.422 Y-8.93329
G1 X11.806 Y-8.41980
G1 X12.166 Y-7.88831
G1 X12.503 Y-7.34282
G1 X12.816 Y-6.78233
G1 X13.103 Y-6.20984
G1 X13.365 Y-5.62335
G1 X13.601 Y-5.02686
G1 X13.810 Y-4.42037
G1 X13.992 Y-3.80488
G1 X14.146 Y-3.18239
G1 X14.273 Y-2.55390
G1 X14.372 Y-1.91941
G1 X14.443 Y-1.28292
G1 X14.486 Y-0.64143
G1 X14.500 Y-0.00094
G1 X14.486 Y0.64145
G1 X14.443 Y1.28196
G1 X14.372 Y1.91947
G1 X14.273 Y2.55398
G1 X14.146 Y3.18249
G1 X13.992 Y3.80400
G1 X13.810 Y4.42051
G1 X13.601 Y5.02602
G1 X13.365 Y5.62353
G1 X13.103 Y6.20904
G1 X12.816 Y6.78255
G1 X12.503 Y7.34206
G1 X12.166 Y7.88857
G1 X11.806 Y8.41908
G1 X11.422 Y8.93359
G1 X11.015 Y9.42910
G1 X10.588 Y9.90761
G1 X10.139 Y10.36612
G1 X9.670 Y10.80463
G1 X9.183 Y11.22114
G1 X8.678 Y11.61665
G1 X8.155 Y11.98916
G1 X7.617 Y12.33867
G1 X7.064 Y12.66318
G1 X6.497 Y12.96369
G1 X5.917 Y13.23820
G1 X5.326 Y13.48671
G1 X4.724 Y13.70922
G1 X4.224 Y13.86940
ID=1 WHEN $AC_TIMER[1]>=0 DO M51
G1 X3.124 Y13.316 F1999.980
G1 Z1.500 F1999.980
G1 X3.557 Y13.130 F1999.980
ID=1 WHEN $AC_TIMER[1]>=0 DO M50
G1 X2.691 Y13.33858 F600.000
G1 X2.099 Y13.44460
G1 X1.502 Y13.52462
G1 X0.902 Y13.57763
G1 X0.301 Y13.60465
G1 X-0.301 Y13.60466
G1 X-0.902 Y13.57768
G1 X-1.502 Y13.52469
G1 X-2.099 Y13.44471
G1 X-2.691 Y13.33872
G1 X-3.279 Y13.20674
G1 X-3.860 Y13.04875
G1 X-4.433 Y12.86577
G1 X-4.998 Y12.65679
G1 X-5.553 Y12.42280
G1 X-6.097 Y12.16582
G1 X-6.629 Y11.88383
G1 X-7.148 Y11.57885
G1 X-7.653 Y11.25186
G1 X-8.143 Y10.90188
G1 X-8.618 Y10.53089
G1 X-9.075 Y10.13991
G1 X-9.515 Y9.72792
G1 X-9.936 Y9.29794
G1 X-10.337 Y8.84896
G1 X-10.718 Y8.38397
G1 X-11.079 Y7.90099
G1 X-11.417 Y7.40200
G1 X-11.732 Y6.89383
G1 X-12.056 Y6.30521
G1 X-12.297 Y5.82604
G1 X-12.542 Y5.27706
G1 X-12.763 Y4.71708
G1 X-12.959 Y4.14709
G1 X-13.130 Y3.57011
G1 X-13.275 Y2.98612
G1 X-13.394 Y2.39614
G1 X-13.487 Y1.80497
G1 X-13.594 Y0.60216
G1 X-13.607 Y-0.00018
G1 X-13.594 Y-0.60220
G1 X-13.554 Y-1.20321
G1 X-13.487 Y-1.80123
G1 X-13.395 Y-2.39306
G1 X-13.259 Y-3.05044
G1 X-13.130 Y-3.57027
G1 X-12.959 Y-4.14728
G1 X-12.763 Y-4.71730
G1 X-12.542 Y-5.27732
G1 X-12.297 Y-5.82633
G1 X-12.027 Y-6.36435
G1 X-11.733 Y-6.89036
G1 X-11.419 Y-7.40019
G1 X-11.039 Y-7.95357
G1 X-10.718 Y-8.38340
G1 X-10.337 Y-8.84842
G1 X-9.936 Y-9.29744
G1 X-9.515 Y-9.72745
G1 X-9.075 Y-10.13947
G1 X-8.618 Y-10.53048
G1 X-8.143 Y-10.90150
G1 X-7.656 Y-11.24933
G1 X-6.629 Y-11.88352
G1 X-6.097 Y-12.16554
G1 X-5.553 Y-12.42256
G1 X-4.998 Y-12.65657
G1 X-4.433 Y-12.86559
G1 X-3.860 Y-13.04860
G1 X-3.279 Y-13.20662
G1 X-2.691 Y-13.33863
G1 X-2.099 Y-13.44465
G1 X-1.502 Y-13.52466
G1 X-0.902 Y-13.57768
G1 X-0.304 Y-13.60451
G1 X0.367 Y-13.60189
G1 X0.902 Y-13.57772 F600.000
G1 X1.502 Y-13.52474
G1 X2.099 Y-13.44475
G1 X2.691 Y-13.33877
G1 X3.279 Y-13.20678
G1 X3.860 Y-13.04880
G1 X4.433 Y-12.86581
G1 X4.998 Y-12.65683
G1 X5.553 Y-12.42285
G1 X6.094 Y-12.16668
G1 X7.148 Y-11.57887
G1 X7.653 Y-11.25189
G1 X8.143 Y-10.90190
G1 X8.618 Y-10.53092
G1 X9.075 Y-10.13993
G1 X9.515 Y-9.72795
G1 X9.936 Y-9.29797
G1 X10.337 Y-8.84898
G1 X10.718 Y-8.38300
G1 X11.079 Y-7.90001
G1 X11.417 Y-7.40203
G1 X11.733 Y-6.89004
G1 X12.027 Y-6.36406
G1 X12.297 Y-5.82607
G1 X12.542 Y-5.27709
G1 X12.763 Y-4.71710
G1 X12.959 Y-4.14712
G1 X13.130 Y-3.57014
G1 X13.275 Y-2.98615
G1 X13.394 Y-2.39617
G1 X13.487 Y-1.80118
G1 X13.554 Y-1.20320
G1 X13.594 Y-0.60221
G1 X13.607 Y-0.00023
G1 X13.594 Y0.60224
G1 X13.554 Y1.20326
G1 X13.487 Y1.80127
G1 X13.394 Y2.39629
G1 X13.275 Y2.98631
G1 X13.130 Y3.57032
G1 X12.959 Y4.14734
G1 X12.763 Y4.71735
G1 X12.542 Y5.27737
G1 X12.297 Y5.82638
G1 X12.027 Y6.36440
G1 X11.733 Y6.89041
G1 X11.417 Y7.40243
G1 X11.079 Y7.90044
G1 X10.718 Y8.38346
G1 X10.337 Y8.84848
G1 X9.936 Y9.29749
G1 X9.515 Y9.72751
G1 X9.075 Y10.13952
G1 X8.618 Y10.53054
G1 X8.143 Y10.90155
G1 X7.653 Y11.25157
G1 X7.148 Y11.57858
G1 X6.629 Y11.88360
G1 X6.097 Y12.16561
G1 X5.553 Y12.42263
G1 X4.998 Y12.65665
G1 X3.989 Y13.00708
ID=1 WHEN $AC_TIMER[1]>=0 DO M51
G1 X3.791 Y13.992 F1999.980
ID=1 WHEN $AC_TIMER[1]>=0 DO M50
G1 X2.868 Y14.21300 F600.000
G1 X2.237 Y14.32651
G1 X1.601 Y14.41102
G1 X0.962 Y14.46853
G1 X0.321 Y14.49605
G1 X-0.321 Y14.49656
G1 X-0.962 Y14.46807
G1 X-1.601 Y14.41158
G1 X-2.237 Y14.32609
G1 X-2.868 Y14.21360
G1 X-3.494 Y14.07311
G1 X-4.113 Y13.90462
G1 X-4.724 Y13.70913
G1 X-5.326 Y13.48664
G1 X-5.917 Y13.23815
G1 X-6.497 Y12.96366
G1 X-7.064 Y12.66317
G1 X-7.617 Y12.33868
G1 X-8.155 Y11.98919
G1 X-8.678 Y11.61670
G1 X-9.183 Y11.22121
G1 X-9.670 Y10.80472
G1 X-10.139 Y10.36623
G1 X-10.588 Y9.90774
G1 X-11.015 Y9.42925
G1 X-11.422 Y8.93376
G1 X-11.806 Y8.41927
G1 X-12.166 Y7.88878
G1 X-12.503 Y7.34322
G1 X-12.847 Y6.72109
G1 X-13.103 Y6.20930
G1 X-13.365 Y5.62381
G1 X-13.601 Y5.02632
G1 X-13.810 Y4.42083
G1 X-13.992 Y3.80434
G1 X-14.146 Y3.18285
G1 X-14.273 Y2.55336
G1 X-14.372 Y1.92081
G1 X-14.448 Y1.21468
G1 X-14.486 Y0.64189
G1 X-14.500 Y-0.00040
G1 X-14.486 Y-0.64191
G1 X-14.443 Y-1.28242
G1 X-14.372 Y-1.91993
G1 X-14.274 Y-2.55238
G1 X-14.130 Y-3.24825
G1 X-13.992 Y-3.80446
G1 X-13.810 Y-4.42097
G1 X-13.601 Y-5.02648
G1 X-13.365 Y-5.62399
G1 X-13.103 Y-6.20950
G1 X-12.816 Y-6.78201
G1 X-12.503 Y-7.34252
G1 X-12.167 Y-7.88796
G1 X-11.765 Y-8.47383
G1 X-11.422 Y-8.93305
G1 X-11.015 Y-9.42956
G1 X-10.588 Y-9.90707
G1 X-10.139 Y-10.36658
G1 X-9.670 Y-10.80409
G1 X-9.183 Y-11.22160
G1 X-8.678 Y-11.61611
G1 X-8.156 Y-11.98855
G1 X-7.558 Y-12.37242
G1 X-7.064 Y-12.66363
G1 X-6.497 Y-12.96314
G1 X-5.917 Y-13.23865
G1 X-5.326 Y-13.48616
G1 X-4.724 Y-13.70967
G1 X-4.113 Y-13.90418
G1 X-3.494 Y-14.07369
G1 X-2.868 Y-14.21320
G1 X-2.237 Y-14.32671
G1 X-1.601 Y-14.41122
G1 X-0.962 Y-14.46873
G1 X-0.322 Y-14.49618
G1 X0.389 Y-14.49305
G1 X0.962 Y-14.46826 F600.000
G1 X1.601 Y-14.41177
G1 X2.237 Y-14.32628
G1 X2.868 Y-14.21379
G1 X3.494 Y-14.07330
G1 X4.113 Y-13.90481
G1 X4.724 Y-13.70932
G1 X5.326 Y-13.48683
G1 X5.917 Y-13.23834
G1 X6.496 Y-12.96378
G1 X7.123 Y-12.62866
G1 X7.617 Y-12.33887
G1 X8.155 Y-11.98938
G1 X8.678 Y-11.61689
G1 X9.183 Y-11.22140
G1 X9.670 Y-10.80491
G1 X10.139 Y-10.36642
G1 X10.588 Y-9.90793
G1 X11.015 Y-9.42944
G1 X11.422 Y-8.93395
G1 X11.806 Y-8.41946
G1 X12.166 Y-7.88897
G1 X12.503 Y-7.34248
G1 X12.816 Y-6.78299
G1 X13.103 Y-6.20950
G1 X13.365 Y-5.62301
G1 X13.601 Y-5.02652
G1 X13.810 Y-4.42003
G1 X13.992 Y-3.80454
G1 X14.146 Y-3.18205
G1 X14.273 Y-2.55356
G1 X14.372 Y-1.91907
G1 X14.443 Y-1.28258
G1 X14.486 Y-0.64109
G1 X14.500 Y-0.00060
G1 X14.486 Y0.64111
G1 X14.443 Y1.28262
G1 X14.372 Y1.91913
G1 X14.273 Y2.55364
G1 X14.146 Y3.18215
G1 X13.992 Y3.80466
G1 X13.810 Y4.42017
G1 X13.601 Y5.02668
G1 X13.365 Y5.62319
G1 X13.103 Y6.20970
G1 X12.816 Y6.78221
G1 X12.503 Y7.34272
G1 X12.166 Y7.88823
G1 X11.806 Y8.41974
G1 X11.422 Y8.93325
G1 X11.015 Y9.42976
G1 X10.588 Y9.90727
G1 X10.139 Y10.36678
G1 X9.670 Y10.80429
G1 X9.183 Y11.22180
G1 X8.678 Y11.61631
G1 X8.155 Y11.98982
G1 X7.617 Y12.33833
G1 X7.064 Y12.66384
G1 X6.497 Y12.96335
G1 X5.917 Y13.23886
G1 X5.326 Y13.48637
G1 X4.724 Y13.70988
G1 X4.224 Y13.86906
ID=1 WHEN $AC_TIMER[1]>=0 DO M51
G1 X3.124 Y13.316 F1999.980
G1 Z2.000 F1999.980
G1 X3.557 Y13.130 F1999.980
ID=1 WHEN $AC_TIMER[1]>=0 DO M50
G1 X2.691 Y13.33824 F600.000
G1 X2.099 Y13.44426
G1 X1.502 Y13.52427
G1 X0.902 Y13.57729
G1 X0.301 Y13.60431
G1 X-0.301 Y13.60432
G1 X-0.902 Y13.57734
G1 X-1.502 Y13.52435
G1 X-2.099 Y13.44437
G1 X-2.691 Y13.33838
G1 X-3.279 Y13.20640
G1 X-3.860 Y13.04841
G1 X-4.433 Y12.86543
G1 X-4.998 Y12.65644
G1 X-5.553 Y12.42246
G1 X-6.097 Y12.16548
G1 X-6.629 Y11.88349
G1 X-7.148 Y11.57851
G1 X-7.653 Y11.25152
G1 X-8.143 Y10.90154
G1 X-8.618 Y10.53055
G1 X-9.075 Y10.13957
G1 X-9.515 Y9.72758
G1 X-9.936 Y9.29760
G1 X-10.337 Y8.84861
G1 X-10.718 Y8.38363
G1 X-11.079 Y7.90065
G1 X-11.417 Y7.40266
G1 X-11.733 Y6.89068
G1 X-12.027 Y6.36469
G1 X-12.297 Y5.82671
G1 X-12.542 Y5.27772
G1 X-12.763 Y4.71774
G1 X-12.959 Y4.14775
G1 X-13.130 Y3.57077
G1 X-13.274 Y2.99054
G1 X-13.487 Y1.80180
G1 X-13.554 Y1.20381
G1 X-13.594 Y0.60283
G1 X-13.607 Y-0.00084
G1 X-13.594 Y-0.60286
G1 X-13.554 Y-1.20387
G1 X-13.487 Y-1.80189
G1 X-13.394 Y-2.39690
G1 X-13.275 Y-2.98692
G1 X-13.130 Y-3.57094
G1 X-12.961 Y-4.14470
G1 X-12.542 Y-5.27796
G1 X-12.297 Y-5.82698
G1 X-12.027 Y-6.36499
G1 X-11.733 Y-6.89001
G1 X-11.419 Y-7.39978
G1 X-11.023 Y-7.97590
G1 X-10.337 Y-8.84805
G1 X-9.936 Y-9.29706
G1 X-9.515 Y-9.72708
G1 X-9.075 Y-10.13910
G1 X-8.618 Y-10.53011
G1 X-8.143 Y-10.90113
G1 X-7.656 Y-11.24889
G1 X-6.629 Y-11.88315
G1 X-6.097 Y-12.16517
G1 X-5.553 Y-12.42218
G1 X-4.998 Y-12.65620
G1 X-4.433 Y-12.86521
G1 X-3.860 Y-13.04823
G1 X-3.279 Y-13.20625
G1 X-2.691 Y-13.33826
G1 X-2.099 Y-13.44428
G1 X-1.502 Y-13.52429
G1 X-0.902 Y-13.57731
G1 X-0.305 Y-13.60308
G1 X0.394 Y-13.60020
G1 X1.502 Y-13.52435 F600.000
G1 X2.099 Y-13.44436
G1 X2.691 Y-13.33838
G1 X3.279 Y-13.20639
G1 X3.860 Y-13.04841
G1 X4.433 Y-12.86542
G1 X4.998 Y-12.65644
G1 X5.553 Y-12.42246
G1 X6.097 Y-12.16547
G1 X6.629 Y-11.88349
G1 X7.148 Y-11.57850
G1 X7.653 Y-11.25152
G1 X8.143 Y-10.90153
G1 X8.618 Y-10.53055
G1 X9.075 Y-10.13956
G1 X9.515 Y-9.72758
G1 X9.936 Y-9.29759
G1 X10.337 Y-8.84861
G1 X10.718 Y-8.38363
G1 X11.079 Y-7.90064
G1 X11.417 Y-7.40266
G1 X11.733 Y-6.89067
G1 X12.027 Y-6.36469
G1 X12.297 Y-5.82670
G1 X12.542 Y-5.27772
G1 X12.947 Y-4.18805
G1 X13.130 Y-3.57075
G1 X13.275 Y-2.98677
G1 X13.394 Y-2.39678
G1 X13.487 Y-1.80368
G1 X13.594 Y-0.60281
G1 X13.607 Y-0.00083
G1 X13.594 Y0.60284
G1 X13.554 Y1.20386
G1 X13.488 Y1.79550
G1 X13.275 Y2.98688
G1 X13.130 Y3.57090
G1 X12.959 Y4.14791
G1 X12.763 Y4.71793
G1 X12.542 Y5.27795
G1 X12.297 Y5.82696
G1 X12.027 Y6.36498
G1 X11.733 Y6.89099
G1 X11.417 Y7.40201
G1 X11.079 Y7.90002
G1 X10.718 Y8.38304
G1 X10.337 Y8.84805
G1 X9.936 Y9.29707
G1 X9.515 Y9.72709
G1 X9.075 Y10.13910
G1 X8.618 Y10.53012
G1 X8.143 Y10.90113
G1 X7.653 Y11.25115
G1 X7.148 Y11.57816
G1 X6.629 Y11.88318
G1 X6.097 Y12.16519
G1 X5.553 Y12.42221
G1 X4.998 Y12.65622
G1 X3.989 Y13.00766
ID=1 WHEN $AC_TIMER[1]>=0 DO M51
G1 X3.791 Y13.992 F1999.980
ID=1 WHEN $AC_TIMER[1]>=0 DO M50
G1 X2.868 Y14.21358 F600.000
G1 X2.237 Y14.32609
G1 X1.601 Y14.41160
G1 X0.962 Y14.46811
G1 X0.321 Y14.49662
G1 X-0.321 Y14.49613
G1 X-0.962 Y14.46864
G1 X-1.601 Y14.41115
G1 X-2.237 Y14.32666
G1 X-2.868 Y14.21317
G1 X-3.494 Y14.07368
G1 X-4.113 Y13.90419
G1 X-4.724 Y13.70970
G1 X-5.326 Y13.48621
G1 X-5.917 Y13.23872
G1 X-6.497 Y12.96323
G1 X-7.064 Y12.66374
G1 X-7.617 Y12.33826
G1 X-8.155 Y11.98977
G1 X-8.678 Y11.61628
G1 X-9.183 Y11.22179
G1 X-9.670 Y10.80430
G1 X-10.139 Y10.36681
G1 X-10.588 Y9.90732
G1 X-11.015 Y9.42983
G1 X-11.422 Y8.93334
G1 X-11.806 Y8.41985
G1 X-12.166 Y7.88836
G1 X-12.503 Y7.34287
G1 X-12.816 Y6.78238
G1 X-13.103 Y6.20989
G1 X-13.365 Y5.62340
G1 X-13.601 Y5.02691
G1 X-13.810 Y4.42042
G1 X-13.992 Y3.80493
G1 X-14.146 Y3.18335
G1 X-14.372 Y1.91944
G1 X-14.443 Y1.28195
G1 X-14.486 Y0.64146
G1 X-14.500 Y-0.00097
G1 X-14.486 Y-0.64148
G1 X-14.443 Y-1.28299
G1 X-14.372 Y-1.91950
G1 X-14.273 Y-2.55301
G1 X-14.146 Y-3.18252
G1 X-13.992 Y-3.80403
G1 X-13.810 Y-4.41845
G1 X-13.365 Y-5.62354
G1 X-13.103 Y-6.20905
G1 X-12.816 Y-6.78256
G1 X-12.503 Y-7.34207
G1 X-12.167 Y-7.88749
G1 X-11.749 Y-8.49511
G1 X-11.422 Y-8.93359
G1 X-11.015 Y-9.42910
G1 X-10.588 Y-9.90761
G1 X-10.139 Y-10.36612
G1 X-9.670 Y-10.80463
G1 X-9.183 Y-11.22114
G1 X-8.678 Y-11.61665
G1 X-8.157 Y-11.98808
G1 X-7.064 Y-12.66316
G1 X-6.497 Y-12.96368
G1 X-5.917 Y-13.23819
G1 X-5.326 Y-13.48670
G1 X-4.724 Y-13.70921
G1 X-4.113 Y-13.90472
G1 X-3.494 Y-14.07323
G1 X-2.868 Y-14.21374
G1 X-2.237 Y-14.32625
G1 X-1.601 Y-14.41176
G1 X-0.962 Y-14.46827
G1 X-0.322 Y-14.49669
G1 X0.416 Y-14.49230
G1 X0.962 Y-14.46879 F600.000
G1 X1.601 Y-14.41130
G1 X2.237 Y-14.32681
G1 X2.868 Y-14.21332
G1 X3.494 Y-14.07383
G1 X4.113 Y-13.90434
G1 X4.724 Y-13.70985
G1 X5.326 Y-13.48636
G1 X5.917 Y-13.23887
G1 X6.497 Y-12.96338
G1 X7.064 Y-12.66389
G1 X7.617 Y-12.33840
G1 X8.155 Y-11.98991
G1 X8.678 Y-11.61642
G1 X9.183 Y-11.22193
G1 X9.670 Y-10.80444
G1 X10.139 Y-10.36695
G1 X10.588 Y-9.90746
G1 X11.015 Y-9.42997
G1 X11.422 Y-8.93348
G1 X11.806 Y-8.41999
G1 X12.166 Y-7.88850
G1 X12.503 Y-7.34201
G1 X12.816 Y-6.78252
G1 X13.103 Y-6.20903
G1 X13.365 Y-5.62354
G1 X13.601 Y-5.02510
G1 X13.797 Y-4.46279
G1 X13.992 Y-3.80408
G1 X14.146 Y-3.18259
G1 X14.273 Y-2.55310
G1 X14.372 Y-1.92056
G1 X14.446 Y-1.23982
G1 X14.486 Y-0.64163
G1 X14.500 Y-0.00014
G1 X14.486 Y0.64165
G1 X14.443 Y1.28216
G1 X14.373 Y1.91753
G1 X14.146 Y3.18267
G1 X13.992 Y3.80418
G1 X13.810 Y4.42069
G1 X13.601 Y5.02620
G1 X13.365 Y5.62371
G1 X13.103 Y6.20922
G1 X12.816 Y6.78273
G1 X12.503 Y7.34224
G1 X12.166 Y7.88875
G1 X11.806 Y8.41926
G1 X11.422 Y8.93377
G1 X11.015 Y9.42928
G1 X10.588 Y9.90779
G1 X10.139 Y10.36630
G1 X9.670 Y10.80481
G1 X9.183 Y11.22132
G1 X8.678 Y11.61683
G1 X8.155 Y11.98934
G1 X7.617 Y12.33885
G1 X7.064 Y12.66336
G1 X6.497 Y12.96387
G1 X5.917 Y13.23838
G1 X5.326 Y13.48689
G1 X4.724 Y13.70940
G1 X4.224 Y13.86958
ID=1 WHEN $AC_TIMER[1]>=0 DO M51
G1 X3.124 Y13.316 F1999.980
G1 Z2.500 F1999.980
G1 X3.557 Y13.130 F1999.980
ID=1 WHEN $AC_TIMER[1]>=0 DO M50
G1 X2.691 Y13.33876 F600.000
G1 X2.099 Y13.44477
G1 X1.502 Y13.52479
G1 X0.902 Y13.57781
G1 X0.301 Y13.60482
G1 X-0.301 Y13.60484
G1 X-0.902 Y13.57785
G1 X-1.502 Y13.52487
G1 X-2.094 Y13.44558
G1 X-3.279 Y13.20689
G1 X-3.860 Y13.04891
G1 X-4.433 Y12.86593
G1 X-4.998 Y12.65694
G1 X-5.553 Y12.42296
G1 X-6.097 Y12.16597
G1 X-6.629 Y11.88399
G1 X-7.148 Y11.57800
G1 X-7.653 Y11.25102
G1 X-8.143 Y10.90103
G1 X-8.618 Y10.53005
G1 X-9.075 Y10.13906
G1 X-9.515 Y9.72708
G1 X-9.936 Y9.29710
G1 X-10.337 Y8.84811
G1 X-10.718 Y8.38313
G1 X-11.076 Y7.90483
G1 X-11.480 Y7.30170
G1 X-12.027 Y6.36417
G1 X-12.297 Y5.82618
G1 X-12.542 Y5.27720
G1 X-12.763 Y4.71721
G1 X-12.959 Y4.14723
G1 X-13.130 Y3.57024
G1 X-13.274 Y2.99195
G1 X-13.487 Y1.80127
G1 X-13.554 Y1.20328
G1 X-13.594 Y0.60230
G1 X-13.607 Y-0.00032
G1 X-13.594 Y-0.60233
G1 X-13.554 Y-1.20335
G1 X-13.487 Y-1.80136
G1 X-13.395 Y-2.39107
G1 X-13.247 Y-3.10294
G1 X-12.959 Y-4.14740
G1 X-12.763 Y-4.71742
G1 X-12.542 Y-5.27743
G1 X-12.297 Y-5.82645
G1 X-12.027 Y-6.36446
G1 X-11.733 Y-6.89048
G1 X-11.420 Y-7.39819
G1 X-11.007 Y-7.99605
G1 X-10.337 Y-8.84852
G1 X-9.936 Y-9.29753
G1 X-9.515 Y-9.72755
G1 X-9.075 Y-10.13956
G1 X-8.618 Y-10.53058
G1 X-8.143 Y-10.90159
G1 X-7.653 Y-11.25161
G1 X-7.148 Y-11.57863
G1 X-6.633 Y-11.88133
G1 X-5.989 Y-12.21620
G1 X-4.998 Y-12.65666
G1 X-4.433 Y-12.86568
G1 X-3.860 Y-13.04869
G1 X-3.279 Y-13.20671
G1 X-2.691 Y-13.33873
G1 X-2.099 Y-13.44474
G1 X-1.502 Y-13.52476
G1 X-0.902 Y-13.57777
G1 X-0.306 Y-13.60348
G1 X0.420 Y-13.59835
G1 X1.502 Y-13.52481 F600.000
G1 X2.099 Y-13.44483
G1 X2.691 Y-13.33884
G1 X3.279 Y-13.20686
G1 X3.860 Y-13.04887
G1 X4.433 Y-12.86589
G1 X4.998 Y-12.65690
G1 X5.553 Y-12.42292
G1 X6.092 Y-12.16763
G1 X7.148 Y-11.57895
G1 X7.653 Y-11.25196
G1 X8.143 Y-10.90198
G1 X8.618 Y-10.53099
G1 X9.075 Y-10.13901
G1 X9.515 Y-9.72702
G1 X9.936 Y-9.29704
G1 X10.337 Y-8.84805
G1 X10.718 Y-8.38307
G1 X11.079 Y-7.90008
G1 X11.417 Y-7.40210
G1 X11.733 Y-6.89012
G1 X12.027 Y-6.36413
G1 X12.297 Y-5.82615
G1 X12.542 Y-5.27716
G1 X12.763 Y-4.71718
G1 X12.959 Y-4.14719
G1 X13.130 Y-3.57021
G1 X13.275 Y-2.98622
G1 X13.394 Y-2.39624
G1 X13.487 Y-1.80126
G1 X13.554 Y-1.20327
G1 X13.594 Y-0.60229
G1 X13.607 Y-0.00030
G1 X13.594 Y0.60232
G1 X13.554 Y1.20333
G1 X13.487 Y1.80135
G1 X13.394 Y2.39636
G1 X13.275 Y2.98638
G1 X13.130 Y3.57039
G1 X12.959 Y4.14741
G1 X12.763 Y4.71743
G1 X12.542 Y5.27744
G1 X12.297 Y5.82646
G1 X12.027 Y6.36447
G1 X11.733 Y6.89049
G1 X11.417 Y7.40250
G1 X11.079 Y7.90052
G1 X10.718 Y8.38353
G1 X10.337 Y8.84855
G1 X9.936 Y9.29756
G1 X9.515 Y9.72758
G1 X9.075 Y10.13960
G1 X8.618 Y10.53061
G1 X8.143 Y10.90163
G1 X7.653 Y11.25164
G1 X7.148 Y11.57866
G1 X6.629 Y11.88367
G1 X6.097 Y12.16569
G1 X5.553 Y12.42270
G1 X4.998 Y12.65672
G1 X3.989 Y13.00715
ID=1 WHEN $AC_TIMER[1]>=0 DO M51
G1 X3.791 Y13.992 F1999.980
ID=1 WHEN $AC_TIMER[1]>=0 DO M50
G1 X2.868 Y14.21308 F600.000
G1 X2.237 Y14.32659
G1 X1.601 Y14.41110
G1 X0.962 Y14.46861
G1 X0.321 Y14.49612
G1 X-0.321 Y14.49663
G1 X-0.962 Y14.46814
G1 X-1.601 Y14.41165
G1 X-2.235 Y14.32705
G1 X-3.494 Y14.07316
G1 X-4.113 Y13.90467
G1 X-4.724 Y13.70918
G1 X-5.326 Y13.48669
G1 X-5.917 Y13.23820
G1 X-6.497 Y12.96371
G1 X-7.064 Y12.66322
G1 X-7.617 Y12.33873
G1 X-8.155 Y11.98924
G1 X-8.678 Y11.61675
G1 X-9.183 Y11.22126
G1 X-9.670 Y10.80477
G1 X-10.139 Y10.36628
G1 X-10.588 Y9.90779
G1 X-11.015 Y9.42930
G1 X-11.422 Y8.93381
G1 X-11.805 Y8.42021
G1 X-12.231 Y7.78457
G1 X-12.503 Y7.34233
G1 X-12.816 Y6.78284
G1 X-13.103 Y6.20935
G1 X-13.365 Y5.62386
G1 X-13.601 Y5.02638
G1 X-13.810 Y4.42088
G1 X-13.992 Y3.80440
G1 X-14.146 Y3.18479
G1 X-14.372 Y1.91991
G1 X-14.443 Y1.28242
G1 X-14.486 Y0.64193
G1 X-14.500 Y-0.00044
G1 X-14.486 Y-0.64195
G1 X-14.443 Y-1.28246
G1 X-14.372 Y-1.91997
G1 X-14.274 Y-2.55137
G1 X-14.117 Y-3.30173
G1 X-13.992 Y-3.80449
G1 X-13.810 Y-4.42000
G1 X-13.601 Y-5.02651
G1 X-13.365 Y-5.62302
G1 X-13.103 Y-6.20953
G1 X-12.816 Y-6.78204
G1 X-12.503 Y-7.34255
G1 X-12.167 Y-7.88795
G1 X-11.732 Y-8.51731
G1 X-11.422 Y-8.93307
G1 X-11.015 Y-9.42958
G1 X-10.588 Y-9.90709
G1 X-10.139 Y-10.36660
G1 X-9.670 Y-10.80411
G1 X-9.183 Y-11.22163
G1 X-8.678 Y-11.61614
G1 X-8.155 Y-11.98965
G1 X-7.617 Y-12.33816
G1 X-7.065 Y-12.66256
G1 X-6.386 Y-13.01592
G1 X-5.917 Y-13.23868
G1 X-5.326 Y-13.48619
G1 X-4.724 Y-13.70970
G1 X-4.113 Y-13.90421
G1 X-3.494 Y-14.07372
G1 X-2.868 Y-14.21323
G1 X-2.237 Y-14.32674
G1 X-1.601 Y-14.41125
G1 X-0.962 Y-14.46876
G1 X-0.323 Y-14.49616
G1 X0.443 Y-14.49152
G1 X0.962 Y-14.46828 F600.000
G1 X1.601 Y-14.41179
G1 X2.237 Y-14.32630
G1 X2.868 Y-14.21381
G1 X3.494 Y-14.07332
G1 X4.113 Y-13.90483
G1 X4.724 Y-13.70934
G1 X5.326 Y-13.48685
G1 X5.917 Y-13.23836
G1 X6.495 Y-12.96476
G1 X7.617 Y-12.33887
G1 X8.155 Y-11.98939
G1 X8.678 Y-11.61690
G1 X9.183 Y-11.22141
G1 X9.670 Y-10.80492
G1 X10.139 Y-10.36643
G1 X10.588 Y-9.90794
G1 X11.015 Y-9.42945
G1 X11.422 Y-8.93396
G1 X11.806 Y-8.41947
G1 X12.166 Y-7.88898
G1 X12.503 Y-7.34249
G1 X12.816 Y-6.78200
G1 X13.103 Y-6.20951
G1 X13.365 Y-5.62302
G1 X13.601 Y-5.02653
G1 X13.810 Y-4.42004
G1 X13.992 Y-3.80455
G1 X14.146 Y-3.18206
G1 X14.273 Y-2.55357
G1 X14.372 Y-1.91908
G1 X14.443 Y-1.28259
G1 X14.486 Y-0.64110
G1 X14.500 Y-0.00061
G1 X14.486 Y0.64112
G1 X14.443 Y1.28163
G1 X14.372 Y1.91914
G1 X14.273 Y2.55365
G1 X14.146 Y3.18216
G1 X13.992 Y3.80467
G1 X13.810 Y4.42018
G1 X13.601 Y5.02669
G1 X13.365 Y5.62320
G1 X13.103 Y6.20971
G1 X12.816 Y6.78222
G1 X12.503 Y7.34273
G1 X12.166 Y7.88824
G1 X11.806 Y8.41975
G1 X11.422 Y8.93326
G1 X11.015 Y9.42977
G1 X10.588 Y9.90728
G1 X10.139 Y10.36679
G1 X9.670 Y10.80430
G1 X9.183 Y11.22181
G1 X8.678 Y11.61632
G1 X8.155 Y11.98983
G1 X7.617 Y12.33834
G1 X7.064 Y12.66385
G1 X6.497 Y12.96336
G1 X5.917 Y13.23887
G1 X5.326 Y13.48638
G1 X4.724 Y13.70989
G1 X4.224 Y13.86907
ID=1 WHEN $AC_TIMER[1]>=0 DO M51
G1 X3.124 Y13.316 F1999.980
G1 Z3.000 F1999.980
G1 X3.557 Y13.130 F1999.980
ID=1 WHEN $AC_TIMER[1]>=0 DO M50
G1 X2.691 Y13.33825 F600.000
G1 X2.099 Y13.44427
G1 X1.502 Y13.52428
G1 X0.902 Y13.57730
G1 X0.301 Y13.60431
G1 X-0.301 Y13.60433
G1 X-0.902 Y13.57734
G1 X-1.502 Y13.52436
G1 X-2.099 Y13.44438
G1 X-2.691 Y13.33839
G1 X-3.279 Y13.20641
G1 X-3.860 Y13.04842
G1 X-4.433 Y12.86544
G1 X-4.998 Y12.65645
G1 X-5.553 Y12.42247
G1 X-6.097 Y12.16548
G1 X-6.629 Y11.88350
G1 X-7.148 Y11.57851
G1 X-7.653 Y11.25153
G1 X-8.143 Y10.90155
G1 X-8.618 Y10.53056
G1 X-9.075 Y10.13958
G1 X-9.515 Y9.72759
G1 X-9.936 Y9.29761
G1 X-10.337 Y8.84862
G1 X-10.718 Y8.38364
G1 X-11.079 Y7.90065
G1 X-11.417 Y7.40267
G1 X-11.733 Y6.89068
G1 X-12.027 Y6.36470
G1 X-12.297 Y5.82672
G1 X-12.542 Y5.27773
G1 X-12.763 Y4.71775
G1 X-12.959 Y4.14776
G1 X-13.130 Y3.57078
G1 X-13.275 Y2.98679
G1 X-13.394 Y2.39681
G1 X-13.486 Y1.80746
G1 X-13.594 Y0.60283
G1 X-13.607 Y-0.00085
G1 X-13.594 Y-0.60287
G1 X-13.554 Y-1.20388
G1 X-13.487 Y-1.80190
G1 X-13.395 Y-2.39055
G1 X-13.240 Y-3.12816
G1 X-12.959 Y-4.14793
G1 X-12.763 Y-4.71796
G1 X-12.543 Y-5.27584
G1 X-12.297 Y-5.82698
G1 X-12.027 Y-6.36400
G1 X-11.733 Y-6.89001
G1 X-11.420 Y-7.39866
G1 X-10.991 Y-8.01728
G1 X-10.337 Y-8.84805
G1 X-9.936 Y-9.29707
G1 X-9.515 Y-9.72708
G1 X-9.075 Y-10.13910
G1 X-8.618 Y-10.53011
G1 X-8.143 Y-10.90113
G1 X-7.653 Y-11.25114
G1 X-7.148 Y-11.57816
G1 X-6.629 Y-11.88317
G1 X-6.102 Y-12.16283
G1 X-4.998 Y-12.65620
G1 X-4.433 Y-12.86522
G1 X-3.860 Y-13.04823
G1 X-3.279 Y-13.20625
G1 X-2.691 Y-13.33826
G1 X-2.099 Y-13.44428
G1 X-1.502 Y-13.52429
G1 X-0.902 Y-13.57731
G1 X-0.307 Y-13.60396
G1 X0.447 Y-13.59757
G1 X1.502 Y-13.52435 F600.000
G1 X2.099 Y-13.44436
G1 X2.691 Y-13.33838
G1 X3.279 Y-13.20639
G1 X3.860 Y-13.04841
G1 X4.433 Y-12.86542
G1 X4.998 Y-12.65644
G1 X5.553 Y-12.42246
G1 X6.097 Y-12.16547
G1 X6.629 Y-11.88349
G1 X7.148 Y-11.57850
G1 X7.653 Y-11.25152
G1 X8.143 Y-10.90153
G1 X8.618 Y-10.53055
G1 X9.075 Y-10.13956
G1 X9.515 Y-9.72758
G1 X9.936 Y-9.29759
G1 X10.337 Y-8.84861
G1 X10.718 Y-8.38363
G1 X11.079 Y-7.90064
G1 X11.417 Y-7.40266
G1 X11.733 Y-6.89067
G1 X12.027 Y-6.36469
G1 X12.297 Y-5.82670
G1 X12.542 Y-5.27772
G1 X12.763 Y-4.71773
G1 X12.959 Y-4.14775
G1 X13.130 Y-3.57076
G1 X13.275 Y-2.98678
G1 X13.394 Y-2.39680
G1 X13.487 Y-1.80181
G1 X13.554 Y-1.20383
G1 X13.594 Y-0.60284
G1 X13.607 Y-0.00086
G1 X13.594 Y0.60287
G1 X13.554 Y1.20389
G1 X13.487 Y1.80190
G1 X13.394 Y2.39692
G1 X13.275 Y2.98693
G1 X13.130 Y3.57095
G1 X12.959 Y4.14797
G1 X12.763 Y4.71798
G1 X12.542 Y5.27700
G1 X12.297 Y5.82601
G1 X12.027 Y6.36403
G1 X11.733 Y6.89004
G1 X11.417 Y7.40206
G1 X11.079 Y7.90007
G1 X10.718 Y8.38309
G1 X10.337 Y8.84810
G1 X9.936 Y9.29712
G1 X9.515 Y9.72714
G1 X9.075 Y10.13915
G1 X8.618 Y10.53017
G1 X8.143 Y10.90118
G1 X7.653 Y11.25120
G1 X7.148 Y11.57821
G1 X6.629 Y11.88323
G1 X6.097 Y12.16524
G1 X5.553 Y12.42226
G1 X4.998 Y12.65627
G1 X3.989 Y13.00771
ID=1 WHEN $AC_TIMER[1]>=0 DO M51
G1 X3.791 Y13.992 F1999.980
ID=1 WHEN $AC_TIMER[1]>=0 DO M50
G1 X2.868 Y14.21363 F600.000
G1 X2.237 Y14.32614
G1 X1.601 Y14.41165
G1 X0.962 Y14.46816
G1 X0.321 Y14.49667
G1 X-0.321 Y14.49618
G1 X-0.962 Y14.46869
G1 X-1.601 Y14.41120
G1 X-2.237 Y14.32671
G1 X-2.868 Y14.21322
G1 X-3.494 Y14.07373
G1 X-4.113 Y13.90424
G1 X-4.724 Y13.70975
G1 X-5.326 Y13.48627
G1 X-5.917 Y13.23878
G1 X-6.497 Y12.96329
G1 X-7.064 Y12.66380
G1 X-7.617 Y12.33831
G1 X-8.155 Y11.98982
G1 X-8.678 Y11.61633
G1 X-9.183 Y11.22184
G1 X-9.670 Y10.80435
G1 X-10.139 Y10.36686
G1 X-10.588 Y9.90737
G1 X-11.015 Y9.42988
G1 X-11.422 Y8.93339
G1 X-11.806 Y8.41990
G1 X-12.166 Y7.88841
G1 X-12.503 Y7.34292
G1 X-12.816 Y6.78243
G1 X-13.103 Y6.20994
G1 X-13.365 Y5.62345
G1 X-13.601 Y5.02696
G1 X-13.810 Y4.42047
G1 X-13.992 Y3.80498
G1 X-14.146 Y3.18249
G1 X-14.273 Y2.55300
G1 X-14.372 Y1.92138
G1 X-14.486 Y0.64151
G1 X-14.500 Y-0.00002
G1 X-14.486 Y-0.64153
G1 X-14.443 Y-1.28204
G1 X-14.372 Y-1.91955
G1 X-14.274 Y-2.55193
G1 X-14.110 Y-3.32703
G1 X-13.810 Y-4.42056
G1 X-13.601 Y-5.02608
G1 X-13.366 Y-5.62145
G1 X-13.103 Y-6.20909
G1 X-12.816 Y-6.78260
G1 X-12.503 Y-7.34211
G1 X-12.168 Y-7.88649
G1 X-11.716 Y-8.53960
G1 X-11.015 Y-9.42913
G1 X-10.588 Y-9.90764
G1 X-10.139 Y-10.36615
G1 X-9.670 Y-10.80466
G1 X-9.183 Y-11.22117
G1 X-8.678 Y-11.61668
G1 X-8.155 Y-11.98919
G1 X-7.617 Y-12.33870
G1 X-7.064 Y-12.66321
G1 X-6.499 Y-12.96259
G1 X-5.326 Y-13.48672
G1 X-4.724 Y-13.70923
G1 X-4.113 Y-13.90474
G1 X-3.494 Y-14.07325
G1 X-2.868 Y-14.21376
G1 X-2.237 Y-14.32627
G1 X-1.601 Y-14.41178
G1 X-0.962 Y-14.46829
G1 X-0.323 Y-14.49667
G1 X0.471 Y-14.49078
G1 X1.601 Y-14.41131 F600.000
G1 X2.237 Y-14.32682
G1 X2.868 Y-14.21333
G1 X3.494 Y-14.07384
G1 X4.113 Y-13.90435
G1 X4.724 Y-13.70986
G1 X5.326 Y-13.48637
G1 X5.917 Y-13.23888
G1 X6.497 Y-12.96339
G1 X7.064 Y-12.66390
G1 X7.617 Y-12.33841
G1 X8.155 Y-11.98992
G1 X8.678 Y-11.61643
G1 X9.183 Y-11.22194
G1 X9.670 Y-10.80445
G1 X10.139 Y-10.36696
G1 X10.588 Y-9.90747
G1 X11.015 Y-9.42998
G1 X11.422 Y-8.93349
G1 X11.806 Y-8.41900
G1 X12.166 Y-7.88851
G1 X12.503 Y-7.34202
G1 X12.816 Y-6.78253
G1 X13.103 Y-6.20904
G1 X13.365 Y-5.62355
G1 X13.601 Y-5.02606
G1 X13.810 Y-4.42057
G1 X13.992 Y-3.80408
G1 X14.146 Y-3.18259
G1 X14.273 Y-2.55310
G1 X14.372 Y-1.91961
G1 X14.443 Y-1.28212
G1 X14.486 Y-0.64163
G1 X14.500 Y-0.00014
G1 X14.486 Y0.64165
G1 X14.443 Y1.28216
G1 X14.372 Y1.91967
G1 X14.273 Y2.55318
G1 X14.146 Y3.18269
G1 X13.992 Y3.80420
G1 X13.810 Y4.42071
G1 X13.601 Y5.02622
G1 X13.365 Y5.62373
G1 X13.103 Y6.20924
G1 X12.816 Y6.78275
G1 X12.503 Y7.34226
G1 X12.166 Y7.88877
G1 X11.806 Y8.41928
G1 X11.422 Y8.93379
G1 X11.015 Y9.42930
G1 X10.588 Y9.90781
G1 X10.139 Y10.36632
G1 X9.670 Y10.80483
G1 X9.183 Y11.22134
G1 X8.678 Y11.61685
G1 X8.155 Y11.98936
G1 X7.617 Y12.33887
G1 X7.064 Y12.66338
G1 X6.497 Y12.96389
G1 X5.917 Y13.23840
G1 X5.326 Y13.48691
G1 X4.724 Y13.70942
G1 X4.224 Y13.86960
ID=1 WHEN $AC_TIMER[1]>=0 DO M51
G1 X3.124 Y13.316 F1999.980
G1 Z3.500 F1999.980
G1 X3.557 Y13.130 F1999.980
ID=1 WHEN $AC_TIMER[1]>=0 DO M50
G1 X2.691 Y13.33879 F600.000
G1 X2.099 Y13.44480
G1 X1.502 Y13.52482
G1 X0.902 Y13.57783
G1 X0.301 Y13.60485
G1 X-0.301 Y13.60486
G1 X-0.902 Y13.57788
G1 X-1.502 Y13.52489
G1 X-2.099 Y13.44491
G1 X-2.691 Y13.33892
G1 X-3.279 Y13.20694
G1 X-3.860 Y13.04896
G1 X-4.433 Y12.86597
G1 X-4.998 Y12.65699
G1 X-5.553 Y12.42200
G1 X-6.097 Y12.16502
G1 X-6.629 Y11.88303
G1 X-7.148 Y11.57805
G1 X-7.653 Y11.25106
G1 X-8.143 Y10.90108
G1 X-8.618 Y10.53009
G1 X-9.075 Y10.13911
G1 X-9.515 Y9.72713
G1 X-9.936 Y9.29714
G1 X-10.337 Y8.84816
G1 X-10.718 Y8.38317
G1 X-11.079 Y7.90019
G1 X-11.417 Y7.40220
G1 X-11.733 Y6.89022
G1 X-12.025 Y6.36897
G1 X-12.337 Y5.73647
G1 X-12.763 Y4.71726
G1 X-12.959 Y4.14727
G1 X-13.130 Y3.57029
G1 X-13.274 Y2.99289
G1 X-13.418 Y2.24212
G1 X-13.555 Y1.19014
G1 X-13.594 Y0.60234
G1 X-13.607 Y-0.00035
G1 X-13.594 Y-0.60237
G1 X-13.554 Y-1.19697
G1 X-13.463 Y-1.95420
G1 X-13.272 Y-2.99922
G1 X-13.130 Y-3.57042
G1 X-12.959 Y-4.14743
G1 X-12.763 Y-4.71745
G1 X-12.542 Y-5.27746
G1 X-12.297 Y-5.82648
G1 X-12.027 Y-6.36449
G1 X-11.733 Y-6.89051
G1 X-11.421 Y-7.39711
G1 X-10.985 Y-8.02434
G1 X-10.328 Y-8.85837
G1 X-9.936 Y-9.29756
G1 X-9.515 Y-9.72758
G1 X-9.075 Y-10.13959
G1 X-8.618 Y-10.53061
G1 X-8.143 Y-10.90162
G1 X-7.653 Y-11.25164
G1 X-7.148 Y-11.57865
G1 X-6.635 Y-11.88025
G1 X-5.956 Y-12.23148
G1 X-4.986 Y-12.66051
G1 X-4.433 Y-12.86570
G1 X-3.860 Y-13.04872
G1 X-3.279 Y-13.20673
G1 X-2.691 Y-13.33875
G1 X-2.099 Y-13.44476
G1 X-1.502 Y-13.52478
G1 X-0.902 Y-13.57779
G1 X-0.308 Y-13.60339
G1 X0.456 Y-13.59663
G1 X1.515 Y-13.52265 F600.000
G1 X2.099 Y-13.44484
G1 X2.691 Y-13.33886
G1 X3.279 Y-13.20687
G1 X3.860 Y-13.04889
G1 X4.433 Y-12.86591
G1 X4.998 Y-12.65692
G1 X5.553 Y-12.42294
G1 X6.097 Y-12.16595
G1 X6.629 Y-11.88397
G1 X7.148 Y-11.57898
G1 X7.653 Y-11.25100
G1 X8.143 Y-10.90101
G1 X8.618 Y-10.53003
G1 X9.075 Y-10.13904
G1 X9.515 Y-9.72706
G1 X9.936 Y-9.29708
G1 X10.337 Y-8.84809
G1 X10.718 Y-8.38311
G1 X11.079 Y-7.90012
G1 X11.417 Y-7.40214
G1 X11.733 Y-6.89015
G1 X12.027 Y-6.36417
G1 X12.297 Y-5.82618
G1 X12.542 Y-5.27720
G1 X12.763 Y-4.71721
G1 X12.959 Y-4.14723
G1 X13.130 Y-3.57025
G1 X13.275 Y-2.98626
G1 X13.394 Y-2.39628
G1 X13.487 Y-1.80129
G1 X13.554 Y-1.20331
G1 X13.594 Y-0.60232
G1 X13.607 Y-0.00034
G1 X13.594 Y0.60235
G1 X13.554 Y1.20337
G1 X13.487 Y1.80138
G1 X13.394 Y2.39640
G1 X13.277 Y2.97900
G1 X13.086 Y3.71923
G1 X12.759 Y4.72925
G1 X12.542 Y5.27745
G1 X12.297 Y5.82646
G1 X12.027 Y6.36448
G1 X11.733 Y6.89050
G1 X11.417 Y7.40251
G1 X11.079 Y7.90053
G1 X10.718 Y8.38354
G1 X10.337 Y8.84856
G1 X9.936 Y9.29757
G1 X9.515 Y9.72759
G1 X9.075 Y10.13960
G1 X8.618 Y10.53062
G1 X8.143 Y10.90163
G1 X7.653 Y11.25165
G1 X7.148 Y11.57867
G1 X6.629 Y11.88368
G1 X6.097 Y12.16570
G1 X5.553 Y12.42271
G1 X4.998 Y12.65673
G1 X3.989 Y13.00716
ID=1 WHEN $AC_TIMER[1]>=0 DO M51
G1 X3.791 Y13.992 F1999.980
ID=1 WHEN $AC_TIMER[1]>=0 DO M50
G1 X2.868 Y14.21309 F600.000
G1 X2.237 Y14.32660
G1 X1.601 Y14.41111
G1 X0.962 Y14.46862
G1 X0.321 Y14.49613
G1 X-0.321 Y14.49664
G1 X-0.962 Y14.46815
G1 X-1.601 Y14.41166
G1 X-2.237 Y14.32617
G1 X-2.868 Y14.21368
G1 X-3.494 Y14.07319
G1 X-4.113 Y13.90470
G1 X-4.724 Y13.70921
G1 X-5.326 Y13.48672
G1 X-5.917 Y13.23823
G1 X-6.497 Y12.96374
G1 X-7.064 Y12.66325
G1 X-7.617 Y12.33876
G1 X-8.155 Y11.98927
G1 X-8.678 Y11.61678
G1 X-9.183 Y11.22129
G1 X-9.670 Y10.80480
G1 X-10.139 Y10.36631
G1 X-10.588 Y9.90782
G1 X-11.015 Y9.42933
G1 X-11.422 Y8.93384
G1 X-11.806 Y8.41935
G1 X-12.166 Y7.88886
G1 X-12.503 Y7.34237
G1 X-12.815 Y6.78379
G1 X-13.145 Y6.11678
G1 X-13.365 Y5.62389
G1 X-13.601 Y5.02640
G1 X-13.810 Y4.42091
G1 X-13.992 Y3.80442
G1 X-14.146 Y3.18479
G1 X-14.300 Y2.38423
G1 X-14.443 Y1.27773
G1 X-14.486 Y0.64195
G1 X-14.500 Y-0.00046
G1 X-14.486 Y-0.64197
G1 X-14.443 Y-1.27933
G1 X-14.346 Y-2.08878
G1 X-14.145 Y-3.18628
G1 X-13.992 Y-3.80449
G1 X-13.810 Y-4.42000
G1 X-13.601 Y-5.02651
G1 X-13.365 Y-5.62302
G1 X-13.103 Y-6.20953
G1 X-12.816 Y-6.78204
G1 X-12.503 Y-7.34255
G1 X-12.168 Y-7.88691
G1 X-11.703 Y-8.55636
G1 X-11.012 Y-9.43386
G1 X-10.588 Y-9.90708
G1 X-10.139 Y-10.36659
G1 X-9.670 Y-10.80410
G1 X-9.183 Y-11.22161
G1 X-8.678 Y-11.61612
G1 X-8.155 Y-11.98963
G1 X-7.617 Y-12.33814
G1 X-7.066 Y-12.66250
G1 X-6.342 Y-13.03695
G1 X-5.321 Y-13.48845
G1 X-4.724 Y-13.70966
G1 X-4.113 Y-13.90417
G1 X-3.494 Y-14.07368
G1 X-2.868 Y-14.21319
G1 X-2.237 Y-14.32670
G1 X-1.601 Y-14.41121
G1 X-0.962 Y-14.46872
G1 X-0.323 Y-14.49608
G1 X0.492 Y-14.48953
G1 X1.605 Y-14.41103 F600.000
G1 X2.237 Y-14.32625
G1 X2.868 Y-14.21376
G1 X3.494 Y-14.07327
G1 X4.113 Y-13.90478
G1 X4.724 Y-13.70929
G1 X5.326 Y-13.48680
G1 X5.917 Y-13.23831
G1 X6.497 Y-12.96382
G1 X7.064 Y-12.66333
G1 X7.617 Y-12.33884
G1 X8.155 Y-11.98935
G1 X8.678 Y-11.61686
G1 X9.183 Y-11.22137
G1 X9.670 Y-10.80488
G1 X10.139 Y-10.36639
G1 X10.588 Y-9.90790
G1 X11.015 Y-9.42941
G1 X11.422 Y-8.93392
G1 X11.806 Y-8.41943
G1 X12.166 Y-7.88894
G1 X12.503 Y-7.34245
G1 X12.816 Y-6.78296
G1 X13.103 Y-6.20947
G1 X13.365 Y-5.62398
G1 X13.601 Y-5.02649
G1 X13.810 Y-4.42000
G1 X13.992 Y-3.80451
G1 X14.146 Y-3.18202
G1 X14.273 Y-2.55353
G1 X14.372 Y-1.91904
G1 X14.443 Y-1.28255
G1 X14.486 Y-0.64106
G1 X14.500 Y-0.00057
G1 X14.486 Y0.64108
G1 X14.443 Y1.28259
G1 X14.372 Y1.91910
G1 X14.273 Y2.55361
G1 X14.147 Y3.18097
G1 X13.943 Y3.96842
G1 X13.599 Y5.03192
G1 X13.365 Y5.62313
G1 X13.103 Y6.20964
G1 X12.816 Y6.78215
G1 X12.503 Y7.34266
G1 X12.166 Y7.88817
G1 X11.806 Y8.41968
G1 X11.422 Y8.93319
G1 X11.015 Y9.42970
G1 X10.588 Y9.90721
G1 X10.139 Y10.36672
G1 X9.670 Y10.80424
G1 X9.183 Y11.22175
G1 X8.678 Y11.61626
G1 X8.155 Y11.98977
G1 X7.617 Y12.33828
G1 X7.064 Y12.66379
G1 X6.497 Y12.96330
G1 X5.917 Y13.23881
G1 X5.326 Y13.48632
G1 X4.724 Y13.70983
G1 X4.224 Y13.86900
ID=1 WHEN $AC_TIMER[1]>=0 DO M51
G1 X3.124 Y13.316 F1999.980
G1 Z4.000 F1999.980
G1 X3.557 Y13.130 F1999.980
ID=1 WHEN $AC_TIMER[1]>=0 DO M50
G1 X2.691 Y13.33819 F600.000
G1 X2.099 Y13.44420
G1 X1.502 Y13.52422
G1 X0.902 Y13.57723
G1 X0.301 Y13.60425
G1 X-0.301 Y13.60426
G1 X-0.902 Y13.57728
G1 X-1.502 Y13.52429
G1 X-2.092 Y13.44585
G1 X-2.869 Y13.29879
G1 X-3.872 Y13.04412
G1 X-4.433 Y12.86534
G1 X-4.998 Y12.65636
G1 X-5.553 Y12.42237
G1 X-6.097 Y12.16539
G1 X-6.629 Y11.88341
G1 X-7.148 Y11.57842
G1 X-7.653 Y11.25144
G1 X-8.143 Y10.90145
G1 X-8.618 Y10.53047
G1 X-9.075 Y10.13948
G1 X-9.515 Y9.72750
G1 X-9.936 Y9.29751
G1 X-10.337 Y8.84853
G1 X-10.718 Y8.38354
G1 X-11.079 Y7.90056
G1 X-11.417 Y7.40258
G1 X-11.730 Y6.89613
G1 X-12.108 Y6.20208
G1 X-12.547 Y5.26540
G1 X-12.763 Y4.71762
G1 X-12.959 Y4.14764
G1 X-13.130 Y3.57066
G1 X-13.274 Y2.99321
G1 X-13.422 Y2.21616
G1 X-13.555 Y1.19048
G1 X-13.594 Y0.60270
G1 X-13.607 Y-0.00072
G1 X-13.594 Y-0.60274
G1 X-13.554 Y-1.20375
G1 X-13.487 Y-1.80177
G1 X-13.394 Y-2.39678
G1 X-13.275 Y-2.98680
G1 X-13.132 Y-3.56335
G1 X-12.900 Y-4.31930
G1 X-12.537 Y-5.28862
G1 X-12.297 Y-5.82685
G1 X-12.027 Y-6.36486
G1 X-11.733 Y-6.89088
G1 X-11.421 Y-7.39643
G1 X-10.969 Y-8.04638
G1 X-10.329 Y-8.85870
G1 X-9.936 Y-9.29793
G1 X-9.515 Y-9.72794
G1 X-9.075 Y-10.13996
G1 X-8.618 Y-10.53097
G1 X-8.143 Y-10.90199
G1 X-7.659 Y-11.24654
G1 X-6.991 Y-11.67049
G1 X-6.085 Y-12.17081
G1 X-5.553 Y-12.42204
G1 X-4.998 Y-12.65605
G1 X-4.433 Y-12.86507
G1 X-3.860 Y-13.04808
G1 X-3.279 Y-13.20610
G1 X-2.691 Y-13.33811
G1 X-2.099 Y-13.44413
G1 X-1.502 Y-13.52414
G1 X-0.902 Y-13.57716
G1 X-0.308 Y-13.60371
G1 X0.483 Y-13.59566
G1 X1.515 Y-13.52299 F600.000
G1 X2.099 Y-13.44421
G1 X2.691 Y-13.33822
G1 X3.279 Y-13.20624
G1 X3.860 Y-13.04825
G1 X4.433 Y-12.86527
G1 X4.998 Y-12.65629
G1 X5.553 Y-12.42230
G1 X6.097 Y-12.16532
G1 X6.629 Y-11.88333
G1 X7.148 Y-11.57835
G1 X7.653 Y-11.25136
G1 X8.143 Y-10.90138
G1 X8.618 Y-10.53039
G1 X9.075 Y-10.13941
G1 X9.515 Y-9.72742
G1 X9.936 Y-9.29744
G1 X10.337 Y-8.84846
G1 X10.718 Y-8.38347
G1 X11.079 Y-7.90049
G1 X11.417 Y-7.40250
G1 X11.733 Y-6.89052
G1 X12.027 Y-6.36453
G1 X12.297 Y-5.82655
G1 X12.542 Y-5.27756
G1 X12.763 Y-4.71758
G1 X12.959 Y-4.14759
G1 X13.130 Y-3.57061
G1 X13.275 Y-2.98663
G1 X13.394 Y-2.39664
G1 X13.487 Y-1.80166
G1 X13.554 Y-1.20367
G1 X13.594 Y-0.60269
G1 X13.607 Y-0.00070
G1 X13.594 Y0.60272
G1 X13.554 Y1.20373
G1 X13.487 Y1.80175
G1 X13.394 Y2.39676
G1 X13.275 Y2.98678
G1 X13.130 Y3.57080
G1 X12.959 Y4.14781
G1 X12.763 Y4.71783
G1 X12.542 Y5.27784
G1 X12.297 Y5.82686
G1 X12.027 Y6.36487
G1 X11.733 Y6.89089
G1 X11.417 Y7.40290
G1 X11.079 Y7.90092
G1 X10.718 Y8.38393
G1 X10.337 Y8.84895
G1 X9.936 Y9.29797
G1 X9.515 Y9.72798
G1 X9.075 Y10.13900
G1 X8.618 Y10.53001
G1 X8.143 Y10.90103
G1 X7.653 Y11.25104
G1 X7.148 Y11.57806
G1 X6.629 Y11.88307
G1 X6.097 Y12.16509
G1 X5.553 Y12.42210
G1 X4.998 Y12.65612
G1 X3.989 Y13.00755
ID=1 WHEN $AC_TIMER[1]>=0 DO M51
G1 X3.791 Y13.992 F1999.980
ID=1 WHEN $AC_TIMER[1]>=0 DO M50
G1 X2.868 Y14.21348 F600.000
G1 X2.237 Y14.32699
G1 X1.601 Y14.41150
G1 X0.962 Y14.46801
G1 X0.321 Y14.49652
G1 X-0.321 Y14.49603
G1 X-0.962 Y14.46854
G1 X-1.601 Y14.41105
G1 X-2.234 Y14.32739
G1 X-3.061 Y14.17058
G1 X-4.117 Y13.90335
G1 X-4.724 Y13.70957
G1 X-5.326 Y13.48608
G1 X-5.917 Y13.23859
G1 X-6.497 Y12.96310
G1 X-7.064 Y12.66361
G1 X-7.617 Y12.33812
G1 X-8.155 Y11.98963
G1 X-8.678 Y11.61614
G1 X-9.183 Y11.22165
G1 X-9.670 Y10.80416
G1 X-10.139 Y10.36667
G1 X-10.588 Y9.90719
G1 X-11.015 Y9.42970
G1 X-11.422 Y8.93321
G1 X-11.806 Y8.41972
G1 X-12.166 Y7.88823
G1 X-12.502 Y7.34557
G1 X-12.905 Y6.60575
G1 X-13.367 Y5.61952
G1 X-13.601 Y5.02675
G1 X-13.810 Y4.42026
G1 X-13.992 Y3.80477
G1 X-14.146 Y3.18411
G1 X-14.304 Y2.35729
G1 X-14.443 Y1.27707
G1 X-14.486 Y0.64129
G1 X-14.500 Y-0.00080
G1 X-14.486 Y-0.64131
G1 X-14.443 Y-1.28282
G1 X-14.372 Y-1.91933
G1 X-14.273 Y-2.55384
G1 X-14.146 Y-3.18235
G1 X-13.993 Y-3.80270
G1 X-13.745 Y-4.60788
G1 X-13.363 Y-5.62765
G1 X-13.103 Y-6.20988
G1 X-12.816 Y-6.78239
G1 X-12.503 Y-7.34290
G1 X-12.168 Y-7.88624
G1 X-11.687 Y-8.57742
G1 X-11.012 Y-9.43219
G1 X-10.588 Y-9.90742
G1 X-10.139 Y-10.36693
G1 X-9.670 Y-10.80444
G1 X-9.183 Y-11.22195
G1 X-8.678 Y-11.61646
G1 X-8.158 Y-11.98780
G1 X-7.446 Y-12.43899
G1 X-6.493 Y-12.96576
G1 X-5.917 Y-13.23898
G1 X-5.326 Y-13.48649
G1 X-4.724 Y-13.70900
G1 X-4.113 Y-13.90451
G1 X-3.494 Y-14.07302
G1 X-2.868 Y-14.21353
G1 X-2.237 Y-14.32604
G1 X-1.601 Y-14.41155
G1 X-0.962 Y-14.46806
G1 X-0.323 Y-14.49641
G1 X0.519 Y-14.48759
G1 X1.605 Y-14.41136 F600.000
G1 X2.237 Y-14.32659
G1 X2.868 Y-14.21310
G1 X3.494 Y-14.07361
G1 X4.113 Y-13.90412
G1 X4.724 Y-13.70963
G1 X5.326 Y-13.48614
G1 X5.917 Y-13.23865
G1 X6.497 Y-12.96316
G1 X7.064 Y-12.66367
G1 X7.617 Y-12.33818
G1 X8.155 Y-11.98969
G1 X8.678 Y-11.61620
G1 X9.183 Y-11.22171
G1 X9.670 Y-10.80422
G1 X10.139 Y-10.36673
G1 X10.588 Y-9.90724
G1 X11.015 Y-9.42975
G1 X11.422 Y-8.93326
G1 X11.806 Y-8.41977
G1 X12.166 Y-7.88828
G1 X12.503 Y-7.34279
G1 X12.816 Y-6.78230
G1 X13.103 Y-6.20981
G1 X13.365 Y-5.62332
G1 X13.601 Y-5.02683
G1 X13.810 Y-4.42034
G1 X13.992 Y-3.80485
G1 X14.146 Y-3.18236
G1 X14.273 Y-2.55387
G1 X14.372 Y-1.91938
G1 X14.443 Y-1.28289
G1 X14.486 Y-0.64140
G1 X14.500 Y-0.00091
G1 X14.486 Y0.64142
G1 X14.443 Y1.28293
G1 X14.372 Y1.91944
G1 X14.273 Y2.55395
G1 X14.146 Y3.18246
G1 X13.992 Y3.80497
G1 X13.810 Y4.42048
G1 X13.601 Y5.02699
G1 X13.365 Y5.62350
G1 X13.103 Y6.20901
G1 X12.816 Y6.78252
G1 X12.503 Y7.34203
G1 X12.166 Y7.88854
G1 X11.806 Y8.41905
G1 X11.422 Y8.93356
G1 X11.015 Y9.42907
G1 X10.588 Y9.90758
G1 X10.139 Y10.36609
G1 X9.670 Y10.80460
G1 X9.183 Y11.22111
G1 X8.678 Y11.61662
G1 X8.155 Y11.98913
G1 X7.617 Y12.33864
G1 X7.064 Y12.66315
G1 X6.497 Y12.96366
G1 X5.917 Y13.23817
G1 X5.326 Y13.48668
G1 X4.724 Y13.70919
G1 X4.224 Y13.86937
ID=1 WHEN $AC_TIMER[1]>=0 DO M51
G1 X3.124 Y13.316 F1999.980
G1 Z4.500 F1999.980
G1 X3.557 Y13.130 F1999.980
ID=1 WHEN $AC_TIMER[1]>=0 DO M50
G1 X2.691 Y13.33856 F600.000
G1 X2.099 Y13.44457
G1 X1.502 Y13.52459
G1 X0.902 Y13.57760
G1 X0.301 Y13.60462
G1 X-0.301 Y13.60463
G1 X-0.902 Y13.57765
G1 X-1.502 Y13.52466
G1 X-2.099 Y13.44468
G1 X-2.691 Y13.33869
G1 X-3.279 Y13.20671
G1 X-3.860 Y13.04873
G1 X-4.433 Y12.86574
G1 X-4.998 Y12.65676
G1 X-5.553 Y12.42277
G1 X-6.097 Y12.16579
G1 X-6.629 Y11.88380
G1 X-7.141 Y11.58231
G1 X-7.822 Y11.12997
G1 X-8.627 Y10.52260
G1 X-9.075 Y10.13985
G1 X-9.515 Y9.72787
G1 X-9.936 Y9.29788
G1 X-10.337 Y8.84890
G1 X-10.718 Y8.38391
G1 X-11.079 Y7.90093
G1 X-11.417 Y7.40294
G1 X-11.733 Y6.89096
G1 X-12.027 Y6.36498
G1 X-12.297 Y5.82699
G1 X-12.542 Y5.27701
G1 X-12.763 Y4.71702
G1 X-12.959 Y4.14704
G1 X-13.130 Y3.57005
G1 X-13.275 Y2.98607
G1 X-13.394 Y2.39608
G1 X-13.486 Y1.80768
G1 X-13.564 Y1.04603
G1 X-13.607 Y-0.01394
G1 X-13.594 Y-0.60213
G1 X-13.554 Y-1.20315
G1 X-13.487 Y-1.80116
G1 X-13.396 Y-2.38867
G1 X-13.225 Y-3.18833
G1 X-12.956 Y-4.15996
G1 X-12.763 Y-4.71721
G1 X-12.542 Y-5.27723
G1 X-12.297 Y-5.82624
G1 X-12.027 Y-6.36426
G1 X-11.733 Y-6.89027
G1 X-11.417 Y-7.40229
G1 X-11.079 Y-7.90030
G1 X-10.718 Y-8.38332
G1 X-10.342 Y-8.84283
G1 X-9.789 Y-9.44549
G1 X-9.066 Y-10.14712
G1 X-8.618 Y-10.53037
G1 X-8.143 Y-10.90138
G1 X-7.660 Y-11.24689
G1 X-6.968 Y-11.68355
G1 X-6.086 Y-12.17018
G1 X-5.553 Y-12.42243
G1 X-4.998 Y-12.65645
G1 X-4.433 Y-12.86546
G1 X-3.860 Y-13.04848
G1 X-3.279 Y-13.20649
G1 X-2.691 Y-13.33851
G1 X-2.099 Y-13.44453
G1 X-1.502 Y-13.52454
G1 X-0.902 Y-13.57756
G1 X-0.309 Y-13.60306
G1 X0.509 Y-13.59473
G1 X1.514 Y-13.52235 F600.000
G1 X2.099 Y-13.44460
G1 X2.691 Y-13.33862
G1 X3.279 Y-13.20664
G1 X3.860 Y-13.04865
G1 X4.433 Y-12.86567
G1 X4.998 Y-12.65668
G1 X5.553 Y-12.42270
G1 X6.097 Y-12.16571
G1 X6.629 Y-11.88373
G1 X7.148 Y-11.57874
G1 X7.653 Y-11.25176
G1 X8.143 Y-10.90177
G1 X8.618 Y-10.53079
G1 X9.075 Y-10.13981
G1 X9.515 Y-9.72782
G1 X9.936 Y-9.29784
G1 X10.337 Y-8.84885
G1 X10.718 Y-8.38387
G1 X11.079 Y-7.90088
G1 X11.417 Y-7.40290
G1 X11.733 Y-6.89091
G1 X12.027 Y-6.36493
G1 X12.297 Y-5.82694
G1 X12.542 Y-5.27796
G1 X12.763 Y-4.71798
G1 X12.959 Y-4.14799
G1 X13.130 Y-3.57001
G1 X13.275 Y-2.98602
G1 X13.394 Y-2.39604
G1 X13.487 Y-1.80105
G1 X13.554 Y-1.20307
G1 X13.594 Y-0.60208
G1 X13.607 Y-0.00010
G1 X13.594 Y0.60211
G1 X13.554 Y1.20313
G1 X13.487 Y1.80115
G1 X13.394 Y2.39616
G1 X13.275 Y2.98618
G1 X13.130 Y3.57019
G1 X12.959 Y4.14721
G1 X12.763 Y4.71722
G1 X12.542 Y5.27724
G1 X12.297 Y5.82625
G1 X12.027 Y6.36427
G1 X11.737 Y6.88378
G1 X11.300 Y7.57444
G1 X10.711 Y8.39207
G1 X10.337 Y8.84832
G1 X9.936 Y9.29733
G1 X9.515 Y9.72735
G1 X9.075 Y10.13936
G1 X8.618 Y10.53038
G1 X8.143 Y10.90139
G1 X7.653 Y11.25141
G1 X7.148 Y11.57843
G1 X6.629 Y11.88344
G1 X6.097 Y12.16546
G1 X5.560 Y12.41996
G1 X4.802 Y12.72763
G1 X3.988 Y13.00491
ID=1 WHEN $AC_TIMER[1]>=0 DO M51
G1 X3.791 Y13.992 F1999.980
ID=1 WHEN $AC_TIMER[1]>=0 DO M50
G1 X2.868 Y14.21383 F600.000
G1 X2.237 Y14.32634
G1 X1.601 Y14.41185
G1 X0.962 Y14.46836
G1 X0.321 Y14.49687
G1 X-0.321 Y14.49638
G1 X-0.962 Y14.46889
G1 X-1.601 Y14.41141
G1 X-2.237 Y14.32692
G1 X-2.868 Y14.21343
G1 X-3.494 Y14.07394
G1 X-4.113 Y13.90445
G1 X-4.724 Y13.70996
G1 X-5.326 Y13.48647
G1 X-5.917 Y13.23898
G1 X-6.497 Y12.96349
G1 X-7.064 Y12.66300
G1 X-7.615 Y12.33932
G1 X-8.339 Y11.85824
G1 X-9.186 Y11.21828
G1 X-9.670 Y10.80452
G1 X-10.139 Y10.36603
G1 X-10.588 Y9.90754
G1 X-11.015 Y9.42905
G1 X-11.422 Y8.93356
G1 X-11.806 Y8.41907
G1 X-12.166 Y7.88858
G1 X-12.503 Y7.34209
G1 X-12.816 Y6.78260
G1 X-13.103 Y6.20911
G1 X-13.365 Y5.62362
G1 X-13.601 Y5.02613
G1 X-13.810 Y4.42064
G1 X-13.992 Y3.80415
G1 X-14.146 Y3.18266
G1 X-14.273 Y2.55317
G1 X-14.372 Y1.92153
G1 X-14.454 Y1.10910
G1 X-14.500 Y-0.00548
G1 X-14.486 Y-0.64169
G1 X-14.443 Y-1.28220
G1 X-14.372 Y-1.91971
G1 X-14.274 Y-2.55004
G1 X-14.092 Y-3.40196
G1 X-13.808 Y-4.42400
G1 X-13.601 Y-5.02624
G1 X-13.365 Y-5.62375
G1 X-13.103 Y-6.20926
G1 X-12.816 Y-6.78277
G1 X-12.503 Y-7.34228
G1 X-12.166 Y-7.88879
G1 X-11.806 Y-8.41930
G1 X-11.422 Y-8.93381
G1 X-11.017 Y-9.42714
G1 X-10.430 Y-10.06805
G1 X-9.667 Y-10.80710
G1 X-9.183 Y-11.22133
G1 X-8.678 Y-11.61684
G1 X-8.158 Y-11.98717
G1 X-7.423 Y-12.45209
G1 X-6.493 Y-12.96513
G1 X-5.917 Y-13.23836
G1 X-5.326 Y-13.48687
G1 X-4.724 Y-13.70938
G1 X-4.113 Y-13.90489
G1 X-3.494 Y-14.07341
G1 X-2.868 Y-14.21392
G1 X-2.237 Y-14.32643
G1 X-1.601 Y-14.41194
G1 X-0.962 Y-14.46845
G1 X-0.324 Y-14.49677
G1 X0.546 Y-14.48669
G1 X1.605 Y-14.41173 F600.000
G1 X2.237 Y-14.32697
G1 X2.868 Y-14.21348
G1 X3.494 Y-14.07399
G1 X4.113 Y-13.90450
G1 X4.724 Y-13.70901
G1 X5.326 Y-13.48652
G1 X5.917 Y-13.23803
G1 X6.497 Y-12.96354
G1 X7.064 Y-12.66305
G1 X7.617 Y-12.33856
G1 X8.155 Y-11.98907
G1 X8.678 Y-11.61658
G1 X9.183 Y-11.22109
G1 X9.670 Y-10.80460
G1 X10.139 Y-10.36611
G1 X10.588 Y-9.90762
G1 X11.015 Y-9.42913
G1 X11.422 Y-8.93364
G1 X11.806 Y-8.41915
G1 X12.166 Y-7.88866
G1 X12.503 Y-7.34217
G1 X12.816 Y-6.78268
G1 X13.103 Y-6.20919
G1 X13.365 Y-5.62370
G1 X13.601 Y-5.02621
G1 X13.810 Y-4.42072
G1 X13.992 Y-3.80423
G1 X14.146 Y-3.18274
G1 X14.273 Y-2.55325
G1 X14.372 Y-1.91976
G1 X14.443 Y-1.28227
G1 X14.486 Y-0.64178
G1 X14.500 Y-0.00029
G1 X14.486 Y0.64180
G1 X14.443 Y1.28231
G1 X14.372 Y1.91982
G1 X14.273 Y2.55333
G1 X14.146 Y3.18284
G1 X13.992 Y3.80435
G1 X13.810 Y4.42086
G1 X13.601 Y5.02637
G1 X13.365 Y5.62388
G1 X13.103 Y6.20939
G1 X12.816 Y6.78290
G1 X12.505 Y7.34023
G1 X12.039 Y8.07515
G1 X11.419 Y8.93619
G1 X11.015 Y9.42943
G1 X10.588 Y9.90794
G1 X10.139 Y10.36645
G1 X9.670 Y10.80496
G1 X9.183 Y11.22147
G1 X8.678 Y11.61698
G1 X8.155 Y11.98949
G1 X7.617 Y12.33800
G1 X7.064 Y12.66351
G1 X6.497 Y12.96302
G1 X5.920 Y13.23634
G1 X5.114 Y13.56426
G1 X4.223 Y13.86770
ID=1 WHEN $AC_TIMER[1]>=0 DO M51
G1 X3.120 Y13.320 F1999.980
G1 Z5.000 F1999.980
G1 X3.557 Y13.130 F1999.980
ID=1 WHEN $AC_TIMER[1]>=0 DO M50
G1 X2.691 Y13.33888 F600.000
G1 X2.099 Y13.44490
G1 X1.502 Y13.52491
G1 X0.902 Y13.577193
G1 X0.301 Y13.604994
G1 X-0.301 Y13.604796
G1 X-0.902 Y13.577597
G1 X-1.502 Y13.524399
G1 X-2.099 Y13.444200
G1 X-2.691 Y13.338002
G1 X-3.279 Y13.206804
G1 X-3.860 Y13.048605
G1 X-4.433 Y12.865407
G1 X-4.998 Y12.656208
G1 X-5.553 Y12.422010
G1 X-6.097 Y12.165811
G1 X-6.629 Y11.883613
G1 X-7.148 Y11.578414
G1 X-7.653 Y11.251216
G1 X-8.143 Y10.901017
G1 X-8.618 Y10.530819
G1 X-9.075 Y10.139621
G1 X-9.515 Y9.727422
G1 X-9.936 Y9.297224
G1 X-10.337 Y8.848025
G1 X-10.718 Y8.383827
G1 X-11.079 Y7.900628
G1 X-11.417 Y7.402430
G1 X-11.733 Y6.890231
G1 X-12.027 Y6.364033
G1 X-12.297 Y5.826834
G1 X-12.542 Y5.277636
G1 X-12.763 Y4.717438
G1 X-12.959 Y4.147239
G1 X-13.130 Y3.570041
G1 X-13.273 Y2.994787
G1 X-13.430 Y2.164125
G1 X-13.554 Y1.191317
G1 X-13.594 Y0.602045
G1 X-13.607 Y-0.000847
G1 X-13.594 Y-0.602649
G1 X-13.554 Y-1.203450
G1 X-13.487 Y-1.801252
G1 X-13.394 Y-2.396053
G1 X-13.275 Y-2.986855
G1 X-13.130 Y-3.570656
G1 X-12.962 Y-4.139403
G1 X-12.677 Y-4.935740
G1 X-12.291 Y-5.837933
G1 X-12.027 Y-6.364661
G1 X-11.733 Y-6.890463
G1 X-11.422 Y-7.395209
G1 X-10.938 Y-8.088547
G1 X-10.329 Y-8.857739
G1 X-9.936 Y-9.297467
G1 X-9.515 Y-9.727269
G1 X-9.075 Y-10.139071
G1 X-8.618 Y-10.530872
G1 X-8.143 Y-10.901674
G1 X-7.653 Y-11.251475
G1 X-7.148 Y-11.578277
G1 X-6.629 Y-11.883078
G1 X-6.097 Y-12.165880
G1 X-5.553 Y-12.422681
G1 X-4.998 Y-12.656483
G1 X-4.433 Y-12.865284
G1 X-3.860 Y-13.048086
G1 X-3.279 Y-13.206888
G1 X-2.691 Y-13.338689
G1 X-2.099 Y-13.444491
G1 X-1.502 Y-13.524292
G1 X-0.902 Y-13.577094
G1 X-0.310 Y-13.603840
G1 X0.536 Y-13.593178
G1 X1.514 Y-13.522370 F600.000
G1 X2.099 Y-13.444099
G1 X2.691 Y-13.338900
G1 X3.279 Y-13.206702
G1 X3.860 Y-13.048503
G1 X4.433 Y-12.865305
G1 X4.998 Y-12.656106
G1 X5.553 Y-12.422908
G1 X6.097 Y-12.165709
G1 X6.629 Y-11.883511
G1 X7.148 Y-11.578312
G1 X7.653 Y-11.251114
G1 X8.143 Y-10.901916
G1 X8.618 Y-10.530717
G1 X9.075 Y-10.139519
G1 X9.515 Y-9.727320
G1 X9.936 Y-9.297122
G1 X10.337 Y-8.848923
G1 X10.718 Y-8.383725
G1 X11.079 Y-7.900526
G1 X11.417 Y-7.402328
G1 X11.733 Y-6.890130
G1 X12.027 Y-6.364931
G1 X12.297 Y-5.826733
G1 X12.542 Y-5.277534
G1 X12.763 Y-4.717336
G1 X12.959 Y-4.147137
G1 X13.130 Y-3.570939
G1 X13.275 Y-2.986740
G1 X13.394 Y-2.396542
G1 X13.487 Y-1.801343
G1 X13.554 Y-1.203145
G1 X13.594 Y-0.602947
G1 X13.607 Y-0.000748
G1 X13.594 Y0.602550
G1 X13.554 Y1.203351
G1 X13.487 Y1.801153
G1 X13.394 Y2.396954
G1 X13.275 Y2.986756
G1 X13.130 Y3.570557
G1 X12.959 Y4.147359
G1 X12.763 Y4.717160
G1 X12.542 Y5.277962
G1 X12.297 Y5.826764
G1 X12.027 Y6.364565
G1 X11.733 Y6.890367
G1 X11.417 Y7.402168
G1 X11.079 Y7.900970
G1 X10.718 Y8.383771
G1 X10.337 Y8.848573
G1 X9.936 Y9.297374
G1 X9.515 Y9.727176
G1 X9.075 Y10.139977
G1 X8.618 Y10.530779
G1 X8.143 Y10.901581
G1 X7.653 Y11.251382
G1 X7.148 Y11.578184
G1 X6.629 Y11.883985
G1 X6.097 Y12.165787
G1 X5.553 Y12.422588
G1 X4.998 Y12.656390
G1 X3.989 Y13.007133
ID=1 WHEN $AC_TIMER[1]>=0 DO M51
G1 X3.791 Y13.992 F1999.980
ID=1 WHEN $AC_TIMER[1]>=0 DO M50
G1 X2.868 Y14.213126 F600.000
G1 X2.237 Y14.326177
G1 X1.601 Y14.411228
G1 X0.962 Y14.468279
G1 X0.321 Y14.496330
G1 X-0.321 Y14.496381
G1 X-0.962 Y14.468432
G1 X-1.601 Y14.411483
G1 X-2.237 Y14.326534
G1 X-2.868 Y14.213585
G1 X-3.494 Y14.073636
G1 X-4.113 Y13.904687
G1 X-4.724 Y13.709738
G1 X-5.326 Y13.486789
G1 X-5.917 Y13.238840
G1 X-6.497 Y12.963891
G1 X-7.064 Y12.663942
G1 X-7.617 Y12.338993
G1 X-8.155 Y11.989044
G1 X-8.678 Y11.616095
G1 X-9.183 Y11.221146
G1 X-9.670 Y10.804197
G1 X-10.139 Y10.366248
G1 X-10.588 Y9.907299
G1 X-11.015 Y9.429350
G1 X-11.422 Y8.933401
G1 X-11.806 Y8.419452
G1 X-12.166 Y7.888503
G1 X-12.503 Y7.342554
G1 X-12.816 Y6.782605
G1 X-13.103 Y6.209656
G1 X-13.365 Y5.623707
G1 X-13.601 Y5.026758
G1 X-13.810 Y4.420809
G1 X-13.992 Y3.804860
G1 X-14.146 Y3.185891
G1 X-14.312 Y2.303556
G1 X-14.443 Y1.277088
G1 X-14.486 Y0.641112
G1 X-14.500 Y-0.000163
G1 X-14.486 Y-0.641214
G1 X-14.443 Y-1.282265
G1 X-14.372 Y-1.919316
G1 X-14.273 Y-2.553367
G1 X-14.146 Y-3.182418
G1 X-13.992 Y-3.804469
G1 X-13.811 Y-4.417501
G1 X-13.508 Y-5.261166
G1 X-13.102 Y-6.212697
G1 X-12.816 Y-6.782722
G1 X-12.503 Y-7.342773
G1 X-12.168 Y-7.886804
G1 X-11.654 Y-8.621469
G1 X-11.013 Y-9.432000
G1 X-10.588 Y-9.907025
G1 X-10.139 Y-10.366076
G1 X-9.670 Y-10.804127
G1 X-9.183 Y-11.221178
G1 X-8.678 Y-11.616229
G1 X-8.155 Y-11.989280
G1 X-7.617 Y-12.338331
G1 X-7.064 Y-12.663382
G1 X-6.497 Y-12.963433
G1 X-5.917 Y-13.238484
G1 X-5.326 Y-13.486535
G1 X-4.724 Y-13.709586
G1 X-4.113 Y-13.904637
G1 X-3.494 Y-14.073688
G1 X-2.868 Y-14.213739
G1 X-2.237 Y-14.326790
G1 X-1.601 Y-14.411841
G1 X-0.962 Y-14.468892
G1 X-0.324 Y-14.496923
G1 X0.573 Y-14.485588
G1 X1.605 Y-14.411120 F600.000
G1 X2.237 Y-14.326144
G1 X2.868 Y-14.213195
G1 X3.494 Y-14.073246
G1 X4.113 Y-13.904298
G1 X4.724 Y-13.709349
G1 X5.326 Y-13.486400
G1 X5.917 Y-13.238451
G1 X6.497 Y-12.963502
G1 X7.064 Y-12.663553
G1 X7.617 Y-12.338604
G1 X8.155 Y-11.989655
G1 X8.678 Y-11.616706
G1 X9.183 Y-11.221757
G1 X9.670 Y-10.804808
G1 X10.139 Y-10.366859
G1 X10.588 Y-9.907910
G1 X11.015 Y-9.429961
G1 X11.422 Y-8.933012
G1 X11.806 Y-8.419063
G1 X12.166 Y-7.888114
G1 X12.503 Y-7.342165
G1 X12.816 Y-6.782216
G1 X13.103 Y-6.209267
G1 X13.365 Y-5.623318
G1 X13.601 Y-5.026369
G1 X13.810 Y-4.420420
G1 X13.992 Y-3.804471
G1 X14.146 Y-3.182522
G1 X14.273 Y-2.553573
G1 X14.372 Y-1.919624
G1 X14.443 Y-1.282675
G1 X14.486 Y-0.641726
G1 X14.500 Y-0.000777
G1 X14.486 Y0.641828
G1 X14.443 Y1.281879
G1 X14.372 Y1.919930
G1 X14.273 Y2.553981
G1 X14.146 Y3.182032
G1 X13.992 Y3.804083
G1 X13.810 Y4.420134
G1 X13.601 Y5.026185
G1 X13.365 Y5.623236
G1 X13.103 Y6.209287
G1 X12.816 Y6.782338
G1 X12.503 Y7.342389
G1 X12.166 Y7.888440
G1 X11.806 Y8.419491
G1 X11.422 Y8.933542
G1 X11.015 Y9.429593
G1 X10.588 Y9.907644
G1 X10.139 Y10.366695
G1 X9.670 Y10.804746
G1 X9.183 Y11.221797
G1 X8.678 Y11.616848
G1 X8.155 Y11.989899
G1 X7.617 Y12.338950
G1 X7.064 Y12.663001
G1 X6.497 Y12.963052
G1 X5.917 Y13.238103
G1 X5.326 Y13.486154
G1 X4.724 Y13.709205
G1 X4.224 Y13.869523
ID=1 WHEN $AC_TIMER[1]>=0 DO M51
G1 X3.124 Y13.316 F1999.980
G1 Z5.500 F1999.980
G1 X3.557 Y13.130 F1999.980
ID=1 WHEN $AC_TIMER[1]>=0 DO M50
G1 X2.691 Y13.338141 F600.000
G1 X2.099 Y13.444943
G1 X1.502 Y13.524744
G1 X0.902 Y13.577546
G1 X0.301 Y13.604347
G1 X-0.301 Y13.604149
G1 X-0.902 Y13.577951
G1 X-1.502 Y13.524752
G1 X-2.099 Y13.444554
G1 X-2.691 Y13.338355
G1 X-3.279 Y13.206157
G1 X-3.860 Y13.048958
G1 X-4.433 Y12.865760
G1 X-4.998 Y12.656561
G1 X-5.553 Y12.422363
G1 X-6.097 Y12.165164
G1 X-6.629 Y11.883966
G1 X-7.148 Y11.578768
G1 X-7.653 Y11.251569
G1 X-8.143 Y10.901371
G1 X-8.618 Y10.530172
G1 X-9.075 Y10.139974
G1 X-9.515 Y9.727775
G1 X-9.936 Y9.297577
G1 X-10.337 Y8.848378
G1 X-10.718 Y8.383180
G1 X-11.079 Y7.900981
G1 X-11.417 Y7.402783
G1 X-11.733 Y6.890585
G1 X-12.027 Y6.364386
G1 X-12.297 Y5.826188
G1 X-12.542 Y5.277989
G1 X-12.763 Y4.717791
G1 X-12.959 Y4.147592
G1 X-13.130 Y3.570394
G1 X-13.273 Y2.995136
G1 X-13.434 Y2.138645
G1 X-13.554 Y1.192667
G1 X-13.594 Y0.602399
G1 X-13.607 Y-0.000200
G1 X-13.594 Y-0.602002
G1 X-13.554 Y-1.203803
G1 X-13.487 Y-1.801605
G1 X-13.395 Y-2.390368
G1 X-13.238 Y-3.138195
G1 X-12.959 Y-4.147809
G1 X-12.763 Y-4.717610
G1 X-12.542 Y-5.277412
G1 X-12.297 Y-5.826213
G1 X-12.027 Y-6.364015
G1 X-11.733 Y-6.890816
G1 X-11.422 Y-7.394559
G1 X-10.922 Y-8.109068
G1 X-10.330 Y-8.857090
G1 X-9.936 Y-9.297821
G1 X-9.515 Y-9.727623
G1 X-9.075 Y-10.139424
G1 X-8.618 Y-10.530226
G1 X-8.143 Y-10.901027
G1 X-7.653 Y-11.251829
G1 X-7.148 Y-11.578630
G1 X-6.637 Y-11.878373
G1 X-5.860 Y-12.276882
G1 X-4.987 Y-12.660904
G1 X-4.433 Y-12.865635
G1 X-3.860 Y-13.048437
G1 X-3.279 Y-13.206238
G1 X-2.691 Y-13.338040
G1 X-2.099 Y-13.444841
G1 X-1.502 Y-13.524643
G1 X-0.902 Y-13.577444
G1 X-0.310 Y-13.603187
G1 X0.562 Y-13.591696
G1 X1.513 Y-13.522718 F600.000
G1 X2.099 Y-13.444449
G1 X2.691 Y-13.338251
G1 X3.279 Y-13.206052
G1 X3.860 Y-13.048854
G1 X4.433 Y-12.865655
G1 X4.998 Y-12.656457
G1 X5.553 Y-12.422258
G1 X6.087 Y-12.169989
G1 X6.926 Y-11.708037
G1 X7.661 Y-11.245520
G1 X8.143 Y-10.901263
G1 X8.618 Y-10.530065
G1 X9.075 Y-10.139866
G1 X9.515 Y-9.727668
G1 X9.936 Y-9.297470
G1 X10.337 Y-8.848271
G1 X10.718 Y-8.383073
G1 X11.079 Y-7.900874
G1 X11.417 Y-7.402676
G1 X11.733 Y-6.890477
G1 X12.027 Y-6.364279
G1 X12.297 Y-5.826080
G1 X12.542 Y-5.277882
G1 X12.763 Y-4.717683
G1 X12.959 Y-4.147485
G1 X13.130 Y-3.570287
G1 X13.275 Y-2.986088
G1 X13.394 Y-2.396890
G1 X13.487 Y-1.801691
G1 X13.554 Y-1.203493
G1 X13.594 Y-0.602294
G1 X13.607 Y-0.000096
G1 X13.594 Y0.602897
G1 X13.554 Y1.203699
G1 X13.487 Y1.801500
G1 X13.394 Y2.396302
G1 X13.275 Y2.986104
G1 X13.130 Y3.570905
G1 X12.959 Y4.147707
G1 X12.763 Y4.717508
G1 X12.542 Y5.277310
G1 X12.297 Y5.826111
G1 X12.027 Y6.364913
G1 X11.733 Y6.890714
G1 X11.417 Y7.402516
G1 X11.079 Y7.900317
G1 X10.718 Y8.383119
G1 X10.337 Y8.848921
G1 X9.936 Y9.297722
G1 X9.515 Y9.727524
G1 X9.075 Y10.139325
G1 X8.618 Y10.530127
G1 X8.143 Y10.901928
G1 X7.653 Y11.251730
G1 X7.148 Y11.578531
G1 X6.629 Y11.883333
G1 X6.097 Y12.165134
G1 X5.553 Y12.422936
G1 X4.998 Y12.656738
G1 X3.989 Y13.007481
ID=1 WHEN $AC_TIMER[1]>=0 DO M51
G1 X3.791 Y13.992 F1999.980
ID=1 WHEN $AC_TIMER[1]>=0 DO M50
G1 X2.868 Y14.213473 F600.000
G1 X2.237 Y14.326524
G1 X1.601 Y14.411575
G1 X0.962 Y14.468626
G1 X0.321 Y14.496677
G1 X-0.321 Y14.496728
G1 X-0.962 Y14.468780
G1 X-1.601 Y14.411831
G1 X-2.237 Y14.326882
G1 X-2.868 Y14.213933
G1 X-3.494 Y14.073984
G1 X-4.113 Y13.904035
G1 X-4.724 Y13.709086
G1 X-5.326 Y13.486137
G1 X-5.917 Y13.238188
G1 X-6.497 Y12.963239
G1 X-7.064 Y12.663290
G1 X-7.617 Y12.338341
G1 X-8.155 Y11.989392
G1 X-8.678 Y11.616443
G1 X-9.183 Y11.221494
G1 X-9.670 Y10.804545
G1 X-10.139 Y10.366596
G1 X-10.588 Y9.907647
G1 X-11.015 Y9.429698
G1 X-11.422 Y8.933749
G1 X-11.806 Y8.419800
G1 X-12.166 Y7.888851
G1 X-12.503 Y7.342902
G1 X-12.816 Y6.782953
G1 X-13.103 Y6.209004
G1 X-13.365 Y5.623055
G1 X-13.601 Y5.026106
G1 X-13.810 Y4.420157
G1 X-13.992 Y3.804208
G1 X-14.146 Y3.185238
G1 X-14.316 Y2.276076
G1 X-14.443 Y1.278434
G1 X-14.486 Y0.641460
G1 X-14.500 Y-0.000511
G1 X-14.486 Y-0.641562
G1 X-14.443 Y-1.282613
G1 X-14.372 Y-1.919664
G1 X-14.274 Y-2.551701
G1 X-14.108 Y-3.337778
G1 X-13.810 Y-4.420866
G1 X-13.601 Y-5.026917
G1 X-13.365 Y-5.623968
G1 X-13.103 Y-6.209019
G1 X-12.816 Y-6.782070
G1 X-12.503 Y-7.342121
G1 X-12.168 Y-7.885150
G1 X-11.638 Y-8.643989
G1 X-11.013 Y-9.432347
G1 X-10.588 Y-9.907373
G1 X-10.139 Y-10.366424
G1 X-9.670 Y-10.804475
G1 X-9.183 Y-11.221526
G1 X-8.678 Y-11.616577
G1 X-8.155 Y-11.989628
G1 X-7.617 Y-12.338679
G1 X-7.067 Y-12.661709
G1 X-6.244 Y-13.083547
G1 X-5.322 Y-13.488905
G1 X-4.724 Y-13.709931
G1 X-4.113 Y-13.904982
G1 X-3.494 Y-14.073033
G1 X-2.868 Y-14.213084
G1 X-2.237 Y-14.326135
G1 X-1.601 Y-14.411186
G1 X-0.962 Y-14.468237
G1 X-0.324 Y-14.496267
G1 X0.600 Y-14.484106
G1 X1.605 Y-14.411464 F600.000
G1 X2.237 Y-14.326490
G1 X2.868 Y-14.213541
G1 X3.494 Y-14.073592
G1 X4.113 Y-13.904643
G1 X4.724 Y-13.709694
G1 X5.326 Y-13.486745
G1 X5.917 Y-13.238796
G1 X6.493 Y-12.965821
G1 X7.379 Y-12.477206
G1 X8.158 Y-11.987018
G1 X8.678 Y-11.616048
G1 X9.183 Y-11.221099
G1 X9.670 Y-10.804150
G1 X10.139 Y-10.366201
G1 X10.588 Y-9.907252
G1 X11.015 Y-9.429303
G1 X11.422 Y-8.933354
G1 X11.806 Y-8.419405
G1 X12.166 Y-7.888456
G1 X12.503 Y-7.342507
G1 X12.816 Y-6.782558
G1 X13.103 Y-6.209609
G1 X13.365 Y-5.623660
G1 X13.601 Y-5.026711
G1 X13.810 Y-4.420762
G1 X13.992 Y-3.804813
G1 X14.146 Y-3.182864
G1 X14.273 Y-2.553915
G1 X14.372 Y-1.919966
G1 X14.443 Y-1.282017
G1 X14.486 Y-0.641068
G1 X14.500 Y-0.000119
G1 X14.486 Y0.641170
G1 X14.443 Y1.282221
G1 X14.372 Y1.919272
G1 X14.273 Y2.553323
G1 X14.146 Y3.182374
G1 X13.992 Y3.804425
G1 X13.810 Y4.420476
G1 X13.601 Y5.026527
G1 X13.365 Y5.623578
G1 X13.103 Y6.209629
G1 X12.816 Y6.782680
G1 X12.503 Y7.342731
G1 X12.166 Y7.888782
G1 X11.806 Y8.419833
G1 X11.422 Y8.933884
G1 X11.015 Y9.429935
G1 X10.588 Y9.907986
G1 X10.139 Y10.366037
G1 X9.670 Y10.804088
G1 X9.183 Y11.221139
G1 X8.678 Y11.616190
G1 X8.155 Y11.989241
G1 X7.617 Y12.338292
G1 X7.064 Y12.663343
G1 X6.497 Y12.963394
G1 X5.917 Y13.238445
G1 X5.326 Y13.486496
G1 X4.724 Y13.709547
G1 X4.224 Y13.869865
ID=1 WHEN $AC_TIMER[1]>=0 DO M51
G1 X3.124 Y13.316 F1999.980
G1 Z6.000 F1999.980
G1 X3.557 Y13.130 F1999.980
ID=1 WHEN $AC_TIMER[1]>=0 DO M50
G1 X2.691 Y13.338484 F600.000
G1 X2.099 Y13.444285
G1 X1.502 Y13.524087
G1 X0.902 Y13.577888
G1 X0.301 Y13.604690
G1 X-0.301 Y13.604491
G1 X-0.902 Y13.577293
G1 X-1.502 Y13.524094
G1 X-2.089 Y13.445833
G1 X-2.972 Y13.274513
G1 X-3.870 Y13.045364
G1 X-4.433 Y12.865099
G1 X-4.998 Y12.656901
G1 X-5.553 Y12.422702
G1 X-6.097 Y12.165504
G1 X-6.629 Y11.883305
G1 X-7.148 Y11.578107
G1 X-7.653 Y11.251908
G1 X-8.143 Y10.901710
G1 X-8.618 Y10.530512
G1 X-9.075 Y10.139313
G1 X-9.515 Y9.727115
G1 X-9.936 Y9.297916
G1 X-10.337 Y8.848718
G1 X-10.718 Y8.383519
G1 X-11.079 Y7.900321
G1 X-11.417 Y7.402122
G1 X-11.733 Y6.890924
G1 X-12.027 Y6.364725
G1 X-12.297 Y5.826527
G1 X-12.542 Y5.277329
G1 X-12.763 Y4.717130
G1 X-12.959 Y4.147932
G1 X-13.127 Y3.580670
G1 X-13.332 Y2.704350
G1 X-13.488 Y1.790202
G1 X-13.554 Y1.203936
G1 X-13.594 Y0.602738
G1 X-13.607 Y-0.000540
G1 X-13.594 Y-0.602341
G1 X-13.554 Y-1.203143
G1 X-13.487 Y-1.801944
G1 X-13.394 Y-2.396746
G1 X-13.275 Y-2.986547
G1 X-13.133 Y-3.560286
G1 X-12.865 Y-4.419966
G1 X-12.538 Y-5.286817
G1 X-12.297 Y-5.826552
G1 X-12.027 Y-6.364354
G1 X-11.733 Y-6.890155
G1 X-11.422 Y-7.394894
G1 X-10.906 Y-8.130574
G1 X-10.330 Y-8.856425
G1 X-9.936 Y-9.297160
G1 X-9.515 Y-9.727962
G1 X-9.075 Y-10.139763
G1 X-8.618 Y-10.530565
G1 X-8.143 Y-10.901366
G1 X-7.653 Y-11.251168
G1 X-7.148 Y-11.578969
G1 X-6.629 Y-11.883771
G1 X-6.106 Y-12.160509
G1 X-5.287 Y-12.533190
G1 X-4.423 Y-12.868041
G1 X-3.860 Y-13.048776
G1 X-3.279 Y-13.206577
G1 X-2.691 Y-13.338379
G1 X-2.099 Y-13.444180
G1 X-1.502 Y-13.524982
G1 X-0.902 Y-13.577783
G1 X-0.311 Y-13.603522
G1 X0.588 Y-13.590202
G1 X1.513 Y-13.522053 F600.000
G1 X2.099 Y-13.444788
G1 X2.691 Y-13.338590
G1 X3.279 Y-13.206391
G1 X3.860 Y-13.048193
G1 X4.433 Y-12.865994
G1 X4.998 Y-12.656796
G1 X5.553 Y-12.422597
G1 X6.088 Y-12.169336
G1 X6.877 Y-11.737016
G1 X7.662 Y-11.245867
G1 X8.143 Y-10.901602
G1 X8.618 Y-10.530404
G1 X9.075 Y-10.139205
G1 X9.515 Y-9.727007
G1 X9.936 Y-9.297808
G1 X10.337 Y-8.848610
G1 X10.718 Y-8.383411
G1 X11.079 Y-7.900213
G1 X11.417 Y-7.402015
G1 X11.733 Y-6.890816
G1 X12.027 Y-6.364618
G1 X12.297 Y-5.826419
G1 X12.542 Y-5.277221
G1 X12.763 Y-4.717022
G1 X12.959 Y-4.147824
G1 X13.130 Y-3.570625
G1 X13.275 Y-2.986427
G1 X13.394 Y-2.396228
G1 X13.487 Y-1.801030
G1 X13.554 Y-1.203832
G1 X13.594 Y-0.602633
G1 X13.607 Y-0.000435
G1 X13.594 Y0.602236
G1 X13.554 Y1.203038
G1 X13.487 Y1.801839
G1 X13.394 Y2.396641
G1 X13.275 Y2.986442
G1 X13.130 Y3.570244
G1 X12.959 Y4.147045
G1 X12.763 Y4.717847
G1 X12.542 Y5.277649
G1 X12.297 Y5.826450
G1 X12.027 Y6.364252
G1 X11.733 Y6.890053
G1 X11.417 Y7.402855
G1 X11.079 Y7.900656
G1 X10.718 Y8.383458
G1 X10.337 Y8.848259
G1 X9.936 Y9.297061
G1 X9.515 Y9.727862
G1 X9.075 Y10.139664
G1 X8.618 Y10.530466
G1 X8.143 Y10.901267
G1 X7.653 Y11.251069
G1 X7.148 Y11.578870
G1 X6.629 Y11.883672
G1 X6.097 Y12.165473
G1 X5.553 Y12.422275
G1 X4.998 Y12.656076
G1 X3.989 Y13.007820
ID=1 WHEN $AC_TIMER[1]>=0 DO M51
G1 X3.791 Y13.992 F1999.980
ID=1 WHEN $AC_TIMER[1]>=0 DO M50
G1 X2.868 Y14.213812 F600.000
G1 X2.237 Y14.326863
G1 X1.601 Y14.411914
G1 X0.962 Y14.468965
G1 X0.321 Y14.496016
G1 X-0.321 Y14.496067
G1 X-0.962 Y14.468118
G1 X-1.601 Y14.411169
G1 X-2.233 Y14.327198
G1 X-3.168 Y14.146210
G1 X-4.117 Y13.903395
G1 X-4.724 Y13.709422
G1 X-5.326 Y13.486473
G1 X-5.917 Y13.238524
G1 X-6.497 Y12.963575
G1 X-7.064 Y12.663626
G1 X-7.617 Y12.338677
G1 X-8.155 Y11.989728
G1 X-8.678 Y11.616779
G1 X-9.183 Y11.221830
G1 X-9.670 Y10.804881
G1 X-10.139 Y10.366932
G1 X-10.588 Y9.907983
G1 X-11.015 Y9.429034
G1 X-11.422 Y8.933085
G1 X-11.806 Y8.419136
G1 X-12.166 Y7.888187
G1 X-12.503 Y7.342238
G1 X-12.816 Y6.782289
G1 X-13.103 Y6.209340
G1 X-13.365 Y5.623391
G1 X-13.601 Y5.026442
G1 X-13.810 Y4.420493
G1 X-13.991 Y3.808521
G1 X-14.207 Y2.881533
G1 X-14.373 Y1.915718
G1 X-14.443 Y1.282745
G1 X-14.486 Y0.641796
G1 X-14.500 Y-0.000847
G1 X-14.486 Y-0.641898
G1 X-14.443 Y-1.282949
G1 X-14.372 Y-1.919000
G1 X-14.273 Y-2.553051
G1 X-14.146 Y-3.182102
G1 X-13.993 Y-3.801131
G1 X-13.710 Y-4.710142
G1 X-13.364 Y-5.626327
G1 X-13.103 Y-6.209354
G1 X-12.816 Y-6.782405
G1 X-12.503 Y-7.342456
G1 X-12.168 Y-7.885485
G1 X-11.622 Y-8.665497
G1 X-11.013 Y-9.432682
G1 X-10.588 Y-9.907709
G1 X-10.139 Y-10.366760
G1 X-9.670 Y-10.804811
G1 X-9.183 Y-11.221862
G1 X-8.678 Y-11.616913
G1 X-8.155 Y-11.989964
G1 X-7.617 Y-12.338015
G1 X-7.064 Y-12.663066
G1 X-6.500 Y-12.961094
G1 X-5.634 Y-13.357106
G1 X-4.720 Y-13.710291
G1 X-4.113 Y-13.904318
G1 X-3.494 Y-14.073369
G1 X-2.868 Y-14.213420
G1 X-2.237 Y-14.326471
G1 X-1.601 Y-14.411522
G1 X-0.962 Y-14.468573
G1 X-0.324 Y-14.496601
G1 X0.628 Y-14.483613
G1 X1.604 Y-14.411798 F600.000
G1 X2.237 Y-14.326825
G1 X2.868 Y-14.213876
G1 X3.494 Y-14.073927
G1 X4.113 Y-13.904978
G1 X4.724 Y-13.709029
G1 X5.326 Y-13.486080
G1 X5.917 Y-13.238131
G1 X6.494 Y-12.964160
G1 X7.329 Y-12.507172
G1 X8.159 Y-11.987357
G1 X8.678 Y-11.616384
G1 X9.183 Y-11.221435
G1 X9.670 Y-10.804486
G1 X10.139 Y-10.366537
G1 X10.588 Y-9.907588
G1 X11.015 Y-9.429639
G1 X11.422 Y-8.933690
G1 X11.806 Y-8.419741
G1 X12.166 Y-7.888792
G1 X12.503 Y-7.342843
G1 X12.816 Y-6.782894
G1 X13.103 Y-6.209945
G1 X13.365 Y-5.623996
G1 X13.601 Y-5.026047
G1 X13.810 Y-4.420098
G1 X13.992 Y-3.804149
G1 X14.146 Y-3.182200
G1 X14.273 Y-2.553251
G1 X14.372 Y-1.919302
G1 X14.443 Y-1.282353
G1 X14.486 Y-0.641404
G1 X14.500 Y-0.000455
G1 X14.486 Y0.641506
G1 X14.443 Y1.281557
G1 X14.372 Y1.919608
G1 X14.273 Y2.553659
G1 X14.146 Y3.182710
G1 X13.992 Y3.804761
G1 X13.810 Y4.420812
G1 X13.601 Y5.026863
G1 X13.365 Y5.623914
G1 X13.103 Y6.209965
G1 X12.816 Y6.782016
G1 X12.503 Y7.342067
G1 X12.166 Y7.888118
G1 X11.806 Y8.419169
G1 X11.422 Y8.933220
G1 X11.015 Y9.429271
G1 X10.588 Y9.907322
G1 X10.139 Y10.366373
G1 X9.670 Y10.804424
G1 X9.183 Y11.221475
G1 X8.678 Y11.616526
G1 X8.155 Y11.989577
G1 X7.617 Y12.338628
G1 X7.064 Y12.663679
G1 X6.497 Y12.963730
G1 X5.917 Y13.238781
G1 X5.326 Y13.486832
G1 X4.724 Y13.709883
G1 X4.224 Y13.869201
ID=1 WHEN $AC_TIMER[1]>=0 DO M51
G1 X3.124 Y13.316 F1999.980
G1 Z6.500 F1999.980
G1 X3.557 Y13.130 F1999.980
ID=1 WHEN $AC_TIMER[1]>=0 DO M50
G1 X2.691 Y13.338819 F600.000
G1 X2.099 Y13.444621
G1 X1.502 Y13.524422
G1 X0.902 Y13.577224
G1 X0.301 Y13.604025
G1 X-0.301 Y13.604827
G1 X-0.902 Y13.577629
G1 X-1.502 Y13.524430
G1 X-2.099 Y13.444232
G1 X-2.691 Y13.338033
G1 X-3.279 Y13.206835
G1 X-3.860 Y13.048636
G1 X-4.433 Y12.865438
G1 X-4.998 Y12.656239
G1 X-5.553 Y12.422041
G1 X-6.097 Y12.165842
G1 X-6.629 Y11.883644
G1 X-7.139 Y11.584379
G1 X-7.909 Y11.068230
G1 X-8.625 Y10.524910
G1 X-9.075 Y10.139649
G1 X-9.515 Y9.727450
G1 X-9.936 Y9.297252
G1 X-10.337 Y8.848053
G1 X-10.718 Y8.383855
G1 X-11.079 Y7.900657
G1 X-11.417 Y7.402458
G1 X-11.728 Y6.899193
G1 X-12.167 Y6.083044
G1 X-12.546 Y5.267724
G1 X-12.763 Y4.717463
G1 X-12.959 Y4.147264
G1 X-13.130 Y3.570066
G1 X-13.273 Y2.994813
G1 X-13.430 Y2.166134
G1 X-13.554 Y1.191343
G1 X-13.594 Y0.602071
G1 X-13.607 Y-0.000872
G1 X-13.594 Y-0.602674
G1 X-13.554 Y-1.203475
G1 X-13.487 Y-1.801277
G1 X-13.396 Y-2.388030
G1 X-13.229 Y-3.172090
G1 X-12.955 Y-4.159559
G1 X-12.763 Y-4.717282
G1 X-12.542 Y-5.277083
G1 X-12.297 Y-5.826885
G1 X-12.027 Y-6.364687
G1 X-11.733 Y-6.890488
G1 X-11.423 Y-7.393223
G1 X-10.890 Y-8.152074
G1 X-10.330 Y-8.856754
G1 X-9.936 Y-9.297493
G1 X-9.515 Y-9.727294
G1 X-9.075 Y-10.139096
G1 X-8.618 Y-10.530897
G1 X-8.143 Y-10.901699
G1 X-7.653 Y-11.251501
G1 X-7.148 Y-11.578302
G1 X-6.629 Y-11.883104
G1 X-6.106 Y-12.160839
G1 X-5.263 Y-12.544690
G1 X-4.424 Y-12.868370
G1 X-3.860 Y-13.048108
G1 X-3.279 Y-13.206910
G1 X-2.691 Y-13.338712
G1 X-2.099 Y-13.444513
G1 X-1.502 Y-13.524315
G1 X-0.902 Y-13.577116
G1 X-0.312 Y-13.603851
G1 X0.615 Y-13.589702
G1 X1.512 Y-13.522383 F600.000
G1 X2.099 Y-13.444121
G1 X2.691 Y-13.338923
G1 X3.279 Y-13.206724
G1 X3.860 Y-13.048526
G1 X4.433 Y-12.865327
G1 X4.998 Y-12.656129
G1 X5.553 Y-12.422930
G1 X6.097 Y-12.165732
G1 X6.629 Y-11.883533
G1 X7.148 Y-11.578335
G1 X7.653 Y-11.251136
G1 X8.143 Y-10.901938
G1 X8.618 Y-10.530740
G1 X9.075 Y-10.139541
G1 X9.515 Y-9.727343
G1 X9.936 Y-9.297144
G1 X10.337 Y-8.848946
G1 X10.718 Y-8.383747
G1 X11.079 Y-7.900549
G1 X11.417 Y-7.402350
G1 X11.733 Y-6.890152
G1 X12.027 Y-6.364953
G1 X12.297 Y-5.826755
G1 X12.542 Y-5.277557
G1 X12.763 Y-4.717358
G1 X12.959 Y-4.147160
G1 X13.130 Y-3.570961
G1 X13.275 Y-2.986763
G1 X13.394 Y-2.396564
G1 X13.487 Y-1.801366
G1 X13.554 Y-1.203167
G1 X13.594 Y-0.602969
G1 X13.607 Y-0.000770
G1 X13.594 Y0.602572
G1 X13.554 Y1.203374
G1 X13.487 Y1.801175
G1 X13.394 Y2.396977
G1 X13.275 Y2.986778
G1 X13.130 Y3.570580
G1 X12.959 Y4.147381
G1 X12.763 Y4.717183
G1 X12.542 Y5.277984
G1 X12.297 Y5.826786
G1 X12.027 Y6.364587
G1 X11.733 Y6.890389
G1 X11.417 Y7.402191
G1 X11.079 Y7.900992
G1 X10.718 Y8.383794
G1 X10.337 Y8.848595
G1 X9.936 Y9.297397
G1 X9.515 Y9.727198
G1 X9.075 Y10.139000
G1 X8.618 Y10.530801
G1 X8.143 Y10.901603
G1 X7.653 Y11.251404
G1 X7.148 Y11.578206
G1 X6.637 Y11.879952
G1 X5.881 Y12.266315
G1 X4.987 Y12.660482
G1 X3.989 Y13.007153
ID=1 WHEN $AC_TIMER[1]>=0 DO M51
G1 X3.791 Y13.992 F1999.980
ID=1 WHEN $AC_TIMER[1]>=0 DO M50
G1 X2.868 Y14.213145 F600.000
G1 X2.237 Y14.326196
G1 X1.601 Y14.411247
G1 X0.962 Y14.468298
G1 X0.321 Y14.496349
G1 X-0.321 Y14.496400
G1 X-0.962 Y14.468451
G1 X-1.601 Y14.411502
G1 X-2.237 Y14.326553
G1 X-2.868 Y14.213604
G1 X-3.494 Y14.073655
G1 X-4.113 Y13.904706
G1 X-4.724 Y13.709757
G1 X-5.326 Y13.486808
G1 X-5.917 Y13.238859
G1 X-6.497 Y12.963910
G1 X-7.064 Y12.663961
G1 X-7.614 Y12.340988
G1 X-8.428 Y11.795174
G1 X-9.186 Y11.219185
G1 X-9.670 Y10.804214
G1 X-10.139 Y10.366265
G1 X-10.588 Y9.907316
G1 X-11.015 Y9.429367
G1 X-11.422 Y8.933418
G1 X-11.806 Y8.419469
G1 X-12.166 Y7.888520
G1 X-12.501 Y7.346547
G1 X-12.966 Y6.483732
G1 X-13.367 Y5.620744
G1 X-13.601 Y5.026772
G1 X-13.810 Y4.420823
G1 X-13.992 Y3.804874
G1 X-14.146 Y3.185905
G1 X-14.312 Y2.306554
G1 X-14.443 Y1.277102
G1 X-14.486 Y0.641126
G1 X-14.500 Y-0.000177
G1 X-14.486 Y-0.641228
G1 X-14.443 Y-1.282279
G1 X-14.372 Y-1.919330
G1 X-14.274 Y-2.550364
G1 X-14.096 Y-3.384747
G1 X-13.808 Y-4.424560
G1 X-13.601 Y-5.026583
G1 X-13.365 Y-5.623634
G1 X-13.103 Y-6.209685
G1 X-12.816 Y-6.782736
G1 X-12.503 Y-7.342787
G1 X-12.168 Y-7.885814
G1 X-11.605 Y-8.686999
G1 X-11.013 Y-9.432011
G1 X-10.588 Y-9.907039
G1 X-10.139 Y-10.366090
G1 X-9.670 Y-10.804141
G1 X-9.183 Y-11.221192
G1 X-8.678 Y-11.616243
G1 X-8.155 Y-11.989294
G1 X-7.617 Y-12.338345
G1 X-7.064 Y-12.663396
G1 X-6.500 Y-12.961423
G1 X-5.609 Y-13.367608
G1 X-4.721 Y-13.710620
G1 X-4.113 Y-13.904648
G1 X-3.494 Y-14.073699
G1 X-2.868 Y-14.213750
G1 X-2.237 Y-14.326801
G1 X-1.601 Y-14.411852
G1 X-0.962 Y-14.468903
G1 X-0.325 Y-14.496930
G1 X0.655 Y-14.481115
G1 X1.604 Y-14.411127 F600.000
G1 X2.237 Y-14.326156
G1 X2.868 Y-14.213207
G1 X3.494 Y-14.073258
G1 X4.113 Y-13.904309
G1 X4.724 Y-13.709360
G1 X5.326 Y-13.486411
G1 X5.917 Y-13.238462
G1 X6.497 Y-12.963513
G1 X7.064 Y-12.663564
G1 X7.617 Y-12.338615
G1 X8.155 Y-11.989666
G1 X8.678 Y-11.616717
G1 X9.183 Y-11.221768
G1 X9.670 Y-10.804819
G1 X10.139 Y-10.366870
G1 X10.588 Y-9.907921
G1 X11.015 Y-9.429972
G1 X11.422 Y-8.933023
G1 X11.806 Y-8.419074
G1 X12.166 Y-7.888125
G1 X12.503 Y-7.342176
G1 X12.816 Y-6.782227
G1 X13.103 Y-6.209278
G1 X13.365 Y-5.623329
G1 X13.601 Y-5.026380
G1 X13.810 Y-4.420431
G1 X13.992 Y-3.804482
G1 X14.146 Y-3.182533
G1 X14.273 Y-2.553584
G1 X14.372 Y-1.919635
G1 X14.443 Y-1.282686
G1 X14.486 Y-0.641737
G1 X14.500 Y-0.000788
G1 X14.486 Y0.641839
G1 X14.443 Y1.282890
G1 X14.372 Y1.919941
G1 X14.273 Y2.553992
G1 X14.146 Y3.182043
G1 X13.992 Y3.804094
G1 X13.810 Y4.420145
G1 X13.601 Y5.026196
G1 X13.365 Y5.623247
G1 X13.103 Y6.209298
G1 X12.816 Y6.782349
G1 X12.503 Y7.342400
G1 X12.166 Y7.888451
G1 X11.806 Y8.419502
G1 X11.422 Y8.933553
G1 X11.015 Y9.429604
G1 X10.588 Y9.907655
G1 X10.139 Y10.366706
G1 X9.670 Y10.804757
G1 X9.183 Y11.221808
G1 X8.678 Y11.616859
G1 X8.155 Y11.989910
G1 X7.617 Y12.338961
G1 X7.067 Y12.661992
G1 X6.265 Y13.073683
G1 X5.322 Y13.488189
G1 X4.724 Y13.709213
G1 X4.224 Y13.869531
ID=1 WHEN $AC_TIMER[1]>=0 DO M51
G1 X3.124 Y13.316 F1999.980
G1 Z7.000 F1999.980
G1 X3.557 Y13.130 F1999.980
ID=1 WHEN $AC_TIMER[1]>=0 DO M50
G1 X2.691 Y13.338150 F600.000
G1 X2.099 Y13.444951
G1 X1.502 Y13.524753
G1 X0.902 Y13.577554
G1 X0.301 Y13.604356
G1 X-0.301 Y13.604157
G1 X-0.902 Y13.577959
G1 X-1.502 Y13.524760
G1 X-2.099 Y13.444562
G1 X-2.691 Y13.338363
G1 X-3.279 Y13.206165
G1 X-3.860 Y13.048967
G1 X-4.433 Y12.865768
G1 X-4.998 Y12.656570
G1 X-5.553 Y12.422371
G1 X-6.097 Y12.165173
G1 X-6.629 Y11.883974
G1 X-7.148 Y11.578776
G1 X-7.653 Y11.251577
G1 X-8.143 Y10.901379
G1 X-8.618 Y10.530180
G1 X-9.075 Y10.139982
G1 X-9.506 Y9.735713
G1 X-10.162 Y9.043735
G1 X-10.724 Y8.375245
G1 X-11.079 Y7.900987
G1 X-11.417 Y7.402788
G1 X-11.733 Y6.890590
G1 X-12.027 Y6.364391
G1 X-12.297 Y5.826193
G1 X-12.542 Y5.277995
G1 X-12.763 Y4.717796
G1 X-12.959 Y4.147598
G1 X-13.130 Y3.570399
G1 X-13.275 Y2.986201
G1 X-13.394 Y2.396002
G1 X-13.486 Y1.812734
G1 X-13.576 Y0.863756
G1 X-13.607 Y-0.009265
G1 X-13.594 Y-0.602007
G1 X-13.554 Y-1.203809
G1 X-13.487 Y-1.801610
G1 X-13.396 Y-2.385342
G1 X-13.193 Y-3.316364
G1 X-12.956 Y-4.156873
G1 X-12.763 Y-4.717615
G1 X-12.542 Y-5.277417
G1 X-12.297 Y-5.826218
G1 X-12.027 Y-6.364020
G1 X-11.733 Y-6.890821
G1 X-11.423 Y-7.393553
G1 X-10.874 Y-8.173575
G1 X-10.331 Y-8.855084
G1 X-9.936 Y-9.297826
G1 X-9.515 Y-9.727628
G1 X-9.075 Y-10.139429
G1 X-8.618 Y-10.530231
G1 X-8.143 Y-10.901032
G1 X-7.653 Y-11.251834
G1 X-7.148 Y-11.578635
G1 X-6.637 Y-11.878375
G1 X-5.843 Y-12.284006
G1 X-4.988 Y-12.660906
G1 X-4.433 Y-12.865640
G1 X-3.860 Y-13.048442
G1 X-3.279 Y-13.206243
G1 X-2.691 Y-13.338045
G1 X-2.099 Y-13.444846
G1 X-1.502 Y-13.524648
G1 X-0.902 Y-13.577449
G1 X-0.312 Y-13.603181
G1 X0.641 Y-13.588203
G1 X1.511 Y-13.523712 F600.000
G1 X2.099 Y-13.444454
G1 X2.691 Y-13.338256
G1 X3.279 Y-13.206057
G1 X3.860 Y-13.048859
G1 X4.433 Y-12.865660
G1 X4.998 Y-12.656462
G1 X5.553 Y-12.422263
G1 X6.097 Y-12.165065
G1 X6.629 Y-11.883866
G1 X7.148 Y-11.578668
G1 X7.653 Y-11.251470
G1 X8.143 Y-10.901271
G1 X8.618 Y-10.530073
G1 X9.075 Y-10.139874
G1 X9.515 Y-9.727676
G1 X9.936 Y-9.297477
G1 X10.337 Y-8.848279
G1 X10.718 Y-8.383080
G1 X11.079 Y-7.900882
G1 X11.417 Y-7.402683
G1 X11.733 Y-6.890485
G1 X12.027 Y-6.364287
G1 X12.297 Y-5.826088
G1 X12.542 Y-5.277890
G1 X12.763 Y-4.717691
G1 X12.959 Y-4.147493
G1 X13.130 Y-3.570294
G1 X13.275 Y-2.986096
G1 X13.394 Y-2.396897
G1 X13.487 Y-1.801699
G1 X13.554 Y-1.203500
G1 X13.594 Y-0.602302
G1 X13.607 Y-0.000104
G1 X13.594 Y0.602905
G1 X13.554 Y1.203707
G1 X13.487 Y1.801508
G1 X13.394 Y2.396310
G1 X13.275 Y2.986111
G1 X13.130 Y3.570913
G1 X12.959 Y4.147714
G1 X12.763 Y4.717516
G1 X12.542 Y5.277317
G1 X12.297 Y5.826119
G1 X12.027 Y6.364921
G1 X11.733 Y6.890722
G1 X11.417 Y7.402524
G1 X11.079 Y7.900325
G1 X10.718 Y8.383127
G1 X10.337 Y8.848928
G1 X9.936 Y9.297730
G1 X9.515 Y9.727531
G1 X9.075 Y10.139333
G1 X8.618 Y10.530135
G1 X8.143 Y10.901936
G1 X7.653 Y11.251738
G1 X7.148 Y11.578539
G1 X6.629 Y11.883341
G1 X6.097 Y12.165142
G1 X5.553 Y12.422944
G1 X4.998 Y12.656745
G1 X3.989 Y13.007489
ID=1 WHEN $AC_TIMER[1]>=0 DO M51
G1 X3.791 Y13.992 F1999.980
ID=1 WHEN $AC_TIMER[1]>=0 DO M50
G1 X2.868 Y14.213481 F600.000
G1 X2.237 Y14.326532
G1 X1.601 Y14.411583
G1 X0.962 Y14.468634
G1 X0.321 Y14.496685
G1 X-0.321 Y14.496736
G1 X-0.962 Y14.468787
G1 X-1.601 Y14.411838
G1 X-2.237 Y14.326889
G1 X-2.868 Y14.213940
G1 X-3.494 Y14.073991
G1 X-4.113 Y13.904042
G1 X-4.724 Y13.709093
G1 X-5.326 Y13.486144
G1 X-5.917 Y13.238195
G1 X-6.497 Y12.963246
G1 X-7.064 Y12.663297
G1 X-7.617 Y12.338348
G1 X-8.155 Y11.989399
G1 X-8.678 Y11.616450
G1 X-9.183 Y11.221501
G1 X-9.670 Y10.804552
G1 X-10.136 Y10.368578
G1 X-10.829 Y9.638937
G1 X-11.424 Y8.930775
G1 X-11.806 Y8.419805
G1 X-12.166 Y7.888856
G1 X-12.503 Y7.342907
G1 X-12.816 Y6.782958
G1 X-13.103 Y6.209009
G1 X-13.365 Y5.623060
G1 X-13.601 Y5.026111
G1 X-13.810 Y4.420162
G1 X-13.992 Y3.804213
G1 X-14.146 Y3.182264
G1 X-14.273 Y2.553315
G1 X-14.372 Y1.923341
G1 X-14.467 Y0.921699
G1 X-14.500 Y-0.003537
G1 X-14.486 Y-0.641567
G1 X-14.443 Y-1.282618
G1 X-14.372 Y-1.919669
G1 X-14.274 Y-2.549695
G1 X-14.059 Y-3.533053
G1 X-13.809 Y-4.423892
G1 X-13.601 Y-5.026921
G1 X-13.365 Y-5.623972
G1 X-13.103 Y-6.209023
G1 X-12.816 Y-6.782074
G1 X-12.503 Y-7.342125
G1 X-12.169 Y-7.885151
G1 X-11.589 Y-8.708509
G1 X-11.013 Y-9.432348
G1 X-10.588 Y-9.907378
G1 X-10.139 Y-10.366429
G1 X-9.670 Y-10.804480
G1 X-9.183 Y-11.221531
G1 X-8.678 Y-11.616582
G1 X-8.155 Y-11.989633
G1 X-7.617 Y-12.338684
G1 X-7.067 Y-12.661712
G1 X-6.226 Y-13.091674
G1 X-5.322 Y-13.488909
G1 X-4.724 Y-13.709936
G1 X-4.113 Y-13.904987
G1 X-3.494 Y-14.073038
G1 X-2.868 Y-14.213089
G1 X-2.237 Y-14.326140
G1 X-1.601 Y-14.411191
G1 X-0.962 Y-14.468242
G1 X-0.325 Y-14.496268
G1 X0.682 Y-14.480626
G1 X1.604 Y-14.411465 F600.000
G1 X2.237 Y-14.326494
G1 X2.868 Y-14.213545
G1 X3.494 Y-14.073596
G1 X4.113 Y-13.904647
G1 X4.724 Y-13.709698
G1 X5.326 Y-13.486749
G1 X5.917 Y-13.238800
G1 X6.497 Y-12.963851
G1 X7.064 Y-12.663902
G1 X7.617 Y-12.338953
G1 X8.155 Y-11.989004
G1 X8.678 Y-11.616055
G1 X9.183 Y-11.221106
G1 X9.670 Y-10.804157
G1 X10.139 Y-10.366208
G1 X10.588 Y-9.907259
G1 X11.015 Y-9.429311
G1 X11.422 Y-8.933362
G1 X11.806 Y-8.419413
G1 X12.166 Y-7.888464
G1 X12.503 Y-7.342515
G1 X12.816 Y-6.782566
G1 X13.103 Y-6.209617
G1 X13.365 Y-5.623668
G1 X13.601 Y-5.026719
G1 X13.810 Y-4.420770
G1 X13.992 Y-3.804821
G1 X14.146 Y-3.182872
G1 X14.273 Y-2.553923
G1 X14.372 Y-1.919974
G1 X14.443 Y-1.282025
G1 X14.486 Y-0.641076
G1 X14.500 Y-0.000127
G1 X14.486 Y0.641178
G1 X14.443 Y1.281229
G1 X14.372 Y1.919280
G1 X14.273 Y2.553331
G1 X14.146 Y3.182382
G1 X13.992 Y3.804433
G1 X13.810 Y4.420484
G1 X13.601 Y5.026535
G1 X13.365 Y5.623586
G1 X13.103 Y6.209637
G1 X12.816 Y6.782688
G1 X12.503 Y7.342739
G1 X12.166 Y7.888790
G1 X11.806 Y8.419841
G1 X11.422 Y8.933892
G1 X11.015 Y9.429943
G1 X10.588 Y9.907994
G1 X10.139 Y10.366045
G1 X9.670 Y10.804096
G1 X9.183 Y11.221147
G1 X8.678 Y11.616198
G1 X8.155 Y11.989249
G1 X7.617 Y12.338300
G1 X7.064 Y12.663351
G1 X6.497 Y12.963402
G1 X5.917 Y13.238453
G1 X5.326 Y13.486504
G1 X4.724 Y13.709555
G1 X4.224 Y13.869873
ID=1 WHEN $AC_TIMER[1]>=0 DO M51
G1 X3.124 Y13.316 F1999.980
G1 Z7.500 F1999.980
G1 X3.557 Y13.130 F1999.980
ID=1 WHEN $AC_TIMER[1]>=0 DO M50
G1 X3.290 Y13.203617 F600.000
G1 X2.330 Y13.402810
G1 X1.493 Y13.525148
G1 X0.902 Y13.577894
G1 X0.301 Y13.604696
G1 X-0.301 Y13.604497
G1 X-0.902 Y13.577299
G1 X-1.502 Y13.524100
G1 X-2.099 Y13.444902
G1 X-2.691 Y13.338703
G1 X-3.279 Y13.206505
G1 X-3.860 Y13.048306
G1 X-4.433 Y12.865108
G1 X-4.998 Y12.656909
G1 X-5.553 Y12.422711
G1 X-6.097 Y12.165513
G1 X-6.629 Y11.883314
G1 X-7.138 Y11.584042
G1 X-7.952 Y11.037235
G1 X-8.624 Y10.525573
G1 X-9.075 Y10.139319
G1 X-9.515 Y9.727120
G1 X-9.936 Y9.297922
G1 X-10.337 Y8.848724
G1 X-10.718 Y8.383525
G1 X-11.079 Y7.900327
G1 X-11.417 Y7.402128
G1 X-11.733 Y6.890930
G1 X-12.027 Y6.364731
G1 X-12.297 Y5.826533
G1 X-12.542 Y5.277334
G1 X-12.763 Y4.717136
G1 X-12.959 Y4.147937
G1 X-13.130 Y3.570739
G1 X-13.273 Y2.997467
G1 X-13.450 Y2.033660
G1 X-13.554 Y1.194997
G1 X-13.594 Y0.602744
G1 X-13.607 Y-0.000545
G1 X-13.594 Y-0.602347
G1 X-13.554 Y-1.191075
G1 X-13.430 Y-2.164268
G1 X-13.273 Y-2.994605
G1 X-13.130 Y-3.570352
G1 X-12.959 Y-4.147153
G1 X-12.763 Y-4.717955
G1 X-12.542 Y-5.277756
G1 X-12.297 Y-5.826558
G1 X-12.027 Y-6.364359
G1 X-11.733 Y-6.890161
G1 X-11.423 Y-7.393889
G1 X-10.858 Y-8.194082
G1 X-10.331 Y-8.855420
G1 X-9.936 Y-9.297166
G1 X-9.515 Y-9.727967
G1 X-9.075 Y-10.139769
G1 X-8.618 Y-10.530571
G1 X-8.143 Y-10.901372
G1 X-7.653 Y-11.251174
G1 X-7.148 Y-11.578975
G1 X-6.629 Y-11.883777
G1 X-6.107 Y-12.159505
G1 X-5.214 Y-12.564697
G1 X-4.425 Y-12.867035
G1 X-3.860 Y-13.048782
G1 X-3.279 Y-13.206583
G1 X-2.691 Y-13.338385
G1 X-2.099 Y-13.444186
G1 X-1.502 Y-13.524988
G1 X-0.902 Y-13.577789
G1 X-0.313 Y-13.603517
G1 X0.668 Y-13.587710
G1 X1.511 Y-13.523048 F600.000
G1 X2.099 Y-13.444794
G1 X2.691 Y-13.338596
G1 X3.279 Y-13.206397
G1 X3.860 Y-13.048199
G1 X4.433 Y-12.865000
G1 X4.998 Y-12.656802
G1 X5.553 Y-12.422603
G1 X6.097 Y-12.165405
G1 X6.629 Y-11.883206
G1 X7.148 Y-11.578008
G1 X7.653 Y-11.251810
G1 X8.143 Y-10.901611
G1 X8.618 Y-10.530413
G1 X9.075 Y-10.139214
G1 X9.515 Y-9.727016
G1 X9.936 Y-9.297817
G1 X10.337 Y-8.848619
G1 X10.718 Y-8.383420
G1 X11.079 Y-7.900222
G1 X11.417 Y-7.402023
G1 X11.733 Y-6.890825
G1 X12.027 Y-6.364626
G1 X12.297 Y-5.826428
G1 X12.542 Y-5.277230
G1 X12.763 Y-4.717031
G1 X12.959 Y-4.147833
G1 X13.130 Y-3.570634
G1 X13.275 Y-2.986436
G1 X13.394 Y-2.396237
G1 X13.487 Y-1.801039
G1 X13.554 Y-1.203840
G1 X13.594 Y-0.602642
G1 X13.607 Y-0.000444
G1 X13.594 Y0.602245
G1 X13.554 Y1.203047
G1 X13.487 Y1.801848
G1 X13.394 Y2.396650
G1 X13.275 Y2.986451
G1 X13.130 Y3.570253
G1 X12.959 Y4.147054
G1 X12.763 Y4.717856
G1 X12.542 Y5.277657
G1 X12.297 Y5.826459
G1 X12.027 Y6.364261
G1 X11.733 Y6.890062
G1 X11.417 Y7.402864
G1 X11.079 Y7.900665
G1 X10.718 Y8.383467
G1 X10.337 Y8.848268
G1 X9.936 Y9.297070
G1 X9.515 Y9.727871
G1 X9.075 Y10.139673
G1 X8.618 Y10.530474
G1 X8.143 Y10.901276
G1 X7.653 Y11.251078
G1 X7.148 Y11.578879
G1 X6.629 Y11.883681
G1 X6.097 Y12.165482
G1 X5.553 Y12.422284
G1 X4.998 Y12.656085
G1 X3.989 Y13.007829
ID=1 WHEN $AC_TIMER[1]>=0 DO M51
G1 X3.791 Y13.992 F1999.980
ID=1 WHEN $AC_TIMER[1]>=0 DO M50
G1 X3.498 Y14.072745 F600.000
G1 X2.485 Y14.282276
G1 X1.598 Y14.412942
G1 X0.962 Y14.468973
G1 X0.321 Y14.496024
G1 X-0.321 Y14.496075
G1 X-0.962 Y14.468126
G1 X-1.601 Y14.411177
G1 X-2.237 Y14.326228
G1 X-2.868 Y14.213279
G1 X-3.494 Y14.073330
G1 X-4.113 Y13.904381
G1 X-4.724 Y13.709432
G1 X-5.326 Y13.486483
G1 X-5.917 Y13.238534
G1 X-6.497 Y12.963585
G1 X-7.064 Y12.663636
G1 X-7.614 Y12.340661
G1 X-8.472 Y11.763192
G1 X-9.186 Y11.219857
G1 X-9.670 Y10.804888
G1 X-10.139 Y10.366939
G1 X-10.588 Y9.907990
G1 X-11.015 Y9.429041
G1 X-11.422 Y8.933092
G1 X-11.806 Y8.419143
G1 X-12.166 Y7.888194
G1 X-12.503 Y7.342245
G1 X-12.816 Y6.782296
G1 X-13.103 Y6.209347
G1 X-13.365 Y5.623398
G1 X-13.601 Y5.026449
G1 X-13.810 Y4.420500
G1 X-13.992 Y3.804551
G1 X-14.145 Y3.186576
G1 X-14.333 Y2.169107
G1 X-14.443 Y1.278772
G1 X-14.486 Y0.641804
G1 X-14.500 Y-0.000855
G1 X-14.486 Y-0.641906
G1 X-14.443 Y-1.277930
G1 X-14.312 Y-2.303462
G1 X-14.146 Y-3.185127
G1 X-13.992 Y-3.804158
G1 X-13.810 Y-4.420209
G1 X-13.601 Y-5.026260
G1 X-13.365 Y-5.623311
G1 X-13.103 Y-6.209362
G1 X-12.816 Y-6.782413
G1 X-12.503 Y-7.342464
G1 X-12.169 Y-7.885489
G1 X-11.573 Y-8.730020
G1 X-11.013 Y-9.431685
G1 X-10.588 Y-9.907716
G1 X-10.139 Y-10.366767
G1 X-9.670 Y-10.804818
G1 X-9.183 Y-11.221869
G1 X-8.678 Y-11.616920
G1 X-8.155 Y-11.989971
G1 X-7.617 Y-12.338022
G1 X-7.064 Y-12.663073
G1 X-6.501 Y-12.961098
G1 X-5.559 Y-13.388629
G1 X-4.721 Y-13.710294
G1 X-4.113 Y-13.904326
G1 X-3.494 Y-14.073377
G1 X-2.868 Y-14.213428
G1 X-2.237 Y-14.326479
G1 X-1.601 Y-14.411530
G1 X-0.962 Y-14.468581
G1 X-0.325 Y-14.496605
G1 X0.709 Y-14.479137
G1 X1.604 Y-14.411802 F600.000
G1 X2.237 Y-14.326833
G1 X2.868 Y-14.213884
G1 X3.494 Y-14.073935
G1 X4.113 Y-13.904986
G1 X4.724 Y-13.709037
G1 X5.326 Y-13.486088
G1 X5.917 Y-13.238139
G1 X6.497 Y-12.963190
G1 X7.064 Y-12.663241
G1 X7.617 Y-12.338292
G1 X8.155 Y-11.989343
G1 X8.678 Y-11.616394
G1 X9.183 Y-11.221445
G1 X9.670 Y-10.804496
G1 X10.139 Y-10.366547
G1 X10.588 Y-9.907598
G1 X11.015 Y-9.429649
G1 X11.422 Y-8.933700
G1 X11.806 Y-8.419751
G1 X12.166 Y-7.888802
G1 X12.503 Y-7.342853
G1 X12.816 Y-6.782904
G1 X13.103 Y-6.209955
G1 X13.365 Y-5.623006
G1 X13.601 Y-5.026057
G1 X13.810 Y-4.420108
G1 X13.992 Y-3.804159
G1 X14.146 Y-3.182210
G1 X14.273 Y-2.553261
G1 X14.372 Y-1.919312
G1 X14.443 Y-1.282363
G1 X14.486 Y-0.641414
G1 X14.500 Y-0.000465
G1 X14.486 Y0.641516
G1 X14.443 Y1.281567
G1 X14.372 Y1.919618
G1 X14.273 Y2.553669
G1 X14.146 Y3.182720
G1 X13.992 Y3.804771
G1 X13.810 Y4.420822
G1 X13.601 Y5.026873
G1 X13.365 Y5.623924
G1 X13.103 Y6.209975
G1 X12.816 Y6.782026
G1 X12.503 Y7.342077
G1 X12.166 Y7.888128
G1 X11.806 Y8.419179
G1 X11.422 Y8.933230
G1 X11.015 Y9.429281
G1 X10.588 Y9.907332
G1 X10.139 Y10.366383
G1 X9.670 Y10.804434
G1 X9.183 Y11.221485
G1 X8.678 Y11.616536
G1 X8.155 Y11.989587
G1 X7.617 Y12.338638
G1 X7.064 Y12.663689
G1 X6.497 Y12.963741
G1 X5.917 Y13.238792
G1 X5.326 Y13.486843
G1 X4.724 Y13.709894
G1 X4.224 Y13.869211
ID=1 WHEN $AC_TIMER[1]>=0 DO M51
G1 X3.573 Y13.780 F1999.980
G1 Z8.000 F1999.980
G1 X3.557 Y13.130 F1999.980
ID=1 WHEN $AC_TIMER[1]>=0 DO M50
G1 X2.691 Y13.338830 F600.000
G1 X2.099 Y13.444631
G1 X1.502 Y13.524433
G1 X0.902 Y13.577234
G1 X0.301 Y13.604036
G1 X-0.301 Y13.604837
G1 X-0.902 Y13.577639
G1 X-1.502 Y13.524440
G1 X-2.099 Y13.444242
G1 X-2.691 Y13.338044
G1 X-3.279 Y13.206845
G1 X-3.860 Y13.048647
G1 X-4.433 Y12.865448
G1 X-4.998 Y12.656250
G1 X-5.553 Y12.422051
G1 X-6.097 Y12.165853
G1 X-6.629 Y11.883654
G1 X-7.148 Y11.578456
G1 X-7.653 Y11.251257
G1 X-8.143 Y10.901059
G1 X-8.618 Y10.530861
G1 X-9.075 Y10.139662
G1 X-9.515 Y9.727464
G1 X-9.936 Y9.297265
G1 X-10.337 Y8.848067
G1 X-10.718 Y8.383868
G1 X-11.079 Y7.900670
G1 X-11.417 Y7.402471
G1 X-11.733 Y6.890273
G1 X-12.027 Y6.364074
G1 X-12.297 Y5.826876
G1 X-12.542 Y5.277678
G1 X-12.763 Y4.717479
G1 X-12.959 Y4.147281
G1 X-13.130 Y3.570082
G1 X-13.272 Y2.998807
G1 X-13.455 Y2.007170
G1 X-13.554 Y1.195336
G1 X-13.594 Y0.602087
G1 X-13.607 Y-0.000889
G1 X-13.594 Y-0.602690
G1 X-13.554 Y-1.203492
G1 X-13.487 Y-1.801293
G1 X-13.396 Y-2.384018
G1 X-13.180 Y-3.368381
G1 X-12.957 Y-4.155547
G1 X-12.763 Y-4.717298
G1 X-12.542 Y-5.277100
G1 X-12.297 Y-5.826901
G1 X-12.027 Y-6.364703
G1 X-11.733 Y-6.890504
G1 X-11.424 Y-7.392229
G1 X-10.842 Y-8.215592
G1 X-10.332 Y-8.854758
G1 X-9.936 Y-9.297509
G1 X-9.515 Y-9.727311
G1 X-9.075 Y-10.139112
G1 X-8.618 Y-10.530914
G1 X-8.143 Y-10.901715
G1 X-7.653 Y-11.251517
G1 X-7.148 Y-11.578318
G1 X-6.639 Y-11.877044
G1 X-5.741 Y-12.333406
G1 X-4.990 Y-12.659573
G1 X-4.433 Y-12.865323
G1 X-3.860 Y-13.048125
G1 X-3.279 Y-13.206926
G1 X-2.691 Y-13.338728
G1 X-2.099 Y-13.444529
G1 X-1.502 Y-13.524331
G1 X-0.902 Y-13.577132
G1 X-0.313 Y-13.603858
G1 X0.694 Y-13.586220
G1 X1.510 Y-13.523387 F600.000
G1 X2.099 Y-13.444137
G1 X2.691 Y-13.338939
G1 X3.279 Y-13.206740
G1 X3.860 Y-13.048542
G1 X4.433 Y-12.865344
G1 X4.998 Y-12.656145
G1 X5.553 Y-12.422947
G1 X6.097 Y-12.165748
G1 X6.629 Y-11.883550
G1 X7.148 Y-11.578351
G1 X7.653 Y-11.251153
G1 X8.143 Y-10.901954
G1 X8.618 Y-10.530756
G1 X9.075 Y-10.139557
G1 X9.515 Y-9.727359
G1 X9.936 Y-9.297161
G1 X10.337 Y-8.848962
G1 X10.718 Y-8.383764
G1 X11.079 Y-7.900565
G1 X11.417 Y-7.402367
G1 X11.733 Y-6.890168
G1 X12.027 Y-6.364970
G1 X12.297 Y-5.826771
G1 X12.542 Y-5.277573
G1 X12.763 Y-4.717374
G1 X12.959 Y-4.147176
G1 X13.130 Y-3.570978
G1 X13.275 Y-2.986779
G1 X13.394 Y-2.396581
G1 X13.487 Y-1.801382
G1 X13.554 Y-1.203184
G1 X13.594 Y-0.602985
G1 X13.607 Y-0.000787
G1 X13.594 Y0.602588
G1 X13.554 Y1.203390
G1 X13.487 Y1.801191
G1 X13.394 Y2.396993
G1 X13.275 Y2.986795
G1 X13.130 Y3.570596
G1 X12.959 Y4.147398
G1 X12.763 Y4.717199
G1 X12.542 Y5.277001
G1 X12.297 Y5.826802
G1 X12.027 Y6.364604
G1 X11.733 Y6.890405
G1 X11.417 Y7.402207
G1 X11.079 Y7.900008
G1 X10.718 Y8.383810
G1 X10.337 Y8.848612
G1 X9.936 Y9.297413
G1 X9.515 Y9.727215
G1 X9.075 Y10.139016
G1 X8.618 Y10.530818
G1 X8.143 Y10.901619
G1 X7.653 Y11.251421
G1 X7.148 Y11.578222
G1 X6.629 Y11.883024
G1 X6.097 Y12.165825
G1 X5.553 Y12.422627
G1 X4.998 Y12.656429
G1 X3.989 Y13.007172
ID=1 WHEN $AC_TIMER[1]>=0 DO M51
G1 X3.791 Y13.992 F1999.980
ID=1 WHEN $AC_TIMER[1]>=0 DO M50
G1 X2.868 Y14.213164 F600.000
G1 X2.237 Y14.326215
G1 X1.601 Y14.411266
G1 X0.962 Y14.468317
G1 X0.321 Y14.496368
G1 X-0.321 Y14.496419
G1 X-0.962 Y14.468471
G1 X-1.601 Y14.411522
G1 X-2.237 Y14.326573
G1 X-2.868 Y14.213624
G1 X-3.494 Y14.073675
G1 X-4.113 Y13.904726
G1 X-4.724 Y13.709777
G1 X-5.326 Y13.486828
G1 X-5.917 Y13.238879
G1 X-6.497 Y12.963930
G1 X-7.064 Y12.663981
G1 X-7.617 Y12.338032
G1 X-8.155 Y11.989083
G1 X-8.678 Y11.616134
G1 X-9.183 Y11.221185
G1 X-9.670 Y10.804236
G1 X-10.139 Y10.366287
G1 X-10.588 Y9.907338
G1 X-11.015 Y9.429389
G1 X-11.422 Y8.933440
G1 X-11.806 Y8.419491
G1 X-12.166 Y7.888542
G1 X-12.503 Y7.342593
G1 X-12.816 Y6.782644
G1 X-13.103 Y6.209695
G1 X-13.365 Y5.623746
G1 X-13.601 Y5.026797
G1 X-13.810 Y4.420848
G1 X-13.992 Y3.804899
G1 X-14.145 Y3.186922
G1 X-14.337 Y2.142627
G1 X-14.443 Y1.279118
G1 X-14.486 Y0.641151
G1 X-14.500 Y-0.000202
G1 X-14.486 Y-0.641253
G1 X-14.443 Y-1.282304
G1 X-14.372 Y-1.919355
G1 X-14.274 Y-2.549379
G1 X-14.046 Y-3.586083
G1 X-13.809 Y-4.422575
G1 X-13.601 Y-5.026607
G1 X-13.365 Y-5.623658
G1 X-13.103 Y-6.209709
G1 X-12.816 Y-6.782761
G1 X-12.503 Y-7.342812
G1 X-12.169 Y-7.885835
G1 X-11.556 Y-8.752539
