; generated by Slic3r 1.2.9 on 2017-06-02 at 12:17:06

; external perimeters extrusion width = 1.10mm
; perimeters extrusion width = 1.10mm
; infill extrusion width = 1.10mm
; solid infill extrusion width = 1.10mm
; top infill extrusion width = 1.10mm

H=1500
$AC_TIMER[1]=0

;General Config.--------------------
G641			;
G603			;
M55			;home mirror
G4F4			;necessary delay for positioning of the mirror				
M0			;wait for user-input

;Process Start-up-------------------
M56			;set canal 1 as laser-source
G4F4			;necessary delay for positioning of the mirror
M0			;wait for user-input
;START POWDER!!!
G4F15

M0

G54

G90 ; use absolute coordinates
G1 X9.450 Y0.000 F1980.000
ID=1 WHEN $AC_TIMER[1]>=0 DO M50
G1 X9.450 Y9.5416 F600.000
G1 X-9.450 Y9.5410 F600.000
G1 X-9.450 Y-9.5412
G1 X9.450 Y-9.5416
G1 X9.450 Y-0.4502
G1 Z0.566 X9.450 Y9.7236 F600.000
G1 Z0.690 X-9.450 Y9.7230 F600.000
G1 Z0.816 X-9.450 Y-9.7238
G1 Z0.940 X9.450 Y-9.72362
G1 Z1.000 X9.450 Y-0.45076
G1 Z1.067 X9.450 Y9.90587 F600.000
G1 Z1.189 X-9.450 Y9.90502 F600.000
G1 Z1.317 X-9.450 Y-9.90505
G1 Z1.439 X9.450 Y-9.90519
G1 Z1.500 X9.450 Y-0.45011
G1 Z1.567 X9.450 Y10.08700 F600.000
G1 Z1.688 X-9.450 Y10.08715 F600.000
G1 Z1.817 X-9.450 Y-10.08774
G1 Z1.938 X9.450 Y-10.08788
G1 Z2.000 X9.450 Y-0.45058
G1 Z2.068 X9.450 Y10.26925 F600.000
G1 Z2.188 X-9.450 Y10.26939 F600.000
G1 Z2.318 X-9.450 Y-10.26954
G1 Z2.438 X9.450 Y-10.26968
G1 Z2.500 X9.450 Y-0.45016
G1 Z2.568 X9.450 Y10.45161 F600.000
G1 Z2.687 X-9.450 Y10.45175 F600.000
G1 Z2.818 X-9.450 Y-10.45146
G1 Z2.937 X9.450 Y-10.45160
G1 Z3.000 X9.450 Y-0.45086
G1 Z3.069 X9.450 Y10.63309 F600.000
G1 Z3.187 X-9.450 Y10.63323 F600.000
G1 Z3.319 X-9.450 Y-10.63349
G1 Z3.437 X9.450 Y-10.63364
G1 Z3.500 X9.450 Y-0.45067
G1 Z3.569 X9.450 Y10.81568 F600.000
G1 Z3.686 X-9.450 Y10.81582 F600.000
G1 Z3.819 X-9.450 Y-10.81564
G1 Z3.936 X9.450 Y-10.81578
G1 Z4.000 X9.450 Y-0.45060
G1 Z4.070 X9.450 Y10.99739 F600.000
G1 Z4.186 X-9.450 Y10.99753 F600.000
G1 Z4.320 X-9.450 Y-10.99791
G1 Z4.436 X9.450 Y-10.99705
G1 Z4.500 X9.450 Y-0.45064
G1 Z4.570 X9.450 Y11.17921 F600.000
G1 Z4.685 X-9.450 Y11.17935 F600.000
G1 Z4.820 X-9.450 Y-11.17929
G1 Z4.935 X9.450 Y-11.17943
G1 Z5.000 X9.450 Y-0.45080
G1 Z5.071 X9.450 Y11.36115 F600.000
G1 Z5.184 X-9.450 Y11.36129 F600.000
G1 Z5.321 X-9.450 Y-11.36178
G1 Z5.434 X9.450 Y-11.36192
G1 Z5.500 X9.450 Y-0.45007
G1 Z5.571 X9.450 Y11.54320 F600.000
G1 Z5.684 X-9.450 Y11.54334 F600.000
G1 Z5.821 X-9.450 Y-11.54339
G1 Z5.934 X9.450 Y-11.54354
G1 Z6.000 X9.450 Y-0.45046
G1 Z6.072 X9.450 Y11.72537 F600.000
G1 Z6.183 X-9.450 Y11.72551 F600.000
G1 Z6.322 X-9.450 Y-11.72512
G1 Z6.433 X9.450 Y-11.72526
G1 Z6.500 X9.450 Y-0.45097
G1 Z6.572 X9.450 Y11.90765 F600.000
G1 Z6.683 X-9.450 Y11.90779 F600.000
G1 Z6.822 X-9.450 Y-11.90796
G1 Z6.933 X9.450 Y-11.90710
G1 Z7.000 X9.450 Y-0.45059
G1 Z7.073 X9.450 Y12.08905 F600.000
G1 Z7.182 X-9.450 Y12.08919 F600.000
G1 Z7.323 X-9.450 Y-12.08992
G1 Z7.432 X9.450 Y-12.08906
G1 Z7.500 X9.450 Y-0.45032
G1 Z7.573 X9.450 Y12.27157 F600.000
G1 Z7.682 X-9.450 Y12.27171 F600.000
G1 Z7.823 X-9.450 Y-12.27199
G1 Z7.932 X9.450 Y-12.27113
G1 Z8.000 X9.450 Y-0.45018
G1 Z8.074 X9.450 Y12.45320 F600.000
G1 Z8.181 X-9.450 Y12.45334 F600.000
G1 Z8.324 X-9.450 Y-12.45318
G1 Z8.431 X9.450 Y-12.45332
G1 Z8.500 X9.450 Y-0.45014
G1 Z8.574 X9.450 Y12.63594 F600.000
G1 Z8.681 X-9.450 Y12.63508 F600.000
G1 Z8.824 X-9.450 Y-12.635048
G1 Z8.931 X9.450 Y-12.635762
G1 Z9.000 X9.450 Y-0.450322
G1 Z9.074 X9.450 Y12.817480 F600.000
G1 Z9.181 X-9.450 Y12.817194 F600.000
G1 Z9.324 X-9.450 Y-12.817190
G1 Z9.431 X9.450 Y-12.817904
G1 Z9.500 X9.450 Y-0.450742
G1 Z9.575 X9.450 Y12.999178 F600.000
G1 Z9.680 X-9.450 Y12.999892 F600.000
G1 Z9.825 X-9.450 Y-12.999443
G1 Z9.930 X9.450 Y-12.999157
G1 Z10.000 X9.450 Y-0.450273
G1 Z10.075 X9.450 Y13.181987 F600.000
G1 Z10.180 X-9.450 Y13.181701 F600.000
G1 Z10.325 X-9.450 Y-13.181808
G1 Z10.430 X9.450 Y-13.181522
G1 Z10.500 X9.450 Y-0.450916
G1 Z10.576 X9.450 Y13.363907 F600.000
G1 Z10.679 X-9.450 Y13.363621 F600.000
G1 Z10.826 X-9.450 Y-13.363284
G1 Z10.929 X9.450 Y-13.363999
G1 Z11.000 X9.450 Y-0.450670
G1 Z11.076 X9.450 Y13.545940 F600.000
G1 Z11.179 X-9.450 Y13.545654 F600.000
G1 Z11.326 X-9.450 Y-13.545872
G1 Z11.429 X9.450 Y-13.545586
G1 Z11.500 X9.450 Y-0.450536
G1 Z11.576 X9.450 Y13.727083 F600.000
G1 Z11.678 X-9.450 Y13.727797 F600.000
G1 Z11.826 X-9.450 Y-13.727572
G1 Z11.928 X9.450 Y-13.727286
G1 Z12.000 X9.450 Y-0.450513
G1 Z12.077 X9.450 Y13.909338 F600.000
G1 Z12.178 X-9.450 Y13.909053 F600.000
G1 Z12.327 X-9.450 Y-13.909383
G1 Z12.428 X9.450 Y-13.909097
G1 Z12.500 X9.450 Y-0.450602
G1 Z12.577 X9.450 Y14.091705 F600.000
G1 Z12.678 X-9.450 Y14.091419 F600.000
G1 Z12.827 X-9.450 Y-14.091305
G1 Z12.928 X9.450 Y-14.091019
G1 Z13.000 X9.450 Y-0.450803
G1 Z13.078 X9.450 Y14.273183 F600.000
G1 Z13.177 X-9.450 Y14.273898 F600.000
G1 Z13.328 X-9.450 Y-14.273339
G1 Z13.427 X9.450 Y-14.273054
G1 Z13.500 X9.450 Y-0.450115
G1 Z13.578 X9.450 Y14.455773 F600.000
G1 Z13.677 X-9.450 Y14.455487 F600.000
G1 Z13.828 X-9.450 Y-14.455485
G1 Z13.927 X9.450 Y-14.455199
G1 Z14.000 X9.450 Y-0.450538
G1 Z14.078 X9.450 Y14.637475 F600.000
G1 Z14.176 X-9.450 Y14.637189 F600.000
G1 Z14.328 X-9.450 Y-14.637742
G1 Z14.426 X9.450 Y-14.637456
G1 Z14.500 X9.450 Y-0.450073
G1 Z14.579 X9.450 Y14.819288 F600.000
G1 Z14.676 X-9.450 Y14.819002 F600.000
G1 Z14.829 X-9.450 Y-14.819111
G1 Z14.926 X9.450 Y-14.819825
G1 Z15.000 X9.450 Y-0.450720
ID=1 WHEN $AC_TIMER[1]>=0 DO M51
M0
;TURN OFF POWDER!!!
M0
G4F5

;End of Programm--------------------
M55				;home mirror
M30				;program end

; filament used = 182.2mm (1.3cm3)

; avoid_crossing_perimeters = 0
; bed_shape = -150x-150,150x-150,150x150,-150x150
; bed_temperature = 0
; before_layer_gcode = 
; bridge_acceleration = 0
; bridge_fan_speed = 100
; brim_width = 0
; complete_objects = 0
; cooling = 0
; default_acceleration = 0
; disable_fan_first_layers = 3
; duplicate_distance = 6
; end_gcode = M0\n;TURN OFF POWDER!!!\nM0\nG4F5\n\n;End of Programm--------------------\nM55				;home mirror\nM30				;program end\n
; extruder_clearance_height = 20
; extruder_clearance_radius = 20
; extruder_offset = 0x0
; extrusion_axis = E
; extrusion_multiplier = 1
; fan_always_on = 0
; fan_below_layer_time = 60
; filament_colour = #FFFFFF
; filament_diameter = 3
; first_layer_acceleration = 0
; first_layer_bed_temperature = 0
; first_layer_extrusion_width = 0
; first_layer_speed = 100%
; first_layer_temperature = 205
; gcode_arcs = 0
; gcode_comments = 0
; gcode_flavor = reprap
; infill_acceleration = 0
; infill_first = 0
; layer_gcode = 
; max_fan_speed = 100
; max_print_speed = 80
; max_volumetric_speed = 0
; min_fan_speed = 35
; min_print_speed = 33
; min_skirt_length = 0
; notes = 
; nozzle_diameter = 3
; only_retract_when_crossing_perimeters = 0
; ooze_prevention = 0
; output_filename_format = [input_filename_base].gcode
; perimeter_acceleration = 0
; post_process = 
; pressure_advance = 0
; resolution = 0
; retract_before_travel = 2
; retract_layer_change = 0
; retract_length = 0
; retract_length_toolchange = 10
; retract_lift = 0
; retract_restart_extra = 0
; retract_restart_extra_toolchange = 0
; retract_speed = 40
; skirt_distance = 6
; skirt_height = 1
; skirts = 0
; slowdown_below_layer_time = 5
; spiral_vase = 1
; standby_temperature_delta = -5
; start_gcode = $AC_TIMER[1]=0\n\n;General Config.--------------------\nG641			;\nG603			;\nM55			;home mirror\nG4F4			;necessary delay for positioning of the mirror				\nM0			;wait for user-input\n\n;Process Start-up-------------------\nM56			;set canal 1 as laser-source\nG4F4			;necessary delay for positioning of the mirror\nM0			;wait for user-input\n;START POWDER!!!\nG4F15\n\nM0\n\nG54\n
; temperature = 200
; threads = 2
; toolchange_gcode = 
; travel_speed = 33
; use_firmware_retraction = 0
; use_relative_e_distances = 0
; use_volumetric_e = 0
; vibration_limit = 0
; wipe = 0
; z_offset = 0
; dont_support_bridges = 1
; extrusion_width = 1.1
; first_layer_height = 100%
; infill_only_where_needed = 0
; interface_shells = 0
; layer_height = 0.5
; raft_layers = 0
; seam_position = aligned
; support_material = 0
; support_material_angle = 0
; support_material_contact_distance = 0.2
; support_material_enforce_layers = 0
; support_material_extruder = 1
; support_material_extrusion_width = 0
; support_material_interface_extruder = 1
; support_material_interface_layers = 3
; support_material_interface_spacing = 0
; support_material_interface_speed = 100%
; support_material_pattern = pillars
; support_material_spacing = 2.5
; support_material_speed = 60
; support_material_threshold = 0
; xy_size_compensation = 0
; bottom_solid_layers = 0
; bridge_flow_ratio = 1
; bridge_speed = 33.3333
; external_fill_pattern = rectilinear
; external_perimeter_extrusion_width = 0
; external_perimeter_speed = 100%
; external_perimeters_first = 0
; extra_perimeters = 1
; fill_angle = 45
; fill_density = 0%
; fill_pattern = rectilinear
; gap_fill_speed = 33.3333
; infill_every_layers = 1
; infill_extruder = 1
; infill_extrusion_width = 0
; infill_overlap = 15%
; infill_speed = 33.3333
; overhangs = 1
; perimeter_extruder = 1
; perimeter_extrusion_width = 0
; perimeter_speed = 10
; perimeters = 1
; small_perimeter_speed = 100%
; solid_infill_below_area = 70
; solid_infill_every_layers = 0
; solid_infill_extruder = 1
; solid_infill_extrusion_width = 0
; solid_infill_speed = 100%
; thin_walls = 1
; top_infill_extrusion_width = 0
; top_solid_infill_speed = 100%
; top_solid_layers = 0
