; generated by Slic3r 1.2.9 on 2017-06-05 at 18:33:56

; external perimeters extrusion width = 1.10mm
; perimeters extrusion width = 1.10mm
; infill extrusion width = 1.10mm
; solid infill extrusion width = 1.10mm
; top infill extrusion width = 1.10mm

H=1500
$AC_TIMER[1]=0

;General Config.--------------------
G641			;
G603			;
M55			;home mirror
G4F4			;necessary delay for positioning of the mirror				
M0			;wait for user-input

;Process Start-up-------------------
M56			;set canal 1 as laser-source
G4F4			;necessary delay for positioning of the mirror
M0			;wait for user-input
;START POWDER!!!
G4F15

M0

G54

G90 ; use absolute coordinates
G1 X0.000 Y-9.173 F1980.000
ID=1 WHEN $AC_TIMER[1]>=0 DO M50
G1 X9.450 Y-9.1737 F600.000
G1 X9.450 Y9.9744
G1 X-9.450 Y9.9748 F600.000
G1 X-9.450 Y-9.1734
G1 X-0.450 Y-9.1731
G1 Z0.564 X9.450 Y-9.4338 F600.000
G1 Z0.692 X9.450 Y10.2070
G1 Z0.814 X-9.450 Y10.2074 F600.000
G1 Z0.942 X-9.450 Y-9.43315
G1 Z1.000 X-0.450 Y-9.43312
G1 Z1.063 X9.450 Y-9.69429 F600.000
G1 Z1.192 X9.450 Y10.44006
G1 Z1.313 X-9.450 Y10.44020 F600.000
G1 Z1.442 X-9.450 Y-9.69496
G1 Z1.500 X-0.450 Y-9.69493
G1 Z1.563 X9.450 Y-9.95410 F600.000
G1 Z1.693 X9.450 Y10.67351
G1 Z1.813 X-9.450 Y10.67365 F600.000
G1 Z1.943 X-9.450 Y-9.95406
G1 Z2.000 X-0.450 Y-9.95404
G1 Z2.062 X9.450 Y-10.21420 F600.000
G1 Z2.194 X9.450 Y10.90626
G1 Z2.312 X-9.450 Y10.90641 F600.000
G1 Z2.444 X-9.450 Y-10.21447
G1 Z2.500 X-0.450 Y-10.21444
G1 Z2.561 X9.450 Y-10.47561 F600.000
G1 Z2.694 X9.450 Y11.13932
G1 Z2.811 X-9.450 Y11.13946 F600.000
G1 Z2.944 X-9.450 Y-10.47517
G1 Z3.000 X-0.450 Y-10.47514
G1 Z3.060 X9.450 Y-10.73531 F600.000
G1 Z3.195 X9.450 Y11.37266
G1 Z3.310 X-9.450 Y11.37280 F600.000
G1 Z3.445 X-9.450 Y-10.73516
G1 Z3.500 X-0.450 Y-10.73513
G1 Z3.560 X9.450 Y-10.99530 F600.000
G1 Z3.696 X9.450 Y11.60631
G1 Z3.810 X-9.450 Y11.60645 F600.000
G1 Z3.946 X-9.450 Y-10.99546
G1 Z4.000 X-0.450 Y-10.99543
G1 Z4.059 X9.450 Y-11.25560 F600.000
G1 Z4.196 X9.450 Y11.83925
G1 Z4.309 X-9.450 Y11.83939 F600.000
G1 Z4.446 X-9.450 Y-11.25505
G1 Z4.500 X-0.450 Y-11.25502
G1 Z4.558 X9.450 Y-11.51619 F600.000
G1 Z4.697 X9.450 Y12.07249
G1 Z4.808 X-9.450 Y12.07263 F600.000
G1 Z4.947 X-9.450 Y-11.51694
G1 Z5.000 X-0.450 Y-11.51691
G1 Z5.058 X9.450 Y-11.77608 F600.000
G1 Z5.198 X9.450 Y12.30503
G1 Z5.308 X-9.450 Y12.30517 F600.000
G1 Z5.448 X-9.450 Y-11.77613
G1 Z5.500 X-0.450 Y-11.77610
G1 Z5.557 X9.450 Y-12.03627 F600.000
G1 Z5.698 X9.450 Y12.53887
G1 Z5.807 X-9.450 Y12.53801 F600.000
G1 Z5.948 X-9.450 Y-12.03661
G1 Z6.000 X-0.450 Y-12.03658
G1 Z6.056 X9.450 Y-12.29775 F600.000
G1 Z6.199 X9.450 Y12.77100
G1 Z6.306 X-9.450 Y12.77114 F600.000
G1 Z6.449 X-9.450 Y-12.29739
G1 Z6.500 X-0.450 Y-12.29736
G1 Z6.556 X9.450 Y-12.55753 F600.000
G1 Z6.699 X9.450 Y13.00543
G1 Z6.806 X-9.450 Y13.00557 F600.000
G1 Z6.949 X-9.450 Y-12.55747
G1 Z7.000 X-0.450 Y-12.55744
G1 Z7.055 X9.450 Y-12.81761 F600.000
G1 Z7.200 X9.450 Y13.23816
G1 Z7.305 X-9.450 Y13.23830 F600.000
G1 Z7.450 X-9.450 Y-12.81785
G1 Z7.500 X-0.450 Y-12.81782
G1 Z7.554 X9.450 Y-13.07799 F600.000
G1 Z7.700 X9.450 Y13.47119
G1 Z7.804 X-9.450 Y13.47133 F600.000
G1 Z7.950 X-9.450 Y-13.07752
G1 Z8.000 X-0.450 Y-13.07749
G1 Z8.054 X9.450 Y-13.33866 F600.000
G1 Z8.201 X9.450 Y13.70451
G1 Z8.304 X-9.450 Y13.70465 F600.000
G1 Z8.451 X-9.450 Y-13.33849
G1 Z8.500 X-0.450 Y-13.338747
G1 Z8.553 X9.450 Y-13.598264 F600.000
G1 Z8.702 X9.450 Y13.937613
G1 Z8.803 X-9.450 Y13.937327 F600.000
G1 Z8.952 X-9.450 Y-13.598676
G1 Z9.000 X-0.450 Y-13.598874
G1 Z9.053 X9.450 Y-13.858390 F600.000
G1 Z9.202 X9.450 Y14.170205
G1 Z9.303 X-9.450 Y14.170919 F600.000
G1 Z9.452 X-9.450 Y-13.858733
G1 Z9.500 X-0.450 Y-13.858930
G1 Z9.552 X9.450 Y-14.119447 F600.000
G1 Z9.703 X9.450 Y14.403726
G1 Z9.802 X-9.450 Y14.403440 F600.000
G1 Z9.953 X-9.450 Y-14.119719
G1 Z10.000 X-0.450 Y-14.119917
G1 Z10.052 X9.450 Y-14.379434 F600.000
G1 Z10.203 X9.450 Y14.637178
G1 Z10.302 X-9.450 Y14.637892 F600.000
G1 Z10.453 X-9.450 Y-14.379636
G1 Z10.500 X-0.450 Y-14.379833
G1 Z10.551 X9.450 Y-14.639350 F600.000
G1 Z10.704 X9.450 Y14.870559
G1 Z10.801 X-9.450 Y14.870273 F600.000
G1 Z10.954 X-9.450 Y-14.639482
G1 Z11.000 X-0.450 Y-14.639679
G1 Z11.051 X9.450 Y-14.899196 F600.000
G1 Z11.204 X9.450 Y15.103869
G1 Z11.301 X-9.450 Y15.103583 F600.000
G1 Z11.454 X-9.450 Y-14.899257
G1 Z11.500 X-0.450 Y-14.899454
G1 Z11.550 X9.450 Y-15.160971 F600.000
G1 Z11.704 X9.450 Y15.336110
G1 Z11.800 X-9.450 Y15.336824 F600.000
G1 Z11.954 X-9.450 Y-15.160963
G1 Z12.000 X-0.450 Y-15.160160
G1 Z12.050 X9.450 Y-15.420677 F600.000
G1 Z12.205 X9.450 Y15.569280
G1 Z12.300 X-9.450 Y15.569994 F600.000
G1 Z12.455 X-9.450 Y-15.420598
G1 Z12.500 X-0.450 Y-15.420795
G1 Z12.549 X9.450 Y-15.680312 F600.000
G1 Z12.705 X9.450 Y15.802380
G1 Z12.799 X-9.450 Y15.802094 F600.000
G1 Z12.955 X-9.450 Y-15.680163
G1 Z13.000 X-0.450 Y-15.680360
G1 Z13.049 X9.450 Y-15.941877 F600.000
G1 Z13.206 X9.450 Y16.036410
G1 Z13.299 X-9.450 Y16.036124 F600.000
G1 Z13.456 X-9.450 Y-15.941657
G1 Z13.500 X-0.450 Y-15.941854
G1 Z13.548 X9.450 Y-16.201371 F600.000
G1 Z13.706 X9.450 Y16.269369
G1 Z13.798 X-9.450 Y16.269084 F600.000
G1 Z13.956 X-9.450 Y-16.201082
G1 Z14.000 X-0.450 Y-16.201279
G1 Z14.048 X9.450 Y-16.461796 F600.000
G1 Z14.207 X9.450 Y16.502259
G1 Z14.298 X-9.450 Y16.502973 F600.000
G1 Z14.457 X-9.450 Y-16.461436
G1 Z14.500 X-0.450 Y-16.461633
G1 Z14.547 X9.450 Y-16.721150 F600.000
G1 Z14.707 X9.450 Y16.735078
G1 Z14.797 X-9.450 Y16.735792 F600.000
G1 Z14.957 X-9.450 Y-16.721720
G1 Z15.000 X-0.450 Y-16.721917
ID=1 WHEN $AC_TIMER[1]>=0 DO M51
M0
;TURN OFF POWDER!!!
M0
G4F5

;End of Programm--------------------
M55				;home mirror
M30				;program end

; filament used = 190.4mm (1.3cm3)

; avoid_crossing_perimeters = 0
; bed_shape = -150x-150,150x-150,150x150,-150x150
; bed_temperature = 0
; before_layer_gcode = 
; bridge_acceleration = 0
; bridge_fan_speed = 100
; brim_width = 0
; complete_objects = 0
; cooling = 0
; default_acceleration = 0
; disable_fan_first_layers = 3
; duplicate_distance = 6
; end_gcode = M0\n;TURN OFF POWDER!!!\nM0\nG4F5\n\n;End of Programm--------------------\nM55				;home mirror\nM30				;program end\n
; extruder_clearance_height = 20
; extruder_clearance_radius = 20
; extruder_offset = 0x0
; extrusion_axis = E
; extrusion_multiplier = 1
; fan_always_on = 0
; fan_below_layer_time = 60
; filament_colour = #FFFFFF
; filament_diameter = 3
; first_layer_acceleration = 0
; first_layer_bed_temperature = 0
; first_layer_extrusion_width = 0
; first_layer_speed = 100%
; first_layer_temperature = 205
; gcode_arcs = 0
; gcode_comments = 0
; gcode_flavor = reprap
; infill_acceleration = 0
; infill_first = 0
; layer_gcode = 
; max_fan_speed = 100
; max_print_speed = 80
; max_volumetric_speed = 0
; min_fan_speed = 35
; min_print_speed = 33
; min_skirt_length = 0
; notes = 
; nozzle_diameter = 3
; only_retract_when_crossing_perimeters = 0
; ooze_prevention = 0
; output_filename_format = [input_filename_base].gcode
; perimeter_acceleration = 0
; post_process = 
; pressure_advance = 0
; resolution = 0
; retract_before_travel = 2
; retract_layer_change = 0
; retract_length = 0
; retract_length_toolchange = 10
; retract_lift = 0
; retract_restart_extra = 0
; retract_restart_extra_toolchange = 0
; retract_speed = 40
; skirt_distance = 6
; skirt_height = 1
; skirts = 0
; slowdown_below_layer_time = 5
; spiral_vase = 1
; standby_temperature_delta = -5
; start_gcode = $AC_TIMER[1]=0\n\n;General Config.--------------------\nG641			;\nG603			;\nM55			;home mirror\nG4F4			;necessary delay for positioning of the mirror				\nM0			;wait for user-input\n\n;Process Start-up-------------------\nM56			;set canal 1 as laser-source\nG4F4			;necessary delay for positioning of the mirror\nM0			;wait for user-input\n;START POWDER!!!\nG4F15\n\nM0\n\nG54\n
; temperature = 200
; threads = 2
; toolchange_gcode = 
; travel_speed = 33
; use_firmware_retraction = 0
; use_relative_e_distances = 0
; use_volumetric_e = 0
; vibration_limit = 0
; wipe = 0
; z_offset = 0
; dont_support_bridges = 1
; extrusion_width = 1.1
; first_layer_height = 100%
; infill_only_where_needed = 0
; interface_shells = 0
; layer_height = 0.5
; raft_layers = 0
; seam_position = aligned
; support_material = 0
; support_material_angle = 0
; support_material_contact_distance = 0.2
; support_material_enforce_layers = 0
; support_material_extruder = 1
; support_material_extrusion_width = 0
; support_material_interface_extruder = 1
; support_material_interface_layers = 3
; support_material_interface_spacing = 0
; support_material_interface_speed = 100%
; support_material_pattern = pillars
; support_material_spacing = 2.5
; support_material_speed = 60
; support_material_threshold = 0
; xy_size_compensation = 0
; bottom_solid_layers = 0
; bridge_flow_ratio = 1
; bridge_speed = 33.3333
; external_fill_pattern = rectilinear
; external_perimeter_extrusion_width = 0
; external_perimeter_speed = 100%
; external_perimeters_first = 0
; extra_perimeters = 1
; fill_angle = 45
; fill_density = 0%
; fill_pattern = rectilinear
; gap_fill_speed = 33.3333
; infill_every_layers = 1
; infill_extruder = 1
; infill_extrusion_width = 0
; infill_overlap = 15%
; infill_speed = 33.3333
; overhangs = 1
; perimeter_extruder = 1
; perimeter_extrusion_width = 0
; perimeter_speed = 10
; perimeters = 1
; small_perimeter_speed = 100%
; solid_infill_below_area = 70
; solid_infill_every_layers = 0
; solid_infill_extruder = 1
; solid_infill_extrusion_width = 0
; solid_infill_speed = 100%
; thin_walls = 1
; top_infill_extrusion_width = 0
; top_solid_infill_speed = 100%
; top_solid_layers = 0
