; generated by Slic3r 1.2.9 on 2017-06-02 at 15:35:18

; external perimeters extrusion width = 1.10mm
; perimeters extrusion width = 1.10mm
; infill extrusion width = 1.10mm
; solid infill extrusion width = 1.10mm
; top infill extrusion width = 1.10mm

H=1500
$AC_TIMER[1]=0

;General Config.--------------------
G641			;
G603			;
M55			;home mirror
G4F4			;necessary delay for positioning of the mirror				
M0			;wait for user-input

;Process Start-up-------------------
M56			;set canal 1 as laser-source
G4F4			;necessary delay for positioning of the mirror
M0			;wait for user-input
;START POWDER!!!
G4F15

M0

G54

G90 ; use absolute coordinates
G1 X-8.762 Y0.000 F1980.000
ID=1 WHEN $AC_TIMER[1]>=0 DO M50
G1 X-8.762 Y-9.4507 F600.000
G1 X10.399 Y-9.4503
G1 X10.399 Y9.4507
G1 X-8.762 Y9.4504 F600.000
G1 X-8.762 Y0.4501
G1 Z0.564 X-9.050 Y-9.4508 F600.000
G1 Z0.692 X10.633 Y-9.4508
G1 Z0.814 X10.633 Y9.4502
G1 Z0.942 X-9.050 Y9.45013 F600.000
G1 Z1.000 X-9.050 Y0.45010
G1 Z1.063 X-9.339 Y-9.45027 F600.000
G1 Z1.192 X10.866 Y-9.45001
G1 Z1.313 X10.866 Y9.45015
G1 Z1.442 X-9.339 Y9.45090 F600.000
G1 Z1.500 X-9.339 Y0.45087
G1 Z1.562 X-9.628 Y-9.45004 F600.000
G1 Z1.693 X11.099 Y-9.45043
G1 Z1.812 X11.099 Y9.45057
G1 Z1.943 X-9.628 Y9.45096 F600.000
G1 Z2.000 X-9.628 Y0.45093
G1 Z2.062 X-9.916 Y-9.45010 F600.000
G1 Z2.194 X11.332 Y-9.45013
G1 Z2.312 X11.332 Y9.45027
G1 Z2.444 X-9.916 Y9.45031 F600.000
G1 Z2.500 X-9.916 Y0.45028
G1 Z2.561 X-10.205 Y-9.45045 F600.000
G1 Z2.695 X11.565 Y-9.45012
G1 Z2.811 X11.565 Y9.45026
G1 Z2.945 X-10.205 Y9.45094 F600.000
G1 Z3.000 X-10.205 Y0.45091
G1 Z3.060 X-10.494 Y-9.45008 F600.000
G1 Z3.195 X11.798 Y-9.45039
G1 Z3.310 X11.798 Y9.45053
G1 Z3.445 X-10.494 Y9.45085 F600.000
G1 Z3.500 X-10.494 Y0.45082
G1 Z3.559 X-10.782 Y-9.45099 F600.000
G1 Z3.696 X12.031 Y-9.45095
G1 Z3.809 X12.031 Y9.45009
G1 Z3.946 X-10.782 Y9.45005 F600.000
G1 Z4.000 X-10.782 Y0.45002
G1 Z4.059 X-11.071 Y-9.45019 F600.000
G1 Z4.197 X12.265 Y-9.45079
G1 Z4.309 X12.265 Y9.45093
G1 Z4.447 X-11.071 Y9.45053 F600.000
G1 Z4.500 X-11.071 Y0.45050
G1 Z4.558 X-11.360 Y-9.45067 F600.000
G1 Z4.697 X12.498 Y-9.45092
G1 Z4.808 X12.498 Y9.45006
G1 Z4.947 X-11.360 Y9.45030 F600.000
G1 Z5.000 X-11.360 Y0.45027
G1 Z5.057 X-11.648 Y-9.45044 F600.000
G1 Z5.198 X12.731 Y-9.45033
G1 Z5.307 X12.731 Y9.45047
G1 Z5.448 X-11.648 Y9.45035 F600.000
G1 Z5.500 X-11.648 Y0.45032
G1 Z5.557 X-11.937 Y-9.45049 F600.000
G1 Z5.699 X12.964 Y-9.45002
G1 Z5.807 X12.964 Y9.45016
G1 Z5.949 X-11.937 Y9.45069 F600.000
G1 Z6.000 X-11.937 Y0.45066
G1 Z6.056 X-12.226 Y-9.45083 F600.000
G1 Z6.199 X13.197 Y-9.45000
G1 Z6.306 X13.197 Y9.45014
G1 Z6.449 X-12.226 Y9.45031 F600.000
G1 Z6.500 X-12.226 Y0.45029
G1 Z6.555 X-12.514 Y-9.45045 F600.000
G1 Z6.700 X13.430 Y-9.45027
G1 Z6.805 X13.430 Y9.45041
G1 Z6.950 X-12.514 Y9.45022 F600.000
G1 Z7.000 X-12.514 Y0.45019
G1 Z7.055 X-12.803 Y-9.45036 F600.000
G1 Z7.200 X13.664 Y-9.45082
G1 Z7.305 X13.664 Y9.45096
G1 Z7.450 X-12.803 Y9.45041 F600.000
G1 Z7.500 X-12.803 Y0.45038
G1 Z7.554 X-13.092 Y-9.45055 F600.000
G1 Z7.701 X13.897 Y-9.45065
G1 Z7.804 X13.897 Y9.45079
G1 Z7.951 X-13.092 Y9.45089 F600.000
G1 Z8.000 X-13.092 Y0.45086
G1 Z8.053 X-13.380 Y-9.45003 F600.000
G1 Z8.202 X14.130 Y-9.45077
G1 Z8.303 X14.130 Y9.45091
G1 Z8.452 X-13.380 Y9.450165 F600.000
G1 Z8.500 X-13.380 Y0.450362
G1 Z8.553 X-13.669 Y-9.450879 F600.000
G1 Z8.702 X14.363 Y-9.450717
G1 Z8.803 X14.363 Y9.450431
G1 Z8.952 X-13.669 Y9.450270 F600.000
G1 Z9.000 X-13.669 Y0.450467
G1 Z9.052 X-13.958 Y-9.450984 F600.000
G1 Z9.203 X14.596 Y-9.450486
G1 Z9.302 X14.596 Y9.450200
G1 Z9.453 X-13.958 Y9.450703 F600.000
G1 Z9.500 X-13.958 Y0.450900
G1 Z9.552 X-14.246 Y-9.450417 F600.000
G1 Z9.703 X14.829 Y-9.450583
G1 Z9.802 X14.829 Y9.450298
G1 Z9.953 X-14.246 Y9.450464 F600.000
G1 Z10.000 X-14.246 Y0.450661
G1 Z10.051 X-14.535 Y-9.450178 F600.000
G1 Z10.204 X15.062 Y-9.450009
G1 Z10.301 X15.062 Y9.450723
G1 Z10.454 X-14.535 Y9.450554 F600.000
G1 Z10.500 X-14.535 Y0.450751
G1 Z10.550 X-14.824 Y-9.450268 F600.000
G1 Z10.704 X15.296 Y-9.450763
G1 Z10.800 X15.296 Y9.450478
G1 Z10.954 X-14.824 Y9.450973 F600.000
G1 Z11.000 X-14.824 Y0.450170
G1 Z11.050 X-15.112 Y-9.450687 F600.000
G1 Z11.205 X15.529 Y-9.450846
G1 Z11.300 X15.529 Y9.450560
G1 Z11.455 X-15.112 Y9.450720 F600.000
G1 Z11.500 X-15.112 Y0.450917
G1 Z11.549 X-15.401 Y-9.450434 F600.000
G1 Z11.705 X15.762 Y-9.450257
G1 Z11.799 X15.762 Y9.450971
G1 Z11.955 X-15.401 Y9.450795 F600.000
G1 Z12.000 X-15.401 Y0.450992
G1 Z12.049 X-15.690 Y-9.450509 F600.000
G1 Z12.206 X15.995 Y-9.450997
G1 Z12.299 X15.995 Y9.450711
G1 Z12.456 X-15.690 Y9.450199 F600.000
G1 Z12.500 X-15.690 Y0.450396
G1 Z12.548 X-15.978 Y-9.450913 F600.000
G1 Z12.706 X16.228 Y-9.450065
G1 Z12.798 X16.228 Y9.450779
G1 Z12.956 X-15.978 Y9.450931 F600.000
G1 Z13.000 X-15.978 Y0.450129
G1 Z13.048 X-16.267 Y-9.450645 F600.000
G1 Z13.206 X16.461 Y-9.450462
G1 Z13.298 X16.461 Y9.450176
G1 Z13.456 X-16.267 Y9.450992 F600.000
G1 Z13.500 X-16.267 Y0.450189
G1 Z13.547 X-16.556 Y-9.450706 F600.000
G1 Z13.707 X16.695 Y-9.450187
G1 Z13.797 X16.695 Y9.450901
G1 Z13.957 X-16.556 Y9.450382 F600.000
G1 Z14.000 X-16.556 Y0.450579
G1 Z14.047 X-16.844 Y-9.450096 F600.000
G1 Z14.207 X16.928 Y-9.450240
G1 Z14.297 X16.928 Y9.450955
G1 Z14.457 X-16.844 Y9.450099 F600.000
G1 Z14.500 X-16.844 Y0.450296
G1 Z14.547 X-17.133 Y-9.450813 F600.000
G1 Z14.708 X17.161 Y-9.450622
G1 Z14.797 X17.161 Y9.450337
G1 Z14.958 X-17.133 Y9.450146 F600.000
G1 Z15.000 X-17.133 Y0.450343
ID=1 WHEN $AC_TIMER[1]>=0 DO M51
M0
;TURN OFF POWDER!!!
M0
G4F5

;End of Programm--------------------
M55				;home mirror
M30				;program end

; filament used = 192.2mm (1.4cm3)

; avoid_crossing_perimeters = 0
; bed_shape = -150x-150,150x-150,150x150,-150x150
; bed_temperature = 0
; before_layer_gcode = 
; bridge_acceleration = 0
; bridge_fan_speed = 100
; brim_width = 0
; complete_objects = 0
; cooling = 0
; default_acceleration = 0
; disable_fan_first_layers = 3
; duplicate_distance = 6
; end_gcode = M0\n;TURN OFF POWDER!!!\nM0\nG4F5\n\n;End of Programm--------------------\nM55				;home mirror\nM30				;program end\n
; extruder_clearance_height = 20
; extruder_clearance_radius = 20
; extruder_offset = 0x0
; extrusion_axis = E
; extrusion_multiplier = 1
; fan_always_on = 0
; fan_below_layer_time = 60
; filament_colour = #FFFFFF
; filament_diameter = 3
; first_layer_acceleration = 0
; first_layer_bed_temperature = 0
; first_layer_extrusion_width = 0
; first_layer_speed = 100%
; first_layer_temperature = 205
; gcode_arcs = 0
; gcode_comments = 0
; gcode_flavor = reprap
; infill_acceleration = 0
; infill_first = 0
; layer_gcode = 
; max_fan_speed = 100
; max_print_speed = 80
; max_volumetric_speed = 0
; min_fan_speed = 35
; min_print_speed = 33
; min_skirt_length = 0
; notes = 
; nozzle_diameter = 3
; only_retract_when_crossing_perimeters = 0
; ooze_prevention = 0
; output_filename_format = [input_filename_base].gcode
; perimeter_acceleration = 0
; post_process = 
; pressure_advance = 0
; resolution = 0
; retract_before_travel = 2
; retract_layer_change = 0
; retract_length = 0
; retract_length_toolchange = 10
; retract_lift = 0
; retract_restart_extra = 0
; retract_restart_extra_toolchange = 0
; retract_speed = 40
; skirt_distance = 6
; skirt_height = 1
; skirts = 0
; slowdown_below_layer_time = 5
; spiral_vase = 1
; standby_temperature_delta = -5
; start_gcode = $AC_TIMER[1]=0\n\n;General Config.--------------------\nG641			;\nG603			;\nM55			;home mirror\nG4F4			;necessary delay for positioning of the mirror				\nM0			;wait for user-input\n\n;Process Start-up-------------------\nM56			;set canal 1 as laser-source\nG4F4			;necessary delay for positioning of the mirror\nM0			;wait for user-input\n;START POWDER!!!\nG4F15\n\nM0\n\nG54\n
; temperature = 200
; threads = 2
; toolchange_gcode = 
; travel_speed = 33
; use_firmware_retraction = 0
; use_relative_e_distances = 0
; use_volumetric_e = 0
; vibration_limit = 0
; wipe = 0
; z_offset = 0
; dont_support_bridges = 1
; extrusion_width = 1.1
; first_layer_height = 100%
; infill_only_where_needed = 0
; interface_shells = 0
; layer_height = 0.5
; raft_layers = 0
; seam_position = aligned
; support_material = 0
; support_material_angle = 0
; support_material_contact_distance = 0.2
; support_material_enforce_layers = 0
; support_material_extruder = 1
; support_material_extrusion_width = 0
; support_material_interface_extruder = 1
; support_material_interface_layers = 3
; support_material_interface_spacing = 0
; support_material_interface_speed = 100%
; support_material_pattern = pillars
; support_material_spacing = 2.5
; support_material_speed = 60
; support_material_threshold = 0
; xy_size_compensation = 0
; bottom_solid_layers = 0
; bridge_flow_ratio = 1
; bridge_speed = 33.3333
; external_fill_pattern = rectilinear
; external_perimeter_extrusion_width = 0
; external_perimeter_speed = 100%
; external_perimeters_first = 0
; extra_perimeters = 1
; fill_angle = 45
; fill_density = 0%
; fill_pattern = rectilinear
; gap_fill_speed = 33.3333
; infill_every_layers = 1
; infill_extruder = 1
; infill_extrusion_width = 0
; infill_overlap = 15%
; infill_speed = 33.3333
; overhangs = 1
; perimeter_extruder = 1
; perimeter_extrusion_width = 0
; perimeter_speed = 10
; perimeters = 1
; small_perimeter_speed = 100%
; solid_infill_below_area = 70
; solid_infill_every_layers = 0
; solid_infill_extruder = 1
; solid_infill_extrusion_width = 0
; solid_infill_speed = 100%
; thin_walls = 1
; top_infill_extrusion_width = 0
; top_solid_infill_speed = 100%
; top_solid_layers = 0
