; generated by Slic3r 1.2.9 on 2017-05-26 at 13:27:05

; external perimeters extrusion width = 1.10mm
; perimeters extrusion width = 1.10mm
; infill extrusion width = 1.10mm
; solid infill extrusion width = 1.10mm
; top infill extrusion width = 1.10mm

H=1500
$AC_TIMER[1]=0

;General Config.--------------------
G641			;
G603			;
M55			;home mirror
G4F4			;necessary delay for positioning of the mirror				
M0			;wait for user-input

;Process Start-up-------------------
M56			;set canal 1 as laser-source
G4F4			;necessary delay for positioning of the mirror
M0			;wait for user-input
;START POWDER!!!
G4F15

M0

G54

G90 ; use absolute coordinates
G1 X7.453 Y-0.000 F1980.000
ID=1 WHEN $AC_TIMER[1]>=0 DO M50
G1 X7.453 Y19.4507 F600.000
G1 X-7.453 Y19.4503
G1 X-7.453 Y-19.4505
G1 X7.453 Y-19.4501
G1 X7.452 Y-9.5128
G1 X7.453 Y-0.4506 F600.000
G1 Z0.592 X7.473 Y19.4503 F600.000
G1 Z0.662 X-7.473 Y19.4507
G1 Z0.842 X-7.473 Y-19.45009
G1 Z0.912 X7.473 Y-19.45053
G1 Z0.958 X7.472 Y-9.53299
G1 Z1.000 X7.472 Y-0.45068 F600.000
G1 Z1.092 X7.511 Y19.45005 F600.000
G1 Z1.162 X-7.511 Y19.45094
G1 Z1.342 X-7.511 Y-19.45046
G1 Z1.412 X7.511 Y-19.45035
G1 Z1.458 X7.511 Y-9.57298
G1 Z1.500 X7.511 Y-0.45050 F600.000
G1 Z1.592 X7.569 Y19.45087 F600.000
G1 Z1.662 X-7.569 Y19.45089
G1 Z1.842 X-7.569 Y-19.45041
G1 Z1.912 X7.569 Y-19.45044
G1 Z1.958 X7.570 Y-9.63380
G1 Z2.000 X7.570 Y-0.45059 F600.000
G1 Z2.092 X7.648 Y19.45096 F600.000
G1 Z2.162 X-7.648 Y19.45000
G1 Z2.342 X-7.648 Y-19.45052
G1 Z2.412 X7.648 Y-19.45055
G1 Z2.432 X7.647 Y-15.25420
G1 Z2.500 X7.648 Y-0.45071 F600.000
G1 Z2.591 X7.746 Y19.45008 F600.000
G1 Z2.663 X-7.746 Y19.45093
G1 Z2.841 X-7.746 Y-19.45045
G1 Z2.913 X7.746 Y-19.45030
G1 Z2.941 X7.746 Y-13.33380
G1 Z3.000 X7.746 Y-0.45046 F600.000
G1 Z3.091 X7.864 Y19.45083 F600.000
G1 Z3.163 X-7.864 Y19.45027
G1 Z3.341 X-7.864 Y-19.45080
G1 Z3.413 X7.864 Y-19.45025
G1 Z3.445 X7.865 Y-12.57785
G1 Z3.500 X7.865 Y-0.45040 F600.000
G1 Z3.591 X8.003 Y19.45077 F600.000
G1 Z3.663 X-8.003 Y19.45064
G1 Z3.841 X-8.003 Y-19.45017
G1 Z3.913 X8.003 Y-19.45004
G1 Z3.915 X8.003 Y-19.02772
G1 Z4.000 X8.003 Y-0.45020 F600.000
G1 Z4.090 X8.163 Y19.45056 F600.000
G1 Z4.164 X-8.163 Y19.45090
G1 Z4.340 X-8.163 Y-19.45042
G1 Z4.414 X8.163 Y-19.45075
G1 Z4.421 X8.163 Y-17.96409
G1 Z4.500 X8.163 Y-0.45091 F600.000
G1 Z4.589 X8.344 Y19.45027 F600.000
G1 Z4.665 X-8.344 Y19.45010
G1 Z4.839 X-8.344 Y-19.45062
G1 Z4.915 X8.344 Y-19.45045
G1 Z4.928 X8.344 Y-16.36411
G1 Z5.000 X8.344 Y-0.45060 F600.000
G1 Z5.089 X8.547 Y19.45097 F600.000
G1 Z5.165 X-8.547 Y19.45033
G1 Z5.339 X-8.547 Y-19.45086
G1 Z5.415 X8.547 Y-19.45022
G1 Z5.439 X8.547 Y-14.05226
G1 Z5.500 X8.547 Y-0.45037 F600.000
G1 Z5.588 X8.773 Y19.45074 F600.000
G1 Z5.666 X-8.773 Y19.45079
G1 Z5.838 X-8.773 Y-19.45031
G1 Z5.916 X8.773 Y-19.45035
G1 Z5.938 X8.773 Y-14.38222
G1 Z6.000 X8.773 Y-0.45051 F600.000
G1 Z6.087 X9.022 Y19.45088 F600.000
G1 Z6.167 X-9.022 Y19.45087
G1 Z6.337 X-9.022 Y-19.45039
G1 Z6.417 X9.022 Y-19.45038
G1 Z6.438 X9.021 Y-14.55323
G1 Z6.500 X9.021 Y-0.450153 F600.000
G1 Z6.587 X9.295 Y19.450890 F600.000
G1 Z6.667 X-9.295 Y19.450423 F600.000
G1 Z6.837 X-9.295 Y-19.450575
G1 Z6.917 X9.295 Y-19.450108
G1 Z7.000 X9.295 Y-0.450523
G1 Z7.086 X9.593 Y19.450260 F600.000
G1 Z7.168 X-9.593 Y19.450988
G1 Z7.336 X-9.593 Y-19.450141
G1 Z7.418 X9.593 Y-19.450869
G1 Z7.430 X9.593 Y-16.819347
G1 Z7.500 X9.593 Y-0.450285 F600.000
G1 Z7.585 X9.919 Y19.450021 F600.000
G1 Z7.669 X-9.919 Y19.450316
G1 Z7.835 X-9.919 Y-19.450469
G1 Z7.919 X9.919 Y-19.450764
G1 Z7.929 X9.918 Y-17.089341
G1 Z8.000 X9.919 Y-0.450179 F600.000
G1 Z8.084 X10.271 Y19.450916 F600.000
G1 Z8.170 X-10.271 Y19.450166
G1 Z8.334 X-10.271 Y-19.450318
G1 Z8.420 X10.271 Y-19.450568
G1 Z8.428 X10.271 Y-17.619421
G1 Z8.500 X10.271 Y-0.450983 F600.000
G1 Z8.583 X10.653 Y19.450720 F600.000
G1 Z8.671 X-10.653 Y19.450334
G1 Z8.833 X-10.653 Y-19.450487
G1 Z8.921 X10.653 Y-19.450101
G1 Z8.954 X10.654 Y-11.490998
G1 Z9.000 X10.654 Y-0.450517 F600.000
G1 Z9.082 X11.066 Y19.450254 F600.000
G1 Z9.172 X-11.066 Y19.450668
G1 Z9.332 X-11.066 Y-19.450820
G1 Z9.422 X11.066 Y-19.450235
G1 Z9.470 X11.066 Y-7.755358
G1 Z9.500 X11.066 Y-0.450650 F600.000
G1 Z9.580 X11.512 Y19.450387 F600.000
G1 Z9.673 X-11.512 Y19.450066
G1 Z9.830 X-11.512 Y-19.450219
G1 Z9.923 X11.512 Y-19.450898
G1 Z9.926 X11.512 Y-18.677328
G1 Z10.000 X11.512 Y-0.450313 F600.000
G1 Z10.079 X11.995 Y19.450050 F600.000
G1 Z10.174 X-11.995 Y19.450504
G1 Z10.329 X-11.995 Y-19.450657
G1 Z10.424 X11.995 Y-19.450111
G1 Z10.429 X11.995 Y-18.388569
G1 Z10.500 X11.995 Y-0.450527 F600.000
G1 Z10.578 X12.517 Y19.450264 F600.000
G1 Z10.676 X-12.517 Y19.450044
G1 Z10.828 X-12.517 Y-19.450196
G1 Z10.926 X12.516 Y-19.450976
G1 Z10.953 X12.516 Y-12.412397
G1 Z11.000 X12.516 Y-0.450391 F600.000
G1 Z11.076 X13.083 Y19.450128 F600.000
G1 Z11.177 X-13.083 Y19.450863
G1 Z11.326 X-13.083 Y-19.450015
G1 Z11.427 X13.083 Y-19.450750
G1 Z11.465 X13.082 Y-9.577079
G1 Z11.500 X13.082 Y-0.450166 F600.000
G1 Z11.575 X13.695 Y19.450903 F600.000
G1 Z11.678 X-13.695 Y19.450228
G1 Z11.825 X-13.695 Y-19.450380
G1 Z11.928 X13.695 Y-19.450705
G1 Z11.958 X13.693 Y-11.497548
G1 Z12.000 X13.693 Y-0.450120 F600.000
G1 Z12.074 X14.358 Y19.450857 F600.000
G1 Z12.180 X-14.358 Y19.450493
G1 Z12.324 X-14.358 Y-19.450645
G1 Z12.430 X14.357 Y-19.450280
G1 Z12.462 X14.355 Y-10.791082
G1 Z12.500 X14.356 Y-0.450695 F600.000
G1 Z12.572 X15.078 Y19.450433 F600.000
G1 Z12.681 X-15.078 Y19.450185 F600.000
G1 Z12.822 X-15.078 Y-19.450338
G1 Z12.931 X15.078 Y-19.450089
G1 Z13.000 X15.078 Y-0.450504
G1 Z13.070 X15.877 Y19.450242 F600.000
G1 Z13.183 X-15.877 Y19.450209
G1 Z13.320 X-15.877 Y-19.450361
G1 Z13.433 X15.876 Y-19.450327
G1 Z13.450 X15.876 Y-14.480229
G1 Z13.500 X15.876 Y-0.450742 F600.000
G1 Z13.569 X16.752 Y19.450480 F600.000
G1 Z13.684 X-16.752 Y19.450736
G1 Z13.819 X-16.752 Y-19.450888
G1 Z13.934 X16.751 Y-19.450143
G1 Z13.964 X16.749 Y-10.899189
G1 Z14.000 X16.750 Y-0.450557 F600.000
G1 Z14.067 X17.732 Y19.450297 F600.000
G1 Z14.186 X-17.732 Y19.450325
G1 Z14.317 X-17.732 Y-19.450477
G1 Z14.436 X17.732 Y-19.450504
G1 Z14.477 X17.727 Y-7.160800
G1 Z14.500 X17.728 Y-0.451917 F600.000
G1 Z14.565 X18.836 Y19.450657 F600.000
G1 Z14.688 X-18.836 Y19.450190
G1 Z14.815 X-18.836 Y-19.450342
G1 Z14.938 X18.836 Y-19.450874
G1 Z14.940 X18.836 Y-18.787528
G1 Z15.000 X18.836 Y-0.451287 F600.000
ID=1 WHEN $AC_TIMER[1]>=0 DO M51
M0
;TURN OFF POWDER!!!
M0
G4F5

;End of Programm--------------------
M55				;home mirror
M30				;program end

; filament used = 255.5mm (1.8cm3)

; avoid_crossing_perimeters = 0
; bed_shape = -150x-150,150x-150,150x150,-150x150
; bed_temperature = 0
; before_layer_gcode = 
; bridge_acceleration = 0
; bridge_fan_speed = 100
; brim_width = 0
; complete_objects = 0
; cooling = 0
; default_acceleration = 0
; disable_fan_first_layers = 3
; duplicate_distance = 6
; end_gcode = M0\n;TURN OFF POWDER!!!\nM0\nG4F5\n\n;End of Programm--------------------\nM55				;home mirror\nM30				;program end\n
; extruder_clearance_height = 20
; extruder_clearance_radius = 20
; extruder_offset = 0x0
; extrusion_axis = E
; extrusion_multiplier = 1
; fan_always_on = 0
; fan_below_layer_time = 60
; filament_colour = #FFFFFF
; filament_diameter = 3
; first_layer_acceleration = 0
; first_layer_bed_temperature = 0
; first_layer_extrusion_width = 0
; first_layer_speed = 100%
; first_layer_temperature = 205
; gcode_arcs = 0
; gcode_comments = 0
; gcode_flavor = reprap
; infill_acceleration = 0
; infill_first = 0
; layer_gcode = 
; max_fan_speed = 100
; max_print_speed = 80
; max_volumetric_speed = 0
; min_fan_speed = 35
; min_print_speed = 33
; min_skirt_length = 0
; notes = 
; nozzle_diameter = 3
; only_retract_when_crossing_perimeters = 0
; ooze_prevention = 0
; output_filename_format = [input_filename_base].gcode
; perimeter_acceleration = 0
; post_process = 
; pressure_advance = 0
; resolution = 0
; retract_before_travel = 2
; retract_layer_change = 0
; retract_length = 0
; retract_length_toolchange = 10
; retract_lift = 0
; retract_restart_extra = 0
; retract_restart_extra_toolchange = 0
; retract_speed = 40
; skirt_distance = 6
; skirt_height = 1
; skirts = 0
; slowdown_below_layer_time = 5
; spiral_vase = 1
; standby_temperature_delta = -5
; start_gcode = $AC_TIMER[1]=0\n\n;General Config.--------------------\nG641			;\nG603			;\nM55			;home mirror\nG4F4			;necessary delay for positioning of the mirror				\nM0			;wait for user-input\n\n;Process Start-up-------------------\nM56			;set canal 1 as laser-source\nG4F4			;necessary delay for positioning of the mirror\nM0			;wait for user-input\n;START POWDER!!!\nG4F15\n\nM0\n\nG54\n
; temperature = 200
; threads = 2
; toolchange_gcode = 
; travel_speed = 33
; use_firmware_retraction = 0
; use_relative_e_distances = 0
; use_volumetric_e = 0
; vibration_limit = 0
; wipe = 0
; z_offset = 0
; dont_support_bridges = 1
; extrusion_width = 1.1
; first_layer_height = 100%
; infill_only_where_needed = 0
; interface_shells = 0
; layer_height = 0.5
; raft_layers = 0
; seam_position = aligned
; support_material = 0
; support_material_angle = 0
; support_material_contact_distance = 0.2
; support_material_enforce_layers = 0
; support_material_extruder = 1
; support_material_extrusion_width = 0
; support_material_interface_extruder = 1
; support_material_interface_layers = 3
; support_material_interface_spacing = 0
; support_material_interface_speed = 100%
; support_material_pattern = pillars
; support_material_spacing = 2.5
; support_material_speed = 60
; support_material_threshold = 0
; xy_size_compensation = 0
; bottom_solid_layers = 0
; bridge_flow_ratio = 1
; bridge_speed = 33.3333
; external_fill_pattern = rectilinear
; external_perimeter_extrusion_width = 0
; external_perimeter_speed = 100%
; external_perimeters_first = 0
; extra_perimeters = 1
; fill_angle = 45
; fill_density = 0%
; fill_pattern = rectilinear
; gap_fill_speed = 33.3333
; infill_every_layers = 1
; infill_extruder = 1
; infill_extrusion_width = 0
; infill_overlap = 15%
; infill_speed = 33.3333
; overhangs = 1
; perimeter_extruder = 1
; perimeter_extrusion_width = 0
; perimeter_speed = 10
; perimeters = 1
; small_perimeter_speed = 100%
; solid_infill_below_area = 70
; solid_infill_every_layers = 0
; solid_infill_extruder = 1
; solid_infill_extrusion_width = 0
; solid_infill_speed = 100%
; thin_walls = 1
; top_infill_extrusion_width = 0
; top_solid_infill_speed = 100%
; top_solid_layers = 0
