;Gerado com pos-processador LMP Laser Tool para Inkscape
;Processo: 
;Velocidade(m/min):
;Potencia (kW):
;Espessura(mm): 
;Material:

;Configuracoes gerais
G90 ;Cordenadas absolutas 
G64 ;Modo de velocidade constante	
G54 ;Sistema de cordenadas da peca 
M55 ;Espelho para a posicao home
G4F4 ;Aguarda o posicionamento do espelho 
M56 ;Habilita o canal 1 da fonte LASER
G4F4 ;Aguarda o posicionamento do espelho 

;Verificacao da focagem e ou posicao da peca (nao obrigatorio)
G1 X0 Y0 Z100 F2000
G1 Z0 F2000
M0 

G1 F4000
G1 X138.395634 Y141.721223
G4 F0 
M50 H1500
G4 F0
G1 F4000.000000
G3 X136.372814 Y141.621191 I1.251517 J-45.810111
G3 X134.317184 Y141.42743 I3.282927 J-45.829987
G3 X115.379238 Y134.502791 I5.04964 J-43.16875
G3 X102.032514 Y120.073904 I22.847083 J-34.520864
G1 X101.619086 Y119.328103
G2 X101.045103 Y118.738102 I-1.374109 J0.762603
G2 X100.251609 Y118.51918 I-0.800126 J1.352605
G2 X99.456297 Y118.731397 I-0.006632 J1.571527
G2 X98.877354 Y119.316532 I0.78868 J1.35931
G1 X97.77711 Y121.260112
G3 X92.610624 Y128.280777 I-31.827646 J-18.010537
G3 X85.430452 Y134.389513 I-30.753536 J-28.873386
G3 X77.87137 Y138.4092 I-22.992084 J-34.119632
G3 X68.884073 Y141.075217 I-18.317202 J-45.266999
G3 X66.191294 Y141.430228 I-4.244545 J-21.805176
G3 X61.348401 Y141.607685 I-5.086248 J-72.634778
G1 X61.348401 Y141.607685
G3 X55.462381 Y141.281071 I-0.164771 J-50.230807
G3 X50.216597 Y140.329981 I4.659175 J-40.640139
G3 X26.74451 Y124.672203 I10.136775 J-40.617751
G3 X19.610917 Y99.207097 I29.688396 J-22.048399
G3 X22.648601 Y87.791107 I35.268889 J3.272564
G3 X31.516072 Y73.35842 I62.645627 J28.549157
G3 X36.14152 Y68.144727 I52.971027 J42.335829
G3 X41.524491 Y63.190687 I52.417663 J51.554555
G3 X48.350446 Y58.011727 I60.784829 J73.027577
G3 X55.029812 Y53.869084 I45.750689 J66.309816
G2 X55.035889 Y53.865288 I-0.829619 J-1.334718
G2 X55.041948 Y53.861464 I-0.835695 J-1.330922
G3 X55.149852 Y53.802311 I6.008845 J10.833003
G2 X55.25528 Y53.744596 I-6.539594 J-12.071004
G3 X55.262184 Y54.801891 I-1721.131528 J11.767879
G3 X55.266286 Y56.120343 I-211.8668 J1.318452
G1 X55.266286 Y60.274851
G1 X52.417055 Y62.200792
G2 X35.229634 Y77.784172 I45.836004 J67.824014
G2 X26.519314 Y93.559887 I37.187423 J30.824959
G2 X26.146294 Y111.934316 I29.881218 J9.79762
G2 X36.029991 Y127.052836 I29.141911 J-8.261474
G2 X49.034031 Y134.124916 I24.796525 J-30.103635
G2 X63.701542 Y135.828197 I11.725032 J-36.96307
G2 X75.631545 Y133.06641 I-3.077804 J-40.442796
G2 X85.638252 Y127.078744 I-13.525901 J-33.960299
G2 X90.25333 Y122.184523 I-18.8167 J-22.366521
G2 X94.86009 Y114.757994 I-41.019928 J-30.587202
G2 X96.780413 Y109.580069 I-21.536725 J-10.932325
G2 X97.41056 Y104.366487 I-21.252475 J-5.213583
G1 X97.41056 Y101.012332
G2 X96.950267 Y99.901099 I-1.571541 J0.000014
G2 X95.839034 Y99.440806 I-1.111247 J1.111247
G1 X92.246768 Y99.440806
G1 X90.226029 Y99.440806
G1 X90.226029 Y97.522598
G1 X90.226029 Y95.604361
G1 X92.246768 Y95.604361
G1 X95.839034 Y95.604361
G2 X96.950267 Y95.144068 I-0.000014 J-1.571541
G2 X97.41056 Y94.032835 I-1.111247 J-1.111247
G1 X97.41056 Y72.889875
G1 X97.41056 Y53.31844
G1 X100.252086 Y53.31844
G1 X103.094149 Y53.31844
G1 X103.094149 Y72.889875
G1 X103.094149 Y94.032835
G2 X103.554433 Y95.144058 I1.571541 J-0.000014
G2 X104.665647 Y95.604361 I1.111257 J-1.111237
G1 X108.360444 Y95.604361
G1 X110.483743 Y95.604361
G1 X110.483743 Y97.522598
G1 X110.483743 Y99.440806
G1 X108.360444 Y99.440806
G1 X104.665647 Y99.440806
G2 X104.063366 Y99.560812 I0.000038 J1.571541
G2 X103.553063 Y99.902475 I0.602318 J1.451535
G2 X103.212664 Y100.413623 I1.112622 J1.109871
G2 X103.094149 Y101.016198 I1.453021 J0.598724
G1 X103.10064 Y103.633358
G2 X103.400997 Y108.230658 I36.699944 J-0.089267
G2 X104.106057 Y111.309041 I16.153701 J-2.079842
G2 X106.179689 Y116.279364 I35.012863 J-11.689736
G2 X108.960618 Y120.909535 I33.220047 J-16.802091
G2 X112.591207 Y125.246204 I27.704489 J-19.505686
G2 X116.795587 Y128.805154 I22.32215 J-22.107453
G2 X124.171 Y132.847802 I21.456055 J-30.395277
G2 X132.718 Y135.324374 I15.90124 J-38.890681
G2 X139.475269 Y135.931295 I6.881413 J-38.695423
G2 X145.948268 Y135.33651 I0.108468 J-34.339533
G2 X154.396959 Y132.866346 I-8.334741 J-44.190872
G2 X161.714669 Y128.981543 I-14.67156 J-36.470963
G2 X173.178065 Y114.805639 I-17.411256 J-25.802584
G2 X174.842406 Y96.403079 I-29.711581 J-11.96368
G2 X170.247258 Y84.901023 I-34.325166 J7.044208
G2 X159.064433 Y70.837159 I-66.995719 J41.793457
G2 X152.544034 Y65.088429 I-49.25105 J49.28997
G2 X145.621934 Y60.403206 I-39.368013 J50.707495
G1 X145.621934 Y60.403206
G1 X145.444445 Y60.298473
G1 X145.444445 Y56.159967
G1 X145.444445 Y53.832734
G3 X148.522513 Y55.706413 I-86.412889 J145.423657
G3 X151.711754 Y57.785482 I-49.726356 J79.764677
G3 X166.722781 Y70.824723 I-47.843691 J70.238696
G3 X176.191795 Y84.644572 I-45.158207 J41.095162
G3 X179.500825 Y92.782081 I-51.172038 J25.550103
G3 X180.912385 Y99.331134 I-32.925836 J10.523366
G3 X181.151454 Y105.615076 I-40.491355 J4.686988
G3 X180.521027 Y110.639327 I-29.578212 J-1.159699
G3 X165.949688 Y133.13276 I-36.77375 J-7.855785
G3 X138.395521 Y141.720687 I-26.3352 J-35.998466
G1 X138.395634 Y141.721223
G4 F0 
M51 
G1 F4000
G1 X54.262021 Y52.812443
G4 F0 
M50 H1500
G4 F0
G1 F4000.000000
G2 X47.445296 Y57.040853 I39.827205 J71.815357
G2 X40.513594 Y62.300698 I54.881315 J79.522897
G2 X35.034251 Y67.341611 I48.045895 J57.723067
G2 X30.283377 Y72.694689 I49.456991 J48.677987
G2 X21.26166 Y87.337055 I55.162763 J44.088361
G2 X18.040884 Y99.380042 I33.722537 J15.470931
G2 X25.480953 Y125.931392 I38.385854 J3.561815
G2 X49.831104 Y142.172214 I34.867796 J-25.903187
G2 X55.263849 Y143.158272 I10.287883 J-41.222657
G2 X61.348706 Y143.497078 I5.915175 J-51.42428
G2 X66.361089 Y143.30922 I-0.245507 J-73.51426
G2 X69.179639 Y142.93523 I-1.686216 J-23.515928
G2 X78.446213 Y140.187417 I-9.629482 J-49.472889
G2 X86.303614 Y136.010117 I-16.017204 J-39.606418
G2 X93.738567 Y129.687889 I-24.46013 J-36.298033
G2 X99.140182 Y122.351662 I-27.792686 J-26.120269
G1 X100.239974 Y120.408139
G1 X100.654445 Y121.154701
G2 X114.510478 Y136.132883 I37.56661 J-20.854091
G2 X134.129896 Y143.305759 I24.851711 J-37.556797
G2 X165.444974 Y135.765437 I5.416307 J-46.302155
G2 X182.053093 Y111.285841 I-21.844588 J-32.694072
G2 X182.724251 Y105.848169 I-30.604308 J-6.537664
G2 X182.468694 Y99.46883 I-42.466287 J-1.493585
G2 X180.981143 Y92.58236 I-35.944405 J4.160478
G2 X177.592994 Y84.261031 I-56.034193 J17.964693
G2 X167.864955 Y70.067774 I-56.047525 J27.984478
G2 X152.592141 Y56.805211 I-64.007391 J58.284041
G2 X147.311354 Y53.36495 I-86.295069 J126.689481
G2 X144.479917 Y51.754872 I-21.630781 J34.744589
G1 X143.868115 Y51.438473
G1 X143.868115 Y56.477974
G1 X143.868115 Y61.517447
G1 X144.823184 Y62.076924
G3 X151.573384 Y66.645568 I-31.652165 J54.037324
G3 X157.949227 Y72.266586 I-41.762856 J53.797556
G3 X168.981659 Y86.184091 I-54.453898 J54.497174
G3 X173.298447 Y97.036554 I-28.32309 J17.550863
G3 X171.715401 Y114.537035 I-29.836447 J6.122916
G3 X160.8308 Y127.996756 I-27.417293 J-11.040867
G3 X153.820095 Y131.720577 I-21.113735 J-31.288763
G3 X145.652748 Y134.110451 I-16.206652 J-40.235095
G3 X139.547634 Y134.677369 I-6.064776 J-32.155018
G3 X132.988674 Y134.094647 I0.046508 J-37.727781
G3 X124.752954 Y131.707482 I7.080615 J-39.828334
G3 X117.697338 Y127.839304 I13.487072 J-32.969489
G3 X113.720354 Y124.475677 I17.213464 J-24.385243
G3 X110.2408 Y120.322936 I22.928043 J-22.745368
G3 X107.575986 Y115.885556 I29.152762 J-20.526191
G3 X105.591838 Y111.129067 I31.544456 J-15.950706
G3 X104.954846 Y108.347603 I13.954744 J-4.659492
G3 X104.667504 Y103.94716 I34.848279 J-4.485144
G1 X104.661013 Y101.329916
G1 X108.355923 Y101.329916
G1 X112.050805 Y101.329916
G1 X112.050805 Y97.840294
G1 X112.050805 Y94.350645
G1 X108.355923 Y94.350645
G1 X104.661013 Y94.350645
G1 X104.661013 Y73.207656
G1 X104.661013 Y52.064611
G1 X100.24765 Y52.064611
G1 X95.834287 Y52.064611
G1 X95.834287 Y73.207656
G1 X95.834287 Y94.350645
G1 X92.24205 Y94.350645
G1 X88.649756 Y94.350645
G1 X88.649756 Y97.840294
G1 X88.649756 Y101.329916
G1 X92.24205 Y101.329916
G1 X95.834287 Y101.329916
G1 X95.834287 Y104.684071
G3 X95.246675 Y109.535349 I-20.319704 J0.
G3 X93.454222 Y114.364688 I-21.92556 J-5.390559
G3 X88.974345 Y121.581912 I-44.196621 J-22.434754
G3 X84.62236 Y126.1944 I-22.135839 J-16.526315
G3 X75.051824 Y131.921718 I-22.514415 J-26.762322
G3 X63.577528 Y134.578601 I-14.433557 J-36.228791
G3 X49.505309 Y132.944996 I-2.823628 J-37.104002
G3 X37.023831 Y126.157739 I11.31354 J-35.675205
G3 X27.654432 Y111.827412 I18.25767 J-22.165254
G3 X28.008053 Y94.366873 I28.744087 J-8.15171
G3 X36.408937 Y79.13877 I44.378935 J14.55121
G3 X53.291657 Y63.820352 I61.814507 J51.164349
G1 X56.832614 Y61.42722
G1 X56.832614 Y56.438011
G2 X56.804579 Y51.476613 I-439.02772 J-0.
G1 X56.77648 Y51.44883 
G1 X56.723801 Y51.462192 
G2 X54.26188 Y52.812218 I140.112047 J258.429601
G1 X54.262021 Y52.812443
G4 F0 
M51 
G1 F4000

G1 X0 Y0
M55
M30
